assets/presets/luts/archive-neg/lut.cube
TITLE "Archive Neg"
LUT_3D_SIZE 5
0.052592 0.047531 0.035769
0.257819 0.059141 0.047379
0.463046 0.070751 0.058989
0.668273 0.082361 0.070599
0.873500 0.093971 0.082209
0.091215 0.277623 0.074393
0.296442 0.289233 0.086003
0.501669 0.300843 0.097613
0.706896 0.312453 0.109223
0.912123 0.324063 0.120833
0.129839 0.507715 0.113016
0.335066 0.519325 0.124626
0.540293 0.530935 0.136236
0.745520 0.542545 0.147846
0.950747 0.554155 0.159457
0.168463 0.737807 0.151640
0.373690 0.749417 0.163250
0.578917 0.761028 0.174860
0.784144 0.772638 0.186470
0.989370 0.784248 0.198080
0.207086 0.967900 0.190264
0.412313 0.979510 0.201874
0.617540 0.991120 0.213484
0.822767 1.000000 0.225094
1.000000 1.000000 0.236704
0.056480 0.051419 0.230575
0.261707 0.063029 0.242185
0.466934 0.074639 0.253795
0.672160 0.086249 0.265405
0.877387 0.097859 0.277015
0.095103 0.281511 0.269199
0.300330 0.293121 0.280809
0.505557 0.304731 0.292419
0.710784 0.316341 0.304029
0.916011 0.327951 0.315639
0.133727 0.511603 0.307822
0.338954 0.523213 0.319432
0.544181 0.534823 0.331043
0.749408 0.546433 0.342653
0.954635 0.558043 0.354263
0.172351 0.741695 0.346446
0.377577 0.753305 0.358056
0.582804 0.764915 0.369666
0.788031 0.776525 0.381276
0.993258 0.788136 0.392886
0.210974 0.971788 0.385070
0.416201 0.983398 0.396680
0.621428 0.995008 0.408290
0.826655 1.000000 0.419900
1.000000 1.000000 0.431510
0.060368 0.055306 0.425381
0.265594 0.066917 0.436991
0.470821 0.078527 0.448601
0.676048 0.090137 0.460212
0.881275 0.101747 0.471822
0.098991 0.285399 0.464005
0.304218 0.297009 0.475615
0.509445 0.308619 0.487225
0.714672 0.320229 0.498835
0.919899 0.331839 0.510445
0.137615 0.515491 0.502629
0.342842 0.527101 0.514239
0.548069 0.538711 0.525849
0.753296 0.550321 0.537459
0.958523 0.561931 0.549069
0.176238 0.745583 0.541252
0.381465 0.757193 0.552862
0.586692 0.768803 0.564472
0.791919 0.780413 0.576082
0.997146 0.792023 0.587692
0.214862 0.975675 0.579876
0.420089 0.987285 0.591486
0.625316 0.998896 0.603096
0.830543 1.000000 0.614706
1.000000 1.000000 0.626316
0.064255 0.059194 0.620188
0.269482 0.070804 0.631798
0.474709 0.082414 0.643408
0.679936 0.094025 0.655018
0.885163 0.105635 0.666628
0.102879 0.289287 0.658811
0.308106 0.300897 0.670421
0.513333 0.312507 0.682031
0.718560 0.324117 0.693641
0.923787 0.335727 0.705251
0.141503 0.519379 0.697435
0.346730 0.530989 0.709045
0.551957 0.542599 0.720655
0.757183 0.554209 0.732265
0.962410 0.565819 0.743875
0.180126 0.749471 0.736058
0.385353 0.761081 0.747669
0.590580 0.772691 0.759279
0.795807 0.784301 0.770889
1.000000 0.795911 0.782499
0.218750 0.979563 0.774682
0.423977 0.991173 0.786292
0.629204 1.000000 0.797902
0.834431 1.000000 0.809512
1.000000 1.000000 0.821122
0.068143 0.063082 0.814994
0.273370 0.074692 0.826604
0.478597 0.086302 0.838214
0.683824 0.097912 0.849824
0.889051 0.109522 0.861434
0.106767 0.293174 0.853617
0.311994 0.304785 0.865227
0.517221 0.316395 0.876837
0.722448 0.328005 0.888448
0.927675 0.339615 0.900058
0.145391 0.523267 0.892241
0.350617 0.534877 0.903851
0.555844 0.546487 0.915461
0.761071 0.558097 0.927071
0.966298 0.569707 0.938681
0.184014 0.753359 0.930865
0.389241 0.764969 0.942475
0.594468 0.776579 0.954085
0.799695 0.788189 0.965695
1.000000 0.799799 0.977305
0.222638 0.983451 0.969488
0.427865 0.995061 0.981098
0.633092 1.000000 0.992708
0.838319 1.000000 1.000000
1.000000 1.000000 1.000000
