assets/presets/luts/archive-neg/lut.cube
TITLE "Archive Neg"
LUT_3D_SIZE 9
0.052592 0.047531 0.035769
0.155205 0.053336 0.041574
0.257819 0.059141 0.047379
0.360432 0.064946 0.053184
0.463046 0.070751 0.058989
0.565659 0.076556 0.064794
0.668273 0.082361 0.070599
0.770886 0.088166 0.076404
0.873500 0.093971 0.082209
0.071904 0.162577 0.055081
0.174517 0.168382 0.060886
0.277131 0.174187 0.066691
0.379744 0.179992 0.072496
0.482357 0.185797 0.078301
0.584971 0.191602 0.084106
0.687584 0.197407 0.089911
0.790198 0.203212 0.095716
0.892811 0.209017 0.101521
0.091215 0.277623 0.074393
0.193829 0.283428 0.080198
0.296442 0.289233 0.086003
0.399056 0.295038 0.091808
0.501669 0.300843 0.097613
0.604283 0.306648 0.103418
0.706896 0.312453 0.109223
0.809510 0.318258 0.115028
0.912123 0.324063 0.120833
0.110527 0.392669 0.093704
0.213141 0.398474 0.099509
0.315754 0.404279 0.105314
0.418368 0.410084 0.111120
0.520981 0.415889 0.116925
0.623595 0.421694 0.122730
0.726208 0.427499 0.128535
0.828822 0.433304 0.134340
0.931435 0.439109 0.140145
0.129839 0.507715 0.113016
0.232452 0.513520 0.118821
0.335066 0.519325 0.124626
0.437679 0.525130 0.130431
0.540293 0.530935 0.136236
0.642906 0.536740 0.142041
0.745520 0.542545 0.147846
0.848133 0.548350 0.153651
0.950747 0.554155 0.159457
0.149151 0.622761 0.132328
0.251764 0.628566 0.138133
0.354378 0.634371 0.143938
0.456991 0.640176 0.149743
0.559605 0.645981 0.155548
0.662218 0.651786 0.161353
0.764832 0.657591 0.167158
0.867445 0.663396 0.172963
0.970059 0.669202 0.178768
0.168463 0.737807 0.151640
0.271076 0.743612 0.157445
0.373690 0.749417 0.163250
0.476303 0.755222 0.169055
0.578917 0.761028 0.174860
0.681530 0.766833 0.180665
0.784144 0.772638 0.186470
0.886757 0.778443 0.192275
0.989370 0.784248 0.198080
0.187774 0.852854 0.170952
0.290388 0.858659 0.176757
0.393001 0.864464 0.182562
0.495615 0.870269 0.188367
0.598228 0.876074 0.194172
0.700842 0.881879 0.199977
0.803455 0.887684 0.205782
0.906069 0.893489 0.211587
1.000000 0.899294 0.217392
0.207086 0.967900 0.190264
0.309700 0.973705 0.196069
0.412313 0.979510 0.201874
0.514927 0.985315 0.207679
0.617540 0.991120 0.213484
0.720154 0.996925 0.219289
0.822767 1.000000 0.225094
0.925381 1.000000 0.230899
1.000000 1.000000 0.236704
0.054536 0.049475 0.133172
0.157149 0.055280 0.138977
0.259763 0.061085 0.144782
0.362376 0.066890 0.150587
0.464990 0.072695 0.156392
0.567603 0.078500 0.162197
0.670217 0.084305 0.168002
0.772830 0.090110 0.173807
0.875443 0.095915 0.179612
0.073848 0.164521 0.152484
0.176461 0.170326 0.158289
0.279074 0.176131 0.164094
0.381688 0.181936 0.169899
0.484301 0.187741 0.175704
0.586915 0.193546 0.181509
0.689528 0.199351 0.187314
0.792142 0.205156 0.193119
0.894755 0.210961 0.198924
0.093159 0.279567 0.171796
0.195773 0.285372 0.177601
0.298386 0.291177 0.183406
0.401000 0.296982 0.189211
0.503613 0.302787 0.195016
0.606227 0.308592 0.200821
0.708840 0.314397 0.206626
0.811454 0.320202 0.212431
0.914067 0.326007 0.218236
0.112471 0.394613 0.191108
0.215085 0.400418 0.196913
0.317698 0.406223 0.202718
0.420312 0.412028 0.208523
0.522925 0.417833 0.214328
0.625539 0.423638 0.220133
0.728152 0.429443 0.225938
0.830765 0.435248 0.231743
0.933379 0.441053 0.237548
0.131783 0.509659 0.210419
0.234396 0.515464 0.216224
0.337010 0.521269 0.222029
0.439623 0.527074 0.227834
0.542237 0.532879 0.233639
0.644850 0.538684 0.239445
0.747464 0.544489 0.245250
0.850077 0.550294 0.251055
0.952691 0.556099 0.256860
0.151095 0.624705 0.229731
0.253708 0.630510 0.235536
0.356322 0.636315 0.241341
0.458935 0.642120 0.247146
0.561549 0.647925 0.252951
0.664162 0.653730 0.258756
0.766776 0.659535 0.264561
0.869389 0.665340 0.270366
0.972003 0.671145 0.276171
0.170407 0.739751 0.249043
0.273020 0.745556 0.254848
0.375634 0.751361 0.260653
0.478247 0.757166 0.266458
0.580860 0.762971 0.272263
0.683474 0.768776 0.278068
0.786087 0.774582 0.283873
0.888701 0.780387 0.289678
0.991314 0.786192 0.295483
0.189718 0.854797 0.268355
0.292332 0.860602 0.274160
0.394945 0.866408 0.279965
0.497559 0.872213 0.285770
0.600172 0.878018 0.291575
0.702786 0.883823 0.297380
0.805399 0.889628 0.303185
0.908013 0.895433 0.308990
1.000000 0.901238 0.314795
0.209030 0.969844 0.287667
0.311644 0.975649 0.293472
0.414257 0.981454 0.299277
0.516871 0.987259 0.305082
0.619484 0.993064 0.310887
0.722098 0.998869 0.316692
0.824711 1.000000 0.322497
0.927325 1.000000 0.328302
1.000000 1.000000 0.334107
0.056480 0.051419 0.230575
0.159093 0.057224 0.236380
0.261707 0.063029 0.242185
0.364320 0.068834 0.247990
0.466934 0.074639 0.253795
0.569547 0.080444 0.259600
0.672160 0.086249 0.265405
0.774774 0.092054 0.271210
0.877387 0.097859 0.277015
0.075791 0.166465 0.249887
0.178405 0.172270 0.255692
0.281018 0.178075 0.261497
0.383632 0.183880 0.267302
0.486245 0.189685 0.273107
0.588859 0.195490 0.278912
0.691472 0.201295 0.284717
0.794086 0.207100 0.290522
0.896699 0.212905 0.296327
0.095103 0.281511 0.269199
0.197717 0.287316 0.275004
0.300330 0.293121 0.280809
0.402944 0.298926 0.286614
0.505557 0.304731 0.292419
0.608171 0.310536 0.298224
0.710784 0.316341 0.304029
0.813398 0.322146 0.309834
0.916011 0.327951 0.315639
0.114415 0.396557 0.288511
0.217029 0.402362 0.294316
0.319642 0.408167 0.300121
0.422255 0.413972 0.305926
0.524869 0.419777 0.311731
0.627482 0.425582 0.317536
0.730096 0.431387 0.323341
0.832709 0.437192 0.329146
0.935323 0.442997 0.334951
0.133727 0.511603 0.307822
0.236340 0.517408 0.313627
0.338954 0.523213 0.319432
0.441567 0.529018 0.325238
0.544181 0.534823 0.331043
0.646794 0.540628 0.336848
0.749408 0.546433 0.342653
0.852021 0.552238 0.348458
0.954635 0.558043 0.354263
0.153039 0.626649 0.327134
0.255652 0.632454 0.332939
0.358266 0.638259 0.338744
0.460879 0.644064 0.344549
0.563493 0.649869 0.350354
0.666106 0.655674 0.356159
0.768720 0.661479 0.361964
0.871333 0.667284 0.367769
0.973947 0.673089 0.373575
0.172351 0.741695 0.346446
0.274964 0.747500 0.352251
0.377577 0.753305 0.358056
0.480191 0.759110 0.363861
0.582804 0.764915 0.369666
0.685418 0.770720 0.375471
0.788031 0.776525 0.381276
0.890645 0.782331 0.387081
0.993258 0.788136 0.392886
0.191662 0.856741 0.365758
0.294276 0.862546 0.371563
0.396889 0.868351 0.377368
0.499503 0.874156 0.383173
0.602116 0.879961 0.388978
0.704730 0.885767 0.394783
0.807343 0.891572 0.400588
0.909957 0.897377 0.406393
1.000000 0.903182 0.412198
0.210974 0.971788 0.385070
0.313588 0.977593 0.390875
0.416201 0.983398 0.396680
0.518815 0.989203 0.402485
0.621428 0.995008 0.408290
0.724042 1.000000 0.414095
0.826655 1.000000 0.419900
0.929268 1.000000 0.425705
1.000000 1.000000 0.431510
0.058424 0.053363 0.327978
0.161037 0.059168 0.333783
0.263651 0.064973 0.339588
0.366264 0.070778 0.345393
0.468877 0.076583 0.351198
0.571491 0.082388 0.357003
0.674104 0.088193 0.362808
0.776718 0.093998 0.368613
0.879331 0.099803 0.374419
0.077735 0.168409 0.347290
0.180349 0.174214 0.353095
0.282962 0.180019 0.358900
0.385576 0.185824 0.364705
0.488189 0.191629 0.370510
0.590803 0.197434 0.376315
0.693416 0.203239 0.382120
0.796030 0.209044 0.387925
0.898643 0.214849 0.393730
0.097047 0.283455 0.366602
0.199661 0.289260 0.372407
0.302274 0.295065 0.378212
0.404888 0.300870 0.384017
0.507501 0.306675 0.389822
0.610115 0.312480 0.395627
0.712728 0.318285 0.401432
0.815342 0.324090 0.407237
0.917955 0.329895 0.413042
0.116359 0.398501 0.385914
0.218972 0.404306 0.391719
0.321586 0.410111 0.397524
0.424199 0.415916 0.403329
0.526813 0.421721 0.409134
0.629426 0.427526 0.414939
0.732040 0.433331 0.420744
0.834653 0.439136 0.426549
0.937267 0.444941 0.432354
0.135671 0.513547 0.405226
0.238284 0.519352 0.411031
0.340898 0.525157 0.416836
0.443511 0.530962 0.422641
0.546125 0.536767 0.428446
0.648738 0.542572 0.434251
0.751352 0.548377 0.440056
0.853965 0.554182 0.445861
0.956579 0.559987 0.451666
0.154983 0.628593 0.424537
0.257596 0.634398 0.430342
0.360210 0.640203 0.436147
0.462823 0.646008 0.441952
0.565437 0.651813 0.447757
0.668050 0.657618 0.453563
0.770663 0.663423 0.459368
0.873277 0.669228 0.465173
0.975890 0.675033 0.470978
0.174294 0.743639 0.443849
0.276908 0.749444 0.449654
0.379521 0.755249 0.455459
0.482135 0.761054 0.461264
0.584748 0.766859 0.467069
0.687362 0.772664 0.472874
0.789975 0.778469 0.478679
0.892589 0.784274 0.484484
0.995202 0.790079 0.490289
0.193606 0.858685 0.463161
0.296220 0.864490 0.468966
0.398833 0.870295 0.474771
0.501447 0.876100 0.480576
0.604060 0.881905 0.486381
0.706674 0.887711 0.492186
0.809287 0.893516 0.497991
0.911901 0.899321 0.503796
1.000000 0.905126 0.509601
0.212918 0.973731 0.482473
0.315532 0.979536 0.488278
0.418145 0.985341 0.494083
0.520759 0.991147 0.499888
0.623372 0.996952 0.505693
0.725985 1.000000 0.511498
0.828599 1.000000 0.517303
0.931212 1.000000 0.523108
1.000000 1.000000 0.528913
0.060368 0.055306 0.425381
0.162981 0.061112 0.431186
0.265594 0.066917 0.436991
0.368208 0.072722 0.442796
0.470821 0.078527 0.448601
0.573435 0.084332 0.454407
0.676048 0.090137 0.460212
0.778662 0.095942 0.466017
0.881275 0.101747 0.471822
0.079679 0.170353 0.444693
0.182293 0.176158 0.450498
0.284906 0.181963 0.456303
0.387520 0.187768 0.462108
0.490133 0.193573 0.467913
0.592747 0.199378 0.473718
0.695360 0.205183 0.479523
0.797974 0.210988 0.485328
0.900587 0.216793 0.491133
0.098991 0.285399 0.464005
0.201605 0.291204 0.469810
0.304218 0.297009 0.475615
0.406832 0.302814 0.481420
0.509445 0.308619 0.487225
0.612059 0.314424 0.493030
0.714672 0.320229 0.498835
0.817285 0.326034 0.504640
0.919899 0.331839 0.510445
0.118303 0.400445 0.483317
0.220916 0.406250 0.489122
0.323530 0.412055 0.494927
0.426143 0.417860 0.500732
0.528757 0.423665 0.506537
0.631370 0.429470 0.512342
0.733984 0.435275 0.518147
0.836597 0.441080 0.523952
0.939211 0.446885 0.529757
0.137615 0.515491 0.502629
0.240228 0.521296 0.508434
0.342842 0.527101 0.514239
0.445455 0.532906 0.520044
0.548069 0.538711 0.525849
0.650682 0.544516 0.531654
0.753296 0.550321 0.537459
0.855909 0.556126 0.543264
0.958523 0.561931 0.549069
0.156927 0.630537 0.521940
0.259540 0.636342 0.527745
0.362154 0.642147 0.533551
0.464767 0.647952 0.539356
0.567380 0.653757 0.545161
0.669994 0.659562 0.550966
0.772607 0.665367 0.556771
0.875221 0.671172 0.562576
0.977834 0.676977 0.568381
0.176238 0.745583 0.541252
0.278852 0.751388 0.547057
0.381465 0.757193 0.552862
0.484079 0.762998 0.558667
0.586692 0.768803 0.564472
0.689306 0.774608 0.570277
0.791919 0.780413 0.576082
0.894533 0.786218 0.581887
0.997146 0.792023 0.587692
0.195550 0.860629 0.560564
0.298164 0.866434 0.566369
0.400777 0.872239 0.572174
0.503391 0.878044 0.577979
0.606004 0.883849 0.583784
0.708618 0.889654 0.589589
0.811231 0.895459 0.595394
0.913845 0.901264 0.601199
1.000000 0.907070 0.607004
0.214862 0.975675 0.579876
0.317476 0.981480 0.585681
0.420089 0.987285 0.591486
0.522702 0.993090 0.597291
0.625316 0.998896 0.603096
0.727929 1.000000 0.608901
0.830543 1.000000 0.614706
0.933156 1.000000 0.620511
1.000000 1.000000 0.626316
0.062311 0.057250 0.522784
0.164925 0.063055 0.528589
0.267538 0.068860 0.534395
0.370152 0.074666 0.540200
0.472765 0.080471 0.546005
0.575379 0.086276 0.551810
0.677992 0.092081 0.557615
0.780606 0.097886 0.563420
0.883219 0.103691 0.569225
0.081623 0.172297 0.542096
0.184237 0.178102 0.547901
0.286850 0.183907 0.553706
0.389464 0.189712 0.559511
0.492077 0.195517 0.565316
0.594691 0.201322 0.571121
0.697304 0.207127 0.576926
0.799918 0.212932 0.582731
0.902531 0.218737 0.588537
0.100935 0.287343 0.561408
0.203549 0.293148 0.567213
0.306162 0.298953 0.573018
0.408776 0.304758 0.578823
0.511389 0.310563 0.584628
0.614002 0.316368 0.590433
0.716616 0.322173 0.596238
0.819229 0.327978 0.602043
0.921843 0.333783 0.607848
0.120247 0.402389 0.580720
0.222860 0.408194 0.586525
0.325474 0.413999 0.592330
0.428087 0.419804 0.598135
0.530701 0.425609 0.603940
0.633314 0.431414 0.609745
0.735928 0.437219 0.615550
0.838541 0.443024 0.621355
0.941155 0.448829 0.627160
0.139559 0.517435 0.600032
0.242172 0.523240 0.605837
0.344786 0.529045 0.611642
0.447399 0.534850 0.617447
0.550013 0.540655 0.623252
0.652626 0.546460 0.629057
0.755240 0.552265 0.634862
0.857853 0.558070 0.640667
0.960467 0.563875 0.646472
0.158871 0.632481 0.619344
0.261484 0.638286 0.625149
0.364097 0.644091 0.630954
0.466711 0.649896 0.636759
0.569324 0.655701 0.642564
0.671938 0.661506 0.648369
0.774551 0.667311 0.654174
0.877165 0.673116 0.659979
0.979778 0.678921 0.665784
0.178182 0.747527 0.638655
0.280796 0.753332 0.644460
0.383409 0.759137 0.650265
0.486023 0.764942 0.656070
0.588636 0.770747 0.661875
0.691250 0.776552 0.667681
0.793863 0.782357 0.673486
0.896477 0.788162 0.679291
0.999090 0.793967 0.685096
0.197494 0.862573 0.657967
0.300108 0.868378 0.663772
0.402721 0.874183 0.669577
0.505335 0.879988 0.675382
0.607948 0.885793 0.681187
0.710562 0.891598 0.686992
0.813175 0.897403 0.692797
0.915788 0.903208 0.698602
1.000000 0.909013 0.704407
0.216806 0.977619 0.677279
0.319419 0.983424 0.683084
0.422033 0.989229 0.688889
0.524646 0.995034 0.694694
0.627260 1.000000 0.700499
0.729873 1.000000 0.706304
0.832487 1.000000 0.712109
0.935100 1.000000 0.717914
1.000000 1.000000 0.723719
0.064255 0.059194 0.620188
0.166869 0.064999 0.625993
0.269482 0.070804 0.631798
0.372096 0.076609 0.637603
0.474709 0.082414 0.643408
0.577323 0.088220 0.649213
0.679936 0.094025 0.655018
0.782550 0.099830 0.660823
0.885163 0.105635 0.666628
0.083567 0.174240 0.639499
0.186181 0.180046 0.645304
0.288794 0.185851 0.651109
0.391408 0.191656 0.656914
0.494021 0.197461 0.662719
0.596635 0.203266 0.668525
0.699248 0.209071 0.674330
0.801862 0.214876 0.680135
0.904475 0.220681 0.685940
0.102879 0.289287 0.658811
0.205492 0.295092 0.664616
0.308106 0.300897 0.670421
0.410719 0.306702 0.676226
0.513333 0.312507 0.682031
0.615946 0.318312 0.687836
0.718560 0.324117 0.693641
0.821173 0.329922 0.699446
0.923787 0.335727 0.705251
0.122191 0.404333 0.678123
0.224804 0.410138 0.683928
0.327418 0.415943 0.689733
0.430031 0.421748 0.695538
0.532645 0.427553 0.701343
0.635258 0.433358 0.707148
0.737872 0.439163 0.712953
0.840485 0.444968 0.718758
0.943099 0.450773 0.724563
0.141503 0.519379 0.697435
0.244116 0.525184 0.703240
0.346730 0.530989 0.709045
0.449343 0.536794 0.714850
0.551957 0.542599 0.720655
0.654570 0.548404 0.726460
0.757183 0.554209 0.732265
0.859797 0.560014 0.738070
0.962410 0.565819 0.743875
0.160814 0.634425 0.716747
0.263428 0.640230 0.722552
0.366041 0.646035 0.728357
0.468655 0.651840 0.734162
0.571268 0.657645 0.739967
0.673882 0.663450 0.745772
0.776495 0.669255 0.751577
0.879109 0.675060 0.757382
0.981722 0.680865 0.763187
0.180126 0.749471 0.736058
0.282740 0.755276 0.741863
0.385353 0.761081 0.747669
0.487967 0.766886 0.753474
0.590580 0.772691 0.759279
0.693194 0.778496 0.765084
0.795807 0.784301 0.770889
0.898421 0.790106 0.776694
1.000000 0.795911 0.782499
0.199438 0.864517 0.755370
0.302052 0.870322 0.761175
0.404665 0.876127 0.766980
0.507279 0.881932 0.772785
0.609892 0.887737 0.778590
0.712505 0.893542 0.784395
0.815119 0.899347 0.790200
0.917732 0.905152 0.796005
1.000000 0.910957 0.801811
0.218750 0.979563 0.774682
0.321363 0.985368 0.780487
0.423977 0.991173 0.786292
0.526590 0.996978 0.792097
0.629204 1.000000 0.797902
0.731817 1.000000 0.803707
0.834431 1.000000 0.809512
0.937044 1.000000 0.815317
1.000000 1.000000 0.821122
0.066199 0.061138 0.717591
0.168813 0.066943 0.723396
0.271426 0.072748 0.729201
0.374040 0.078553 0.735006
0.476653 0.084358 0.740811
0.579267 0.090163 0.746616
0.681880 0.095968 0.752421
0.784494 0.101774 0.758226
0.887107 0.107579 0.764031
0.085511 0.176184 0.736902
0.188125 0.181989 0.742707
0.290738 0.187794 0.748513
0.393352 0.193600 0.754318
0.495965 0.199405 0.760123
0.598579 0.205210 0.765928
0.701192 0.211015 0.771733
0.803805 0.216820 0.777538
0.906419 0.222625 0.783343
0.104823 0.291231 0.756214
0.207436 0.297036 0.762019
0.310050 0.302841 0.767824
0.412663 0.308646 0.773629
0.515277 0.314451 0.779434
0.617890 0.320256 0.785239
0.720504 0.326061 0.791044
0.823117 0.331866 0.796849
0.925731 0.337671 0.802655
0.124135 0.406277 0.775526
0.226748 0.412082 0.781331
0.329362 0.417887 0.787136
0.431975 0.423692 0.792941
0.534589 0.429497 0.798746
0.637202 0.435302 0.804551
0.739816 0.441107 0.810356
0.842429 0.446912 0.816161
0.945043 0.452717 0.821966
0.143447 0.521323 0.794838
0.246060 0.527128 0.800643
0.348674 0.532933 0.806448
0.451287 0.538738 0.812253
0.553900 0.544543 0.818058
0.656514 0.550348 0.823863
0.759127 0.556153 0.829668
0.861741 0.561958 0.835473
0.964354 0.567763 0.841278
0.162758 0.636369 0.814150
0.265372 0.642174 0.819955
0.367985 0.647979 0.825760
0.470599 0.653784 0.831565
0.573212 0.659589 0.837370
0.675826 0.665394 0.843175
0.778439 0.671199 0.848980
0.881053 0.677004 0.854785
0.983666 0.682809 0.860590
0.182070 0.751415 0.833462
0.284684 0.757220 0.839267
0.387297 0.763025 0.845072
0.489911 0.768830 0.850877
0.592524 0.774635 0.856682
0.695138 0.780440 0.862487
0.797751 0.786245 0.868292
0.900365 0.792050 0.874097
1.000000 0.797855 0.879902
0.201382 0.866461 0.852773
0.303996 0.872266 0.858578
0.406609 0.878071 0.864383
0.509222 0.883876 0.870188
0.611836 0.889681 0.875993
0.714449 0.895486 0.881799
0.817063 0.901291 0.887604
0.919676 0.907096 0.893409
1.000000 0.912901 0.899214
0.220694 0.981507 0.872085
0.323307 0.987312 0.877890
0.425921 0.993117 0.883695
0.528534 0.998922 0.889500
0.631148 1.000000 0.895305
0.733761 1.000000 0.901110
0.836375 1.000000 0.906915
0.938988 1.000000 0.912720
1.000000 1.000000 0.918525
0.068143 0.063082 0.814994
0.170757 0.068887 0.820799
0.273370 0.074692 0.826604
0.375984 0.080497 0.832409
0.478597 0.086302 0.838214
0.581211 0.092107 0.844019
0.683824 0.097912 0.849824
0.786438 0.103717 0.855629
0.889051 0.109522 0.861434
0.087455 0.178128 0.834306
0.190069 0.183933 0.840111
0.292682 0.189738 0.845916
0.395296 0.195543 0.851721
0.497909 0.201348 0.857526
0.600522 0.207153 0.863331
0.703136 0.212959 0.869136
0.805749 0.218764 0.874941
0.908363 0.224569 0.880746
0.106767 0.293174 0.853617
0.209380 0.298979 0.859422
0.311994 0.304785 0.865227
0.414607 0.310590 0.871032
0.517221 0.316395 0.876837
0.619834 0.322200 0.882643
0.722448 0.328005 0.888448
0.825061 0.333810 0.894253
0.927675 0.339615 0.900058
0.126079 0.408221 0.872929
0.228692 0.414026 0.878734
0.331306 0.419831 0.884539
0.433919 0.425636 0.890344
0.536533 0.431441 0.896149
0.639146 0.437246 0.901954
0.741760 0.443051 0.907759
0.844373 0.448856 0.913564
0.946986 0.454661 0.919369
0.145391 0.523267 0.892241
0.248004 0.529072 0.898046
0.350617 0.534877 0.903851
0.453231 0.540682 0.909656
0.555844 0.546487 0.915461
0.658458 0.552292 0.921266
0.761071 0.558097 0.927071
0.863685 0.563902 0.932876
0.966298 0.569707 0.938681
0.164702 0.638313 0.911553
0.267316 0.644118 0.917358
0.369929 0.649923 0.923163
0.472543 0.655728 0.928968
0.575156 0.661533 0.934773
0.677770 0.667338 0.940578
0.780383 0.673143 0.946383
0.882997 0.678948 0.952188
0.985610 0.684753 0.957993
0.184014 0.753359 0.930865
0.286628 0.759164 0.936670
0.389241 0.764969 0.942475
0.491855 0.770774 0.948280
0.594468 0.776579 0.954085
0.697082 0.782384 0.959890
0.799695 0.788189 0.965695
0.902308 0.793994 0.971500
1.000000 0.799799 0.977305
0.203326 0.868405 0.950176
0.305939 0.874210 0.955981
0.408553 0.880015 0.961787
0.511166 0.885820 0.967592
0.613780 0.891625 0.973397
0.716393 0.897430 0.979202
0.819007 0.903235 0.985007
0.921620 0.909040 0.990812
1.000000 0.914845 0.996617
0.222638 0.983451 0.969488
0.325251 0.989256 0.975293
0.427865 0.995061 0.981098
0.530478 1.000000 0.986903
0.633092 1.000000 0.992708
0.735705 1.000000 0.998513
0.838319 1.000000 1.000000
0.940932 1.000000 1.000000
1.000000 1.000000 1.000000
