assets/presets/luts/archive-neg/lut.cube
TITLE "Archive Neg"
LUT_3D_SIZE 17
0.052592 0.047531 0.035769
0.103898 0.050433 0.038671
0.155205 0.053336 0.041574
0.206512 0.056238 0.044477
0.257819 0.059141 0.047379
0.309125 0.062043 0.050282
0.360432 0.064946 0.053184
0.411739 0.067848 0.056087
0.463046 0.070751 0.058989
0.514352 0.073653 0.061892
0.565659 0.076556 0.064794
0.616966 0.079458 0.067697
0.668273 0.082361 0.070599
0.719579 0.085263 0.073502
0.770886 0.088166 0.076404
0.822193 0.091068 0.079307
0.873500 0.093971 0.082209
0.062248 0.105054 0.045425
0.113554 0.107956 0.048327
0.164861 0.110859 0.051230
0.216168 0.113761 0.054132
0.267475 0.116664 0.057035
0.318781 0.119566 0.059937
0.370088 0.122469 0.062840
0.421395 0.125371 0.065743
0.472702 0.128274 0.068645
0.524008 0.131176 0.071548
0.575315 0.134079 0.074450
0.626622 0.136981 0.077353
0.677929 0.139884 0.080255
0.729235 0.142786 0.083158
0.780542 0.145689 0.086060
0.831849 0.148592 0.088963
0.883155 0.151494 0.091865
0.071904 0.162577 0.055081
0.123210 0.165479 0.057983
0.174517 0.168382 0.060886
0.225824 0.171284 0.063788
0.277131 0.174187 0.066691
0.328437 0.177089 0.069593
0.379744 0.179992 0.072496
0.431051 0.182894 0.075398
0.482357 0.185797 0.078301
0.533664 0.188699 0.081203
0.584971 0.191602 0.084106
0.636278 0.194504 0.087008
0.687584 0.197407 0.089911
0.738891 0.200310 0.092814
0.790198 0.203212 0.095716
0.841505 0.206115 0.098619
0.892811 0.209017 0.101521
0.081559 0.220100 0.064737
0.132866 0.223002 0.067639
0.184173 0.225905 0.070542
0.235480 0.228807 0.073444
0.286786 0.231710 0.076347
0.338093 0.234612 0.079249
0.389400 0.237515 0.082152
0.440707 0.240417 0.085054
0.492013 0.243320 0.087957
0.543320 0.246223 0.090859
0.594627 0.249125 0.093762
0.645934 0.252028 0.096664
0.697240 0.254930 0.099567
0.748547 0.257833 0.102469
0.799854 0.260735 0.105372
0.851161 0.263638 0.108274
0.902467 0.266540 0.111177
0.091215 0.277623 0.074393
0.142522 0.280525 0.077295
0.193829 0.283428 0.080198
0.245136 0.286330 0.083100
0.296442 0.289233 0.086003
0.347749 0.292136 0.088905
0.399056 0.295038 0.091808
0.450363 0.297941 0.094710
0.501669 0.300843 0.097613
0.552976 0.303746 0.100515
0.604283 0.306648 0.103418
0.655589 0.309551 0.106320
0.706896 0.312453 0.109223
0.758203 0.315356 0.112125
0.809510 0.318258 0.115028
0.860816 0.321161 0.117930
0.912123 0.324063 0.120833
0.100871 0.335146 0.084049
0.152178 0.338049 0.086951
0.203485 0.340951 0.089854
0.254791 0.343854 0.092756
0.306098 0.346756 0.095659
0.357405 0.349659 0.098561
0.408712 0.352561 0.101464
0.460018 0.355464 0.104366
0.511325 0.358366 0.107269
0.562632 0.361269 0.110171
0.613939 0.364171 0.113074
0.665245 0.367074 0.115976
0.716552 0.369976 0.118879
0.767859 0.372879 0.121781
0.819166 0.375781 0.124684
0.870472 0.378684 0.127586
0.921779 0.381586 0.130489
0.110527 0.392669 0.093704
0.161834 0.395572 0.096607
0.213141 0.398474 0.099509
0.264447 0.401377 0.102412
0.315754 0.404279 0.105314
0.367061 0.407182 0.108217
0.418368 0.410084 0.111120
0.469674 0.412987 0.114022
0.520981 0.415889 0.116925
0.572288 0.418792 0.119827
0.623595 0.421694 0.122730
0.674901 0.424597 0.125632
0.726208 0.427499 0.128535
0.777515 0.430402 0.131437
0.828822 0.433304 0.134340
0.880128 0.436207 0.137242
0.931435 0.439109 0.140145
0.120183 0.450192 0.103360
0.171490 0.453095 0.106263
0.222797 0.455997 0.109165
0.274103 0.458900 0.112068
0.325410 0.461802 0.114970
0.376717 0.464705 0.117873
0.428024 0.467607 0.120775
0.479330 0.470510 0.123678
0.530637 0.473412 0.126580
0.581944 0.476315 0.129483
0.633250 0.479217 0.132385
0.684557 0.482120 0.135288
0.735864 0.485022 0.138191
0.787171 0.487925 0.141093
0.838477 0.490827 0.143996
0.889784 0.493730 0.146898
0.941091 0.496632 0.149801
0.129839 0.507715 0.113016
0.181146 0.510618 0.115919
0.232452 0.513520 0.118821
0.283759 0.516423 0.121724
0.335066 0.519325 0.124626
0.386373 0.522228 0.127529
0.437679 0.525130 0.130431
0.488986 0.528033 0.133334
0.540293 0.530935 0.136236
0.591600 0.533838 0.139139
0.642906 0.536740 0.142041
0.694213 0.539643 0.144944
0.745520 0.542545 0.147846
0.796827 0.545448 0.150749
0.848133 0.548350 0.153651
0.899440 0.551253 0.156554
0.950747 0.554155 0.159457
0.139495 0.565238 0.122672
0.190802 0.568141 0.125575
0.242108 0.571043 0.128477
0.293415 0.573946 0.131380
0.344722 0.576848 0.134282
0.396029 0.579751 0.137185
0.447335 0.582653 0.140087
0.498642 0.585556 0.142990
0.549949 0.588458 0.145892
0.601256 0.591361 0.148795
0.652562 0.594263 0.151697
0.703869 0.597166 0.154600
0.755176 0.600068 0.157502
0.806482 0.602971 0.160405
0.857789 0.605873 0.163307
0.909096 0.608776 0.166210
0.960403 0.611678 0.169112
0.149151 0.622761 0.132328
0.200458 0.625664 0.135231
0.251764 0.628566 0.138133
0.303071 0.631469 0.141036
0.354378 0.634371 0.143938
0.405685 0.637274 0.146841
0.456991 0.640176 0.149743
0.508298 0.643079 0.152646
0.559605 0.645981 0.155548
0.610911 0.648884 0.158451
0.662218 0.651786 0.161353
0.713525 0.654689 0.164256
0.764832 0.657591 0.167158
0.816138 0.660494 0.170061
0.867445 0.663396 0.172963
0.918752 0.666299 0.175866
0.970059 0.669202 0.178768
0.158807 0.680284 0.141984
0.210113 0.683187 0.144886
0.261420 0.686089 0.147789
0.312727 0.688992 0.150692
0.364034 0.691894 0.153594
0.415340 0.694797 0.156497
0.466647 0.697699 0.159399
0.517954 0.700602 0.162302
0.569261 0.703504 0.165204
0.620567 0.706407 0.168107
0.671874 0.709310 0.171009
0.723181 0.712212 0.173912
0.774488 0.715115 0.176814
0.825794 0.718017 0.179717
0.877101 0.720920 0.182619
0.928408 0.723822 0.185522
0.979715 0.726725 0.188424
0.168463 0.737807 0.151640
0.219769 0.740710 0.154542
0.271076 0.743612 0.157445
0.322383 0.746515 0.160347
0.373690 0.749417 0.163250
0.424996 0.752320 0.166152
0.476303 0.755222 0.169055
0.527610 0.758125 0.171957
0.578917 0.761028 0.174860
0.630223 0.763930 0.177763
0.681530 0.766833 0.180665
0.732837 0.769735 0.183568
0.784144 0.772638 0.186470
0.835450 0.775540 0.189373
0.886757 0.778443 0.192275
0.938064 0.781345 0.195178
0.989370 0.784248 0.198080
0.178119 0.795330 0.161296
0.229425 0.798233 0.164198
0.280732 0.801135 0.167101
0.332039 0.804038 0.170003
0.383346 0.806940 0.172906
0.434652 0.809843 0.175808
0.485959 0.812746 0.178711
0.537266 0.815648 0.181613
0.588572 0.818551 0.184516
0.639879 0.821453 0.187418
0.691186 0.824356 0.190321
0.742493 0.827258 0.193223
0.793799 0.830161 0.196126
0.845106 0.833063 0.199028
0.896413 0.835966 0.201931
0.947720 0.838868 0.204834
0.999026 0.841771 0.207736
0.187774 0.852854 0.170952
0.239081 0.855756 0.173854
0.290388 0.858659 0.176757
0.341695 0.861561 0.179659
0.393001 0.864464 0.182562
0.444308 0.867366 0.185464
0.495615 0.870269 0.188367
0.546922 0.873171 0.191269
0.598228 0.876074 0.194172
0.649535 0.878976 0.197074
0.700842 0.881879 0.199977
0.752149 0.884781 0.202879
0.803455 0.887684 0.205782
0.854762 0.890586 0.208684
0.906069 0.893489 0.211587
0.957376 0.896391 0.214489
1.000000 0.899294 0.217392
0.197430 0.910377 0.180608
0.248737 0.913279 0.183510
0.300044 0.916182 0.186413
0.351351 0.919084 0.189315
0.402657 0.921987 0.192218
0.453964 0.924889 0.195120
0.505271 0.927792 0.198023
0.556578 0.930694 0.200925
0.607884 0.933597 0.203828
0.659191 0.936499 0.206730
0.710498 0.939402 0.209633
0.761804 0.942304 0.212535
0.813111 0.945207 0.215438
0.864418 0.948109 0.218340
0.915725 0.951012 0.221243
0.967031 0.953914 0.224145
1.000000 0.956817 0.227048
0.207086 0.967900 0.190264
0.258393 0.970802 0.193166
0.309700 0.973705 0.196069
0.361006 0.976607 0.198971
0.412313 0.979510 0.201874
0.463620 0.982412 0.204776
0.514927 0.985315 0.207679
0.566233 0.988217 0.210581
0.617540 0.991120 0.213484
0.668847 0.994022 0.216386
0.720154 0.996925 0.219289
0.771460 0.999827 0.222191
0.822767 1.000000 0.225094
0.874074 1.000000 0.227996
0.925381 1.000000 0.230899
0.976687 1.000000 0.233801
1.000000 1.000000 0.236704
0.053564 0.048503 0.084471
0.104870 0.051405 0.087373
0.156177 0.054308 0.090276
0.207484 0.057210 0.093178
0.258791 0.060113 0.096081
0.310097 0.063015 0.098983
0.361404 0.065918 0.101886
0.412711 0.068820 0.104788
0.464018 0.071723 0.107691
0.515324 0.074625 0.110593
0.566631 0.077528 0.113496
0.617938 0.080430 0.116398
0.669245 0.083333 0.119301
0.720551 0.086235 0.122203
0.771858 0.089138 0.125106
0.823165 0.092040 0.128008
0.874471 0.094943 0.130911
0.063220 0.106026 0.094126
0.114526 0.108928 0.097029
0.165833 0.111831 0.099931
0.217140 0.114733 0.102834
0.268447 0.117636 0.105737
0.319753 0.120538 0.108639
0.371060 0.123441 0.111542
0.422367 0.126343 0.114444
0.473674 0.129246 0.117347
0.524980 0.132148 0.120249
0.576287 0.135051 0.123152
0.627594 0.137953 0.126054
0.678900 0.140856 0.128957
0.730207 0.143758 0.131859
0.781514 0.146661 0.134762
0.832821 0.149563 0.137664
0.884127 0.152466 0.140567
0.072876 0.163549 0.103782
0.124182 0.166451 0.106685
0.175489 0.169354 0.109587
0.226796 0.172256 0.112490
0.278102 0.175159 0.115392
0.329409 0.178061 0.118295
0.380716 0.180964 0.121197
0.432023 0.183866 0.124100
0.483329 0.186769 0.127002
0.534636 0.189671 0.129905
0.585943 0.192574 0.132808
0.637250 0.195476 0.135710
0.688556 0.198379 0.138613
0.739863 0.201282 0.141515
0.791170 0.204184 0.144418
0.842477 0.207087 0.147320
0.893783 0.209989 0.150223
0.082531 0.221072 0.113438
0.133838 0.223974 0.116341
0.185145 0.226877 0.119243
0.236452 0.229779 0.122146
0.287758 0.232682 0.125048
0.339065 0.235584 0.127951
0.390372 0.238487 0.130853
0.441679 0.241389 0.133756
0.492985 0.244292 0.136658
0.544292 0.247194 0.139561
0.595599 0.250097 0.142463
0.646906 0.253000 0.145366
0.698212 0.255902 0.148268
0.749519 0.258805 0.151171
0.800826 0.261707 0.154073
0.852132 0.264610 0.156976
0.903439 0.267512 0.159879
0.092187 0.278595 0.123094
0.143494 0.281497 0.125997
0.194801 0.284400 0.128899
0.246108 0.287302 0.131802
0.297414 0.290205 0.134704
0.348721 0.293107 0.137607
0.400028 0.296010 0.140509
0.451335 0.298913 0.143412
0.502641 0.301815 0.146314
0.553948 0.304718 0.149217
0.605255 0.307620 0.152119
0.656561 0.310523 0.155022
0.707868 0.313425 0.157924
0.759175 0.316328 0.160827
0.810482 0.319230 0.163729
0.861788 0.322133 0.166632
0.913095 0.325035 0.169534
0.101843 0.336118 0.132750
0.153150 0.339020 0.135653
0.204457 0.341923 0.138555
0.255763 0.344826 0.141458
0.307070 0.347728 0.144360
0.358377 0.350631 0.147263
0.409684 0.353533 0.150165
0.460990 0.356436 0.153068
0.512297 0.359338 0.155970
0.563604 0.362241 0.158873
0.614911 0.365143 0.161775
0.666217 0.368046 0.164678
0.717524 0.370948 0.167580
0.768831 0.373851 0.170483
0.820138 0.376753 0.173385
0.871444 0.379656 0.176288
0.922751 0.382558 0.179190
0.111499 0.393641 0.142406
0.162806 0.396544 0.145308
0.214113 0.399446 0.148211
0.265419 0.402349 0.151114
0.316726 0.405251 0.154016
0.368033 0.408154 0.156919
0.419340 0.411056 0.159821
0.470646 0.413959 0.162724
0.521953 0.416861 0.165626
0.573260 0.419764 0.168529
0.624567 0.422666 0.171431
0.675873 0.425569 0.174334
0.727180 0.428471 0.177236
0.778487 0.431374 0.180139
0.829793 0.434276 0.183041
0.881100 0.437179 0.185944
0.932407 0.440081 0.188846
0.121155 0.451164 0.152062
0.172462 0.454067 0.154964
0.223769 0.456969 0.157867
0.275075 0.459872 0.160769
0.326382 0.462774 0.163672
0.377689 0.465677 0.166574
0.428995 0.468579 0.169477
0.480302 0.471482 0.172379
0.531609 0.474384 0.175282
0.582916 0.477287 0.178185
0.634222 0.480189 0.181087
0.685529 0.483092 0.183990
0.736836 0.485994 0.186892
0.788143 0.488897 0.189795
0.839449 0.491799 0.192697
0.890756 0.494702 0.195600
0.942063 0.497604 0.198502
0.130811 0.508687 0.161718
0.182118 0.511590 0.164620
0.233424 0.514492 0.167523
0.284731 0.517395 0.170425
0.336038 0.520297 0.173328
0.387345 0.523200 0.176230
0.438651 0.526102 0.179133
0.489958 0.529005 0.182035
0.541265 0.531907 0.184938
0.592572 0.534810 0.187840
0.643878 0.537712 0.190743
0.695185 0.540615 0.193645
0.746492 0.543517 0.196548
0.797799 0.546420 0.199451
0.849105 0.549322 0.202353
0.900412 0.552225 0.205256
0.951719 0.555127 0.208158
0.140467 0.566210 0.171374
0.191774 0.569113 0.174276
0.243080 0.572015 0.177179
0.294387 0.574918 0.180081
0.345694 0.577820 0.182984
0.397001 0.580723 0.185886
0.448307 0.583625 0.188789
0.499614 0.586528 0.191691
0.550921 0.589430 0.194594
0.602228 0.592333 0.197496
0.653534 0.595235 0.200399
0.704841 0.598138 0.203301
0.756148 0.601040 0.206204
0.807454 0.603943 0.209106
0.858761 0.606845 0.212009
0.910068 0.609748 0.214911
0.961375 0.612650 0.217814
0.150123 0.623733 0.181030
0.201430 0.626636 0.183932
0.252736 0.629538 0.186835
0.304043 0.632441 0.189737
0.355350 0.635343 0.192640
0.406656 0.638246 0.195542
0.457963 0.641148 0.198445
0.509270 0.644051 0.201347
0.560577 0.646953 0.204250
0.611883 0.649856 0.207152
0.663190 0.652758 0.210055
0.714497 0.655661 0.212957
0.765804 0.658563 0.215860
0.817110 0.661466 0.218762
0.868417 0.664368 0.221665
0.919724 0.667271 0.224567
0.971031 0.670174 0.227470
0.159779 0.681256 0.190686
0.211085 0.684159 0.193588
0.262392 0.687061 0.196491
0.313699 0.689964 0.199393
0.365006 0.692866 0.202296
0.416312 0.695769 0.205198
0.467619 0.698671 0.208101
0.518926 0.701574 0.211003
0.570233 0.704476 0.213906
0.621539 0.707379 0.216808
0.672846 0.710281 0.219711
0.724153 0.713184 0.222613
0.775460 0.716087 0.225516
0.826766 0.718989 0.228418
0.878073 0.721892 0.231321
0.929380 0.724794 0.234223
0.980686 0.727697 0.237126
0.169435 0.738779 0.200341
0.220741 0.741682 0.203244
0.272048 0.744584 0.206146
0.323355 0.747487 0.209049
0.374662 0.750389 0.211951
0.425968 0.753292 0.214854
0.477275 0.756194 0.217757
0.528582 0.759097 0.220659
0.579889 0.761999 0.223562
0.631195 0.764902 0.226464
0.682502 0.767805 0.229367
0.733809 0.770707 0.232269
0.785115 0.773610 0.235172
0.836422 0.776512 0.238074
0.887729 0.779415 0.240977
0.939036 0.782317 0.243879
0.990342 0.785220 0.246782
0.179091 0.796302 0.209997
0.230397 0.799205 0.212900
0.281704 0.802107 0.215802
0.333011 0.805010 0.218705
0.384317 0.807912 0.221607
0.435624 0.810815 0.224510
0.486931 0.813718 0.227412
0.538238 0.816620 0.230315
0.589544 0.819523 0.233217
0.640851 0.822425 0.236120
0.692158 0.825328 0.239022
0.743465 0.828230 0.241925
0.794771 0.831133 0.244828
0.846078 0.834035 0.247730
0.897385 0.836938 0.250633
0.948692 0.839840 0.253535
0.999998 0.842743 0.256438
0.188746 0.853826 0.219653
0.240053 0.856728 0.222556
0.291360 0.859631 0.225458
0.342667 0.862533 0.228361
0.393973 0.865436 0.231263
0.445280 0.868338 0.234166
0.496587 0.871241 0.237068
0.547894 0.874143 0.239971
0.599200 0.877046 0.242873
0.650507 0.879948 0.245776
0.701814 0.882851 0.248678
0.753121 0.885753 0.251581
0.804427 0.888656 0.254483
0.855734 0.891558 0.257386
0.907041 0.894461 0.260288
0.958347 0.897363 0.263191
1.000000 0.900266 0.266093
0.198402 0.911349 0.229309
0.249709 0.914251 0.232212
0.301016 0.917154 0.235114
0.352323 0.920056 0.238017
0.403629 0.922959 0.240919
0.454936 0.925861 0.243822
0.506243 0.928764 0.246724
0.557549 0.931666 0.249627
0.608856 0.934569 0.252529
0.660163 0.937471 0.255432
0.711470 0.940374 0.258334
0.762776 0.943276 0.261237
0.814083 0.946179 0.264139
0.865390 0.949081 0.267042
0.916697 0.951984 0.269944
0.968003 0.954886 0.272847
1.000000 0.957789 0.275749
0.208058 0.968872 0.238965
0.259365 0.971774 0.241868
0.310672 0.974677 0.244770
0.361978 0.977579 0.247673
0.413285 0.980482 0.250575
0.464592 0.983384 0.253478
0.515899 0.986287 0.256380
0.567205 0.989189 0.259283
0.618512 0.992092 0.262185
0.669819 0.994994 0.265088
0.721126 0.997897 0.267990
0.772432 1.000000 0.270893
0.823739 1.000000 0.273795
0.875046 1.000000 0.276698
0.926353 1.000000 0.279600
0.977659 1.000000 0.282503
1.000000 1.000000 0.285405
0.054536 0.049475 0.133172
0.105842 0.052377 0.136075
0.157149 0.055280 0.138977
0.208456 0.058182 0.141880
0.259763 0.061085 0.144782
0.311069 0.063987 0.147685
0.362376 0.066890 0.150587
0.413683 0.069792 0.153490
0.464990 0.072695 0.156392
0.516296 0.075597 0.159295
0.567603 0.078500 0.162197
0.618910 0.081402 0.165100
0.670217 0.084305 0.168002
0.721523 0.087207 0.170905
0.772830 0.090110 0.173807
0.824137 0.093012 0.176710
0.875443 0.095915 0.179612
0.064192 0.106998 0.142828
0.115498 0.109900 0.145731
0.166805 0.112803 0.148633
0.218112 0.115705 0.151536
0.269419 0.118608 0.154438
0.320725 0.121510 0.157341
0.372032 0.124413 0.160243
0.423339 0.127315 0.163146
0.474645 0.130218 0.166048
0.525952 0.133120 0.168951
0.577259 0.136023 0.171853
0.628566 0.138925 0.174756
0.679872 0.141828 0.177658
0.731179 0.144730 0.180561
0.782486 0.147633 0.183463
0.833793 0.150535 0.186366
0.885099 0.153438 0.189268
0.073848 0.164521 0.152484
0.125154 0.167423 0.155386
0.176461 0.170326 0.158289
0.227768 0.173228 0.161191
0.279074 0.176131 0.164094
0.330381 0.179033 0.166996
0.381688 0.181936 0.169899
0.432995 0.184838 0.172802
0.484301 0.187741 0.175704
0.535608 0.190643 0.178607
0.586915 0.193546 0.181509
0.638222 0.196448 0.184412
0.689528 0.199351 0.187314
0.740835 0.202253 0.190217
0.792142 0.205156 0.193119
0.843449 0.208059 0.196022
0.894755 0.210961 0.198924
0.083503 0.222044 0.162140
0.134810 0.224946 0.165042
0.186117 0.227849 0.167945
0.237424 0.230751 0.170847
0.288730 0.233654 0.173750
0.340037 0.236556 0.176652
0.391344 0.239459 0.179555
0.442651 0.242361 0.182457
0.493957 0.245264 0.185360
0.545264 0.248166 0.188262
0.596571 0.251069 0.191165
0.647878 0.253971 0.194067
0.699184 0.256874 0.196970
0.750491 0.259777 0.199873
0.801798 0.262679 0.202775
0.853104 0.265582 0.205678
0.904411 0.268484 0.208580
0.093159 0.279567 0.171796
0.144466 0.282469 0.174698
0.195773 0.285372 0.177601
0.247080 0.288274 0.180503
0.298386 0.291177 0.183406
0.349693 0.294079 0.186308
0.401000 0.296982 0.189211
0.452306 0.299884 0.192113
0.503613 0.302787 0.195016
0.554920 0.305690 0.197918
0.606227 0.308592 0.200821
0.657533 0.311495 0.203723
0.708840 0.314397 0.206626
0.760147 0.317300 0.209528
0.811454 0.320202 0.212431
0.862760 0.323105 0.215333
0.914067 0.326007 0.218236
0.102815 0.337090 0.181452
0.154122 0.339992 0.184354
0.205429 0.342895 0.187257
0.256735 0.345797 0.190159
0.308042 0.348700 0.193062
0.359349 0.351603 0.195964
0.410656 0.354505 0.198867
0.461962 0.357408 0.201769
0.513269 0.360310 0.204672
0.564576 0.363213 0.207574
0.615883 0.366115 0.210477
0.667189 0.369018 0.213379
0.718496 0.371920 0.216282
0.769803 0.374823 0.219184
0.821110 0.377725 0.222087
0.872416 0.380628 0.224989
0.923723 0.383530 0.227892
0.112471 0.394613 0.191108
0.163778 0.397516 0.194010
0.215085 0.400418 0.196913
0.266391 0.403321 0.199815
0.317698 0.406223 0.202718
0.369005 0.409126 0.205620
0.420312 0.412028 0.208523
0.471618 0.414931 0.211425
0.522925 0.417833 0.214328
0.574232 0.420736 0.217230
0.625539 0.423638 0.220133
0.676845 0.426541 0.223035
0.728152 0.429443 0.225938
0.779459 0.432346 0.228840
0.830765 0.435248 0.231743
0.882072 0.438151 0.234645
0.933379 0.441053 0.237548
0.122127 0.452136 0.200763
0.173434 0.455039 0.203666
0.224741 0.457941 0.206568
0.276047 0.460844 0.209471
0.327354 0.463746 0.212373
0.378661 0.466649 0.215276
0.429967 0.469551 0.218179
0.481274 0.472454 0.221081
0.532581 0.475356 0.223984
0.583888 0.478259 0.226886
0.635194 0.481161 0.229789
0.686501 0.484064 0.232691
0.737808 0.486966 0.235594
0.789115 0.489869 0.238496
0.840421 0.492771 0.241399
0.891728 0.495674 0.244301
0.943035 0.498576 0.247204
0.131783 0.509659 0.210419
0.183090 0.512562 0.213322
0.234396 0.515464 0.216224
0.285703 0.518367 0.219127
0.337010 0.521269 0.222029
0.388317 0.524172 0.224932
0.439623 0.527074 0.227834
0.490930 0.529977 0.230737
0.542237 0.532879 0.233639
0.593544 0.535782 0.236542
0.644850 0.538684 0.239445
0.696157 0.541587 0.242347
0.747464 0.544489 0.245250
0.798771 0.547392 0.248152
0.850077 0.550294 0.251055
0.901384 0.553197 0.253957
0.952691 0.556099 0.256860
0.141439 0.567182 0.220075
0.192746 0.570085 0.222978
0.244052 0.572987 0.225880
0.295359 0.575890 0.228783
0.346666 0.578792 0.231685
0.397973 0.581695 0.234588
0.449279 0.584597 0.237490
0.500586 0.587500 0.240393
0.551893 0.590402 0.243295
0.603199 0.593305 0.246198
0.654506 0.596207 0.249100
0.705813 0.599110 0.252003
0.757120 0.602012 0.254905
0.808426 0.604915 0.257808
0.859733 0.607817 0.260710
0.911040 0.610720 0.263613
0.962347 0.613622 0.266515
0.151095 0.624705 0.229731
0.202402 0.627608 0.232634
0.253708 0.630510 0.235536
0.305015 0.633413 0.238439
0.356322 0.636315 0.241341
0.407628 0.639218 0.244244
0.458935 0.642120 0.247146
0.510242 0.645023 0.250049
0.561549 0.647925 0.252951
0.612855 0.650828 0.255854
0.664162 0.653730 0.258756
0.715469 0.656633 0.261659
0.766776 0.659535 0.264561
0.818082 0.662438 0.267464
0.869389 0.665340 0.270366
0.920696 0.668243 0.273269
0.972003 0.671145 0.276171
0.160751 0.682228 0.239387
0.212057 0.685131 0.242290
0.263364 0.688033 0.245192
0.314671 0.690936 0.248095
0.365978 0.693838 0.250997
0.417284 0.696741 0.253900
0.468591 0.699643 0.256802
0.519898 0.702546 0.259705
0.571205 0.705448 0.262607
0.622511 0.708351 0.265510
0.673818 0.711253 0.268412
0.725125 0.714156 0.271315
0.776432 0.717058 0.274217
0.827738 0.719961 0.277120
0.879045 0.722863 0.280022
0.930352 0.725766 0.282925
0.981658 0.728669 0.285827
0.170407 0.739751 0.249043
0.221713 0.742654 0.251945
0.273020 0.745556 0.254848
0.324327 0.748459 0.257751
0.375634 0.751361 0.260653
0.426940 0.754264 0.263556
0.478247 0.757166 0.266458
0.529554 0.760069 0.269361
0.580860 0.762971 0.272263
0.632167 0.765874 0.275166
0.683474 0.768776 0.278068
0.734781 0.771679 0.280971
0.786087 0.774582 0.283873
0.837394 0.777484 0.286776
0.888701 0.780387 0.289678
0.940008 0.783289 0.292581
0.991314 0.786192 0.295483
0.180063 0.797274 0.258699
0.231369 0.800177 0.261601
0.282676 0.803079 0.264504
0.333983 0.805982 0.267406
0.385289 0.808884 0.270309
0.436596 0.811787 0.273211
0.487903 0.814690 0.276114
0.539210 0.817592 0.279016
0.590516 0.820495 0.281919
0.641823 0.823397 0.284822
0.693130 0.826300 0.287724
0.744437 0.829202 0.290627
0.795743 0.832105 0.293529
0.847050 0.835007 0.296432
0.898357 0.837910 0.299334
0.949664 0.840812 0.302237
1.000000 0.843715 0.305139
0.189718 0.854797 0.268355
0.241025 0.857700 0.271257
0.292332 0.860602 0.274160
0.343639 0.863505 0.277062
0.394945 0.866408 0.279965
0.446252 0.869310 0.282867
0.497559 0.872213 0.285770
0.548866 0.875115 0.288672
0.600172 0.878018 0.291575
0.651479 0.880920 0.294477
0.702786 0.883823 0.297380
0.754093 0.886725 0.300282
0.805399 0.889628 0.303185
0.856706 0.892530 0.306087
0.908013 0.895433 0.308990
0.959319 0.898335 0.311893
1.000000 0.901238 0.314795
0.199374 0.912320 0.278011
0.250681 0.915223 0.280913
0.301988 0.918126 0.283816
0.353295 0.921028 0.286718
0.404601 0.923931 0.289621
0.455908 0.926833 0.292523
0.507215 0.929736 0.295426
0.558521 0.932638 0.298328
0.609828 0.935541 0.301231
0.661135 0.938443 0.304133
0.712442 0.941346 0.307036
0.763748 0.944248 0.309938
0.815055 0.947151 0.312841
0.866362 0.950053 0.315743
0.917669 0.952956 0.318646
0.968975 0.955858 0.321548
1.000000 0.958761 0.324451
0.209030 0.969844 0.287667
0.260337 0.972746 0.290569
0.311644 0.975649 0.293472
0.362950 0.978551 0.296374
0.414257 0.981454 0.299277
0.465564 0.984356 0.302179
0.516871 0.987259 0.305082
0.568177 0.990161 0.307984
0.619484 0.993064 0.310887
0.670791 0.995966 0.313789
0.722098 0.998869 0.316692
0.773404 1.000000 0.319594
0.824711 1.000000 0.322497
0.876018 1.000000 0.325399
0.927325 1.000000 0.328302
0.978631 1.000000 0.331204
1.000000 1.000000 0.334107
0.055508 0.050447 0.181874
0.106814 0.053349 0.184776
0.158121 0.056252 0.187679
0.209428 0.059154 0.190581
0.260735 0.062057 0.193484
0.312041 0.064959 0.196386
0.363348 0.067862 0.199289
0.414655 0.070764 0.202191
0.465962 0.073667 0.205094
0.517268 0.076569 0.207996
0.568575 0.079472 0.210899
0.619882 0.082374 0.213801
0.671188 0.085277 0.216704
0.722495 0.088179 0.219606
0.773802 0.091082 0.222509
0.825109 0.093984 0.225411
0.876415 0.096887 0.228314
0.065164 0.107970 0.191530
0.116470 0.110872 0.194432
0.167777 0.113775 0.197335
