assets/presets/luts/contrast-minus/lut.cube
TITLE "Contrast −"
LUT_3D_SIZE 17
0.095700 0.095700 0.095700
0.144450 0.095700 0.095700
0.193200 0.095700 0.095700
0.241950 0.095700 0.095700
0.290700 0.095700 0.095700
0.339450 0.095700 0.095700
0.388200 0.095700 0.095700
0.436950 0.095700 0.095700
0.485700 0.095700 0.095700
0.534450 0.095700 0.095700
0.583200 0.095700 0.095700
0.631950 0.095700 0.095700
0.680700 0.095700 0.095700
0.729450 0.095700 0.095700
0.778200 0.095700 0.095700
0.826950 0.095700 0.095700
0.875700 0.095700 0.095700
0.095700 0.144450 0.095700
0.144450 0.144450 0.095700
0.193200 0.144450 0.095700
0.241950 0.144450 0.095700
0.290700 0.144450 0.095700
0.339450 0.144450 0.095700
0.388200 0.144450 0.095700
0.436950 0.144450 0.095700
0.485700 0.144450 0.095700
0.534450 0.144450 0.095700
0.583200 0.144450 0.095700
0.631950 0.144450 0.095700
0.680700 0.144450 0.095700
0.729450 0.144450 0.095700
0.778200 0.144450 0.095700
0.826950 0.144450 0.095700
0.875700 0.144450 0.095700
0.095700 0.193200 0.095700
0.144450 0.193200 0.095700
0.193200 0.193200 0.095700
0.241950 0.193200 0.095700
0.290700 0.193200 0.095700
0.339450 0.193200 0.095700
0.388200 0.193200 0.095700
0.436950 0.193200 0.095700
0.485700 0.193200 0.095700
0.534450 0.193200 0.095700
0.583200 0.193200 0.095700
0.631950 0.193200 0.095700
0.680700 0.193200 0.095700
0.729450 0.193200 0.095700
0.778200 0.193200 0.095700
0.826950 0.193200 0.095700
0.875700 0.193200 0.095700
0.095700 0.241950 0.095700
0.144450 0.241950 0.095700
0.193200 0.241950 0.095700
0.241950 0.241950 0.095700
0.290700 0.241950 0.095700
0.339450 0.241950 0.095700
0.388200 0.241950 0.095700
0.436950 0.241950 0.095700
0.485700 0.241950 0.095700
0.534450 0.241950 0.095700
0.583200 0.241950 0.095700
0.631950 0.241950 0.095700
0.680700 0.241950 0.095700
0.729450 0.241950 0.095700
0.778200 0.241950 0.095700
0.826950 0.241950 0.095700
0.875700 0.241950 0.095700
0.095700 0.290700 0.095700
0.144450 0.290700 0.095700
0.193200 0.290700 0.095700
0.241950 0.290700 0.095700
0.290700 0.290700 0.095700
0.339450 0.290700 0.095700
0.388200 0.290700 0.095700
0.436950 0.290700 0.095700
0.485700 0.290700 0.095700
0.534450 0.290700 0.095700
0.583200 0.290700 0.095700
0.631950 0.290700 0.095700
0.680700 0.290700 0.095700
0.729450 0.290700 0.095700
0.778200 0.290700 0.095700
0.826950 0.290700 0.095700
0.875700 0.290700 0.095700
0.095700 0.339450 0.095700
0.144450 0.339450 0.095700
0.193200 0.339450 0.095700
0.241950 0.339450 0.095700
0.290700 0.339450 0.095700
0.339450 0.339450 0.095700
0.388200 0.339450 0.095700
0.436950 0.339450 0.095700
0.485700 0.339450 0.095700
0.534450 0.339450 0.095700
0.583200 0.339450 0.095700
0.631950 0.339450 0.095700
0.680700 0.339450 0.095700
0.729450 0.339450 0.095700
0.778200 0.339450 0.095700
0.826950 0.339450 0.095700
0.875700 0.339450 0.095700
0.095700 0.388200 0.095700
0.144450 0.388200 0.095700
0.193200 0.388200 0.095700
0.241950 0.388200 0.095700
0.290700 0.388200 0.095700
0.339450 0.388200 0.095700
0.388200 0.388200 0.095700
0.436950 0.388200 0.095700
0.485700 0.388200 0.095700
0.534450 0.388200 0.095700
0.583200 0.388200 0.095700
0.631950 0.388200 0.095700
0.680700 0.388200 0.095700
0.729450 0.388200 0.095700
0.778200 0.388200 0.095700
0.826950 0.388200 0.095700
0.875700 0.388200 0.095700
0.095700 0.436950 0.095700
0.144450 0.436950 0.095700
0.193200 0.436950 0.095700
0.241950 0.436950 0.095700
0.290700 0.436950 0.095700
0.339450 0.436950 0.095700
0.388200 0.436950 0.095700
0.436950 0.436950 0.095700
0.485700 0.436950 0.095700
0.534450 0.436950 0.095700
0.583200 0.436950 0.095700
0.631950 0.436950 0.095700
0.680700 0.436950 0.095700
0.729450 0.436950 0.095700
0.778200 0.436950 0.095700
0.826950 0.436950 0.095700
0.875700 0.436950 0.095700
0.095700 0.485700 0.095700
0.144450 0.485700 0.095700
0.193200 0.485700 0.095700
0.241950 0.485700 0.095700
0.290700 0.485700 0.095700
0.339450 0.485700 0.095700
0.388200 0.485700 0.095700
0.436950 0.485700 0.095700
0.485700 0.485700 0.095700
0.534450 0.485700 0.095700
0.583200 0.485700 0.095700
0.631950 0.485700 0.095700
0.680700 0.485700 0.095700
0.729450 0.485700 0.095700
0.778200 0.485700 0.095700
0.826950 0.485700 0.095700
0.875700 0.485700 0.095700
0.095700 0.534450 0.095700
0.144450 0.534450 0.095700
0.193200 0.534450 0.095700
0.241950 0.534450 0.095700
0.290700 0.534450 0.095700
0.339450 0.534450 0.095700
0.388200 0.534450 0.095700
0.436950 0.534450 0.095700
0.485700 0.534450 0.095700
0.534450 0.534450 0.095700
0.583200 0.534450 0.095700
0.631950 0.534450 0.095700
0.680700 0.534450 0.095700
0.729450 0.534450 0.095700
0.778200 0.534450 0.095700
0.826950 0.534450 0.095700
0.875700 0.534450 0.095700
0.095700 0.583200 0.095700
0.144450 0.583200 0.095700
0.193200 0.583200 0.095700
0.241950 0.583200 0.095700
0.290700 0.583200 0.095700
0.339450 0.583200 0.095700
0.388200 0.583200 0.095700
0.436950 0.583200 0.095700
0.485700 0.583200 0.095700
0.534450 0.583200 0.095700
0.583200 0.583200 0.095700
0.631950 0.583200 0.095700
0.680700 0.583200 0.095700
0.729450 0.583200 0.095700
0.778200 0.583200 0.095700
0.826950 0.583200 0.095700
0.875700 0.583200 0.095700
0.095700 0.631950 0.095700
0.144450 0.631950 0.095700
0.193200 0.631950 0.095700
0.241950 0.631950 0.095700
0.290700 0.631950 0.095700
0.339450 0.631950 0.095700
0.388200 0.631950 0.095700
0.436950 0.631950 0.095700
0.485700 0.631950 0.095700
0.534450 0.631950 0.095700
0.583200 0.631950 0.095700
0.631950 0.631950 0.095700
0.680700 0.631950 0.095700
0.729450 0.631950 0.095700
0.778200 0.631950 0.095700
0.826950 0.631950 0.095700
0.875700 0.631950 0.095700
0.095700 0.680700 0.095700
0.144450 0.680700 0.095700
0.193200 0.680700 0.095700
0.241950 0.680700 0.095700
0.290700 0.680700 0.095700
0.339450 0.680700 0.095700
0.388200 0.680700 0.095700
0.436950 0.680700 0.095700
0.485700 0.680700 0.095700
0.534450 0.680700 0.095700
0.583200 0.680700 0.095700
0.631950 0.680700 0.095700
0.680700 0.680700 0.095700
0.729450 0.680700 0.095700
0.778200 0.680700 0.095700
0.826950 0.680700 0.095700
0.875700 0.680700 0.095700
0.095700 0.729450 0.095700
0.144450 0.729450 0.095700
0.193200 0.729450 0.095700
0.241950 0.729450 0.095700
0.290700 0.729450 0.095700
0.339450 0.729450 0.095700
0.388200 0.729450 0.095700
0.436950 0.729450 0.095700
0.485700 0.729450 0.095700
0.534450 0.729450 0.095700
0.583200 0.729450 0.095700
0.631950 0.729450 0.095700
0.680700 0.729450 0.095700
0.729450 0.729450 0.095700
0.778200 0.729450 0.095700
0.826950 0.729450 0.095700
0.875700 0.729450 0.095700
0.095700 0.778200 0.095700
0.144450 0.778200 0.095700
0.193200 0.778200 0.095700
0.241950 0.778200 0.095700
0.290700 0.778200 0.095700
0.339450 0.778200 0.095700
0.388200 0.778200 0.095700
0.436950 0.778200 0.095700
0.485700 0.778200 0.095700
0.534450 0.778200 0.095700
0.583200 0.778200 0.095700
0.631950 0.778200 0.095700
0.680700 0.778200 0.095700
0.729450 0.778200 0.095700
0.778200 0.778200 0.095700
0.826950 0.778200 0.095700
0.875700 0.778200 0.095700
0.095700 0.826950 0.095700
0.144450 0.826950 0.095700
0.193200 0.826950 0.095700
0.241950 0.826950 0.095700
0.290700 0.826950 0.095700
0.339450 0.826950 0.095700
0.388200 0.826950 0.095700
0.436950 0.826950 0.095700
0.485700 0.826950 0.095700
0.534450 0.826950 0.095700
0.583200 0.826950 0.095700
0.631950 0.826950 0.095700
0.680700 0.826950 0.095700
0.729450 0.826950 0.095700
0.778200 0.826950 0.095700
0.826950 0.826950 0.095700
0.875700 0.826950 0.095700
0.095700 0.875700 0.095700
0.144450 0.875700 0.095700
0.193200 0.875700 0.095700
0.241950 0.875700 0.095700
0.290700 0.875700 0.095700
0.339450 0.875700 0.095700
0.388200 0.875700 0.095700
0.436950 0.875700 0.095700
0.485700 0.875700 0.095700
0.534450 0.875700 0.095700
0.583200 0.875700 0.095700
0.631950 0.875700 0.095700
0.680700 0.875700 0.095700
0.729450 0.875700 0.095700
0.778200 0.875700 0.095700
0.826950 0.875700 0.095700
0.875700 0.875700 0.095700
0.095700 0.095700 0.144450
0.144450 0.095700 0.144450
0.193200 0.095700 0.144450
0.241950 0.095700 0.144450
0.290700 0.095700 0.144450
0.339450 0.095700 0.144450
0.388200 0.095700 0.144450
0.436950 0.095700 0.144450
0.485700 0.095700 0.144450
0.534450 0.095700 0.144450
0.583200 0.095700 0.144450
0.631950 0.095700 0.144450
0.680700 0.095700 0.144450
0.729450 0.095700 0.144450
0.778200 0.095700 0.144450
0.826950 0.095700 0.144450
0.875700 0.095700 0.144450
0.095700 0.144450 0.144450
0.144450 0.144450 0.144450
0.193200 0.144450 0.144450
0.241950 0.144450 0.144450
0.290700 0.144450 0.144450
0.339450 0.144450 0.144450
0.388200 0.144450 0.144450
0.436950 0.144450 0.144450
0.485700 0.144450 0.144450
0.534450 0.144450 0.144450
0.583200 0.144450 0.144450
0.631950 0.144450 0.144450
0.680700 0.144450 0.144450
0.729450 0.144450 0.144450
0.778200 0.144450 0.144450
0.826950 0.144450 0.144450
0.875700 0.144450 0.144450
0.095700 0.193200 0.144450
0.144450 0.193200 0.144450
0.193200 0.193200 0.144450
0.241950 0.193200 0.144450
0.290700 0.193200 0.144450
0.339450 0.193200 0.144450
0.388200 0.193200 0.144450
0.436950 0.193200 0.144450
0.485700 0.193200 0.144450
0.534450 0.193200 0.144450
0.583200 0.193200 0.144450
0.631950 0.193200 0.144450
0.680700 0.193200 0.144450
0.729450 0.193200 0.144450
0.778200 0.193200 0.144450
0.826950 0.193200 0.144450
0.875700 0.193200 0.144450
0.095700 0.241950 0.144450
0.144450 0.241950 0.144450
0.193200 0.241950 0.144450
0.241950 0.241950 0.144450
0.290700 0.241950 0.144450
0.339450 0.241950 0.144450
0.388200 0.241950 0.144450
0.436950 0.241950 0.144450
0.485700 0.241950 0.144450
0.534450 0.241950 0.144450
0.583200 0.241950 0.144450
0.631950 0.241950 0.144450
0.680700 0.241950 0.144450
0.729450 0.241950 0.144450
0.778200 0.241950 0.144450
0.826950 0.241950 0.144450
0.875700 0.241950 0.144450
0.095700 0.290700 0.144450
0.144450 0.290700 0.144450
0.193200 0.290700 0.144450
0.241950 0.290700 0.144450
0.290700 0.290700 0.144450
0.339450 0.290700 0.144450
0.388200 0.290700 0.144450
0.436950 0.290700 0.144450
0.485700 0.290700 0.144450
0.534450 0.290700 0.144450
0.583200 0.290700 0.144450
0.631950 0.290700 0.144450
0.680700 0.290700 0.144450
0.729450 0.290700 0.144450
0.778200 0.290700 0.144450
0.826950 0.290700 0.144450
0.875700 0.290700 0.144450
0.095700 0.339450 0.144450
0.144450 0.339450 0.144450
0.193200 0.339450 0.144450
0.241950 0.339450 0.144450
0.290700 0.339450 0.144450
0.339450 0.339450 0.144450
0.388200 0.339450 0.144450
0.436950 0.339450 0.144450
0.485700 0.339450 0.144450
0.534450 0.339450 0.144450
0.583200 0.339450 0.144450
0.631950 0.339450 0.144450
0.680700 0.339450 0.144450
0.729450 0.339450 0.144450
0.778200 0.339450 0.144450
0.826950 0.339450 0.144450
0.875700 0.339450 0.144450
0.095700 0.388200 0.144450
0.144450 0.388200 0.144450
0.193200 0.388200 0.144450
0.241950 0.388200 0.144450
0.290700 0.388200 0.144450
0.339450 0.388200 0.144450
0.388200 0.388200 0.144450
0.436950 0.388200 0.144450
0.485700 0.388200 0.144450
0.534450 0.388200 0.144450
0.583200 0.388200 0.144450
0.631950 0.388200 0.144450
0.680700 0.388200 0.144450
0.729450 0.388200 0.144450
0.778200 0.388200 0.144450
0.826950 0.388200 0.144450
0.875700 0.388200 0.144450
0.095700 0.436950 0.144450
0.144450 0.436950 0.144450
0.193200 0.436950 0.144450
0.241950 0.436950 0.144450
0.290700 0.436950 0.144450
0.339450 0.436950 0.144450
0.388200 0.436950 0.144450
0.436950 0.436950 0.144450
0.485700 0.436950 0.144450
0.534450 0.436950 0.144450
0.583200 0.436950 0.144450
0.631950 0.436950 0.144450
0.680700 0.436950 0.144450
0.729450 0.436950 0.144450
0.778200 0.436950 0.144450
0.826950 0.436950 0.144450
0.875700 0.436950 0.144450
0.095700 0.485700 0.144450
0.144450 0.485700 0.144450
0.193200 0.485700 0.144450
0.241950 0.485700 0.144450
0.290700 0.485700 0.144450
0.339450 0.485700 0.144450
0.388200 0.485700 0.144450
0.436950 0.485700 0.144450
0.485700 0.485700 0.144450
0.534450 0.485700 0.144450
0.583200 0.485700 0.144450
0.631950 0.485700 0.144450
0.680700 0.485700 0.144450
0.729450 0.485700 0.144450
0.778200 0.485700 0.144450
0.826950 0.485700 0.144450
0.875700 0.485700 0.144450
0.095700 0.534450 0.144450
0.144450 0.534450 0.144450
0.193200 0.534450 0.144450
0.241950 0.534450 0.144450
0.290700 0.534450 0.144450
0.339450 0.534450 0.144450
0.388200 0.534450 0.144450
0.436950 0.534450 0.144450
0.485700 0.534450 0.144450
0.534450 0.534450 0.144450
0.583200 0.534450 0.144450
0.631950 0.534450 0.144450
0.680700 0.534450 0.144450
0.729450 0.534450 0.144450
0.778200 0.534450 0.144450
0.826950 0.534450 0.144450
0.875700 0.534450 0.144450
0.095700 0.583200 0.144450
0.144450 0.583200 0.144450
0.193200 0.583200 0.144450
0.241950 0.583200 0.144450
0.290700 0.583200 0.144450
0.339450 0.583200 0.144450
0.388200 0.583200 0.144450
0.436950 0.583200 0.144450
0.485700 0.583200 0.144450
0.534450 0.583200 0.144450
0.583200 0.583200 0.144450
0.631950 0.583200 0.144450
0.680700 0.583200 0.144450
0.729450 0.583200 0.144450
0.778200 0.583200 0.144450
0.826950 0.583200 0.144450
0.875700 0.583200 0.144450
0.095700 0.631950 0.144450
0.144450 0.631950 0.144450
0.193200 0.631950 0.144450
0.241950 0.631950 0.144450
0.290700 0.631950 0.144450
0.339450 0.631950 0.144450
0.388200 0.631950 0.144450
0.436950 0.631950 0.144450
0.485700 0.631950 0.144450
0.534450 0.631950 0.144450
0.583200 0.631950 0.144450
0.631950 0.631950 0.144450
0.680700 0.631950 0.144450
0.729450 0.631950 0.144450
0.778200 0.631950 0.144450
0.826950 0.631950 0.144450
0.875700 0.631950 0.144450
0.095700 0.680700 0.144450
0.144450 0.680700 0.144450
0.193200 0.680700 0.144450
0.241950 0.680700 0.144450
0.290700 0.680700 0.144450
0.339450 0.680700 0.144450
0.388200 0.680700 0.144450
0.436950 0.680700 0.144450
0.485700 0.680700 0.144450
0.534450 0.680700 0.144450
0.583200 0.680700 0.144450
0.631950 0.680700 0.144450
0.680700 0.680700 0.144450
0.729450 0.680700 0.144450
0.778200 0.680700 0.144450
0.826950 0.680700 0.144450
0.875700 0.680700 0.144450
0.095700 0.729450 0.144450
0.144450 0.729450 0.144450
0.193200 0.729450 0.144450
0.241950 0.729450 0.144450
0.290700 0.729450 0.144450
0.339450 0.729450 0.144450
0.388200 0.729450 0.144450
0.436950 0.729450 0.144450
0.485700 0.729450 0.144450
0.534450 0.729450 0.144450
0.583200 0.729450 0.144450
0.631950 0.729450 0.144450
0.680700 0.729450 0.144450
0.729450 0.729450 0.144450
0.778200 0.729450 0.144450
0.826950 0.729450 0.144450
0.875700 0.729450 0.144450
0.095700 0.778200 0.144450
0.144450 0.778200 0.144450
0.193200 0.778200 0.144450
0.241950 0.778200 0.144450
0.290700 0.778200 0.144450
0.339450 0.778200 0.144450
0.388200 0.778200 0.144450
0.436950 0.778200 0.144450
0.485700 0.778200 0.144450
0.534450 0.778200 0.144450
0.583200 0.778200 0.144450
0.631950 0.778200 0.144450
0.680700 0.778200 0.144450
0.729450 0.778200 0.144450
0.778200 0.778200 0.144450
0.826950 0.778200 0.144450
0.875700 0.778200 0.144450
0.095700 0.826950 0.144450
0.144450 0.826950 0.144450
0.193200 0.826950 0.144450
0.241950 0.826950 0.144450
0.290700 0.826950 0.144450
0.339450 0.826950 0.144450
0.388200 0.826950 0.144450
0.436950 0.826950 0.144450
0.485700 0.826950 0.144450
0.534450 0.826950 0.144450
0.583200 0.826950 0.144450
0.631950 0.826950 0.144450
0.680700 0.826950 0.144450
0.729450 0.826950 0.144450
0.778200 0.826950 0.144450
0.826950 0.826950 0.144450
0.875700 0.826950 0.144450
0.095700 0.875700 0.144450
0.144450 0.875700 0.144450
0.193200 0.875700 0.144450
0.241950 0.875700 0.144450
0.290700 0.875700 0.144450
0.339450 0.875700 0.144450
0.388200 0.875700 0.144450
0.436950 0.875700 0.144450
0.485700 0.875700 0.144450
0.534450 0.875700 0.144450
0.583200 0.875700 0.144450
0.631950 0.875700 0.144450
0.680700 0.875700 0.144450
0.729450 0.875700 0.144450
0.778200 0.875700 0.144450
0.826950 0.875700 0.144450
0.875700 0.875700 0.144450
0.095700 0.095700 0.193200
0.144450 0.095700 0.193200
0.193200 0.095700 0.193200
0.241950 0.095700 0.193200
0.290700 0.095700 0.193200
0.339450 0.095700 0.193200
0.388200 0.095700 0.193200
0.436950 0.095700 0.193200
0.485700 0.095700 0.193200
0.534450 0.095700 0.193200
0.583200 0.095700 0.193200
0.631950 0.095700 0.193200
0.680700 0.095700 0.193200
0.729450 0.095700 0.193200
0.778200 0.095700 0.193200
0.826950 0.095700 0.193200
0.875700 0.095700 0.193200
0.095700 0.144450 0.193200
0.144450 0.144450 0.193200
0.193200 0.144450 0.193200
0.241950 0.144450 0.193200
0.290700 0.144450 0.193200
0.339450 0.144450 0.193200
0.388200 0.144450 0.193200
0.436950 0.144450 0.193200
0.485700 0.144450 0.193200
0.534450 0.144450 0.193200
0.583200 0.144450 0.193200
0.631950 0.144450 0.193200
0.680700 0.144450 0.193200
0.729450 0.144450 0.193200
0.778200 0.144450 0.193200
0.826950 0.144450 0.193200
0.875700 0.144450 0.193200
0.095700 0.193200 0.193200
0.144450 0.193200 0.193200
0.193200 0.193200 0.193200
0.241950 0.193200 0.193200
0.290700 0.193200 0.193200
0.339450 0.193200 0.193200
0.388200 0.193200 0.193200
0.436950 0.193200 0.193200
0.485700 0.193200 0.193200
0.534450 0.193200 0.193200
0.583200 0.193200 0.193200
0.631950 0.193200 0.193200
0.680700 0.193200 0.193200
0.729450 0.193200 0.193200
0.778200 0.193200 0.193200
0.826950 0.193200 0.193200
0.875700 0.193200 0.193200
0.095700 0.241950 0.193200
0.144450 0.241950 0.193200
0.193200 0.241950 0.193200
0.241950 0.241950 0.193200
0.290700 0.241950 0.193200
0.339450 0.241950 0.193200
0.388200 0.241950 0.193200
0.436950 0.241950 0.193200
0.485700 0.241950 0.193200
0.534450 0.241950 0.193200
0.583200 0.241950 0.193200
0.631950 0.241950 0.193200
0.680700 0.241950 0.193200
0.729450 0.241950 0.193200
0.778200 0.241950 0.193200
0.826950 0.241950 0.193200
0.875700 0.241950 0.193200
0.095700 0.290700 0.193200
0.144450 0.290700 0.193200
0.193200 0.290700 0.193200
0.241950 0.290700 0.193200
0.290700 0.290700 0.193200
0.339450 0.290700 0.193200
0.388200 0.290700 0.193200
0.436950 0.290700 0.193200
0.485700 0.290700 0.193200
0.534450 0.290700 0.193200
0.583200 0.290700 0.193200
0.631950 0.290700 0.193200
0.680700 0.290700 0.193200
0.729450 0.290700 0.193200
0.778200 0.290700 0.193200
0.826950 0.290700 0.193200
0.875700 0.290700 0.193200
0.095700 0.339450 0.193200
0.144450 0.339450 0.193200
0.193200 0.339450 0.193200
0.241950 0.339450 0.193200
0.290700 0.339450 0.193200
0.339450 0.339450 0.193200
0.388200 0.339450 0.193200
0.436950 0.339450 0.193200
0.485700 0.339450 0.193200
0.534450 0.339450 0.193200
0.583200 0.339450 0.193200
0.631950 0.339450 0.193200
0.680700 0.339450 0.193200
0.729450 0.339450 0.193200
0.778200 0.339450 0.193200
0.826950 0.339450 0.193200
0.875700 0.339450 0.193200
0.095700 0.388200 0.193200
0.144450 0.388200 0.193200
0.193200 0.388200 0.193200
0.241950 0.388200 0.193200
0.290700 0.388200 0.193200
0.339450 0.388200 0.193200
0.388200 0.388200 0.193200
0.436950 0.388200 0.193200
0.485700 0.388200 0.193200
0.534450 0.388200 0.193200
0.583200 0.388200 0.193200
0.631950 0.388200 0.193200
0.680700 0.388200 0.193200
0.729450 0.388200 0.193200
0.778200 0.388200 0.193200
0.826950 0.388200 0.193200
0.875700 0.388200 0.193200
0.095700 0.436950 0.193200
0.144450 0.436950 0.193200
0.193200 0.436950 0.193200
0.241950 0.436950 0.193200
0.290700 0.436950 0.193200
0.339450 0.436950 0.193200
0.388200 0.436950 0.193200
0.436950 0.436950 0.193200
0.485700 0.436950 0.193200
0.534450 0.436950 0.193200
0.583200 0.436950 0.193200
0.631950 0.436950 0.193200
0.680700 0.436950 0.193200
0.729450 0.436950 0.193200
0.778200 0.436950 0.193200
0.826950 0.436950 0.193200
0.875700 0.436950 0.193200
0.095700 0.485700 0.193200
0.144450 0.485700 0.193200
0.193200 0.485700 0.193200
0.241950 0.485700 0.193200
0.290700 0.485700 0.193200
0.339450 0.485700 0.193200
0.388200 0.485700 0.193200
0.436950 0.485700 0.193200
0.485700 0.485700 0.193200
0.534450 0.485700 0.193200
0.583200 0.485700 0.193200
0.631950 0.485700 0.193200
0.680700 0.485700 0.193200
0.729450 0.485700 0.193200
0.778200 0.485700 0.193200
0.826950 0.485700 0.193200
0.875700 0.485700 0.193200
0.095700 0.534450 0.193200
0.144450 0.534450 0.193200
0.193200 0.534450 0.193200
0.241950 0.534450 0.193200
0.290700 0.534450 0.193200
0.339450 0.534450 0.193200
0.388200 0.534450 0.193200
0.436950 0.534450 0.193200
0.485700 0.534450 0.193200
0.534450 0.534450 0.193200
0.583200 0.534450 0.193200
0.631950 0.534450 0.193200
0.680700 0.534450 0.193200
0.729450 0.534450 0.193200
0.778200 0.534450 0.193200
0.826950 0.534450 0.193200
0.875700 0.534450 0.193200
0.095700 0.583200 0.193200
0.144450 0.583200 0.193200
0.193200 0.583200 0.193200
0.241950 0.583200 0.193200
0.290700 0.583200 0.193200
0.339450 0.583200 0.193200
0.388200 0.583200 0.193200
0.436950 0.583200 0.193200
0.485700 0.583200 0.193200
0.534450 0.583200 0.193200
0.583200 0.583200 0.193200
0.631950 0.583200 0.193200
0.680700 0.583200 0.193200
0.729450 0.583200 0.193200
0.778200 0.583200 0.193200
0.826950 0.583200 0.193200
0.875700 0.583200 0.193200
0.095700 0.631950 0.193200
0.144450 0.631950 0.193200
0.193200 0.631950 0.193200
0.241950 0.631950 0.193200
0.290700 0.631950 0.193200
0.339450 0.631950 0.193200
0.388200 0.631950 0.193200
0.436950 0.631950 0.193200
0.485700 0.631950 0.193200
0.534450 0.631950 0.193200
0.583200 0.631950 0.193200
0.631950 0.631950 0.193200
0.680700 0.631950 0.193200
0.729450 0.631950 0.193200
0.778200 0.631950 0.193200
0.826950 0.631950 0.193200
0.875700 0.631950 0.193200
0.095700 0.680700 0.193200
0.144450 0.680700 0.193200
0.193200 0.680700 0.193200
0.241950 0.680700 0.193200
0.290700 0.680700 0.193200
0.339450 0.680700 0.193200
0.388200 0.680700 0.193200
0.436950 0.680700 0.193200
0.485700 0.680700 0.193200
0.534450 0.680700 0.193200
0.583200 0.680700 0.193200
0.631950 0.680700 0.193200
0.680700 0.680700 0.193200
0.729450 0.680700 0.193200
0.778200 0.680700 0.193200
0.826950 0.680700 0.193200
0.875700 0.680700 0.193200
0.095700 0.729450 0.193200
0.144450 0.729450 0.193200
0.193200 0.729450 0.193200
0.241950 0.729450 0.193200
0.290700 0.729450 0.193200
0.339450 0.729450 0.193200
0.388200 0.729450 0.193200
0.436950 0.729450 0.193200
0.485700 0.729450 0.193200
0.534450 0.729450 0.193200
0.583200 0.729450 0.193200
0.631950 0.729450 0.193200
0.680700 0.729450 0.193200
0.729450 0.729450 0.193200
0.778200 0.729450 0.193200
0.826950 0.729450 0.193200
0.875700 0.729450 0.193200
0.095700 0.778200 0.193200
0.144450 0.778200 0.193200
0.193200 0.778200 0.193200
0.241950 0.778200 0.193200
0.290700 0.778200 0.193200
0.339450 0.778200 0.193200
0.388200 0.778200 0.193200
0.436950 0.778200 0.193200
0.485700 0.778200 0.193200
0.534450 0.778200 0.193200
0.583200 0.778200 0.193200
0.631950 0.778200 0.193200
0.680700 0.778200 0.193200
0.729450 0.778200 0.193200
0.778200 0.778200 0.193200
0.826950 0.778200 0.193200
0.875700 0.778200 0.193200
0.095700 0.826950 0.193200
0.144450 0.826950 0.193200
0.193200 0.826950 0.193200
0.241950 0.826950 0.193200
0.290700 0.826950 0.193200
0.339450 0.826950 0.193200
0.388200 0.826950 0.193200
0.436950 0.826950 0.193200
0.485700 0.826950 0.193200
0.534450 0.826950 0.193200
0.583200 0.826950 0.193200
0.631950 0.826950 0.193200
0.680700 0.826950 0.193200
0.729450 0.826950 0.193200
0.778200 0.826950 0.193200
0.826950 0.826950 0.193200
0.875700 0.826950 0.193200
0.095700 0.875700 0.193200
0.144450 0.875700 0.193200
0.193200 0.875700 0.193200
0.241950 0.875700 0.193200
0.290700 0.875700 0.193200
0.339450 0.875700 0.193200
0.388200 0.875700 0.193200
0.436950 0.875700 0.193200
0.485700 0.875700 0.193200
0.534450 0.875700 0.193200
0.583200 0.875700 0.193200
0.631950 0.875700 0.193200
0.680700 0.875700 0.193200
0.729450 0.875700 0.193200
0.778200 0.875700 0.193200
0.826950 0.875700 0.193200
0.875700 0.875700 0.193200
0.095700 0.095700 0.241950
0.144450 0.095700 0.241950
0.193200 0.095700 0.241950
0.241950 0.095700 0.241950
0.290700 0.095700 0.241950
0.339450 0.095700 0.241950
0.388200 0.095700 0.241950
0.436950 0.095700 0.241950
0.485700 0.095700 0.241950
0.534450 0.095700 0.241950
0.583200 0.095700 0.241950
0.631950 0.095700 0.241950
0.680700 0.095700 0.241950
0.729450 0.095700 0.241950
0.778200 0.095700 0.241950
0.826950 0.095700 0.241950
0.875700 0.095700 0.241950
0.095700 0.144450 0.241950
0.144450 0.144450 0.241950
0.193200 0.144450 0.241950
