assets/presets/luts/contrast-minus/lut.cube
TITLE "Contrast −"
LUT_3D_SIZE 5
0.095700 0.095700 0.095700
0.290700 0.095700 0.095700
0.485700 0.095700 0.095700
0.680700 0.095700 0.095700
0.875700 0.095700 0.095700
0.095700 0.290700 0.095700
0.290700 0.290700 0.095700
0.485700 0.290700 0.095700
0.680700 0.290700 0.095700
0.875700 0.290700 0.095700
0.095700 0.485700 0.095700
0.290700 0.485700 0.095700
0.485700 0.485700 0.095700
0.680700 0.485700 0.095700
0.875700 0.485700 0.095700
0.095700 0.680700 0.095700
0.290700 0.680700 0.095700
0.485700 0.680700 0.095700
0.680700 0.680700 0.095700
0.875700 0.680700 0.095700
0.095700 0.875700 0.095700
0.290700 0.875700 0.095700
0.485700 0.875700 0.095700
0.680700 0.875700 0.095700
0.875700 0.875700 0.095700
0.095700 0.095700 0.290700
0.290700 0.095700 0.290700
0.485700 0.095700 0.290700
0.680700 0.095700 0.290700
0.875700 0.095700 0.290700
0.095700 0.290700 0.290700
0.290700 0.290700 0.290700
0.485700 0.290700 0.290700
0.680700 0.290700 0.290700
0.875700 0.290700 0.290700
0.095700 0.485700 0.290700
0.290700 0.485700 0.290700
0.485700 0.485700 0.290700
0.680700 0.485700 0.290700
0.875700 0.485700 0.290700
0.095700 0.680700 0.290700
0.290700 0.680700 0.290700
0.485700 0.680700 0.290700
0.680700 0.680700 0.290700
0.875700 0.680700 0.290700
0.095700 0.875700 0.290700
0.290700 0.875700 0.290700
0.485700 0.875700 0.290700
0.680700 0.875700 0.290700
0.875700 0.875700 0.290700
0.095700 0.095700 0.485700
0.290700 0.095700 0.485700
0.485700 0.095700 0.485700
0.680700 0.095700 0.485700
0.875700 0.095700 0.485700
0.095700 0.290700 0.485700
0.290700 0.290700 0.485700
0.485700 0.290700 0.485700
0.680700 0.290700 0.485700
0.875700 0.290700 0.485700
0.095700 0.485700 0.485700
0.290700 0.485700 0.485700
0.485700 0.485700 0.485700
0.680700 0.485700 0.485700
0.875700 0.485700 0.485700
0.095700 0.680700 0.485700
0.290700 0.680700 0.485700
0.485700 0.680700 0.485700
0.680700 0.680700 0.485700
0.875700 0.680700 0.485700
0.095700 0.875700 0.485700
0.290700 0.875700 0.485700
0.485700 0.875700 0.485700
0.680700 0.875700 0.485700
0.875700 0.875700 0.485700
0.095700 0.095700 0.680700
0.290700 0.095700 0.680700
0.485700 0.095700 0.680700
0.680700 0.095700 0.680700
0.875700 0.095700 0.680700
0.095700 0.290700 0.680700
0.290700 0.290700 0.680700
0.485700 0.290700 0.680700
0.680700 0.290700 0.680700
0.875700 0.290700 0.680700
0.095700 0.485700 0.680700
0.290700 0.485700 0.680700
0.485700 0.485700 0.680700
0.680700 0.485700 0.680700
0.875700 0.485700 0.680700
0.095700 0.680700 0.680700
0.290700 0.680700 0.680700
0.485700 0.680700 0.680700
0.680700 0.680700 0.680700
0.875700 0.680700 0.680700
0.095700 0.875700 0.680700
0.290700 0.875700 0.680700
0.485700 0.875700 0.680700
0.680700 0.875700 0.680700
0.875700 0.875700 0.680700
0.095700 0.095700 0.875700
0.290700 0.095700 0.875700
0.485700 0.095700 0.875700
0.680700 0.095700 0.875700
0.875700 0.095700 0.875700
0.095700 0.290700 0.875700
0.290700 0.290700 0.875700
0.485700 0.290700 0.875700
0.680700 0.290700 0.875700
0.875700 0.290700 0.875700
0.095700 0.485700 0.875700
0.290700 0.485700 0.875700
0.485700 0.485700 0.875700
0.680700 0.485700 0.875700
0.875700 0.485700 0.875700
0.095700 0.680700 0.875700
0.290700 0.680700 0.875700
0.485700 0.680700 0.875700
0.680700 0.680700 0.875700
0.875700 0.680700 0.875700
0.095700 0.875700 0.875700
0.290700 0.875700 0.875700
0.485700 0.875700 0.875700
0.680700 0.875700 0.875700
0.875700 0.875700 0.875700
