assets/presets/luts/contrast-minus/lut.cube
TITLE "Contrast −"
LUT_3D_SIZE 9
0.095700 0.095700 0.095700
0.193200 0.095700 0.095700
0.290700 0.095700 0.095700
0.388200 0.095700 0.095700
0.485700 0.095700 0.095700
0.583200 0.095700 0.095700
0.680700 0.095700 0.095700
0.778200 0.095700 0.095700
0.875700 0.095700 0.095700
0.095700 0.193200 0.095700
0.193200 0.193200 0.095700
0.290700 0.193200 0.095700
0.388200 0.193200 0.095700
0.485700 0.193200 0.095700
0.583200 0.193200 0.095700
0.680700 0.193200 0.095700
0.778200 0.193200 0.095700
0.875700 0.193200 0.095700
0.095700 0.290700 0.095700
0.193200 0.290700 0.095700
0.290700 0.290700 0.095700
0.388200 0.290700 0.095700
0.485700 0.290700 0.095700
0.583200 0.290700 0.095700
0.680700 0.290700 0.095700
0.778200 0.290700 0.095700
0.875700 0.290700 0.095700
0.095700 0.388200 0.095700
0.193200 0.388200 0.095700
0.290700 0.388200 0.095700
0.388200 0.388200 0.095700
0.485700 0.388200 0.095700
0.583200 0.388200 0.095700
0.680700 0.388200 0.095700
0.778200 0.388200 0.095700
0.875700 0.388200 0.095700
0.095700 0.485700 0.095700
0.193200 0.485700 0.095700
0.290700 0.485700 0.095700
0.388200 0.485700 0.095700
0.485700 0.485700 0.095700
0.583200 0.485700 0.095700
0.680700 0.485700 0.095700
0.778200 0.485700 0.095700
0.875700 0.485700 0.095700
0.095700 0.583200 0.095700
0.193200 0.583200 0.095700
0.290700 0.583200 0.095700
0.388200 0.583200 0.095700
0.485700 0.583200 0.095700
0.583200 0.583200 0.095700
0.680700 0.583200 0.095700
0.778200 0.583200 0.095700
0.875700 0.583200 0.095700
0.095700 0.680700 0.095700
0.193200 0.680700 0.095700
0.290700 0.680700 0.095700
0.388200 0.680700 0.095700
0.485700 0.680700 0.095700
0.583200 0.680700 0.095700
0.680700 0.680700 0.095700
0.778200 0.680700 0.095700
0.875700 0.680700 0.095700
0.095700 0.778200 0.095700
0.193200 0.778200 0.095700
0.290700 0.778200 0.095700
0.388200 0.778200 0.095700
0.485700 0.778200 0.095700
0.583200 0.778200 0.095700
0.680700 0.778200 0.095700
0.778200 0.778200 0.095700
0.875700 0.778200 0.095700
0.095700 0.875700 0.095700
0.193200 0.875700 0.095700
0.290700 0.875700 0.095700
0.388200 0.875700 0.095700
0.485700 0.875700 0.095700
0.583200 0.875700 0.095700
0.680700 0.875700 0.095700
0.778200 0.875700 0.095700
0.875700 0.875700 0.095700
0.095700 0.095700 0.193200
0.193200 0.095700 0.193200
0.290700 0.095700 0.193200
0.388200 0.095700 0.193200
0.485700 0.095700 0.193200
0.583200 0.095700 0.193200
0.680700 0.095700 0.193200
0.778200 0.095700 0.193200
0.875700 0.095700 0.193200
0.095700 0.193200 0.193200
0.193200 0.193200 0.193200
0.290700 0.193200 0.193200
0.388200 0.193200 0.193200
0.485700 0.193200 0.193200
0.583200 0.193200 0.193200
0.680700 0.193200 0.193200
0.778200 0.193200 0.193200
0.875700 0.193200 0.193200
0.095700 0.290700 0.193200
0.193200 0.290700 0.193200
0.290700 0.290700 0.193200
0.388200 0.290700 0.193200
0.485700 0.290700 0.193200
0.583200 0.290700 0.193200
0.680700 0.290700 0.193200
0.778200 0.290700 0.193200
0.875700 0.290700 0.193200
0.095700 0.388200 0.193200
0.193200 0.388200 0.193200
0.290700 0.388200 0.193200
0.388200 0.388200 0.193200
0.485700 0.388200 0.193200
0.583200 0.388200 0.193200
0.680700 0.388200 0.193200
0.778200 0.388200 0.193200
0.875700 0.388200 0.193200
0.095700 0.485700 0.193200
0.193200 0.485700 0.193200
0.290700 0.485700 0.193200
0.388200 0.485700 0.193200
0.485700 0.485700 0.193200
0.583200 0.485700 0.193200
0.680700 0.485700 0.193200
0.778200 0.485700 0.193200
0.875700 0.485700 0.193200
0.095700 0.583200 0.193200
0.193200 0.583200 0.193200
0.290700 0.583200 0.193200
0.388200 0.583200 0.193200
0.485700 0.583200 0.193200
0.583200 0.583200 0.193200
0.680700 0.583200 0.193200
0.778200 0.583200 0.193200
0.875700 0.583200 0.193200
0.095700 0.680700 0.193200
0.193200 0.680700 0.193200
0.290700 0.680700 0.193200
0.388200 0.680700 0.193200
0.485700 0.680700 0.193200
0.583200 0.680700 0.193200
0.680700 0.680700 0.193200
0.778200 0.680700 0.193200
0.875700 0.680700 0.193200
0.095700 0.778200 0.193200
0.193200 0.778200 0.193200
0.290700 0.778200 0.193200
0.388200 0.778200 0.193200
0.485700 0.778200 0.193200
0.583200 0.778200 0.193200
0.680700 0.778200 0.193200
0.778200 0.778200 0.193200
0.875700 0.778200 0.193200
0.095700 0.875700 0.193200
0.193200 0.875700 0.193200
0.290700 0.875700 0.193200
0.388200 0.875700 0.193200
0.485700 0.875700 0.193200
0.583200 0.875700 0.193200
0.680700 0.875700 0.193200
0.778200 0.875700 0.193200
0.875700 0.875700 0.193200
0.095700 0.095700 0.290700
0.193200 0.095700 0.290700
0.290700 0.095700 0.290700
0.388200 0.095700 0.290700
0.485700 0.095700 0.290700
0.583200 0.095700 0.290700
0.680700 0.095700 0.290700
0.778200 0.095700 0.290700
0.875700 0.095700 0.290700
0.095700 0.193200 0.290700
0.193200 0.193200 0.290700
0.290700 0.193200 0.290700
0.388200 0.193200 0.290700
0.485700 0.193200 0.290700
0.583200 0.193200 0.290700
0.680700 0.193200 0.290700
0.778200 0.193200 0.290700
0.875700 0.193200 0.290700
0.095700 0.290700 0.290700
0.193200 0.290700 0.290700
0.290700 0.290700 0.290700
0.388200 0.290700 0.290700
0.485700 0.290700 0.290700
0.583200 0.290700 0.290700
0.680700 0.290700 0.290700
0.778200 0.290700 0.290700
0.875700 0.290700 0.290700
0.095700 0.388200 0.290700
0.193200 0.388200 0.290700
0.290700 0.388200 0.290700
0.388200 0.388200 0.290700
0.485700 0.388200 0.290700
0.583200 0.388200 0.290700
0.680700 0.388200 0.290700
0.778200 0.388200 0.290700
0.875700 0.388200 0.290700
0.095700 0.485700 0.290700
0.193200 0.485700 0.290700
0.290700 0.485700 0.290700
0.388200 0.485700 0.290700
0.485700 0.485700 0.290700
0.583200 0.485700 0.290700
0.680700 0.485700 0.290700
0.778200 0.485700 0.290700
0.875700 0.485700 0.290700
0.095700 0.583200 0.290700
0.193200 0.583200 0.290700
0.290700 0.583200 0.290700
0.388200 0.583200 0.290700
0.485700 0.583200 0.290700
0.583200 0.583200 0.290700
0.680700 0.583200 0.290700
0.778200 0.583200 0.290700
0.875700 0.583200 0.290700
0.095700 0.680700 0.290700
0.193200 0.680700 0.290700
0.290700 0.680700 0.290700
0.388200 0.680700 0.290700
0.485700 0.680700 0.290700
0.583200 0.680700 0.290700
0.680700 0.680700 0.290700
0.778200 0.680700 0.290700
0.875700 0.680700 0.290700
0.095700 0.778200 0.290700
0.193200 0.778200 0.290700
0.290700 0.778200 0.290700
0.388200 0.778200 0.290700
0.485700 0.778200 0.290700
0.583200 0.778200 0.290700
0.680700 0.778200 0.290700
0.778200 0.778200 0.290700
0.875700 0.778200 0.290700
0.095700 0.875700 0.290700
0.193200 0.875700 0.290700
0.290700 0.875700 0.290700
0.388200 0.875700 0.290700
0.485700 0.875700 0.290700
0.583200 0.875700 0.290700
0.680700 0.875700 0.290700
0.778200 0.875700 0.290700
0.875700 0.875700 0.290700
0.095700 0.095700 0.388200
0.193200 0.095700 0.388200
0.290700 0.095700 0.388200
0.388200 0.095700 0.388200
0.485700 0.095700 0.388200
0.583200 0.095700 0.388200
0.680700 0.095700 0.388200
0.778200 0.095700 0.388200
0.875700 0.095700 0.388200
0.095700 0.193200 0.388200
0.193200 0.193200 0.388200
0.290700 0.193200 0.388200
0.388200 0.193200 0.388200
0.485700 0.193200 0.388200
0.583200 0.193200 0.388200
0.680700 0.193200 0.388200
0.778200 0.193200 0.388200
0.875700 0.193200 0.388200
0.095700 0.290700 0.388200
0.193200 0.290700 0.388200
0.290700 0.290700 0.388200
0.388200 0.290700 0.388200
0.485700 0.290700 0.388200
0.583200 0.290700 0.388200
0.680700 0.290700 0.388200
0.778200 0.290700 0.388200
0.875700 0.290700 0.388200
0.095700 0.388200 0.388200
0.193200 0.388200 0.388200
0.290700 0.388200 0.388200
0.388200 0.388200 0.388200
0.485700 0.388200 0.388200
0.583200 0.388200 0.388200
0.680700 0.388200 0.388200
0.778200 0.388200 0.388200
0.875700 0.388200 0.388200
0.095700 0.485700 0.388200
0.193200 0.485700 0.388200
0.290700 0.485700 0.388200
0.388200 0.485700 0.388200
0.485700 0.485700 0.388200
0.583200 0.485700 0.388200
0.680700 0.485700 0.388200
0.778200 0.485700 0.388200
0.875700 0.485700 0.388200
0.095700 0.583200 0.388200
0.193200 0.583200 0.388200
0.290700 0.583200 0.388200
0.388200 0.583200 0.388200
0.485700 0.583200 0.388200
0.583200 0.583200 0.388200
0.680700 0.583200 0.388200
0.778200 0.583200 0.388200
0.875700 0.583200 0.388200
0.095700 0.680700 0.388200
0.193200 0.680700 0.388200
0.290700 0.680700 0.388200
0.388200 0.680700 0.388200
0.485700 0.680700 0.388200
0.583200 0.680700 0.388200
0.680700 0.680700 0.388200
0.778200 0.680700 0.388200
0.875700 0.680700 0.388200
0.095700 0.778200 0.388200
0.193200 0.778200 0.388200
0.290700 0.778200 0.388200
0.388200 0.778200 0.388200
0.485700 0.778200 0.388200
0.583200 0.778200 0.388200
0.680700 0.778200 0.388200
0.778200 0.778200 0.388200
0.875700 0.778200 0.388200
0.095700 0.875700 0.388200
0.193200 0.875700 0.388200
0.290700 0.875700 0.388200
0.388200 0.875700 0.388200
0.485700 0.875700 0.388200
0.583200 0.875700 0.388200
0.680700 0.875700 0.388200
0.778200 0.875700 0.388200
0.875700 0.875700 0.388200
0.095700 0.095700 0.485700
0.193200 0.095700 0.485700
0.290700 0.095700 0.485700
0.388200 0.095700 0.485700
0.485700 0.095700 0.485700
0.583200 0.095700 0.485700
0.680700 0.095700 0.485700
0.778200 0.095700 0.485700
0.875700 0.095700 0.485700
0.095700 0.193200 0.485700
0.193200 0.193200 0.485700
0.290700 0.193200 0.485700
0.388200 0.193200 0.485700
0.485700 0.193200 0.485700
0.583200 0.193200 0.485700
0.680700 0.193200 0.485700
0.778200 0.193200 0.485700
0.875700 0.193200 0.485700
0.095700 0.290700 0.485700
0.193200 0.290700 0.485700
0.290700 0.290700 0.485700
0.388200 0.290700 0.485700
0.485700 0.290700 0.485700
0.583200 0.290700 0.485700
0.680700 0.290700 0.485700
0.778200 0.290700 0.485700
0.875700 0.290700 0.485700
0.095700 0.388200 0.485700
0.193200 0.388200 0.485700
0.290700 0.388200 0.485700
0.388200 0.388200 0.485700
0.485700 0.388200 0.485700
0.583200 0.388200 0.485700
0.680700 0.388200 0.485700
0.778200 0.388200 0.485700
0.875700 0.388200 0.485700
0.095700 0.485700 0.485700
0.193200 0.485700 0.485700
0.290700 0.485700 0.485700
0.388200 0.485700 0.485700
0.485700 0.485700 0.485700
0.583200 0.485700 0.485700
0.680700 0.485700 0.485700
0.778200 0.485700 0.485700
0.875700 0.485700 0.485700
0.095700 0.583200 0.485700
0.193200 0.583200 0.485700
0.290700 0.583200 0.485700
0.388200 0.583200 0.485700
0.485700 0.583200 0.485700
0.583200 0.583200 0.485700
0.680700 0.583200 0.485700
0.778200 0.583200 0.485700
0.875700 0.583200 0.485700
0.095700 0.680700 0.485700
0.193200 0.680700 0.485700
0.290700 0.680700 0.485700
0.388200 0.680700 0.485700
0.485700 0.680700 0.485700
0.583200 0.680700 0.485700
0.680700 0.680700 0.485700
0.778200 0.680700 0.485700
0.875700 0.680700 0.485700
0.095700 0.778200 0.485700
0.193200 0.778200 0.485700
0.290700 0.778200 0.485700
0.388200 0.778200 0.485700
0.485700 0.778200 0.485700
0.583200 0.778200 0.485700
0.680700 0.778200 0.485700
0.778200 0.778200 0.485700
0.875700 0.778200 0.485700
0.095700 0.875700 0.485700
0.193200 0.875700 0.485700
0.290700 0.875700 0.485700
0.388200 0.875700 0.485700
0.485700 0.875700 0.485700
0.583200 0.875700 0.485700
0.680700 0.875700 0.485700
0.778200 0.875700 0.485700
0.875700 0.875700 0.485700
0.095700 0.095700 0.583200
0.193200 0.095700 0.583200
0.290700 0.095700 0.583200
0.388200 0.095700 0.583200
0.485700 0.095700 0.583200
0.583200 0.095700 0.583200
0.680700 0.095700 0.583200
0.778200 0.095700 0.583200
0.875700 0.095700 0.583200
0.095700 0.193200 0.583200
0.193200 0.193200 0.583200
0.290700 0.193200 0.583200
0.388200 0.193200 0.583200
0.485700 0.193200 0.583200
0.583200 0.193200 0.583200
0.680700 0.193200 0.583200
0.778200 0.193200 0.583200
0.875700 0.193200 0.583200
0.095700 0.290700 0.583200
0.193200 0.290700 0.583200
0.290700 0.290700 0.583200
0.388200 0.290700 0.583200
0.485700 0.290700 0.583200
0.583200 0.290700 0.583200
0.680700 0.290700 0.583200
0.778200 0.290700 0.583200
0.875700 0.290700 0.583200
0.095700 0.388200 0.583200
0.193200 0.388200 0.583200
0.290700 0.388200 0.583200
0.388200 0.388200 0.583200
0.485700 0.388200 0.583200
0.583200 0.388200 0.583200
0.680700 0.388200 0.583200
0.778200 0.388200 0.583200
0.875700 0.388200 0.583200
0.095700 0.485700 0.583200
0.193200 0.485700 0.583200
0.290700 0.485700 0.583200
0.388200 0.485700 0.583200
0.485700 0.485700 0.583200
0.583200 0.485700 0.583200
0.680700 0.485700 0.583200
0.778200 0.485700 0.583200
0.875700 0.485700 0.583200
0.095700 0.583200 0.583200
0.193200 0.583200 0.583200
0.290700 0.583200 0.583200
0.388200 0.583200 0.583200
0.485700 0.583200 0.583200
0.583200 0.583200 0.583200
0.680700 0.583200 0.583200
0.778200 0.583200 0.583200
0.875700 0.583200 0.583200
0.095700 0.680700 0.583200
0.193200 0.680700 0.583200
0.290700 0.680700 0.583200
0.388200 0.680700 0.583200
0.485700 0.680700 0.583200
0.583200 0.680700 0.583200
0.680700 0.680700 0.583200
0.778200 0.680700 0.583200
0.875700 0.680700 0.583200
0.095700 0.778200 0.583200
0.193200 0.778200 0.583200
0.290700 0.778200 0.583200
0.388200 0.778200 0.583200
0.485700 0.778200 0.583200
0.583200 0.778200 0.583200
0.680700 0.778200 0.583200
0.778200 0.778200 0.583200
0.875700 0.778200 0.583200
0.095700 0.875700 0.583200
0.193200 0.875700 0.583200
0.290700 0.875700 0.583200
0.388200 0.875700 0.583200
0.485700 0.875700 0.583200
0.583200 0.875700 0.583200
0.680700 0.875700 0.583200
0.778200 0.875700 0.583200
0.875700 0.875700 0.583200
0.095700 0.095700 0.680700
0.193200 0.095700 0.680700
0.290700 0.095700 0.680700
0.388200 0.095700 0.680700
0.485700 0.095700 0.680700
0.583200 0.095700 0.680700
0.680700 0.095700 0.680700
0.778200 0.095700 0.680700
0.875700 0.095700 0.680700
0.095700 0.193200 0.680700
0.193200 0.193200 0.680700
0.290700 0.193200 0.680700
0.388200 0.193200 0.680700
0.485700 0.193200 0.680700
0.583200 0.193200 0.680700
0.680700 0.193200 0.680700
0.778200 0.193200 0.680700
0.875700 0.193200 0.680700
0.095700 0.290700 0.680700
0.193200 0.290700 0.680700
0.290700 0.290700 0.680700
0.388200 0.290700 0.680700
0.485700 0.290700 0.680700
0.583200 0.290700 0.680700
0.680700 0.290700 0.680700
0.778200 0.290700 0.680700
0.875700 0.290700 0.680700
0.095700 0.388200 0.680700
0.193200 0.388200 0.680700
0.290700 0.388200 0.680700
0.388200 0.388200 0.680700
0.485700 0.388200 0.680700
0.583200 0.388200 0.680700
0.680700 0.388200 0.680700
0.778200 0.388200 0.680700
0.875700 0.388200 0.680700
0.095700 0.485700 0.680700
0.193200 0.485700 0.680700
0.290700 0.485700 0.680700
0.388200 0.485700 0.680700
0.485700 0.485700 0.680700
0.583200 0.485700 0.680700
0.680700 0.485700 0.680700
0.778200 0.485700 0.680700
0.875700 0.485700 0.680700
0.095700 0.583200 0.680700
0.193200 0.583200 0.680700
0.290700 0.583200 0.680700
0.388200 0.583200 0.680700
0.485700 0.583200 0.680700
0.583200 0.583200 0.680700
0.680700 0.583200 0.680700
0.778200 0.583200 0.680700
0.875700 0.583200 0.680700
0.095700 0.680700 0.680700
0.193200 0.680700 0.680700
0.290700 0.680700 0.680700
0.388200 0.680700 0.680700
0.485700 0.680700 0.680700
0.583200 0.680700 0.680700
0.680700 0.680700 0.680700
0.778200 0.680700 0.680700
0.875700 0.680700 0.680700
0.095700 0.778200 0.680700
0.193200 0.778200 0.680700
0.290700 0.778200 0.680700
0.388200 0.778200 0.680700
0.485700 0.778200 0.680700
0.583200 0.778200 0.680700
0.680700 0.778200 0.680700
0.778200 0.778200 0.680700
0.875700 0.778200 0.680700
0.095700 0.875700 0.680700
0.193200 0.875700 0.680700
0.290700 0.875700 0.680700
0.388200 0.875700 0.680700
0.485700 0.875700 0.680700
0.583200 0.875700 0.680700
0.680700 0.875700 0.680700
0.778200 0.875700 0.680700
0.875700 0.875700 0.680700
0.095700 0.095700 0.778200
0.193200 0.095700 0.778200
0.290700 0.095700 0.778200
0.388200 0.095700 0.778200
0.485700 0.095700 0.778200
0.583200 0.095700 0.778200
0.680700 0.095700 0.778200
0.778200 0.095700 0.778200
0.875700 0.095700 0.778200
0.095700 0.193200 0.778200
0.193200 0.193200 0.778200
0.290700 0.193200 0.778200
0.388200 0.193200 0.778200
0.485700 0.193200 0.778200
0.583200 0.193200 0.778200
0.680700 0.193200 0.778200
0.778200 0.193200 0.778200
0.875700 0.193200 0.778200
0.095700 0.290700 0.778200
0.193200 0.290700 0.778200
0.290700 0.290700 0.778200
0.388200 0.290700 0.778200
0.485700 0.290700 0.778200
0.583200 0.290700 0.778200
0.680700 0.290700 0.778200
0.778200 0.290700 0.778200
0.875700 0.290700 0.778200
0.095700 0.388200 0.778200
0.193200 0.388200 0.778200
0.290700 0.388200 0.778200
0.388200 0.388200 0.778200
0.485700 0.388200 0.778200
0.583200 0.388200 0.778200
0.680700 0.388200 0.778200
0.778200 0.388200 0.778200
0.875700 0.388200 0.778200
0.095700 0.485700 0.778200
0.193200 0.485700 0.778200
0.290700 0.485700 0.778200
0.388200 0.485700 0.778200
0.485700 0.485700 0.778200
0.583200 0.485700 0.778200
0.680700 0.485700 0.778200
0.778200 0.485700 0.778200
0.875700 0.485700 0.778200
0.095700 0.583200 0.778200
0.193200 0.583200 0.778200
0.290700 0.583200 0.778200
0.388200 0.583200 0.778200
0.485700 0.583200 0.778200
0.583200 0.583200 0.778200
0.680700 0.583200 0.778200
0.778200 0.583200 0.778200
0.875700 0.583200 0.778200
0.095700 0.680700 0.778200
0.193200 0.680700 0.778200
0.290700 0.680700 0.778200
0.388200 0.680700 0.778200
0.485700 0.680700 0.778200
0.583200 0.680700 0.778200
0.680700 0.680700 0.778200
0.778200 0.680700 0.778200
0.875700 0.680700 0.778200
0.095700 0.778200 0.778200
0.193200 0.778200 0.778200
0.290700 0.778200 0.778200
0.388200 0.778200 0.778200
0.485700 0.778200 0.778200
0.583200 0.778200 0.778200
0.680700 0.778200 0.778200
0.778200 0.778200 0.778200
0.875700 0.778200 0.778200
0.095700 0.875700 0.778200
0.193200 0.875700 0.778200
0.290700 0.875700 0.778200
0.388200 0.875700 0.778200
0.485700 0.875700 0.778200
0.583200 0.875700 0.778200
0.680700 0.875700 0.778200
0.778200 0.875700 0.778200
0.875700 0.875700 0.778200
0.095700 0.095700 0.875700
0.193200 0.095700 0.875700
0.290700 0.095700 0.875700
0.388200 0.095700 0.875700
0.485700 0.095700 0.875700
0.583200 0.095700 0.875700
0.680700 0.095700 0.875700
0.778200 0.095700 0.875700
0.875700 0.095700 0.875700
0.095700 0.193200 0.875700
0.193200 0.193200 0.875700
0.290700 0.193200 0.875700
0.388200 0.193200 0.875700
0.485700 0.193200 0.875700
0.583200 0.193200 0.875700
0.680700 0.193200 0.875700
0.778200 0.193200 0.875700
0.875700 0.193200 0.875700
0.095700 0.290700 0.875700
0.193200 0.290700 0.875700
0.290700 0.290700 0.875700
0.388200 0.290700 0.875700
0.485700 0.290700 0.875700
0.583200 0.290700 0.875700
0.680700 0.290700 0.875700
0.778200 0.290700 0.875700
0.875700 0.290700 0.875700
0.095700 0.388200 0.875700
0.193200 0.388200 0.875700
0.290700 0.388200 0.875700
0.388200 0.388200 0.875700
0.485700 0.388200 0.875700
0.583200 0.388200 0.875700
0.680700 0.388200 0.875700
0.778200 0.388200 0.875700
0.875700 0.388200 0.875700
0.095700 0.485700 0.875700
0.193200 0.485700 0.875700
0.290700 0.485700 0.875700
0.388200 0.485700 0.875700
0.485700 0.485700 0.875700
0.583200 0.485700 0.875700
0.680700 0.485700 0.875700
0.778200 0.485700 0.875700
0.875700 0.485700 0.875700
0.095700 0.583200 0.875700
0.193200 0.583200 0.875700
0.290700 0.583200 0.875700
0.388200 0.583200 0.875700
0.485700 0.583200 0.875700
0.583200 0.583200 0.875700
0.680700 0.583200 0.875700
0.778200 0.583200 0.875700
0.875700 0.583200 0.875700
0.095700 0.680700 0.875700
0.193200 0.680700 0.875700
0.290700 0.680700 0.875700
0.388200 0.680700 0.875700
0.485700 0.680700 0.875700
0.583200 0.680700 0.875700
0.680700 0.680700 0.875700
0.778200 0.680700 0.875700
0.875700 0.680700 0.875700
0.095700 0.778200 0.875700
0.193200 0.778200 0.875700
0.290700 0.778200 0.875700
0.388200 0.778200 0.875700
0.485700 0.778200 0.875700
0.583200 0.778200 0.875700
0.680700 0.778200 0.875700
0.778200 0.778200 0.875700
0.875700 0.778200 0.875700
0.095700 0.875700 0.875700
0.193200 0.875700 0.875700
0.290700 0.875700 0.875700
0.388200 0.875700 0.875700
0.485700 0.875700 0.875700
0.583200 0.875700 0.875700
0.680700 0.875700 0.875700
0.778200 0.875700 0.875700
0.875700 0.875700 0.875700
