assets/presets/luts/vlog-rec709/lut.cube
TITLE "V-Log to Rec.709"
LUT_3D_SIZE 5
0.000000 0.000000 0.000000
0.072357 0.000000 0.000000
0.820802 0.000000 0.000000
1.000000 0.000000 0.000000
1.000000 0.000000 0.000000
0.000000 0.070607 0.000000
0.069867 0.069867 0.000000
0.818313 0.062213 0.000000
1.000000 0.059977 0.000000
1.000000 0.059977 0.000000
0.000000 0.800957 0.000000
0.044117 0.800217 0.000000
0.792562 0.792562 0.000000
1.000000 0.790327 0.000000
1.000000 0.790327 0.000000
0.000000 1.000000 0.000000
0.036597 1.000000 0.000000
0.785042 1.000000 0.000000
1.000000 1.000000 0.000000
1.000000 1.000000 0.000000
0.000000 1.000000 0.000000
0.036597 1.000000 0.000000
0.785042 1.000000 0.000000
1.000000 1.000000 0.000000
1.000000 1.000000 0.000000
0.000000 0.000000 0.072845
0.072105 0.000000 0.072105
0.820551 0.000000 0.064451
1.000000 0.000000 0.062215
1.000000 0.000000 0.062215
0.000000 0.070356 0.070356
0.069616 0.069616 0.069616
0.818062 0.061961 0.061961
1.000000 0.059726 0.059726
1.000000 0.059726 0.059726
0.000000 0.800706 0.044605
0.043865 0.799966 0.043865
0.792311 0.792311 0.036211
1.000000 0.790076 0.033975
1.000000 0.790076 0.033975
0.000000 1.000000 0.037085
0.036345 1.000000 0.036345
0.784791 1.000000 0.028691
1.000000 1.000000 0.026455
1.000000 1.000000 0.026455
0.000000 1.000000 0.037085
0.036345 1.000000 0.036345
0.784791 1.000000 0.028691
1.000000 1.000000 0.026455
1.000000 1.000000 0.026455
0.000000 0.000000 0.826346
0.069506 0.000000 0.825606
0.817952 0.000000 0.817952
1.000000 0.000000 0.815716
1.000000 0.000000 0.815716
0.000000 0.067756 0.823857
0.067016 0.067016 0.823117
0.815462 0.059362 0.815462
1.000000 0.057126 0.813227
1.000000 0.057126 0.813227
0.000000 0.798106 0.798106
0.041266 0.797366 0.797366
0.789711 0.789711 0.789711
1.000000 0.787476 0.787476
1.000000 0.787476 0.787476
0.000000 1.000000 0.790586
0.033746 1.000000 0.789846
0.782192 1.000000 0.782192
1.000000 1.000000 0.779956
1.000000 1.000000 0.779956
0.000000 1.000000 0.790586
0.033746 1.000000 0.789846
0.782192 1.000000 0.782192
1.000000 1.000000 0.779956
1.000000 1.000000 0.779956
0.000000 0.000000 1.000000
0.068747 0.000000 1.000000
0.817192 0.000000 1.000000
1.000000 0.000000 1.000000
1.000000 0.000000 1.000000
0.000000 0.066997 1.000000
0.066257 0.066257 1.000000
0.814703 0.058603 1.000000
1.000000 0.056367 1.000000
1.000000 0.056367 1.000000
0.000000 0.797347 1.000000
0.040507 0.796607 1.000000
0.788952 0.788952 1.000000
1.000000 0.786717 1.000000
1.000000 0.786717 1.000000
0.000000 1.000000 1.000000
0.032987 1.000000 1.000000
0.781432 1.000000 1.000000
1.000000 1.000000 1.000000
1.000000 1.000000 1.000000
0.000000 1.000000 1.000000
0.032987 1.000000 1.000000
0.781432 1.000000 1.000000
1.000000 1.000000 1.000000
1.000000 1.000000 1.000000
0.000000 0.000000 1.000000
0.068747 0.000000 1.000000
0.817192 0.000000 1.000000
1.000000 0.000000 1.000000
1.000000 0.000000 1.000000
0.000000 0.066997 1.000000
0.066257 0.066257 1.000000
0.814703 0.058603 1.000000
1.000000 0.056367 1.000000
1.000000 0.056367 1.000000
0.000000 0.797347 1.000000
0.040507 0.796607 1.000000
0.788952 0.788952 1.000000
1.000000 0.786717 1.000000
1.000000 0.786717 1.000000
0.000000 1.000000 1.000000
0.032987 1.000000 1.000000
0.781432 1.000000 1.000000
1.000000 1.000000 1.000000
1.000000 1.000000 1.000000
0.000000 1.000000 1.000000
0.032987 1.000000 1.000000
0.781432 1.000000 1.000000
1.000000 1.000000 1.000000
1.000000 1.000000 1.000000
