assets/presets/luts/vlog-rec709/lut.cube
TITLE "V-Log to Rec.709"
LUT_3D_SIZE 17
0.000000 0.000000 0.000000
0.000000 0.000000 0.000000
0.000000 0.000000 0.000000
0.020419 0.000000 0.000000
0.072357 0.000000 0.000000
0.163842 0.000000 0.000000
0.314753 0.000000 0.000000
0.541708 0.000000 0.000000
0.820802 0.000000 0.000000
1.000000 0.000000 0.000000
1.000000 0.000000 0.000000
1.000000 0.000000 0.000000
1.000000 0.000000 0.000000
1.000000 0.000000 0.000000
1.000000 0.000000 0.000000
1.000000 0.000000 0.000000
1.000000 0.000000 0.000000
0.000000 0.000000 0.000000
0.000000 0.000000 0.000000
0.000000 0.000000 0.000000
0.020419 0.000000 0.000000
0.072357 0.000000 0.000000
0.163842 0.000000 0.000000
0.314753 0.000000 0.000000
0.541708 0.000000 0.000000
0.820802 0.000000 0.000000
1.000000 0.000000 0.000000
1.000000 0.000000 0.000000
1.000000 0.000000 0.000000
1.000000 0.000000 0.000000
1.000000 0.000000 0.000000
1.000000 0.000000 0.000000
1.000000 0.000000 0.000000
1.000000 0.000000 0.000000
0.000000 0.000000 0.000000
0.000000 0.000000 0.000000
0.000000 0.000000 0.000000
0.020419 0.000000 0.000000
0.072357 0.000000 0.000000
0.163842 0.000000 0.000000
0.314753 0.000000 0.000000
0.541708 0.000000 0.000000
0.820802 0.000000 0.000000
1.000000 0.000000 0.000000
1.000000 0.000000 0.000000
1.000000 0.000000 0.000000
1.000000 0.000000 0.000000
1.000000 0.000000 0.000000
1.000000 0.000000 0.000000
1.000000 0.000000 0.000000
1.000000 0.000000 0.000000
0.000000 0.019926 0.000000
0.000000 0.019926 0.000000
0.000000 0.019926 0.000000
0.019717 0.019717 0.000000
0.071654 0.019185 0.000000
0.163139 0.018250 0.000000
0.314051 0.016706 0.000000
0.541005 0.014385 0.000000
0.820100 0.011531 0.000000
1.000000 0.009379 0.000000
1.000000 0.009296 0.000000
1.000000 0.009296 0.000000
1.000000 0.009296 0.000000
1.000000 0.009296 0.000000
1.000000 0.009296 0.000000
1.000000 0.009296 0.000000
1.000000 0.009296 0.000000
0.000000 0.070607 0.000000
0.000000 0.070607 0.000000
0.000000 0.070607 0.000000
0.017930 0.070398 0.000000
0.069867 0.069867 0.000000
0.161352 0.068932 0.000000
0.312264 0.067388 0.000000
0.539218 0.065067 0.000000
0.818313 0.062213 0.000000
1.000000 0.060061 0.000000
1.000000 0.059977 0.000000
1.000000 0.059977 0.000000
1.000000 0.059977 0.000000
1.000000 0.059977 0.000000
1.000000 0.059977 0.000000
1.000000 0.059977 0.000000
1.000000 0.059977 0.000000
0.000000 0.159880 0.000000
0.000000 0.159880 0.000000
0.000000 0.159880 0.000000
0.014782 0.159671 0.000000
0.066720 0.159140 0.000000
0.158205 0.158205 0.000000
0.309116 0.156661 0.000000
0.536071 0.154340 0.000000
0.815165 0.151486 0.000000
1.000000 0.149334 0.000000
1.000000 0.149250 0.000000
1.000000 0.149250 0.000000
1.000000 0.149250 0.000000
1.000000 0.149250 0.000000
1.000000 0.149250 0.000000
1.000000 0.149250 0.000000
1.000000 0.149250 0.000000
0.000000 0.307143 0.000000
0.000000 0.307143 0.000000
0.000000 0.307143 0.000000
0.009590 0.306934 0.000000
0.061527 0.306403 0.000000
0.153012 0.305468 0.000000
0.303924 0.303924 0.000000
0.530879 0.301603 0.000000
0.809973 0.298749 0.000000
1.000000 0.296597 0.000000
1.000000 0.296513 0.000000
1.000000 0.296513 0.000000
1.000000 0.296513 0.000000
1.000000 0.296513 0.000000
1.000000 0.296513 0.000000
1.000000 0.296513 0.000000
1.000000 0.296513 0.000000
0.000000 0.528610 0.000000
0.000000 0.528610 0.000000
0.000000 0.528610 0.000000
0.001782 0.528402 0.000000
0.053719 0.527870 0.000000
0.145204 0.526935 0.000000
0.296116 0.525391 0.000000
0.523070 0.523070 0.000000
0.802165 0.520216 0.000000
1.000000 0.518064 0.000000
1.000000 0.517980 0.000000
1.000000 0.517980 0.000000
1.000000 0.517980 0.000000
1.000000 0.517980 0.000000
1.000000 0.517980 0.000000
1.000000 0.517980 0.000000
1.000000 0.517980 0.000000
0.000000 0.800957 0.000000
0.000000 0.800957 0.000000
0.000000 0.800957 0.000000
0.000000 0.800748 0.000000
0.044117 0.800217 0.000000
0.135601 0.799281 0.000000
0.286513 0.797738 0.000000
0.513468 0.795417 0.000000
0.792562 0.792562 0.000000
1.000000 0.790411 0.000000
1.000000 0.790327 0.000000
1.000000 0.790327 0.000000
1.000000 0.790327 0.000000
1.000000 0.790327 0.000000
1.000000 0.790327 0.000000
1.000000 0.790327 0.000000
1.000000 0.790327 0.000000
0.000000 1.000000 0.000000
0.000000 1.000000 0.000000
0.000000 1.000000 0.000000
0.000000 1.000000 0.000000
0.036878 1.000000 0.000000
0.128363 1.000000 0.000000
0.279275 1.000000 0.000000
0.506230 1.000000 0.000000
0.785324 0.997852 0.000000
0.995701 0.995701 0.000000
1.000000 0.995617 0.000000
1.000000 0.995617 0.000000
1.000000 0.995617 0.000000
1.000000 0.995617 0.000000
1.000000 0.995617 0.000000
1.000000 0.995617 0.000000
1.000000 0.995617 0.000000
0.000000 1.000000 0.000000
0.000000 1.000000 0.000000
0.000000 1.000000 0.000000
0.000000 1.000000 0.000000
0.036597 1.000000 0.000000
0.128082 1.000000 0.000000
0.278993 1.000000 0.000000
0.505948 1.000000 0.000000
0.785042 1.000000 0.000000
0.995419 1.000000 0.000000
1.000000 1.000000 0.000000
1.000000 1.000000 0.000000
1.000000 1.000000 0.000000
1.000000 1.000000 0.000000
1.000000 1.000000 0.000000
1.000000 1.000000 0.000000
1.000000 1.000000 0.000000
0.000000 1.000000 0.000000
0.000000 1.000000 0.000000
0.000000 1.000000 0.000000
0.000000 1.000000 0.000000
0.036597 1.000000 0.000000
0.128082 1.000000 0.000000
0.278993 1.000000 0.000000
0.505948 1.000000 0.000000
0.785042 1.000000 0.000000
0.995419 1.000000 0.000000
1.000000 1.000000 0.000000
1.000000 1.000000 0.000000
1.000000 1.000000 0.000000
1.000000 1.000000 0.000000
1.000000 1.000000 0.000000
1.000000 1.000000 0.000000
1.000000 1.000000 0.000000
0.000000 1.000000 0.000000
0.000000 1.000000 0.000000
0.000000 1.000000 0.000000
0.000000 1.000000 0.000000
0.036597 1.000000 0.000000
0.128082 1.000000 0.000000
0.278993 1.000000 0.000000
0.505948 1.000000 0.000000
0.785042 1.000000 0.000000
0.995419 1.000000 0.000000
1.000000 1.000000 0.000000
1.000000 1.000000 0.000000
1.000000 1.000000 0.000000
1.000000 1.000000 0.000000
1.000000 1.000000 0.000000
1.000000 1.000000 0.000000
1.000000 1.000000 0.000000
0.000000 1.000000 0.000000
0.000000 1.000000 0.000000
0.000000 1.000000 0.000000
0.000000 1.000000 0.000000
0.036597 1.000000 0.000000
0.128082 1.000000 0.000000
0.278993 1.000000 0.000000
0.505948 1.000000 0.000000
0.785042 1.000000 0.000000
0.995419 1.000000 0.000000
1.000000 1.000000 0.000000
1.000000 1.000000 0.000000
1.000000 1.000000 0.000000
1.000000 1.000000 0.000000
1.000000 1.000000 0.000000
1.000000 1.000000 0.000000
1.000000 1.000000 0.000000
0.000000 1.000000 0.000000
0.000000 1.000000 0.000000
0.000000 1.000000 0.000000
0.000000 1.000000 0.000000
0.036597 1.000000 0.000000
0.128082 1.000000 0.000000
0.278993 1.000000 0.000000
0.505948 1.000000 0.000000
0.785042 1.000000 0.000000
0.995419 1.000000 0.000000
1.000000 1.000000 0.000000
1.000000 1.000000 0.000000
1.000000 1.000000 0.000000
1.000000 1.000000 0.000000
1.000000 1.000000 0.000000
1.000000 1.000000 0.000000
1.000000 1.000000 0.000000
0.000000 1.000000 0.000000
0.000000 1.000000 0.000000
0.000000 1.000000 0.000000
0.000000 1.000000 0.000000
0.036597 1.000000 0.000000
0.128082 1.000000 0.000000
0.278993 1.000000 0.000000
0.505948 1.000000 0.000000
0.785042 1.000000 0.000000
0.995419 1.000000 0.000000
1.000000 1.000000 0.000000
1.000000 1.000000 0.000000
1.000000 1.000000 0.000000
1.000000 1.000000 0.000000
1.000000 1.000000 0.000000
1.000000 1.000000 0.000000
1.000000 1.000000 0.000000
0.000000 1.000000 0.000000
0.000000 1.000000 0.000000
0.000000 1.000000 0.000000
0.000000 1.000000 0.000000
0.036597 1.000000 0.000000
0.128082 1.000000 0.000000
0.278993 1.000000 0.000000
0.505948 1.000000 0.000000
0.785042 1.000000 0.000000
0.995419 1.000000 0.000000
1.000000 1.000000 0.000000
1.000000 1.000000 0.000000
1.000000 1.000000 0.000000
1.000000 1.000000 0.000000
1.000000 1.000000 0.000000
1.000000 1.000000 0.000000
1.000000 1.000000 0.000000
0.000000 0.000000 0.000000
0.000000 0.000000 0.000000
0.000000 0.000000 0.000000
0.020419 0.000000 0.000000
0.072357 0.000000 0.000000
0.163842 0.000000 0.000000
0.314753 0.000000 0.000000
0.541708 0.000000 0.000000
0.820802 0.000000 0.000000
1.000000 0.000000 0.000000
1.000000 0.000000 0.000000
1.000000 0.000000 0.000000
1.000000 0.000000 0.000000
1.000000 0.000000 0.000000
1.000000 0.000000 0.000000
1.000000 0.000000 0.000000
1.000000 0.000000 0.000000
0.000000 0.000000 0.000000
0.000000 0.000000 0.000000
0.000000 0.000000 0.000000
0.020419 0.000000 0.000000
0.072357 0.000000 0.000000
0.163842 0.000000 0.000000
0.314753 0.000000 0.000000
0.541708 0.000000 0.000000
0.820802 0.000000 0.000000
1.000000 0.000000 0.000000
1.000000 0.000000 0.000000
1.000000 0.000000 0.000000
1.000000 0.000000 0.000000
1.000000 0.000000 0.000000
1.000000 0.000000 0.000000
1.000000 0.000000 0.000000
1.000000 0.000000 0.000000
0.000000 0.000000 0.000000
0.000000 0.000000 0.000000
0.000000 0.000000 0.000000
0.020419 0.000000 0.000000
0.072357 0.000000 0.000000
0.163842 0.000000 0.000000
0.314753 0.000000 0.000000
0.541708 0.000000 0.000000
0.820802 0.000000 0.000000
1.000000 0.000000 0.000000
1.000000 0.000000 0.000000
1.000000 0.000000 0.000000
1.000000 0.000000 0.000000
1.000000 0.000000 0.000000
1.000000 0.000000 0.000000
1.000000 0.000000 0.000000
1.000000 0.000000 0.000000
0.000000 0.019926 0.000000
0.000000 0.019926 0.000000
0.000000 0.019926 0.000000
0.019717 0.019717 0.000000
0.071654 0.019185 0.000000
0.163139 0.018250 0.000000
0.314051 0.016706 0.000000
0.541005 0.014385 0.000000
0.820100 0.011531 0.000000
1.000000 0.009379 0.000000
1.000000 0.009296 0.000000
1.000000 0.009296 0.000000
1.000000 0.009296 0.000000
1.000000 0.009296 0.000000
1.000000 0.009296 0.000000
1.000000 0.009296 0.000000
1.000000 0.009296 0.000000
0.000000 0.070607 0.000000
0.000000 0.070607 0.000000
0.000000 0.070607 0.000000
0.017930 0.070398 0.000000
0.069867 0.069867 0.000000
0.161352 0.068932 0.000000
0.312264 0.067388 0.000000
0.539218 0.065067 0.000000
0.818313 0.062213 0.000000
1.000000 0.060061 0.000000
1.000000 0.059977 0.000000
1.000000 0.059977 0.000000
1.000000 0.059977 0.000000
1.000000 0.059977 0.000000
1.000000 0.059977 0.000000
1.000000 0.059977 0.000000
1.000000 0.059977 0.000000
0.000000 0.159880 0.000000
0.000000 0.159880 0.000000
0.000000 0.159880 0.000000
0.014782 0.159671 0.000000
0.066720 0.159140 0.000000
0.158205 0.158205 0.000000
0.309116 0.156661 0.000000
0.536071 0.154340 0.000000
0.815165 0.151486 0.000000
1.000000 0.149334 0.000000
1.000000 0.149250 0.000000
1.000000 0.149250 0.000000
1.000000 0.149250 0.000000
1.000000 0.149250 0.000000
1.000000 0.149250 0.000000
1.000000 0.149250 0.000000
1.000000 0.149250 0.000000
0.000000 0.307143 0.000000
0.000000 0.307143 0.000000
0.000000 0.307143 0.000000
0.009590 0.306934 0.000000
0.061527 0.306403 0.000000
0.153012 0.305468 0.000000
0.303924 0.303924 0.000000
0.530879 0.301603 0.000000
0.809973 0.298749 0.000000
1.000000 0.296597 0.000000
1.000000 0.296513 0.000000
1.000000 0.296513 0.000000
1.000000 0.296513 0.000000
1.000000 0.296513 0.000000
1.000000 0.296513 0.000000
1.000000 0.296513 0.000000
1.000000 0.296513 0.000000
0.000000 0.528610 0.000000
0.000000 0.528610 0.000000
0.000000 0.528610 0.000000
0.001782 0.528402 0.000000
0.053719 0.527870 0.000000
0.145204 0.526935 0.000000
0.296116 0.525391 0.000000
0.523070 0.523070 0.000000
0.802165 0.520216 0.000000
1.000000 0.518064 0.000000
1.000000 0.517980 0.000000
1.000000 0.517980 0.000000
1.000000 0.517980 0.000000
1.000000 0.517980 0.000000
1.000000 0.517980 0.000000
1.000000 0.517980 0.000000
1.000000 0.517980 0.000000
0.000000 0.800957 0.000000
0.000000 0.800957 0.000000
0.000000 0.800957 0.000000
0.000000 0.800748 0.000000
0.044117 0.800217 0.000000
0.135601 0.799281 0.000000
0.286513 0.797738 0.000000
0.513468 0.795417 0.000000
0.792562 0.792562 0.000000
1.000000 0.790411 0.000000
1.000000 0.790327 0.000000
1.000000 0.790327 0.000000
1.000000 0.790327 0.000000
1.000000 0.790327 0.000000
1.000000 0.790327 0.000000
1.000000 0.790327 0.000000
1.000000 0.790327 0.000000
0.000000 1.000000 0.000000
0.000000 1.000000 0.000000
0.000000 1.000000 0.000000
0.000000 1.000000 0.000000
0.036878 1.000000 0.000000
0.128363 1.000000 0.000000
0.279275 1.000000 0.000000
0.506230 1.000000 0.000000
0.785324 0.997852 0.000000
0.995701 0.995701 0.000000
1.000000 0.995617 0.000000
1.000000 0.995617 0.000000
1.000000 0.995617 0.000000
1.000000 0.995617 0.000000
1.000000 0.995617 0.000000
1.000000 0.995617 0.000000
1.000000 0.995617 0.000000
0.000000 1.000000 0.000000
0.000000 1.000000 0.000000
0.000000 1.000000 0.000000
0.000000 1.000000 0.000000
0.036597 1.000000 0.000000
0.128082 1.000000 0.000000
0.278993 1.000000 0.000000
0.505948 1.000000 0.000000
0.785042 1.000000 0.000000
0.995419 1.000000 0.000000
1.000000 1.000000 0.000000
1.000000 1.000000 0.000000
1.000000 1.000000 0.000000
1.000000 1.000000 0.000000
1.000000 1.000000 0.000000
1.000000 1.000000 0.000000
1.000000 1.000000 0.000000
0.000000 1.000000 0.000000
0.000000 1.000000 0.000000
0.000000 1.000000 0.000000
0.000000 1.000000 0.000000
0.036597 1.000000 0.000000
0.128082 1.000000 0.000000
0.278993 1.000000 0.000000
0.505948 1.000000 0.000000
0.785042 1.000000 0.000000
0.995419 1.000000 0.000000
1.000000 1.000000 0.000000
1.000000 1.000000 0.000000
1.000000 1.000000 0.000000
1.000000 1.000000 0.000000
1.000000 1.000000 0.000000
1.000000 1.000000 0.000000
1.000000 1.000000 0.000000
0.000000 1.000000 0.000000
0.000000 1.000000 0.000000
0.000000 1.000000 0.000000
0.000000 1.000000 0.000000
0.036597 1.000000 0.000000
0.128082 1.000000 0.000000
0.278993 1.000000 0.000000
0.505948 1.000000 0.000000
0.785042 1.000000 0.000000
0.995419 1.000000 0.000000
1.000000 1.000000 0.000000
1.000000 1.000000 0.000000
1.000000 1.000000 0.000000
1.000000 1.000000 0.000000
1.000000 1.000000 0.000000
1.000000 1.000000 0.000000
1.000000 1.000000 0.000000
0.000000 1.000000 0.000000
0.000000 1.000000 0.000000
0.000000 1.000000 0.000000
0.000000 1.000000 0.000000
0.036597 1.000000 0.000000
0.128082 1.000000 0.000000
0.278993 1.000000 0.000000
0.505948 1.000000 0.000000
0.785042 1.000000 0.000000
0.995419 1.000000 0.000000
1.000000 1.000000 0.000000
1.000000 1.000000 0.000000
1.000000 1.000000 0.000000
1.000000 1.000000 0.000000
1.000000 1.000000 0.000000
1.000000 1.000000 0.000000
1.000000 1.000000 0.000000
0.000000 1.000000 0.000000
0.000000 1.000000 0.000000
0.000000 1.000000 0.000000
0.000000 1.000000 0.000000
0.036597 1.000000 0.000000
0.128082 1.000000 0.000000
0.278993 1.000000 0.000000
0.505948 1.000000 0.000000
0.785042 1.000000 0.000000
0.995419 1.000000 0.000000
1.000000 1.000000 0.000000
1.000000 1.000000 0.000000
1.000000 1.000000 0.000000
1.000000 1.000000 0.000000
1.000000 1.000000 0.000000
1.000000 1.000000 0.000000
1.000000 1.000000 0.000000
0.000000 1.000000 0.000000
0.000000 1.000000 0.000000
0.000000 1.000000 0.000000
0.000000 1.000000 0.000000
0.036597 1.000000 0.000000
0.128082 1.000000 0.000000
0.278993 1.000000 0.000000
0.505948 1.000000 0.000000
0.785042 1.000000 0.000000
0.995419 1.000000 0.000000
1.000000 1.000000 0.000000
1.000000 1.000000 0.000000
1.000000 1.000000 0.000000
1.000000 1.000000 0.000000
1.000000 1.000000 0.000000
1.000000 1.000000 0.000000
1.000000 1.000000 0.000000
0.000000 1.000000 0.000000
0.000000 1.000000 0.000000
0.000000 1.000000 0.000000
0.000000 1.000000 0.000000
0.036597 1.000000 0.000000
0.128082 1.000000 0.000000
0.278993 1.000000 0.000000
0.505948 1.000000 0.000000
0.785042 1.000000 0.000000
0.995419 1.000000 0.000000
1.000000 1.000000 0.000000
1.000000 1.000000 0.000000
1.000000 1.000000 0.000000
1.000000 1.000000 0.000000
1.000000 1.000000 0.000000
1.000000 1.000000 0.000000
1.000000 1.000000 0.000000
0.000000 0.000000 0.000000
0.000000 0.000000 0.000000
0.000000 0.000000 0.000000
0.020419 0.000000 0.000000
0.072357 0.000000 0.000000
0.163842 0.000000 0.000000
0.314753 0.000000 0.000000
0.541708 0.000000 0.000000
0.820802 0.000000 0.000000
1.000000 0.000000 0.000000
1.000000 0.000000 0.000000
1.000000 0.000000 0.000000
1.000000 0.000000 0.000000
1.000000 0.000000 0.000000
1.000000 0.000000 0.000000
1.000000 0.000000 0.000000
1.000000 0.000000 0.000000
0.000000 0.000000 0.000000
0.000000 0.000000 0.000000
0.000000 0.000000 0.000000
0.020419 0.000000 0.000000
0.072357 0.000000 0.000000
0.163842 0.000000 0.000000
0.314753 0.000000 0.000000
0.541708 0.000000 0.000000
0.820802 0.000000 0.000000
1.000000 0.000000 0.000000
1.000000 0.000000 0.000000
1.000000 0.000000 0.000000
1.000000 0.000000 0.000000
1.000000 0.000000 0.000000
1.000000 0.000000 0.000000
1.000000 0.000000 0.000000
1.000000 0.000000 0.000000
0.000000 0.000000 0.000000
0.000000 0.000000 0.000000
0.000000 0.000000 0.000000
0.020419 0.000000 0.000000
0.072357 0.000000 0.000000
0.163842 0.000000 0.000000
0.314753 0.000000 0.000000
0.541708 0.000000 0.000000
0.820802 0.000000 0.000000
1.000000 0.000000 0.000000
1.000000 0.000000 0.000000
1.000000 0.000000 0.000000
1.000000 0.000000 0.000000
1.000000 0.000000 0.000000
1.000000 0.000000 0.000000
1.000000 0.000000 0.000000
1.000000 0.000000 0.000000
0.000000 0.019926 0.000000
0.000000 0.019926 0.000000
0.000000 0.019926 0.000000
0.019717 0.019717 0.000000
0.071654 0.019185 0.000000
0.163139 0.018250 0.000000
0.314051 0.016706 0.000000
0.541005 0.014385 0.000000
0.820100 0.011531 0.000000
1.000000 0.009379 0.000000
1.000000 0.009296 0.000000
1.000000 0.009296 0.000000
1.000000 0.009296 0.000000
1.000000 0.009296 0.000000
1.000000 0.009296 0.000000
1.000000 0.009296 0.000000
1.000000 0.009296 0.000000
0.000000 0.070607 0.000000
0.000000 0.070607 0.000000
0.000000 0.070607 0.000000
0.017930 0.070398 0.000000
0.069867 0.069867 0.000000
0.161352 0.068932 0.000000
0.312264 0.067388 0.000000
0.539218 0.065067 0.000000
0.818313 0.062213 0.000000
1.000000 0.060061 0.000000
1.000000 0.059977 0.000000
1.000000 0.059977 0.000000
1.000000 0.059977 0.000000
1.000000 0.059977 0.000000
1.000000 0.059977 0.000000
1.000000 0.059977 0.000000
1.000000 0.059977 0.000000
0.000000 0.159880 0.000000
0.000000 0.159880 0.000000
0.000000 0.159880 0.000000
0.014782 0.159671 0.000000
0.066720 0.159140 0.000000
0.158205 0.158205 0.000000
0.309116 0.156661 0.000000
0.536071 0.154340 0.000000
0.815165 0.151486 0.000000
1.000000 0.149334 0.000000
1.000000 0.149250 0.000000
1.000000 0.149250 0.000000
1.000000 0.149250 0.000000
1.000000 0.149250 0.000000
1.000000 0.149250 0.000000
1.000000 0.149250 0.000000
1.000000 0.149250 0.000000
0.000000 0.307143 0.000000
0.000000 0.307143 0.000000
0.000000 0.307143 0.000000
0.009590 0.306934 0.000000
0.061527 0.306403 0.000000
0.153012 0.305468 0.000000
0.303924 0.303924 0.000000
0.530879 0.301603 0.000000
0.809973 0.298749 0.000000
1.000000 0.296597 0.000000
1.000000 0.296513 0.000000
1.000000 0.296513 0.000000
1.000000 0.296513 0.000000
1.000000 0.296513 0.000000
1.000000 0.296513 0.000000
1.000000 0.296513 0.000000
1.000000 0.296513 0.000000
0.000000 0.528610 0.000000
0.000000 0.528610 0.000000
0.000000 0.528610 0.000000
0.001782 0.528402 0.000000
0.053719 0.527870 0.000000
0.145204 0.526935 0.000000
0.296116 0.525391 0.000000
0.523070 0.523070 0.000000
0.802165 0.520216 0.000000
1.000000 0.518064 0.000000
1.000000 0.517980 0.000000
1.000000 0.517980 0.000000
1.000000 0.517980 0.000000
1.000000 0.517980 0.000000
1.000000 0.517980 0.000000
1.000000 0.517980 0.000000
1.000000 0.517980 0.000000
0.000000 0.800957 0.000000
0.000000 0.800957 0.000000
0.000000 0.800957 0.000000
0.000000 0.800748 0.000000
0.044117 0.800217 0.000000
0.135601 0.799281 0.000000
0.286513 0.797738 0.000000
0.513468 0.795417 0.000000
0.792562 0.792562 0.000000
1.000000 0.790411 0.000000
1.000000 0.790327 0.000000
1.000000 0.790327 0.000000
1.000000 0.790327 0.000000
1.000000 0.790327 0.000000
1.000000 0.790327 0.000000
1.000000 0.790327 0.000000
1.000000 0.790327 0.000000
0.000000 1.000000 0.000000
0.000000 1.000000 0.000000
0.000000 1.000000 0.000000
0.000000 1.000000 0.000000
0.036878 1.000000 0.000000
0.128363 1.000000 0.000000
0.279275 1.000000 0.000000
0.506230 1.000000 0.000000
0.785324 0.997852 0.000000
0.995701 0.995701 0.000000
1.000000 0.995617 0.000000
1.000000 0.995617 0.000000
1.000000 0.995617 0.000000
1.000000 0.995617 0.000000
1.000000 0.995617 0.000000
1.000000 0.995617 0.000000
1.000000 0.995617 0.000000
0.000000 1.000000 0.000000
0.000000 1.000000 0.000000
0.000000 1.000000 0.000000
0.000000 1.000000 0.000000
0.036597 1.000000 0.000000
0.128082 1.000000 0.000000
0.278993 1.000000 0.000000
0.505948 1.000000 0.000000
0.785042 1.000000 0.000000
0.995419 1.000000 0.000000
1.000000 1.000000 0.000000
1.000000 1.000000 0.000000
1.000000 1.000000 0.000000
1.000000 1.000000 0.000000
1.000000 1.000000 0.000000
1.000000 1.000000 0.000000
1.000000 1.000000 0.000000
0.000000 1.000000 0.000000
0.000000 1.000000 0.000000
0.000000 1.000000 0.000000
0.000000 1.000000 0.000000
0.036597 1.000000 0.000000
0.128082 1.000000 0.000000
0.278993 1.000000 0.000000
0.505948 1.000000 0.000000
0.785042 1.000000 0.000000
0.995419 1.000000 0.000000
1.000000 1.000000 0.000000
1.000000 1.000000 0.000000
1.000000 1.000000 0.000000
1.000000 1.000000 0.000000
1.000000 1.000000 0.000000
1.000000 1.000000 0.000000
1.000000 1.000000 0.000000
0.000000 1.000000 0.000000
0.000000 1.000000 0.000000
0.000000 1.000000 0.000000
0.000000 1.000000 0.000000
0.036597 1.000000 0.000000
0.128082 1.000000 0.000000
0.278993 1.000000 0.000000
0.505948 1.000000 0.000000
0.785042 1.000000 0.000000
0.995419 1.000000 0.000000
1.000000 1.000000 0.000000
1.000000 1.000000 0.000000
1.000000 1.000000 0.000000
1.000000 1.000000 0.000000
1.000000 1.000000 0.000000
1.000000 1.000000 0.000000
1.000000 1.000000 0.000000
0.000000 1.000000 0.000000
0.000000 1.000000 0.000000
0.000000 1.000000 0.000000
0.000000 1.000000 0.000000
0.036597 1.000000 0.000000
0.128082 1.000000 0.000000
0.278993 1.000000 0.000000
0.505948 1.000000 0.000000
0.785042 1.000000 0.000000
0.995419 1.000000 0.000000
1.000000 1.000000 0.000000
1.000000 1.000000 0.000000
1.000000 1.000000 0.000000
1.000000 1.000000 0.000000
1.000000 1.000000 0.000000
1.000000 1.000000 0.000000
1.000000 1.000000 0.000000
0.000000 1.000000 0.000000
0.000000 1.000000 0.000000
0.000000 1.000000 0.000000
0.000000 1.000000 0.000000
0.036597 1.000000 0.000000
0.128082 1.000000 0.000000
0.278993 1.000000 0.000000
0.505948 1.000000 0.000000
0.785042 1.000000 0.000000
0.995419 1.000000 0.000000
1.000000 1.000000 0.000000
1.000000 1.000000 0.000000
1.000000 1.000000 0.000000
1.000000 1.000000 0.000000
1.000000 1.000000 0.000000
1.000000 1.000000 0.000000
1.000000 1.000000 0.000000
0.000000 1.000000 0.000000
0.000000 1.000000 0.000000
0.000000 1.000000 0.000000
0.000000 1.000000 0.000000
0.036597 1.000000 0.000000
0.128082 1.000000 0.000000
0.278993 1.000000 0.000000
0.505948 1.000000 0.000000
0.785042 1.000000 0.000000
0.995419 1.000000 0.000000
1.000000 1.000000 0.000000
1.000000 1.000000 0.000000
1.000000 1.000000 0.000000
1.000000 1.000000 0.000000
1.000000 1.000000 0.000000
1.000000 1.000000 0.000000
1.000000 1.000000 0.000000
0.000000 1.000000 0.000000
0.000000 1.000000 0.000000
0.000000 1.000000 0.000000
0.000000 1.000000 0.000000
0.036597 1.000000 0.000000
0.128082 1.000000 0.000000
0.278993 1.000000 0.000000
0.505948 1.000000 0.000000
0.785042 1.000000 0.000000
0.995419 1.000000 0.000000
1.000000 1.000000 0.000000
1.000000 1.000000 0.000000
1.000000 1.000000 0.000000
1.000000 1.000000 0.000000
1.000000 1.000000 0.000000
1.000000 1.000000 0.000000
1.000000 1.000000 0.000000
0.000000 0.000000 0.020557
0.000000 0.000000 0.020557
0.000000 0.000000 0.020557
0.020348 0.000000 0.020348
0.072286 0.000000 0.019817
0.163771 0.000000 0.018881
0.314683 0.000000 0.017338
0.541637 0.000000 0.015017
0.820732 0.000000 0.012162
1.000000 0.000000 0.010011
1.000000 0.000000 0.009927
1.000000 0.000000 0.009927
1.000000 0.000000 0.009927
1.000000 0.000000 0.009927
1.000000 0.000000 0.009927
1.000000 0.000000 0.009927
1.000000 0.000000 0.009927
0.000000 0.000000 0.020557
0.000000 0.000000 0.020557
0.000000 0.000000 0.020557
