assets/presets/luts/vlog-rec709/lut.cube
TITLE "V-Log to Rec.709"
LUT_3D_SIZE 9
0.000000 0.000000 0.000000
0.000000 0.000000 0.000000
0.072357 0.000000 0.000000
0.314753 0.000000 0.000000
0.820802 0.000000 0.000000
1.000000 0.000000 0.000000
1.000000 0.000000 0.000000
1.000000 0.000000 0.000000
1.000000 0.000000 0.000000
0.000000 0.000000 0.000000
0.000000 0.000000 0.000000
0.072357 0.000000 0.000000
0.314753 0.000000 0.000000
0.820802 0.000000 0.000000
1.000000 0.000000 0.000000
1.000000 0.000000 0.000000
1.000000 0.000000 0.000000
1.000000 0.000000 0.000000
0.000000 0.070607 0.000000
0.000000 0.070607 0.000000
0.069867 0.069867 0.000000
0.312264 0.067388 0.000000
0.818313 0.062213 0.000000
1.000000 0.059977 0.000000
1.000000 0.059977 0.000000
1.000000 0.059977 0.000000
1.000000 0.059977 0.000000
0.000000 0.307143 0.000000
0.000000 0.307143 0.000000
0.061527 0.306403 0.000000
0.303924 0.303924 0.000000
0.809973 0.298749 0.000000
1.000000 0.296513 0.000000
1.000000 0.296513 0.000000
1.000000 0.296513 0.000000
1.000000 0.296513 0.000000
0.000000 0.800957 0.000000
0.000000 0.800957 0.000000
0.044117 0.800217 0.000000
0.286513 0.797738 0.000000
0.792562 0.792562 0.000000
1.000000 0.790327 0.000000
1.000000 0.790327 0.000000
1.000000 0.790327 0.000000
1.000000 0.790327 0.000000
0.000000 1.000000 0.000000
0.000000 1.000000 0.000000
0.036597 1.000000 0.000000
0.278993 1.000000 0.000000
0.785042 1.000000 0.000000
1.000000 1.000000 0.000000
1.000000 1.000000 0.000000
1.000000 1.000000 0.000000
1.000000 1.000000 0.000000
0.000000 1.000000 0.000000
0.000000 1.000000 0.000000
0.036597 1.000000 0.000000
0.278993 1.000000 0.000000
0.785042 1.000000 0.000000
1.000000 1.000000 0.000000
1.000000 1.000000 0.000000
1.000000 1.000000 0.000000
1.000000 1.000000 0.000000
0.000000 1.000000 0.000000
0.000000 1.000000 0.000000
0.036597 1.000000 0.000000
0.278993 1.000000 0.000000
0.785042 1.000000 0.000000
1.000000 1.000000 0.000000
1.000000 1.000000 0.000000
1.000000 1.000000 0.000000
1.000000 1.000000 0.000000
0.000000 1.000000 0.000000
0.000000 1.000000 0.000000
0.036597 1.000000 0.000000
0.278993 1.000000 0.000000
0.785042 1.000000 0.000000
1.000000 1.000000 0.000000
1.000000 1.000000 0.000000
1.000000 1.000000 0.000000
1.000000 1.000000 0.000000
0.000000 0.000000 0.000000
0.000000 0.000000 0.000000
0.072357 0.000000 0.000000
0.314753 0.000000 0.000000
0.820802 0.000000 0.000000
1.000000 0.000000 0.000000
1.000000 0.000000 0.000000
1.000000 0.000000 0.000000
1.000000 0.000000 0.000000
0.000000 0.000000 0.000000
0.000000 0.000000 0.000000
0.072357 0.000000 0.000000
0.314753 0.000000 0.000000
0.820802 0.000000 0.000000
1.000000 0.000000 0.000000
1.000000 0.000000 0.000000
1.000000 0.000000 0.000000
1.000000 0.000000 0.000000
0.000000 0.070607 0.000000
0.000000 0.070607 0.000000
0.069867 0.069867 0.000000
0.312264 0.067388 0.000000
0.818313 0.062213 0.000000
1.000000 0.059977 0.000000
1.000000 0.059977 0.000000
1.000000 0.059977 0.000000
1.000000 0.059977 0.000000
0.000000 0.307143 0.000000
0.000000 0.307143 0.000000
0.061527 0.306403 0.000000
0.303924 0.303924 0.000000
0.809973 0.298749 0.000000
1.000000 0.296513 0.000000
1.000000 0.296513 0.000000
1.000000 0.296513 0.000000
1.000000 0.296513 0.000000
0.000000 0.800957 0.000000
0.000000 0.800957 0.000000
0.044117 0.800217 0.000000
0.286513 0.797738 0.000000
0.792562 0.792562 0.000000
1.000000 0.790327 0.000000
1.000000 0.790327 0.000000
1.000000 0.790327 0.000000
1.000000 0.790327 0.000000
0.000000 1.000000 0.000000
0.000000 1.000000 0.000000
0.036597 1.000000 0.000000
0.278993 1.000000 0.000000
0.785042 1.000000 0.000000
1.000000 1.000000 0.000000
1.000000 1.000000 0.000000
1.000000 1.000000 0.000000
1.000000 1.000000 0.000000
0.000000 1.000000 0.000000
0.000000 1.000000 0.000000
0.036597 1.000000 0.000000
0.278993 1.000000 0.000000
0.785042 1.000000 0.000000
1.000000 1.000000 0.000000
1.000000 1.000000 0.000000
1.000000 1.000000 0.000000
1.000000 1.000000 0.000000
0.000000 1.000000 0.000000
0.000000 1.000000 0.000000
0.036597 1.000000 0.000000
0.278993 1.000000 0.000000
0.785042 1.000000 0.000000
1.000000 1.000000 0.000000
1.000000 1.000000 0.000000
1.000000 1.000000 0.000000
1.000000 1.000000 0.000000
0.000000 1.000000 0.000000
0.000000 1.000000 0.000000
0.036597 1.000000 0.000000
0.278993 1.000000 0.000000
0.785042 1.000000 0.000000
1.000000 1.000000 0.000000
1.000000 1.000000 0.000000
1.000000 1.000000 0.000000
1.000000 1.000000 0.000000
0.000000 0.000000 0.072845
0.000000 0.000000 0.072845
0.072105 0.000000 0.072105
0.314502 0.000000 0.069626
0.820551 0.000000 0.064451
1.000000 0.000000 0.062215
1.000000 0.000000 0.062215
1.000000 0.000000 0.062215
1.000000 0.000000 0.062215
0.000000 0.000000 0.072845
0.000000 0.000000 0.072845
0.072105 0.000000 0.072105
0.314502 0.000000 0.069626
0.820551 0.000000 0.064451
1.000000 0.000000 0.062215
1.000000 0.000000 0.062215
1.000000 0.000000 0.062215
1.000000 0.000000 0.062215
0.000000 0.070356 0.070356
0.000000 0.070356 0.070356
0.069616 0.069616 0.069616
0.312013 0.067137 0.067137
0.818062 0.061961 0.061961
1.000000 0.059726 0.059726
1.000000 0.059726 0.059726
1.000000 0.059726 0.059726
1.000000 0.059726 0.059726
0.000000 0.306892 0.062016
0.000000 0.306892 0.062016
0.061276 0.306152 0.061276
0.303673 0.303673 0.058797
0.809722 0.298497 0.053621
1.000000 0.296262 0.051386
1.000000 0.296262 0.051386
1.000000 0.296262 0.051386
1.000000 0.296262 0.051386
0.000000 0.800706 0.044605
0.000000 0.800706 0.044605
0.043865 0.799966 0.043865
0.286262 0.797487 0.041386
0.792311 0.792311 0.036211
1.000000 0.790076 0.033975
1.000000 0.790076 0.033975
1.000000 0.790076 0.033975
1.000000 0.790076 0.033975
0.000000 1.000000 0.037085
0.000000 1.000000 0.037085
0.036345 1.000000 0.036345
0.278742 1.000000 0.033866
0.784791 1.000000 0.028691
1.000000 1.000000 0.026455
1.000000 1.000000 0.026455
1.000000 1.000000 0.026455
1.000000 1.000000 0.026455
0.000000 1.000000 0.037085
0.000000 1.000000 0.037085
0.036345 1.000000 0.036345
0.278742 1.000000 0.033866
0.784791 1.000000 0.028691
1.000000 1.000000 0.026455
1.000000 1.000000 0.026455
1.000000 1.000000 0.026455
1.000000 1.000000 0.026455
0.000000 1.000000 0.037085
0.000000 1.000000 0.037085
0.036345 1.000000 0.036345
0.278742 1.000000 0.033866
0.784791 1.000000 0.028691
1.000000 1.000000 0.026455
1.000000 1.000000 0.026455
1.000000 1.000000 0.026455
1.000000 1.000000 0.026455
0.000000 1.000000 0.037085
0.000000 1.000000 0.037085
0.036345 1.000000 0.036345
0.278742 1.000000 0.033866
0.784791 1.000000 0.028691
1.000000 1.000000 0.026455
1.000000 1.000000 0.026455
1.000000 1.000000 0.026455
1.000000 1.000000 0.026455
0.000000 0.000000 0.316879
0.000000 0.000000 0.316879
0.071263 0.000000 0.316139
0.313660 0.000000 0.313660
0.819709 0.000000 0.308485
1.000000 0.000000 0.306249
1.000000 0.000000 0.306249
1.000000 0.000000 0.306249
1.000000 0.000000 0.306249
0.000000 0.000000 0.316879
0.000000 0.000000 0.316879
0.071263 0.000000 0.316139
0.313660 0.000000 0.313660
0.819709 0.000000 0.308485
1.000000 0.000000 0.306249
1.000000 0.000000 0.306249
1.000000 0.000000 0.306249
1.000000 0.000000 0.306249
0.000000 0.069514 0.314390
0.000000 0.069514 0.314390
0.068774 0.068774 0.313650
0.311171 0.066295 0.311171
0.817220 0.061119 0.305995
1.000000 0.058884 0.303760
1.000000 0.058884 0.303760
1.000000 0.058884 0.303760
1.000000 0.058884 0.303760
0.000000 0.306050 0.306050
0.000000 0.306050 0.306050
0.060434 0.305310 0.305310
0.302831 0.302831 0.302831
0.808880 0.297655 0.297655
1.000000 0.295420 0.295420
1.000000 0.295420 0.295420
1.000000 0.295420 0.295420
1.000000 0.295420 0.295420
0.000000 0.799864 0.288639
0.000000 0.799864 0.288639
0.043023 0.799124 0.287899
0.285420 0.796645 0.285420
0.791469 0.791469 0.280245
1.000000 0.789234 0.278009
1.000000 0.789234 0.278009
1.000000 0.789234 0.278009
1.000000 0.789234 0.278009
0.000000 1.000000 0.281119
0.000000 1.000000 0.281119
0.035503 1.000000 0.280379
0.277900 1.000000 0.277900
0.783949 1.000000 0.272725
1.000000 1.000000 0.270489
1.000000 1.000000 0.270489
1.000000 1.000000 0.270489
1.000000 1.000000 0.270489
0.000000 1.000000 0.281119
0.000000 1.000000 0.281119
0.035503 1.000000 0.280379
0.277900 1.000000 0.277900
0.783949 1.000000 0.272725
1.000000 1.000000 0.270489
1.000000 1.000000 0.270489
1.000000 1.000000 0.270489
1.000000 1.000000 0.270489
0.000000 1.000000 0.281119
0.000000 1.000000 0.281119
0.035503 1.000000 0.280379
0.277900 1.000000 0.277900
0.783949 1.000000 0.272725
1.000000 1.000000 0.270489
1.000000 1.000000 0.270489
1.000000 1.000000 0.270489
1.000000 1.000000 0.270489
0.000000 1.000000 0.281119
0.000000 1.000000 0.281119
0.035503 1.000000 0.280379
0.277900 1.000000 0.277900
0.783949 1.000000 0.272725
1.000000 1.000000 0.270489
1.000000 1.000000 0.270489
1.000000 1.000000 0.270489
1.000000 1.000000 0.270489
0.000000 0.000000 0.826346
0.000000 0.000000 0.826346
0.069506 0.000000 0.825606
0.311903 0.000000 0.823127
0.817952 0.000000 0.817952
1.000000 0.000000 0.815716
1.000000 0.000000 0.815716
1.000000 0.000000 0.815716
1.000000 0.000000 0.815716
0.000000 0.000000 0.826346
0.000000 0.000000 0.826346
0.069506 0.000000 0.825606
0.311903 0.000000 0.823127
0.817952 0.000000 0.817952
1.000000 0.000000 0.815716
1.000000 0.000000 0.815716
1.000000 0.000000 0.815716
1.000000 0.000000 0.815716
0.000000 0.067756 0.823857
0.000000 0.067756 0.823857
0.067016 0.067016 0.823117
0.309413 0.064537 0.820638
0.815462 0.059362 0.815462
1.000000 0.057126 0.813227
1.000000 0.057126 0.813227
1.000000 0.057126 0.813227
1.000000 0.057126 0.813227
0.000000 0.304292 0.815517
0.000000 0.304292 0.815517
0.058677 0.303552 0.814777
0.301073 0.301073 0.812298
0.807122 0.295898 0.807122
1.000000 0.293662 0.804887
1.000000 0.293662 0.804887
1.000000 0.293662 0.804887
1.000000 0.293662 0.804887
0.000000 0.798106 0.798106
0.000000 0.798106 0.798106
0.041266 0.797366 0.797366
0.283662 0.794887 0.794887
0.789711 0.789711 0.789711
1.000000 0.787476 0.787476
1.000000 0.787476 0.787476
1.000000 0.787476 0.787476
1.000000 0.787476 0.787476
0.000000 1.000000 0.790586
0.000000 1.000000 0.790586
0.033746 1.000000 0.789846
0.276143 1.000000 0.787367
0.782192 1.000000 0.782192
1.000000 1.000000 0.779956
1.000000 1.000000 0.779956
1.000000 1.000000 0.779956
1.000000 1.000000 0.779956
0.000000 1.000000 0.790586
0.000000 1.000000 0.790586
0.033746 1.000000 0.789846
0.276143 1.000000 0.787367
0.782192 1.000000 0.782192
1.000000 1.000000 0.779956
1.000000 1.000000 0.779956
1.000000 1.000000 0.779956
1.000000 1.000000 0.779956
0.000000 1.000000 0.790586
0.000000 1.000000 0.790586
0.033746 1.000000 0.789846
0.276143 1.000000 0.787367
0.782192 1.000000 0.782192
1.000000 1.000000 0.779956
1.000000 1.000000 0.779956
1.000000 1.000000 0.779956
1.000000 1.000000 0.779956
0.000000 1.000000 0.790586
0.000000 1.000000 0.790586
0.033746 1.000000 0.789846
0.276143 1.000000 0.787367
0.782192 1.000000 0.782192
1.000000 1.000000 0.779956
1.000000 1.000000 0.779956
1.000000 1.000000 0.779956
1.000000 1.000000 0.779956
0.000000 0.000000 1.000000
0.000000 0.000000 1.000000
0.068747 0.000000 1.000000
0.311143 0.000000 1.000000
0.817192 0.000000 1.000000
1.000000 0.000000 1.000000
1.000000 0.000000 1.000000
1.000000 0.000000 1.000000
1.000000 0.000000 1.000000
0.000000 0.000000 1.000000
0.000000 0.000000 1.000000
0.068747 0.000000 1.000000
0.311143 0.000000 1.000000
0.817192 0.000000 1.000000
1.000000 0.000000 1.000000
1.000000 0.000000 1.000000
1.000000 0.000000 1.000000
1.000000 0.000000 1.000000
0.000000 0.066997 1.000000
0.000000 0.066997 1.000000
0.066257 0.066257 1.000000
0.308654 0.063778 1.000000
0.814703 0.058603 1.000000
1.000000 0.056367 1.000000
1.000000 0.056367 1.000000
1.000000 0.056367 1.000000
1.000000 0.056367 1.000000
0.000000 0.303533 1.000000
0.000000 0.303533 1.000000
0.057917 0.302793 1.000000
0.300314 0.300314 1.000000
0.806363 0.295139 1.000000
1.000000 0.292903 1.000000
1.000000 0.292903 1.000000
1.000000 0.292903 1.000000
1.000000 0.292903 1.000000
0.000000 0.797347 1.000000
0.000000 0.797347 1.000000
0.040507 0.796607 1.000000
0.282903 0.794128 1.000000
0.788952 0.788952 1.000000
1.000000 0.786717 1.000000
1.000000 0.786717 1.000000
1.000000 0.786717 1.000000
1.000000 0.786717 1.000000
0.000000 1.000000 1.000000
0.000000 1.000000 1.000000
0.032987 1.000000 1.000000
0.275383 1.000000 1.000000
0.781432 1.000000 1.000000
1.000000 1.000000 1.000000
1.000000 1.000000 1.000000
1.000000 1.000000 1.000000
1.000000 1.000000 1.000000
0.000000 1.000000 1.000000
0.000000 1.000000 1.000000
0.032987 1.000000 1.000000
0.275383 1.000000 1.000000
0.781432 1.000000 1.000000
1.000000 1.000000 1.000000
1.000000 1.000000 1.000000
1.000000 1.000000 1.000000
1.000000 1.000000 1.000000
0.000000 1.000000 1.000000
0.000000 1.000000 1.000000
0.032987 1.000000 1.000000
0.275383 1.000000 1.000000
0.781432 1.000000 1.000000
1.000000 1.000000 1.000000
1.000000 1.000000 1.000000
1.000000 1.000000 1.000000
1.000000 1.000000 1.000000
0.000000 1.000000 1.000000
0.000000 1.000000 1.000000
0.032987 1.000000 1.000000
0.275383 1.000000 1.000000
0.781432 1.000000 1.000000
1.000000 1.000000 1.000000
1.000000 1.000000 1.000000
1.000000 1.000000 1.000000
1.000000 1.000000 1.000000
0.000000 0.000000 1.000000
0.000000 0.000000 1.000000
0.068747 0.000000 1.000000
0.311143 0.000000 1.000000
0.817192 0.000000 1.000000
1.000000 0.000000 1.000000
1.000000 0.000000 1.000000
1.000000 0.000000 1.000000
1.000000 0.000000 1.000000
0.000000 0.000000 1.000000
0.000000 0.000000 1.000000
0.068747 0.000000 1.000000
0.311143 0.000000 1.000000
0.817192 0.000000 1.000000
1.000000 0.000000 1.000000
1.000000 0.000000 1.000000
1.000000 0.000000 1.000000
1.000000 0.000000 1.000000
0.000000 0.066997 1.000000
0.000000 0.066997 1.000000
0.066257 0.066257 1.000000
0.308654 0.063778 1.000000
0.814703 0.058603 1.000000
1.000000 0.056367 1.000000
1.000000 0.056367 1.000000
1.000000 0.056367 1.000000
1.000000 0.056367 1.000000
0.000000 0.303533 1.000000
0.000000 0.303533 1.000000
0.057917 0.302793 1.000000
0.300314 0.300314 1.000000
0.806363 0.295139 1.000000
1.000000 0.292903 1.000000
1.000000 0.292903 1.000000
1.000000 0.292903 1.000000
1.000000 0.292903 1.000000
0.000000 0.797347 1.000000
0.000000 0.797347 1.000000
0.040507 0.796607 1.000000
0.282903 0.794128 1.000000
0.788952 0.788952 1.000000
1.000000 0.786717 1.000000
1.000000 0.786717 1.000000
1.000000 0.786717 1.000000
1.000000 0.786717 1.000000
0.000000 1.000000 1.000000
0.000000 1.000000 1.000000
0.032987 1.000000 1.000000
0.275383 1.000000 1.000000
0.781432 1.000000 1.000000
1.000000 1.000000 1.000000
1.000000 1.000000 1.000000
1.000000 1.000000 1.000000
1.000000 1.000000 1.000000
0.000000 1.000000 1.000000
0.000000 1.000000 1.000000
0.032987 1.000000 1.000000
0.275383 1.000000 1.000000
0.781432 1.000000 1.000000
1.000000 1.000000 1.000000
1.000000 1.000000 1.000000
1.000000 1.000000 1.000000
1.000000 1.000000 1.000000
0.000000 1.000000 1.000000
0.000000 1.000000 1.000000
0.032987 1.000000 1.000000
0.275383 1.000000 1.000000
0.781432 1.000000 1.000000
1.000000 1.000000 1.000000
1.000000 1.000000 1.000000
1.000000 1.000000 1.000000
1.000000 1.000000 1.000000
0.000000 1.000000 1.000000
0.000000 1.000000 1.000000
0.032987 1.000000 1.000000
0.275383 1.000000 1.000000
0.781432 1.000000 1.000000
1.000000 1.000000 1.000000
1.000000 1.000000 1.000000
1.000000 1.000000 1.000000
1.000000 1.000000 1.000000
0.000000 0.000000 1.000000
0.000000 0.000000 1.000000
0.068747 0.000000 1.000000
0.311143 0.000000 1.000000
0.817192 0.000000 1.000000
1.000000 0.000000 1.000000
1.000000 0.000000 1.000000
1.000000 0.000000 1.000000
1.000000 0.000000 1.000000
0.000000 0.000000 1.000000
0.000000 0.000000 1.000000
0.068747 0.000000 1.000000
0.311143 0.000000 1.000000
0.817192 0.000000 1.000000
1.000000 0.000000 1.000000
1.000000 0.000000 1.000000
1.000000 0.000000 1.000000
1.000000 0.000000 1.000000
0.000000 0.066997 1.000000
0.000000 0.066997 1.000000
0.066257 0.066257 1.000000
0.308654 0.063778 1.000000
0.814703 0.058603 1.000000
1.000000 0.056367 1.000000
1.000000 0.056367 1.000000
1.000000 0.056367 1.000000
1.000000 0.056367 1.000000
0.000000 0.303533 1.000000
0.000000 0.303533 1.000000
0.057917 0.302793 1.000000
0.300314 0.300314 1.000000
0.806363 0.295139 1.000000
1.000000 0.292903 1.000000
1.000000 0.292903 1.000000
1.000000 0.292903 1.000000
1.000000 0.292903 1.000000
0.000000 0.797347 1.000000
0.000000 0.797347 1.000000
0.040507 0.796607 1.000000
0.282903 0.794128 1.000000
0.788952 0.788952 1.000000
1.000000 0.786717 1.000000
1.000000 0.786717 1.000000
1.000000 0.786717 1.000000
1.000000 0.786717 1.000000
0.000000 1.000000 1.000000
0.000000 1.000000 1.000000
0.032987 1.000000 1.000000
0.275383 1.000000 1.000000
0.781432 1.000000 1.000000
1.000000 1.000000 1.000000
1.000000 1.000000 1.000000
1.000000 1.000000 1.000000
1.000000 1.000000 1.000000
0.000000 1.000000 1.000000
0.000000 1.000000 1.000000
0.032987 1.000000 1.000000
0.275383 1.000000 1.000000
0.781432 1.000000 1.000000
1.000000 1.000000 1.000000
1.000000 1.000000 1.000000
1.000000 1.000000 1.000000
1.000000 1.000000 1.000000
0.000000 1.000000 1.000000
0.000000 1.000000 1.000000
0.032987 1.000000 1.000000
0.275383 1.000000 1.000000
0.781432 1.000000 1.000000
1.000000 1.000000 1.000000
1.000000 1.000000 1.000000
1.000000 1.000000 1.000000
1.000000 1.000000 1.000000
0.000000 1.000000 1.000000
0.000000 1.000000 1.000000
0.032987 1.000000 1.000000
0.275383 1.000000 1.000000
0.781432 1.000000 1.000000
1.000000 1.000000 1.000000
1.000000 1.000000 1.000000
1.000000 1.000000 1.000000
1.000000 1.000000 1.000000
0.000000 0.000000 1.000000
0.000000 0.000000 1.000000
0.068747 0.000000 1.000000
0.311143 0.000000 1.000000
0.817192 0.000000 1.000000
1.000000 0.000000 1.000000
1.000000 0.000000 1.000000
1.000000 0.000000 1.000000
1.000000 0.000000 1.000000
0.000000 0.000000 1.000000
0.000000 0.000000 1.000000
0.068747 0.000000 1.000000
0.311143 0.000000 1.000000
0.817192 0.000000 1.000000
1.000000 0.000000 1.000000
1.000000 0.000000 1.000000
1.000000 0.000000 1.000000
1.000000 0.000000 1.000000
0.000000 0.066997 1.000000
0.000000 0.066997 1.000000
0.066257 0.066257 1.000000
0.308654 0.063778 1.000000
0.814703 0.058603 1.000000
1.000000 0.056367 1.000000
1.000000 0.056367 1.000000
1.000000 0.056367 1.000000
1.000000 0.056367 1.000000
0.000000 0.303533 1.000000
0.000000 0.303533 1.000000
0.057917 0.302793 1.000000
0.300314 0.300314 1.000000
0.806363 0.295139 1.000000
1.000000 0.292903 1.000000
1.000000 0.292903 1.000000
1.000000 0.292903 1.000000
1.000000 0.292903 1.000000
0.000000 0.797347 1.000000
0.000000 0.797347 1.000000
0.040507 0.796607 1.000000
0.282903 0.794128 1.000000
0.788952 0.788952 1.000000
1.000000 0.786717 1.000000
1.000000 0.786717 1.000000
1.000000 0.786717 1.000000
1.000000 0.786717 1.000000
0.000000 1.000000 1.000000
0.000000 1.000000 1.000000
0.032987 1.000000 1.000000
0.275383 1.000000 1.000000
0.781432 1.000000 1.000000
1.000000 1.000000 1.000000
1.000000 1.000000 1.000000
1.000000 1.000000 1.000000
1.000000 1.000000 1.000000
0.000000 1.000000 1.000000
0.000000 1.000000 1.000000
0.032987 1.000000 1.000000
0.275383 1.000000 1.000000
0.781432 1.000000 1.000000
1.000000 1.000000 1.000000
1.000000 1.000000 1.000000
1.000000 1.000000 1.000000
1.000000 1.000000 1.000000
0.000000 1.000000 1.000000
0.000000 1.000000 1.000000
0.032987 1.000000 1.000000
0.275383 1.000000 1.000000
0.781432 1.000000 1.000000
1.000000 1.000000 1.000000
1.000000 1.000000 1.000000
1.000000 1.000000 1.000000
1.000000 1.000000 1.000000
0.000000 1.000000 1.000000
0.000000 1.000000 1.000000
0.032987 1.000000 1.000000
0.275383 1.000000 1.000000
0.781432 1.000000 1.000000
1.000000 1.000000 1.000000
1.000000 1.000000 1.000000
1.000000 1.000000 1.000000
1.000000 1.000000 1.000000
