assets/presets/luts/matte-soft/lut.cube
TITLE "Matte Soft"
LUT_3D_SIZE 5
0.064400 0.064400 0.064400
0.268194 0.067129 0.067129
0.471989 0.069857 0.069857
0.675784 0.072586 0.072586
0.879578 0.075314 0.075314
0.073579 0.274645 0.073579
0.277373 0.277373 0.076307
0.481168 0.280102 0.079036
0.684962 0.282830 0.081764
0.888757 0.285559 0.084493
0.082758 0.484890 0.082758
0.286552 0.487618 0.085486
0.490347 0.490347 0.088215
0.694141 0.493075 0.090943
0.897936 0.495804 0.093672
0.091937 0.695135 0.091937
0.295731 0.697863 0.094665
0.499526 0.700592 0.097394
0.703320 0.703320 0.100122
0.907115 0.706049 0.102851
0.101116 0.905380 0.101116
0.304910 0.908108 0.103844
0.508705 0.910837 0.106573
0.712499 0.913565 0.109301
0.916294 0.916294 0.112030
0.065327 0.065327 0.266393
0.269121 0.068055 0.269121
0.472916 0.070784 0.271850
0.676710 0.073512 0.274578
0.880505 0.076241 0.277307
0.074505 0.275571 0.275571
0.278300 0.278300 0.278300
0.482094 0.281029 0.281029
0.685889 0.283757 0.283757
0.889684 0.286486 0.286486
0.083684 0.485816 0.284750
0.287479 0.488545 0.287479
0.491273 0.491273 0.290207
0.695068 0.494002 0.292936
0.898862 0.496730 0.295664
0.092863 0.696061 0.293929
0.296658 0.698790 0.296658
0.500452 0.701518 0.299386
0.704247 0.704247 0.302115
0.908041 0.706975 0.304843
0.102042 0.906306 0.303108
0.305837 0.909035 0.305837
0.509631 0.911763 0.308565
0.713426 0.914492 0.311294
0.917220 0.917220 0.314022
0.066253 0.066253 0.468385
0.270048 0.068982 0.471114
0.473842 0.071710 0.473842
0.677637 0.074439 0.476571
0.881431 0.077167 0.479299
0.075432 0.276498 0.477564
0.279227 0.279227 0.480293
0.483021 0.281955 0.483021
0.686816 0.284684 0.485750
0.890610 0.287412 0.488478
0.084611 0.486743 0.486743
0.288405 0.489471 0.489471
0.492200 0.492200 0.492200
0.695994 0.494929 0.494929
0.899789 0.497657 0.497657
0.093790 0.696988 0.495922
0.297584 0.699716 0.498650
0.501379 0.702445 0.501379
0.705173 0.705173 0.504107
0.908968 0.707902 0.506836
0.102969 0.907233 0.505101
0.306763 0.909961 0.507829
0.510558 0.912690 0.510558
0.714352 0.915418 0.513286
0.918147 0.918147 0.516015
0.067180 0.067180 0.670378
0.270974 0.069908 0.673106
0.474769 0.072637 0.675835
0.678563 0.075365 0.678563
0.882358 0.078094 0.681292
0.076359 0.277425 0.679557
0.280153 0.280153 0.682285
0.483948 0.282882 0.685014
0.687742 0.285610 0.687742
0.891537 0.288339 0.690471
0.085538 0.487670 0.688736
0.289332 0.490398 0.691464
0.493127 0.493127 0.694193
0.696921 0.495855 0.696921
0.900716 0.498584 0.699650
0.094716 0.697914 0.697914
0.298511 0.700643 0.700643
0.502306 0.703371 0.703371
0.706100 0.706100 0.706100
0.909895 0.708829 0.708829
0.103895 0.908159 0.707093
0.307690 0.910888 0.709822
0.511484 0.913616 0.712550
0.715279 0.916345 0.715279
0.919073 0.919073 0.718007
0.068106 0.068106 0.872370
0.271901 0.070835 0.875099
0.475695 0.073563 0.877827
0.679490 0.076292 0.880556
0.883285 0.079020 0.883285
0.077285 0.278351 0.881549
0.281080 0.281080 0.884278
0.484874 0.283808 0.887006
0.688669 0.286537 0.889735
0.892463 0.289265 0.892463
0.086464 0.488596 0.890728
0.290259 0.491325 0.893457
0.494053 0.494053 0.896185
0.697848 0.496782 0.898914
0.901642 0.499510 0.901642
0.095643 0.698841 0.899907
0.299438 0.701570 0.902636
0.503232 0.704298 0.905364
0.707027 0.707027 0.908093
0.910821 0.709755 0.910821
0.104822 0.909086 0.909086
0.308616 0.911814 0.911814
0.512411 0.914543 0.914543
0.716205 0.917271 0.917271
0.920000 0.920000 0.920000
