assets/presets/luts/matte-soft/lut.cube
TITLE "Matte Soft"
LUT_3D_SIZE 9
0.064400 0.064400 0.064400
0.166297 0.065764 0.065764
0.268194 0.067129 0.067129
0.370092 0.068493 0.068493
0.471989 0.069857 0.069857
0.573886 0.071221 0.071221
0.675784 0.072586 0.072586
0.777681 0.073950 0.073950
0.879578 0.075314 0.075314
0.068989 0.169522 0.068989
0.170887 0.170887 0.070354
0.272784 0.172251 0.071718
0.374681 0.173615 0.073082
0.476578 0.174979 0.074446
0.578476 0.176344 0.075811
0.680373 0.177708 0.077175
0.782270 0.179072 0.078539
0.884167 0.180436 0.079903
0.073579 0.274645 0.073579
0.175476 0.276009 0.074943
0.277373 0.277373 0.076307
0.379271 0.278738 0.077672
0.481168 0.280102 0.079036
0.583065 0.281466 0.080400
0.684962 0.282830 0.081764
0.786860 0.284195 0.083129
0.888757 0.285559 0.084493
0.078168 0.379767 0.078168
0.180066 0.381132 0.079533
0.281963 0.382496 0.080897
0.383860 0.383860 0.082261
0.485757 0.385224 0.083625
0.587655 0.386589 0.084990
0.689552 0.387953 0.086354
0.791449 0.389317 0.087718
0.893346 0.390681 0.089082
0.082758 0.484890 0.082758
0.184655 0.486254 0.084122
0.286552 0.487618 0.085486
0.388450 0.488983 0.086851
0.490347 0.490347 0.088215
0.592244 0.491711 0.089579
0.694141 0.493075 0.090943
0.796039 0.494440 0.092308
0.897936 0.495804 0.093672
0.087347 0.590012 0.087347
0.189244 0.591376 0.088711
0.291142 0.592741 0.090076
0.393039 0.594105 0.091440
0.494936 0.595469 0.092804
0.596833 0.596833 0.094168
0.698731 0.598198 0.095533
0.800628 0.599562 0.096897
0.902525 0.600926 0.098261
0.091937 0.695135 0.091937
0.193834 0.696499 0.093301
0.295731 0.697863 0.094665
0.397628 0.699227 0.096029
0.499526 0.700592 0.097394
0.601423 0.701956 0.098758
0.703320 0.703320 0.100122
0.805217 0.704684 0.101486
0.907115 0.706049 0.102851
0.096526 0.800257 0.096526
0.198423 0.801621 0.097890
0.300321 0.802986 0.099255
0.402218 0.804350 0.100619
0.504115 0.805714 0.101983
0.606012 0.807078 0.103347
0.707910 0.808443 0.104712
0.809807 0.809807 0.106076
0.911704 0.811171 0.107440
0.101116 0.905380 0.101116
0.203013 0.906744 0.102480
0.304910 0.908108 0.103844
0.406807 0.909472 0.105208
0.508705 0.910837 0.106573
0.610602 0.912201 0.107937
0.712499 0.913565 0.109301
0.814396 0.914929 0.110665
0.916294 0.916294 0.112030
0.064863 0.064863 0.165396
0.166761 0.066228 0.166761
0.268658 0.067592 0.168125
0.370555 0.068956 0.169489
0.472452 0.070320 0.170853
0.574350 0.071685 0.172218
0.676247 0.073049 0.173582
0.778144 0.074413 0.174946
0.880041 0.075777 0.176310
0.069453 0.169986 0.169986
0.171350 0.171350 0.171350
0.273247 0.172714 0.172714
0.375145 0.174079 0.174079
0.477042 0.175443 0.175443
0.578939 0.176807 0.176807
0.680836 0.178171 0.178171
0.782734 0.179536 0.179536
0.884631 0.180900 0.180900
0.074042 0.275108 0.174575
0.175939 0.276472 0.175939
0.277837 0.277837 0.177304
0.379734 0.279201 0.178668
0.481631 0.280565 0.180032
0.583528 0.281929 0.181396
0.685426 0.283294 0.182761
0.787323 0.284658 0.184125
0.889220 0.286022 0.185489
0.078632 0.380231 0.179165
0.180529 0.381595 0.180529
0.282426 0.382959 0.181893
0.384323 0.384323 0.183257
0.486221 0.385688 0.184622
0.588118 0.387052 0.185986
0.690015 0.388416 0.187350
0.791912 0.389780 0.188714
0.893810 0.391145 0.190079
0.083221 0.485353 0.183754
0.185118 0.486717 0.185118
0.287016 0.488082 0.186483
0.388913 0.489446 0.187847
0.490810 0.490810 0.189211
0.592707 0.492174 0.190575
0.694605 0.493539 0.191940
0.796502 0.494903 0.193304
0.898399 0.496267 0.194668
0.087811 0.590475 0.188343
0.189708 0.591840 0.189708
0.291605 0.593204 0.191072
0.393502 0.594568 0.192436
0.495400 0.595933 0.193801
0.597297 0.597297 0.195165
0.699194 0.598661 0.196529
0.801091 0.600025 0.197893
0.902989 0.601390 0.199258
0.092400 0.695598 0.192933
0.194297 0.696962 0.194297
0.296194 0.698326 0.195661
0.398092 0.699691 0.197026
0.499989 0.701055 0.198390
0.601886 0.702419 0.199754
0.703783 0.703783 0.201118
0.805681 0.705148 0.202483
0.907578 0.706512 0.203847
0.096989 0.800720 0.197522
0.198887 0.802085 0.198887
0.300784 0.803449 0.200251
0.402681 0.804813 0.201615
0.504578 0.806177 0.202979
0.606476 0.807542 0.204344
0.708373 0.808906 0.205708
0.810270 0.810270 0.207072
0.912167 0.811634 0.208436
0.101579 0.905843 0.202112
0.203476 0.907207 0.203476
0.305373 0.908571 0.204840
0.407271 0.909936 0.206205
0.509168 0.911300 0.207569
0.611065 0.912664 0.208933
0.712962 0.914028 0.210297
0.814860 0.915393 0.211662
0.916757 0.916757 0.213026
0.065327 0.065327 0.266393
0.167224 0.066691 0.267757
0.269121 0.068055 0.269121
0.371018 0.069419 0.270485
0.472916 0.070784 0.271850
0.574813 0.072148 0.273214
0.676710 0.073512 0.274578
0.778607 0.074876 0.275942
0.880505 0.076241 0.277307
0.069916 0.170449 0.270982
0.171813 0.171813 0.272346
0.273711 0.173178 0.273711
0.375608 0.174542 0.275075
0.477505 0.175906 0.276439
0.579402 0.177270 0.277803
0.681300 0.178635 0.279168
0.783197 0.179999 0.280532
0.885094 0.181363 0.281896
0.074505 0.275571 0.275571
0.176403 0.276936 0.276936
0.278300 0.278300 0.278300
0.380197 0.279664 0.279664
0.482094 0.281029 0.281029
0.583992 0.282393 0.282393
0.685889 0.283757 0.283757
0.787786 0.285121 0.285121
0.889684 0.286486 0.286486
0.079095 0.380694 0.280161
0.180992 0.382058 0.281525
0.282889 0.383422 0.282889
0.384787 0.384787 0.284254
0.486684 0.386151 0.285618
0.588581 0.387515 0.286982
0.690478 0.388879 0.288346
0.792376 0.390244 0.289711
0.894273 0.391608 0.291075
0.083684 0.485816 0.284750
0.185582 0.487181 0.286115
0.287479 0.488545 0.287479
0.389376 0.489909 0.288843
0.491273 0.491273 0.290207
0.593171 0.492638 0.291572
0.695068 0.494002 0.292936
0.796965 0.495366 0.294300
0.898862 0.496730 0.295664
0.088274 0.590939 0.289340
0.190171 0.592303 0.290704
0.292068 0.593667 0.292068
0.393966 0.595032 0.293433
0.495863 0.596396 0.294797
0.597760 0.597760 0.296161
0.699657 0.599124 0.297525
0.801555 0.600489 0.298890
0.903452 0.601853 0.300254
0.092863 0.696061 0.293929
0.194761 0.697425 0.295294
0.296658 0.698790 0.296658
0.398555 0.700154 0.298022
0.500452 0.701518 0.299386
0.602350 0.702883 0.300751
0.704247 0.704247 0.302115
0.806144 0.705611 0.303479
0.908041 0.706975 0.304843
0.097453 0.801184 0.298519
0.199350 0.802548 0.299883
0.301247 0.803912 0.301247
0.403144 0.805276 0.302611
0.505042 0.806641 0.303976
0.606939 0.808005 0.305340
0.708836 0.809369 0.306704
0.810733 0.810733 0.308068
0.912631 0.812098 0.309433
0.102042 0.906306 0.303108
0.203939 0.907670 0.304472
0.305837 0.909035 0.305837
0.407734 0.910399 0.307201
0.509631 0.911763 0.308565
0.611528 0.913127 0.309929
0.713426 0.914492 0.311294
0.815323 0.915856 0.312658
0.917220 0.917220 0.314022
0.065790 0.065790 0.367389
0.167687 0.067154 0.368753
0.269584 0.068518 0.370117
0.371482 0.069883 0.371482
0.473379 0.071247 0.372846
0.575276 0.072611 0.374210
0.677173 0.073975 0.375574
0.779071 0.075340 0.376939
0.880968 0.076704 0.378303
0.070379 0.170912 0.371978
0.172277 0.172277 0.373343
0.274174 0.173641 0.374707
0.376071 0.175005 0.376071
0.477968 0.176369 0.377435
0.579866 0.177734 0.378800
0.681763 0.179098 0.380164
0.783660 0.180462 0.381528
0.885557 0.181826 0.382892
0.074969 0.276035 0.376568
0.176866 0.277399 0.377932
0.278763 0.278763 0.379296
0.380661 0.280128 0.380661
0.482558 0.281492 0.382025
0.584455 0.282856 0.383389
0.686352 0.284220 0.384753
0.788250 0.285585 0.386118
0.890147 0.286949 0.387482
0.079558 0.381157 0.381157
0.181455 0.382521 0.382521
0.283353 0.383886 0.383886
0.385250 0.385250 0.385250
0.487147 0.386614 0.386614
0.589045 0.387978 0.387978
0.690942 0.389343 0.389343
0.792839 0.390707 0.390707
0.894736 0.392071 0.392071
0.084148 0.486280 0.385747
0.186045 0.487644 0.387111
0.287942 0.489008 0.388475
0.389839 0.490372 0.389839
0.491737 0.491737 0.391204
0.593634 0.493101 0.392568
0.695531 0.494465 0.393932
0.797428 0.495829 0.395296
0.899326 0.497194 0.396661
0.088737 0.591402 0.390336
0.190634 0.592766 0.391700
0.292532 0.594131 0.393065
0.394429 0.595495 0.394429
0.496326 0.596859 0.395793
0.598223 0.598223 0.397157
0.700121 0.599588 0.398522
0.802018 0.600952 0.399886
0.903915 0.602316 0.401250
0.093327 0.696525 0.394926
0.195224 0.697889 0.396290
0.297121 0.699253 0.397654
0.399018 0.700617 0.399018
0.500916 0.701982 0.400383
0.602813 0.703346 0.401747
0.704710 0.704710 0.403111
0.806607 0.706074 0.404475
0.908505 0.707439 0.405840
0.097916 0.801647 0.399515
0.199813 0.803011 0.400879
0.301710 0.804375 0.402243
0.403608 0.805740 0.403608
0.505505 0.807104 0.404972
0.607402 0.808468 0.406336
0.709300 0.809833 0.407701
0.811197 0.811197 0.409065
0.913094 0.812561 0.410429
0.102505 0.906769 0.404104
0.204403 0.908134 0.405469
0.306300 0.909498 0.406833
0.408197 0.910862 0.408197
0.510094 0.912226 0.409561
0.611992 0.913591 0.410926
0.713889 0.914955 0.412290
0.815786 0.916319 0.413654
0.917683 0.917683 0.415018
0.066253 0.066253 0.468385
0.168150 0.067617 0.469749
0.270048 0.068982 0.471114
0.371945 0.070346 0.472478
0.473842 0.071710 0.473842
0.575740 0.073074 0.475206
0.677637 0.074439 0.476571
0.779534 0.075803 0.477935
0.881431 0.077167 0.479299
0.070843 0.171376 0.472975
0.172740 0.172740 0.474339
0.274637 0.174104 0.475703
0.376534 0.175468 0.477067
0.478432 0.176833 0.478432
0.580329 0.178197 0.479796
0.682226 0.179561 0.481160
0.784123 0.180925 0.482524
0.886021 0.182290 0.483889
0.075432 0.276498 0.477564
0.177329 0.277862 0.478928
0.279227 0.279227 0.480293
0.381124 0.280591 0.481657
0.483021 0.281955 0.483021
0.584918 0.283319 0.484385
0.686816 0.284684 0.485750
0.788713 0.286048 0.487114
0.890610 0.287412 0.488478
0.080022 0.381621 0.482154
0.181919 0.382985 0.483518
0.283816 0.384349 0.484882
0.385713 0.385713 0.486246
0.487611 0.387078 0.487611
0.589508 0.388442 0.488975
0.691405 0.389806 0.490339
0.793302 0.391170 0.491703
0.895200 0.392535 0.493068
0.084611 0.486743 0.486743
0.186508 0.488107 0.488107
0.288405 0.489471 0.489471
0.390303 0.490836 0.490836
0.492200 0.492200 0.492200
0.594097 0.493564 0.493564
0.695994 0.494929 0.494929
0.797892 0.496293 0.496293
0.899789 0.497657 0.497657
0.089200 0.591865 0.491332
0.191098 0.593230 0.492697
0.292995 0.594594 0.494061
0.394892 0.595958 0.495425
0.496789 0.597322 0.496789
0.598687 0.598687 0.498154
0.700584 0.600051 0.499518
0.802481 0.601415 0.500882
0.904378 0.602779 0.502246
0.093790 0.696988 0.495922
0.195687 0.698352 0.497286
0.297584 0.699716 0.498650
0.399482 0.701081 0.500015
0.501379 0.702445 0.501379
0.603276 0.703809 0.502743
0.705173 0.705173 0.504107
0.807071 0.706538 0.505472
0.908968 0.707902 0.506836
0.098379 0.802110 0.500511
0.200277 0.803475 0.501876
0.302174 0.804839 0.503240
0.404071 0.806203 0.504604
0.505968 0.807567 0.505968
0.607866 0.808932 0.507333
0.709763 0.810296 0.508697
0.811660 0.811660 0.510061
0.913557 0.813024 0.511425
0.102969 0.907233 0.505101
0.204866 0.908597 0.506465
0.306763 0.909961 0.507829
0.408661 0.911326 0.509193
0.510558 0.912690 0.510558
0.612455 0.914054 0.511922
0.714352 0.915418 0.513286
0.816249 0.916782 0.514651
0.918147 0.918147 0.516015
0.066717 0.066717 0.569382
0.168614 0.068081 0.570746
0.270511 0.069445 0.572110
0.372408 0.070809 0.573474
0.474306 0.072174 0.574839
0.576203 0.073538 0.576203
0.678100 0.074902 0.577567
0.779997 0.076266 0.578931
0.881895 0.077631 0.580296
0.071306 0.171839 0.573971
0.173203 0.173203 0.575335
0.275100 0.174567 0.576699
0.376998 0.175932 0.578064
0.478895 0.177296 0.579428
0.580792 0.178660 0.580792
0.682689 0.180025 0.582156
0.784587 0.181389 0.583521
0.886484 0.182753 0.584885
0.075895 0.276961 0.578560
0.177793 0.278326 0.579925
0.279690 0.279690 0.581289
0.381587 0.281054 0.582653
0.483484 0.282418 0.584017
0.585382 0.283783 0.585382
0.687279 0.285147 0.586746
0.789176 0.286511 0.588110
0.891073 0.287875 0.589474
0.080485 0.382084 0.583150
0.182382 0.383448 0.584514
0.284279 0.384812 0.585878
0.386177 0.386177 0.587243
0.488074 0.387541 0.588607
0.589971 0.388905 0.589971
0.691868 0.390269 0.591335
0.793766 0.391634 0.592700
0.895663 0.392998 0.594064
0.085074 0.487206 0.587739
0.186972 0.488571 0.589104
0.288869 0.489935 0.590468
0.390766 0.491299 0.591832
0.492663 0.492663 0.593196
0.594561 0.494028 0.594561
0.696458 0.495392 0.595925
0.798355 0.496756 0.597289
0.900252 0.498120 0.598653
0.089664 0.592329 0.592329
0.191561 0.593693 0.593693
0.293458 0.595057 0.595057
0.395355 0.596421 0.596421
0.497253 0.597786 0.597786
0.599150 0.599150 0.599150
0.701047 0.600514 0.600514
0.802944 0.601879 0.601879
0.904842 0.603243 0.603243
0.094253 0.697451 0.596918
0.196150 0.698815 0.598282
0.298048 0.700180 0.599647
0.399945 0.701544 0.601011
0.501842 0.702908 0.602375
0.603739 0.704272 0.603739
0.705637 0.705637 0.605104
0.807534 0.707001 0.606468
0.909431 0.708365 0.607832
0.098843 0.802574 0.601508
0.200740 0.803938 0.602872
0.302637 0.805302 0.604236
0.404534 0.806666 0.605600
0.506432 0.808031 0.606965
0.608329 0.809395 0.608329
0.710226 0.810759 0.609693
0.812123 0.812123 0.611057
0.914021 0.813488 0.612422
0.103432 0.907696 0.606097
0.205329 0.909060 0.607461
0.307227 0.910425 0.608826
0.409124 0.911789 0.610190
0.511021 0.913153 0.611554
0.612918 0.914517 0.612918
0.714816 0.915882 0.614283
0.816713 0.917246 0.615647
0.918610 0.918610 0.617011
0.067180 0.067180 0.670378
0.169077 0.068544 0.671742
0.270974 0.069908 0.673106
0.372872 0.071273 0.674471
0.474769 0.072637 0.675835
0.576666 0.074001 0.677199
0.678563 0.075365 0.678563
0.780461 0.076730 0.679928
0.882358 0.078094 0.681292
0.071769 0.172302 0.674967
0.173667 0.173667 0.676332
0.275564 0.175031 0.677696
0.377461 0.176395 0.679060
0.479358 0.177759 0.680424
0.581256 0.179124 0.681789
0.683153 0.180488 0.683153
0.785050 0.181852 0.684517
0.886947 0.183216 0.685881
0.076359 0.277425 0.679557
0.178256 0.278789 0.680921
0.280153 0.280153 0.682285
0.382050 0.281517 0.683649
0.483948 0.282882 0.685014
0.585845 0.284246 0.686378
0.687742 0.285610 0.687742
0.789639 0.286974 0.689107
0.891537 0.288339 0.690471
0.080948 0.382547 0.684146
0.182845 0.383911 0.685510
0.284743 0.385276 0.686875
0.386640 0.386640 0.688239
0.488537 0.388004 0.689603
0.590434 0.389368 0.690967
0.692332 0.390733 0.692332
0.794229 0.392097 0.693696
0.896126 0.393461 0.695060
0.085538 0.487670 0.688736
0.187435 0.489034 0.690100
0.289332 0.490398 0.691464
0.391229 0.491762 0.692828
0.493127 0.493127 0.694193
0.595024 0.494491 0.695557
0.696921 0.495855 0.696921
0.798818 0.497219 0.698285
0.900716 0.498584 0.699650
0.090127 0.592792 0.693325
0.192024 0.594156 0.694689
0.293922 0.595521 0.696054
0.395819 0.596885 0.697418
0.497716 0.598249 0.698782
0.599613 0.599613 0.700146
0.701511 0.600978 0.701511
0.803408 0.602342 0.702875
0.905305 0.603706 0.704239
0.094716 0.697914 0.697914
0.196614 0.699279 0.699279
0.298511 0.700643 0.700643
0.400408 0.702007 0.702007
0.502306 0.703371 0.703371
0.604203 0.704736 0.704736
0.706100 0.706100 0.706100
0.807997 0.707464 0.707464
0.909895 0.708829 0.708829
0.099306 0.803037 0.702504
0.201203 0.804401 0.703868
0.303100 0.805765 0.705232
0.404998 0.807130 0.706597
0.506895 0.808494 0.707961
0.608792 0.809858 0.709325
0.710689 0.811222 0.710689
0.812587 0.812587 0.712054
0.914484 0.813951 0.713418
0.103895 0.908159 0.707093
0.205793 0.909524 0.708458
0.307690 0.910888 0.709822
0.409587 0.912252 0.711186
0.511484 0.913616 0.712550
0.613382 0.914981 0.713915
0.715279 0.916345 0.715279
0.817176 0.917709 0.716643
0.919073 0.919073 0.718007
0.067643 0.067643 0.771374
0.169540 0.069007 0.772738
0.271438 0.070372 0.774103
0.373335 0.071736 0.775467
0.475232 0.073100 0.776831
0.577129 0.074464 0.778195
0.679027 0.075829 0.779560
0.780924 0.077193 0.780924
0.882821 0.078557 0.782288
0.072233 0.172766 0.775964
0.174130 0.174130 0.777328
0.276027 0.175494 0.778692
0.377924 0.176858 0.780056
0.479822 0.178223 0.781421
0.581719 0.179587 0.782785
0.683616 0.180951 0.784149
0.785513 0.182315 0.785513
0.887411 0.183680 0.786878
0.076822 0.277888 0.780553
0.178719 0.279252 0.781917
0.280617 0.280617 0.783282
0.382514 0.281981 0.784646
0.484411 0.283345 0.786010
0.586308 0.284709 0.787374
0.688206 0.286074 0.788739
0.790103 0.287438 0.790103
0.892000 0.288802 0.791467
0.081411 0.383010 0.785142
0.183309 0.384375 0.786507
0.285206 0.385739 0.787871
0.387103 0.387103 0.789235
0.489000 0.388467 0.790599
0.590898 0.389832 0.791964
0.692795 0.391196 0.793328
0.794692 0.392560 0.794692
0.896590 0.393925 0.796057
0.086001 0.488133 0.789732
0.187898 0.489497 0.791096
0.289795 0.490861 0.792460
0.391693 0.492226 0.793825
0.493590 0.493590 0.795189
0.595487 0.494954 0.796553
0.697384 0.496318 0.797917
0.799282 0.497683 0.799282
0.901179 0.499047 0.800646
0.090590 0.593255 0.794321
0.192488 0.594620 0.795686
0.294385 0.595984 0.797050
0.396282 0.597348 0.798414
0.498179 0.598712 0.799778
0.600077 0.600077 0.801143
0.701974 0.601441 0.802507
0.803871 0.602805 0.803871
0.905768 0.604169 0.805235
0.095180 0.698378 0.798911
0.197077 0.699742 0.800275
0.298974 0.701106 0.801639
0.400872 0.702471 0.803004
0.502769 0.703835 0.804368
0.604666 0.705199 0.805732
0.706563 0.706563 0.807096
0.808461 0.707928 0.808461
0.910358 0.709292 0.809825
0.099769 0.803500 0.803500
0.201666 0.804864 0.804864
0.303564 0.806229 0.806229
0.405461 0.807593 0.807593
0.507358 0.808957 0.808957
0.609255 0.810322 0.810322
0.711153 0.811686 0.811686
0.813050 0.813050 0.813050
0.914947 0.814414 0.814414
0.104359 0.908623 0.808090
0.206256 0.909987 0.809454
0.308153 0.911351 0.810818
0.410050 0.912715 0.812182
0.511948 0.914080 0.813547
0.613845 0.915444 0.814911
0.715742 0.916808 0.816275
0.817639 0.918172 0.817639
0.919537 0.919537 0.819004
0.068106 0.068106 0.872370
0.170004 0.069471 0.873735
0.271901 0.070835 0.875099
0.373798 0.072199 0.876463
0.475695 0.073563 0.877827
0.577593 0.074928 0.879192
0.679490 0.076292 0.880556
0.781387 0.077656 0.881920
0.883285 0.079020 0.883285
0.072696 0.173229 0.876960
0.174593 0.174593 0.878324
0.276490 0.175957 0.879688
0.378388 0.177322 0.881053
0.480285 0.178686 0.882417
0.582182 0.180050 0.883781
0.684079 0.181414 0.885145
0.785977 0.182779 0.886510
0.887874 0.184143 0.887874
0.077285 0.278351 0.881549
0.179183 0.279716 0.882914
0.281080 0.281080 0.884278
0.382977 0.282444 0.885642
0.484874 0.283808 0.887006
0.586772 0.285173 0.888371
0.688669 0.286537 0.889735
0.790566 0.287901 0.891099
0.892463 0.289265 0.892463
0.081875 0.383474 0.886139
0.183772 0.384838 0.887503
0.285669 0.386202 0.888867
0.387567 0.387567 0.890232
0.489464 0.388931 0.891596
0.591361 0.390295 0.892960
0.693258 0.391659 0.894324
0.795156 0.393024 0.895689
0.897053 0.394388 0.897053
0.086464 0.488596 0.890728
0.188361 0.489960 0.892092
0.290259 0.491325 0.893457
0.392156 0.492689 0.894821
0.494053 0.494053 0.896185
0.595950 0.495417 0.897550
0.697848 0.496782 0.898914
0.799745 0.498146 0.900278
0.901642 0.499510 0.901642
0.091054 0.593719 0.895318
0.192951 0.595083 0.896682
0.294848 0.596447 0.898046
0.396745 0.597811 0.899410
0.498643 0.599176 0.900775
0.600540 0.600540 0.902139
0.702437 0.601904 0.903503
0.804334 0.603268 0.904867
0.906232 0.604633 0.906232
0.095643 0.698841 0.899907
0.197540 0.700205 0.901271
0.299438 0.701570 0.902636
0.401335 0.702934 0.904000
0.503232 0.704298 0.905364
0.605129 0.705662 0.906728
0.707027 0.707027 0.908093
0.808924 0.708391 0.909457
0.910821 0.709755 0.910821
0.100233 0.803964 0.904497
0.202130 0.805328 0.905861
0.304027 0.806692 0.907225
0.405924 0.808056 0.908589
0.507822 0.809421 0.909954
0.609719 0.810785 0.911318
0.711616 0.812149 0.912682
0.813513 0.813513 0.914046
0.915411 0.814878 0.915411
0.104822 0.909086 0.909086
0.206719 0.910450 0.910450
0.308616 0.911814 0.911814
0.410514 0.913179 0.913179
0.512411 0.914543 0.914543
0.614308 0.915907 0.915907
0.716205 0.917271 0.917271
0.818103 0.918636 0.918636
0.920000 0.920000 0.920000
