assets/presets/luts/matte-soft/lut.cube
TITLE "Matte Soft"
LUT_3D_SIZE 17
0.064400 0.064400 0.064400
0.115349 0.065082 0.065082
0.166297 0.065764 0.065764
0.217246 0.066446 0.066446
0.268194 0.067129 0.067129
0.319143 0.067811 0.067811
0.370092 0.068493 0.068493
0.421040 0.069175 0.069175
0.471989 0.069857 0.069857
0.522938 0.070539 0.070539
0.573886 0.071221 0.071221
0.624835 0.071903 0.071903
0.675784 0.072586 0.072586
0.726732 0.073268 0.073268
0.777681 0.073950 0.073950
0.828629 0.074632 0.074632
0.879578 0.075314 0.075314
0.066695 0.116961 0.066695
0.117643 0.117643 0.067377
0.168592 0.118325 0.068059
0.219541 0.119008 0.068741
0.270489 0.119690 0.069423
0.321438 0.120372 0.070105
0.372386 0.121054 0.070787
0.423335 0.121736 0.071470
0.474284 0.122418 0.072152
0.525232 0.123100 0.072834
0.576181 0.123782 0.073516
0.627130 0.124465 0.074198
0.678078 0.125147 0.074880
0.729027 0.125829 0.075562
0.779975 0.126511 0.076244
0.830924 0.127193 0.076927
0.881873 0.127875 0.077609
0.068989 0.169522 0.068989
0.119938 0.170205 0.069672
0.170887 0.170887 0.070354
0.221835 0.171569 0.071036
0.272784 0.172251 0.071718
0.323733 0.172933 0.072400
0.374681 0.173615 0.073082
0.425630 0.174297 0.073764
0.476578 0.174979 0.074446
0.527527 0.175662 0.075129
0.578476 0.176344 0.075811
0.629424 0.177026 0.076493
0.680373 0.177708 0.077175
0.731322 0.178390 0.077857
0.782270 0.179072 0.078539
0.833219 0.179754 0.079221
0.884167 0.180436 0.079903
0.071284 0.222084 0.071284
0.122233 0.222766 0.071966
0.173181 0.223448 0.072648
0.224130 0.224130 0.073331
0.275079 0.224812 0.074013
0.326027 0.225494 0.074695
0.376976 0.226176 0.075377
0.427925 0.226859 0.076059
0.478873 0.227541 0.076741
0.529822 0.228223 0.077423
0.580770 0.228905 0.078105
0.631719 0.229587 0.078788
0.682668 0.230269 0.079470
0.733616 0.230951 0.080152
0.784565 0.231633 0.080834
0.835514 0.232316 0.081516
0.886462 0.232998 0.082198
0.073579 0.274645 0.073579
0.124528 0.275327 0.074261
0.175476 0.276009 0.074943
0.226425 0.276691 0.075625
0.277373 0.277373 0.076307
0.328322 0.278056 0.076990
0.379271 0.278738 0.077672
0.430219 0.279420 0.078354
0.481168 0.280102 0.079036
0.532117 0.280784 0.079718
0.583065 0.281466 0.080400
0.634014 0.282148 0.081082
0.684962 0.282830 0.081764
0.735911 0.283513 0.082447
0.786860 0.284195 0.083129
0.837808 0.284877 0.083811
0.888757 0.285559 0.084493
0.075874 0.327206 0.075874
0.126822 0.327888 0.076556
0.177771 0.328570 0.077238
0.228719 0.329252 0.077920
0.279668 0.329935 0.078602
0.330617 0.330617 0.079284
0.381565 0.331299 0.079966
0.432514 0.331981 0.080648
0.483463 0.332663 0.081331
0.534411 0.333345 0.082013
0.585360 0.334027 0.082695
0.636308 0.334709 0.083377
0.687257 0.335392 0.084059
0.738206 0.336074 0.084741
0.789154 0.336756 0.085423
0.840103 0.337438 0.086106
0.891052 0.338120 0.086788
0.078168 0.379767 0.078168
0.129117 0.380449 0.078850
0.180066 0.381132 0.079533
0.231014 0.381814 0.080215
0.281963 0.382496 0.080897
0.332911 0.383178 0.081579
0.383860 0.383860 0.082261
0.434809 0.384542 0.082943
0.485757 0.385224 0.083625
0.536706 0.385906 0.084307
0.587655 0.386589 0.084990
0.638603 0.387271 0.085672
0.689552 0.387953 0.086354
0.740500 0.388635 0.087036
0.791449 0.389317 0.087718
0.842398 0.389999 0.088400
0.893346 0.390681 0.089082
0.080463 0.432329 0.080463
0.131412 0.433011 0.081145
0.182360 0.433693 0.081827
0.233309 0.434375 0.082509
0.284258 0.435057 0.083192
0.335206 0.435739 0.083874
0.386155 0.436421 0.084556
0.437103 0.437103 0.085238
0.488052 0.437786 0.085920
0.539001 0.438468 0.086602
0.589949 0.439150 0.087284
0.640898 0.439832 0.087966
0.691847 0.440514 0.088649
0.742795 0.441196 0.089331
0.793744 0.441878 0.090013
0.844692 0.442560 0.090695
0.895641 0.443243 0.091377
0.082758 0.484890 0.082758
0.133706 0.485572 0.083440
0.184655 0.486254 0.084122
0.235604 0.486936 0.084804
0.286552 0.487618 0.085486
0.337501 0.488300 0.086168
0.388450 0.488983 0.086851
0.439398 0.489665 0.087533
0.490347 0.490347 0.088215
0.541295 0.491029 0.088897
0.592244 0.491711 0.089579
0.643193 0.492393 0.090261
0.694141 0.493075 0.090943
0.745090 0.493757 0.091625
0.796039 0.494440 0.092308
0.846987 0.495122 0.092990
0.897936 0.495804 0.093672
0.085052 0.537451 0.085052
0.136001 0.538133 0.085735
0.186950 0.538815 0.086417
0.237898 0.539497 0.087099
0.288847 0.540179 0.087781
0.339796 0.540862 0.088463
0.390744 0.541544 0.089145
0.441693 0.542226 0.089827
0.492641 0.542908 0.090509
0.543590 0.543590 0.091192
0.594539 0.544272 0.091874
0.645487 0.544954 0.092556
0.696436 0.545636 0.093238
0.747385 0.546319 0.093920
0.798333 0.547001 0.094602
0.849282 0.547683 0.095284
0.900231 0.548365 0.095967
0.087347 0.590012 0.087347
0.138296 0.590694 0.088029
0.189244 0.591376 0.088711
0.240193 0.592059 0.089394
0.291142 0.592741 0.090076
0.342090 0.593423 0.090758
0.393039 0.594105 0.091440
0.443988 0.594787 0.092122
0.494936 0.595469 0.092804
0.545885 0.596151 0.093486
0.596833 0.596833 0.094168
0.647782 0.597516 0.094851
0.698731 0.598198 0.095533
0.749679 0.598880 0.096215
0.800628 0.599562 0.096897
0.851577 0.600244 0.097579
0.902525 0.600926 0.098261
0.089642 0.642573 0.089642
0.140591 0.643256 0.090324
0.191539 0.643938 0.091006
0.242488 0.644620 0.091688
0.293436 0.645302 0.092370
0.344385 0.645984 0.093053
0.395334 0.646666 0.093735
0.446282 0.647348 0.094417
0.497231 0.648030 0.095099
0.548180 0.648713 0.095781
0.599128 0.649395 0.096463
0.650077 0.650077 0.097145
0.701025 0.650759 0.097827
0.751974 0.651441 0.098510
0.802923 0.652123 0.099192
0.853871 0.652805 0.099874
0.904820 0.653487 0.100556
0.091937 0.695135 0.091937
0.142885 0.695817 0.092619
0.193834 0.696499 0.093301
0.244783 0.697181 0.093983
0.295731 0.697863 0.094665
0.346680 0.698545 0.095347
0.397628 0.699227 0.096029
0.448577 0.699910 0.096712
0.499526 0.700592 0.097394
0.550474 0.701274 0.098076
0.601423 0.701956 0.098758
0.652372 0.702638 0.099440
0.703320 0.703320 0.100122
0.754269 0.704002 0.100804
0.805217 0.704684 0.101486
0.856166 0.705367 0.102169
0.907115 0.706049 0.102851
0.094231 0.747696 0.094231
0.145180 0.748378 0.094913
0.196129 0.749060 0.095596
0.247077 0.749742 0.096278
0.298026 0.750424 0.096960
0.348974 0.751107 0.097642
0.399923 0.751789 0.098324
0.450872 0.752471 0.099006
0.501820 0.753153 0.099688
0.552769 0.753835 0.100370
0.603718 0.754517 0.101053
0.654666 0.755199 0.101735
0.705615 0.755881 0.102417
0.756563 0.756563 0.103099
0.807512 0.757246 0.103781
0.858461 0.757928 0.104463
0.909409 0.758610 0.105145
0.096526 0.800257 0.096526
0.147475 0.800939 0.097208
0.198423 0.801621 0.097890
0.249372 0.802303 0.098572
0.300321 0.802986 0.099255
0.351269 0.803668 0.099937
0.402218 0.804350 0.100619
0.453166 0.805032 0.101301
0.504115 0.805714 0.101983
0.555064 0.806396 0.102665
0.606012 0.807078 0.103347
0.656961 0.807760 0.104029
0.707910 0.808443 0.104712
0.758858 0.809125 0.105394
0.809807 0.809807 0.106076
0.860756 0.810489 0.106758
0.911704 0.811171 0.107440
0.098821 0.852818 0.098821
0.149769 0.853500 0.099503
0.200718 0.854183 0.100185
0.251667 0.854865 0.100867
0.302615 0.855547 0.101549
0.353564 0.856229 0.102231
0.404513 0.856911 0.102914
0.455461 0.857593 0.103596
0.506410 0.858275 0.104278
0.557358 0.858957 0.104960
0.608307 0.859640 0.105642
0.659256 0.860322 0.106324
0.710204 0.861004 0.107006
0.761153 0.861686 0.107688
0.812102 0.862368 0.108371
0.863050 0.863050 0.109053
0.913999 0.863732 0.109735
0.101116 0.905380 0.101116
0.152064 0.906062 0.101798
0.203013 0.906744 0.102480
0.253961 0.907426 0.103162
0.304910 0.908108 0.103844
0.355859 0.908790 0.104526
0.406807 0.909472 0.105208
0.457756 0.910154 0.105890
0.508705 0.910837 0.106573
0.559653 0.911519 0.107255
0.610602 0.912201 0.107937
0.661550 0.912883 0.108619
0.712499 0.913565 0.109301
0.763448 0.914247 0.109983
0.814396 0.914929 0.110665
0.865345 0.915611 0.111347
0.916294 0.916294 0.112030
0.064632 0.064632 0.114898
0.115580 0.065314 0.115580
0.166529 0.065996 0.116262
0.217478 0.066678 0.116945
0.268426 0.067360 0.117627
0.319375 0.068042 0.118309
0.370323 0.068724 0.118991
0.421272 0.069407 0.119673
0.472221 0.070089 0.120355
0.523169 0.070771 0.121037
0.574118 0.071453 0.121719
0.625067 0.072135 0.122402
0.676015 0.072817 0.123084
0.726964 0.073499 0.123766
0.777912 0.074181 0.124448
0.828861 0.074864 0.125130
0.879810 0.075546 0.125812
0.066926 0.117193 0.117193
0.117875 0.117875 0.117875
0.168824 0.118557 0.118557
0.219772 0.119239 0.119239
0.270721 0.119921 0.119921
0.321670 0.120604 0.120604
0.372618 0.121286 0.121286
0.423567 0.121968 0.121968
0.474515 0.122650 0.122650
0.525464 0.123332 0.123332
0.576413 0.124014 0.124014
0.627361 0.124696 0.124696
0.678310 0.125378 0.125378
0.729259 0.126061 0.126061
0.780207 0.126743 0.126743
0.831156 0.127425 0.127425
0.882104 0.128107 0.128107
0.069221 0.169754 0.119488
0.120170 0.170436 0.120170
0.171118 0.171118 0.120852
0.222067 0.171800 0.121534
0.273016 0.172483 0.122216
0.323964 0.173165 0.122898
0.374913 0.173847 0.123580
0.425861 0.174529 0.124262
0.476810 0.175211 0.124945
0.527759 0.175893 0.125627
0.578707 0.176575 0.126309
0.629656 0.177257 0.126991
0.680605 0.177940 0.127673
0.731553 0.178622 0.128355
0.782502 0.179304 0.129037
0.833450 0.179986 0.129719
0.884399 0.180668 0.130402
0.071516 0.222315 0.121782
0.122464 0.222997 0.122464
0.173413 0.223680 0.123147
0.224362 0.224362 0.123829
0.275310 0.225044 0.124511
0.326259 0.225726 0.125193
0.377208 0.226408 0.125875
0.428156 0.227090 0.126557
0.479105 0.227772 0.127239
0.530053 0.228454 0.127921
0.581002 0.229137 0.128604
0.631951 0.229819 0.129286
0.682899 0.230501 0.129968
0.733848 0.231183 0.130650
0.784797 0.231865 0.131332
0.835745 0.232547 0.132014
0.886694 0.233229 0.132696
0.073811 0.274877 0.124077
0.124759 0.275559 0.124759
0.175708 0.276241 0.125441
0.226656 0.276923 0.126123
0.277605 0.277605 0.126806
0.328554 0.278287 0.127488
0.379502 0.278969 0.128170
0.430451 0.279651 0.128852
0.481400 0.280334 0.129534
0.532348 0.281016 0.130216
0.583297 0.281698 0.130898
0.634245 0.282380 0.131580
0.685194 0.283062 0.132263
0.736143 0.283744 0.132945
0.787091 0.284426 0.133627
0.838040 0.285108 0.134309
0.888989 0.285791 0.134991
0.076105 0.327438 0.126372
0.127054 0.328120 0.127054
0.178003 0.328802 0.127736
0.228951 0.329484 0.128418
0.279900 0.330166 0.129100
0.330848 0.330848 0.129782
0.381797 0.331531 0.130465
0.432746 0.332213 0.131147
0.483694 0.332895 0.131829
0.534643 0.333577 0.132511
0.585591 0.334259 0.133193
0.636540 0.334941 0.133875
0.687489 0.335623 0.134557
0.738437 0.336305 0.135239
0.789386 0.336988 0.135922
0.840335 0.337670 0.136604
0.891283 0.338352 0.137286
0.078400 0.379999 0.128666
0.129349 0.380681 0.129349
0.180297 0.381363 0.130031
0.231246 0.382045 0.130713
0.282194 0.382727 0.131395
0.333143 0.383410 0.132077
0.384092 0.384092 0.132759
0.435040 0.384774 0.133441
0.485989 0.385456 0.134123
0.536938 0.386138 0.134806
0.587886 0.386820 0.135488
0.638835 0.387502 0.136170
0.689784 0.388184 0.136852
0.740732 0.388867 0.137534
0.791681 0.389549 0.138216
0.842629 0.390231 0.138898
0.893578 0.390913 0.139581
0.080695 0.432560 0.130961
0.131643 0.433242 0.131643
0.182592 0.433924 0.132325
0.233541 0.434607 0.133008
0.284489 0.435289 0.133690
0.335438 0.435971 0.134372
0.386386 0.436653 0.135054
0.437335 0.437335 0.135736
0.488284 0.438017 0.136418
0.539232 0.438699 0.137100
0.590181 0.439381 0.137782
0.641130 0.440064 0.138465
0.692078 0.440746 0.139147
0.743027 0.441428 0.139829
0.793975 0.442110 0.140511
0.844924 0.442792 0.141193
0.895873 0.443474 0.141875
0.082989 0.485121 0.133256
0.133938 0.485804 0.133938
0.184887 0.486486 0.134620
0.235835 0.487168 0.135302
0.286784 0.487850 0.135984
0.337733 0.488532 0.136667
0.388681 0.489214 0.137349
0.439630 0.489896 0.138031
0.490578 0.490578 0.138713
0.541527 0.491261 0.139395
0.592476 0.491943 0.140077
0.643424 0.492625 0.140759
0.694373 0.493307 0.141441
0.745322 0.493989 0.142124
0.796270 0.494671 0.142806
0.847219 0.495353 0.143488
0.898167 0.496035 0.144170
0.085284 0.537683 0.135551
0.136233 0.538365 0.136233
0.187181 0.539047 0.136915
0.238130 0.539729 0.137597
0.289079 0.540411 0.138279
0.340027 0.541093 0.138961
0.390976 0.541775 0.139643
0.441925 0.542458 0.140326
0.492873 0.543140 0.141008
0.543822 0.543822 0.141690
0.594770 0.544504 0.142372
0.645719 0.545186 0.143054
0.696668 0.545868 0.143736
0.747616 0.546550 0.144418
0.798565 0.547232 0.145100
0.849514 0.547915 0.145783
0.900462 0.548597 0.146465
0.087579 0.590244 0.137845
0.138527 0.590926 0.138527
0.189476 0.591608 0.139210
0.240425 0.592290 0.139892
0.291373 0.592972 0.140574
0.342322 0.593654 0.141256
0.393271 0.594337 0.141938
0.444219 0.595019 0.142620
0.495168 0.595701 0.143302
0.546116 0.596383 0.143984
0.597065 0.597065 0.144667
0.648014 0.597747 0.145349
0.698962 0.598429 0.146031
0.749911 0.599111 0.146713
0.800860 0.599794 0.147395
0.851808 0.600476 0.148077
0.902757 0.601158 0.148759
0.089874 0.642805 0.140140
0.140822 0.643487 0.140822
0.191771 0.644169 0.141504
0.242719 0.644851 0.142186
0.293668 0.645534 0.142869
0.344617 0.646216 0.143551
0.395565 0.646898 0.144233
0.446514 0.647580 0.144915
0.497463 0.648262 0.145597
0.548411 0.648944 0.146279
0.599360 0.649626 0.146961
0.650308 0.650308 0.147643
0.701257 0.650991 0.148326
0.752206 0.651673 0.149008
0.803154 0.652355 0.149690
0.854103 0.653037 0.150372
0.905052 0.653719 0.151054
0.092168 0.695366 0.142435
0.143117 0.696048 0.143117
0.194066 0.696731 0.143799
0.245014 0.697413 0.144481
0.295963 0.698095 0.145163
0.346911 0.698777 0.145845
0.397860 0.699459 0.146528
0.448809 0.700141 0.147210
0.499757 0.700823 0.147892
0.550706 0.701505 0.148574
0.601655 0.702188 0.149256
0.652603 0.702870 0.149938
0.703552 0.703552 0.150620
0.754500 0.704234 0.151302
0.805449 0.704916 0.151985
0.856398 0.705598 0.152667
0.907346 0.706280 0.153349
0.094463 0.747927 0.144730
0.145412 0.748610 0.145412
0.196360 0.749292 0.146094
0.247309 0.749974 0.146776
0.298257 0.750656 0.147458
0.349206 0.751338 0.148140
0.400155 0.752020 0.148822
0.451103 0.752702 0.149504
0.502052 0.753385 0.150187
0.553001 0.754067 0.150869
0.603949 0.754749 0.151551
0.654898 0.755431 0.152233
0.705847 0.756113 0.152915
0.756795 0.756795 0.153597
0.807744 0.757477 0.154279
0.858692 0.758159 0.154961
0.909641 0.758842 0.155644
0.096758 0.800489 0.147024
0.147706 0.801171 0.147706
0.198655 0.801853 0.148388
0.249604 0.802535 0.149071
0.300552 0.803217 0.149753
0.351501 0.803899 0.150435
0.402449 0.804581 0.151117
0.453398 0.805264 0.151799
0.504347 0.805946 0.152481
0.555295 0.806628 0.153163
0.606244 0.807310 0.153845
0.657193 0.807992 0.154528
0.708141 0.808674 0.155210
0.759090 0.809356 0.155892
0.810039 0.810039 0.156574
0.860987 0.810721 0.157256
0.911936 0.811403 0.157938
0.099052 0.853050 0.149319
0.150001 0.853732 0.150001
0.200950 0.854414 0.150683
0.251898 0.855096 0.151365
0.302847 0.855778 0.152047
0.353796 0.856461 0.152730
0.404744 0.857143 0.153412
0.455693 0.857825 0.154094
0.506641 0.858507 0.154776
0.557590 0.859189 0.155458
0.608539 0.859871 0.156140
0.659487 0.860553 0.156822
0.710436 0.861235 0.157504
0.761385 0.861918 0.158187
0.812333 0.862600 0.158869
0.863282 0.863282 0.159551
0.914230 0.863964 0.160233
0.101347 0.905611 0.151614
0.152296 0.906293 0.152296
0.203244 0.906975 0.152978
0.254193 0.907658 0.153660
0.305142 0.908340 0.154342
0.356090 0.909022 0.155024
0.407039 0.909704 0.155706
0.457988 0.910386 0.156389
0.508936 0.911068 0.157071
0.559885 0.911750 0.157753
0.610833 0.912432 0.158435
0.661782 0.913115 0.159117
0.712731 0.913797 0.159799
0.763679 0.914479 0.160481
0.814628 0.915161 0.161163
0.865577 0.915843 0.161846
0.916525 0.916525 0.162528
0.064863 0.064863 0.165396
0.115812 0.065545 0.166078
0.166761 0.066228 0.166761
0.217709 0.066910 0.167443
0.268658 0.067592 0.168125
0.319606 0.068274 0.168807
0.370555 0.068956 0.169489
0.421504 0.069638 0.170171
0.472452 0.070320 0.170853
0.523401 0.071002 0.171535
0.574350 0.071685 0.172218
0.625298 0.072367 0.172900
0.676247 0.073049 0.173582
0.727195 0.073731 0.174264
0.778144 0.074413 0.174946
0.829093 0.075095 0.175628
0.880041 0.075777 0.176310
0.067158 0.117425 0.167691
0.118107 0.118107 0.168373
0.169055 0.118789 0.169055
0.220004 0.119471 0.169737
0.270953 0.120153 0.170420
0.321901 0.120835 0.171102
0.372850 0.121517 0.171784
0.423798 0.122199 0.172466
0.474747 0.122882 0.173148
0.525696 0.123564 0.173830
0.576644 0.124246 0.174512
0.627593 0.124928 0.175194
0.678542 0.125610 0.175877
0.729490 0.126292 0.176559
0.780439 0.126974 0.177241
0.831387 0.127656 0.177923
0.882336 0.128339 0.178605
0.069453 0.169986 0.169986
0.120401 0.170668 0.170668
0.171350 0.171350 0.171350
0.222299 0.172032 0.172032
0.273247 0.172714 0.172714
0.324196 0.173396 0.173396
0.375145 0.174079 0.174079
0.426093 0.174761 0.174761
0.477042 0.175443 0.175443
0.527990 0.176125 0.176125
0.578939 0.176807 0.176807
0.629888 0.177489 0.177489
0.680836 0.178171 0.178171
0.731785 0.178853 0.178853
0.782734 0.179536 0.179536
0.833682 0.180218 0.180218
0.884631 0.180900 0.180900
0.071747 0.222547 0.172280
0.122696 0.223229 0.172963
0.173645 0.223911 0.173645
0.224593 0.224593 0.174327
0.275542 0.225275 0.175009
0.326491 0.225958 0.175691
0.377439 0.226640 0.176373
0.428388 0.227322 0.177055
0.479336 0.228004 0.177737
0.530285 0.228686 0.178420
0.581234 0.229368 0.179102
0.632182 0.230050 0.179784
0.683131 0.230732 0.180466
0.734080 0.231415 0.181148
0.785028 0.232097 0.181830
0.835977 0.232779 0.182512
0.886926 0.233461 0.183195
0.074042 0.275108 0.174575
0.124991 0.275790 0.175257
0.175939 0.276472 0.175939
0.226888 0.277155 0.176622
0.277837 0.277837 0.177304
0.328785 0.278519 0.177986
0.379734 0.279201 0.178668
0.430683 0.279883 0.179350
0.481631 0.280565 0.180032
0.532580 0.281247 0.180714
0.583528 0.281929 0.181396
0.634477 0.282612 0.182079
0.685426 0.283294 0.182761
0.736374 0.283976 0.183443
0.787323 0.284658 0.184125
0.838272 0.285340 0.184807
0.889220 0.286022 0.185489
0.076337 0.327669 0.176870
0.127286 0.328352 0.177552
0.178234 0.329034 0.178234
0.229183 0.329716 0.178916
0.280131 0.330398 0.179598
0.331080 0.331080 0.180281
0.382029 0.331762 0.180963
0.432977 0.332444 0.181645
0.483926 0.333126 0.182327
0.534875 0.333809 0.183009
0.585823 0.334491 0.183691
0.636772 0.335173 0.184373
0.687720 0.335855 0.185055
0.738669 0.336537 0.185738
0.789618 0.337219 0.186420
0.840566 0.337901 0.187102
0.891515 0.338583 0.187784
0.078632 0.380231 0.179165
0.129580 0.380913 0.179847
0.180529 0.381595 0.180529
0.231477 0.382277 0.181211
0.282426 0.382959 0.181893
0.333375 0.383641 0.182575
0.384323 0.384323 0.183257
0.435272 0.385006 0.183940
0.486221 0.385688 0.184622
0.537169 0.386370 0.185304
0.588118 0.387052 0.185986
0.639067 0.387734 0.186668
0.690015 0.388416 0.187350
0.740964 0.389098 0.188032
0.791912 0.389780 0.188714
0.842861 0.390463 0.189397
0.893810 0.391145 0.190079
0.080926 0.432792 0.181459
0.131875 0.433474 0.182141
0.182824 0.434156 0.182824
0.233772 0.434838 0.183506
0.284721 0.435520 0.184188
0.335669 0.436202 0.184870
0.386618 0.436885 0.185552
0.437567 0.437567 0.186234
0.488515 0.438249 0.186916
0.539464 0.438931 0.187598
0.590413 0.439613 0.188281
0.641361 0.440295 0.188963
0.692310 0.440977 0.189645
0.743258 0.441659 0.190327
0.794207 0.442342 0.191009
0.845156 0.443024 0.191691
0.896104 0.443706 0.192373
0.083221 0.485353 0.183754
0.134170 0.486035 0.184436
0.185118 0.486717 0.185118
0.236067 0.487399 0.185800
0.287016 0.488082 0.186483
0.337964 0.488764 0.187165
0.388913 0.489446 0.187847
0.439861 0.490128 0.188529
0.490810 0.490810 0.189211
0.541759 0.491492 0.189893
0.592707 0.492174 0.190575
0.643656 0.492856 0.191257
0.694605 0.493539 0.191940
0.745553 0.494221 0.192622
0.796502 0.494903 0.193304
0.847450 0.495585 0.193986
0.898399 0.496267 0.194668
0.085516 0.537914 0.186049
0.136464 0.538596 0.186731
0.187413 0.539279 0.187413
0.238362 0.539961 0.188095
0.289310 0.540643 0.188777
0.340259 0.541325 0.189459
0.391208 0.542007 0.190142
0.442156 0.542689 0.190824
0.493105 0.543371 0.191506
0.544053 0.544053 0.192188
0.595002 0.544736 0.192870
0.645951 0.545418 0.193552
0.696899 0.546100 0.194234
0.747848 0.546782 0.194916
0.798797 0.547464 0.195599
0.849745 0.548146 0.196281
0.900694 0.548828 0.196963
0.087811 0.590475 0.188343
0.138759 0.591158 0.189026
0.189708 0.591840 0.189708
0.240656 0.592522 0.190390
0.291605 0.593204 0.191072
0.342554 0.593886 0.191754
0.393502 0.594568 0.192436
0.444451 0.595250 0.193118
0.495400 0.595933 0.193801
0.546348 0.596615 0.194483
0.597297 0.597297 0.195165
0.648245 0.597979 0.195847
0.699194 0.598661 0.196529
0.750143 0.599343 0.197211
0.801091 0.600025 0.197893
0.852040 0.600707 0.198575
0.902989 0.601390 0.199258
0.090105 0.643037 0.190638
0.141054 0.643719 0.191320
0.192002 0.644401 0.192002
0.242951 0.645083 0.192685
0.293900 0.645765 0.193367
0.344848 0.646447 0.194049
0.395797 0.647129 0.194731
0.446746 0.647812 0.195413
0.497694 0.648494 0.196095
0.548643 0.649176 0.196777
0.599591 0.649858 0.197459
0.650540 0.650540 0.198142
0.701489 0.651222 0.198824
0.752437 0.651904 0.199506
0.803386 0.652587 0.200188
0.854335 0.653269 0.200870
0.905283 0.653951 0.201552
0.092400 0.695598 0.192933
0.143349 0.696280 0.193615
0.194297 0.696962 0.194297
0.245246 0.697644 0.194979
0.296194 0.698326 0.195661
0.347143 0.699009 0.196344
0.398092 0.699691 0.197026
0.449040 0.700373 0.197708
0.499989 0.701055 0.198390
0.550938 0.701737 0.199072
0.601886 0.702419 0.199754
0.652835 0.703101 0.200436
0.703783 0.703783 0.201118
0.754732 0.704466 0.201801
0.805681 0.705148 0.202483
0.856629 0.705830 0.203165
0.907578 0.706512 0.203847
0.094695 0.748159 0.195228
0.145643 0.748841 0.195910
0.196592 0.749523 0.196592
0.247541 0.750206 0.197274
0.298489 0.750888 0.197956
0.349438 0.751570 0.198638
0.400386 0.752252 0.199320
0.451335 0.752934 0.200003
0.502284 0.753616 0.200685
0.553232 0.754298 0.201367
0.604181 0.754980 0.202049
0.655130 0.755663 0.202731
0.706078 0.756345 0.203413
0.757027 0.757027 0.204095
0.807975 0.757709 0.204777
0.858924 0.758391 0.205460
0.909873 0.759073 0.206142
0.096989 0.800720 0.197522
0.147938 0.801403 0.198205
0.198887 0.802085 0.198887
0.249835 0.802767 0.199569
0.300784 0.803449 0.200251
0.351733 0.804131 0.200933
0.402681 0.804813 0.201615
0.453630 0.805495 0.202297
0.504578 0.806177 0.202979
0.555527 0.806859 0.203662
0.606476 0.807542 0.204344
0.657424 0.808224 0.205026
0.708373 0.808906 0.205708
0.759322 0.809588 0.206390
0.810270 0.810270 0.207072
0.861219 0.810952 0.207754
0.912167 0.811634 0.208436
0.099284 0.853282 0.199817
0.150233 0.853964 0.200499
0.201181 0.854646 0.201181
0.252130 0.855328 0.201863
0.303079 0.856010 0.202546
0.354027 0.856692 0.203228
0.404976 0.857374 0.203910
0.455924 0.858056 0.204592
0.506873 0.858739 0.205274
0.557822 0.859421 0.205956
0.608770 0.860103 0.206638
0.659719 0.860785 0.207320
0.710668 0.861467 0.208003
0.761616 0.862149 0.208685
0.812565 0.862831 0.209367
0.863514 0.863514 0.210049
0.914462 0.864196 0.210731
0.101579 0.905843 0.202112
0.152527 0.906525 0.202794
0.203476 0.907207 0.203476
0.254425 0.907889 0.204158
0.305373 0.908571 0.204840
0.356322 0.909253 0.205522
0.407271 0.909936 0.206205
0.458219 0.910618 0.206887
0.509168 0.911300 0.207569
0.560116 0.911982 0.208251
0.611065 0.912664 0.208933
0.662014 0.913346 0.209615
0.712962 0.914028 0.210297
0.763911 0.914710 0.210979
0.814860 0.915393 0.211662
0.865808 0.916075 0.212344
0.916757 0.916757 0.213026
0.065095 0.065095 0.215894
0.116044 0.065777 0.216577
0.166992 0.066459 0.217259
0.217941 0.067141 0.217941
0.268889 0.067823 0.218623
0.319838 0.068506 0.219305
0.370787 0.069188 0.219987
0.421735 0.069870 0.220669
0.472684 0.070552 0.221351
0.523633 0.071234 0.222034
0.574581 0.071916 0.222716
0.625530 0.072598 0.223398
0.676479 0.073280 0.224080
0.727427 0.073963 0.224762
0.778376 0.074645 0.225444
0.829324 0.075327 0.226126
0.880273 0.076009 0.226808
0.067390 0.117656 0.218189
0.118338 0.118338 0.218871
0.169287 0.119020 0.219553
