assets/presets/luts/reversal-slide/lut.cube
TITLE "Reversal Slide"
LUT_3D_SIZE 9
0.000000 0.000000 0.000000
0.011928 0.000000 0.000000
0.076127 0.000000 0.000000
0.239803 0.000000 0.000000
0.515446 0.000000 0.000000
0.817251 0.000000 0.000000
1.000000 0.000000 0.000000
1.000000 0.000000 0.000000
1.000000 0.000000 0.000000
0.000000 0.012364 0.000000
0.011778 0.011778 0.000000
0.068082 0.010610 0.000000
0.208691 0.006575 0.000000
0.461496 0.000000 0.000000
0.762989 0.000000 0.000000
0.995062 0.000000 0.000000
1.000000 0.000000 0.000000
1.000000 0.000000 0.000000
0.000000 0.079863 0.000000
0.002706 0.079337 0.000000
0.075992 0.075992 0.000000
0.230001 0.072110 0.000000
0.466450 0.068017 0.000000
0.745880 0.062111 0.000000
0.971630 0.057496 0.000000
1.000000 0.056142 0.000000
1.000000 0.057361 0.000000
0.000000 0.251494 0.000000
0.000000 0.250992 0.000000
0.053395 0.248152 0.000000
0.239324 0.239324 0.000000
0.503572 0.231485 0.000000
0.766030 0.230013 0.000000
0.963558 0.232473 0.000000
1.000000 0.237649 0.000000
1.000000 0.244319 0.000000
0.000000 0.528754 0.000000
0.000000 0.528252 0.000000
0.015657 0.525369 0.000000
0.203749 0.518368 0.000000
0.503889 0.503889 0.000000
0.780641 0.494700 0.000000
0.958654 0.496702 0.000000
1.000000 0.505166 0.000000
1.000000 0.516263 0.000000
0.000000 0.806014 0.000000
0.000000 0.805512 0.000000
0.000000 0.802772 0.000000
0.166246 0.795484 0.000000
0.469875 0.784199 0.000000
0.769956 0.769956 0.000000
0.947222 0.763460 0.000000
1.000000 0.765952 0.000000
1.000000 0.773241 0.000000
0.000000 0.977645 0.000000
0.000000 0.977143 0.000000
0.000000 0.974403 0.000000
0.143031 0.967027 0.000000
0.446502 0.955879 0.000000
0.750359 0.944439 0.000000
0.935951 0.935951 0.000000
1.000000 0.933050 0.000000
1.000000 0.934444 0.000000
0.000000 1.000000 0.000000
0.000000 1.000000 0.000000
0.000000 1.000000 0.000000
0.133902 1.000000 0.000000
0.437373 1.000000 0.000000
0.740844 1.000000 0.000000
0.928962 1.000000 0.000000
1.000000 1.000000 0.000000
1.000000 1.000000 0.000000
0.000000 1.000000 0.000000
0.000000 1.000000 0.000000
0.000000 1.000000 0.000000
0.132229 1.000000 0.000000
0.435700 1.000000 0.000000
0.739171 1.000000 0.000000
0.927027 1.000000 0.000000
1.000000 1.000000 0.000000
1.000000 1.000000 0.000000
0.000000 0.000000 0.014029
0.013371 0.000000 0.013371
0.087244 0.000000 0.010656
0.275100 0.000000 0.003755
0.576341 0.000000 0.000000
0.873703 0.000000 0.000000
1.000000 0.000000 0.000000
1.000000 0.000000 0.000000
1.000000 0.000000 0.000000
0.000000 0.012231 0.012231
0.011697 0.011697 0.011697
0.079733 0.009608 0.009608
0.249351 0.003796 0.003796
0.529170 0.000000 0.000000
0.828695 0.000000 0.000000
1.000000 0.000000 0.000000
1.000000 0.000000 0.000000
1.000000 0.000000 0.000000
0.000000 0.079736 0.002890
0.002480 0.079190 0.002480
0.076115 0.076115 0.001273
0.226102 0.073674 0.002577
0.477369 0.068299 0.000000
0.772271 0.060274 0.000000
0.995112 0.054397 0.000000
1.000000 0.052368 0.000000
1.000000 0.053034 0.000000
0.000000 0.251323 0.000000
0.000000 0.250821 0.000000
0.053226 0.247984 0.000000
0.239763 0.239763 0.000000
0.498138 0.233832 0.000000
0.761897 0.233494 0.000000
0.966416 0.234739 0.000000
1.000000 0.237987 0.000000
1.000000 0.242804 0.000000
0.000000 0.528584 0.000000
0.000000 0.528081 0.000000
0.015485 0.525200 0.000000
0.203580 0.518199 0.000000
0.504501 0.504501 0.000000
0.777470 0.496741 0.000000
0.954797 0.500589 0.000000
1.000000 0.509414 0.000000
1.000000 0.519542 0.000000
0.000000 0.805844 0.000000
0.000000 0.805341 0.000000
0.000000 0.802602 0.000000
0.166078 0.795316 0.000000
0.469549 0.784168 0.000000
0.770365 0.770365 0.000000
0.945865 0.764500 0.000000
1.000000 0.768146 0.000000
1.000000 0.776082 0.000000
0.000000 0.977475 0.000000
0.000000 0.976973 0.000000
0.000000 0.974233 0.000000
0.142862 0.966858 0.000000
0.446333 0.955710 0.000000
0.749919 0.944492 0.000000
0.936007 0.936007 0.000000
1.000000 0.933202 0.000000
1.000000 0.934932 0.000000
0.000000 1.000000 0.000000
0.000000 1.000000 0.000000
0.000000 1.000000 0.000000
0.133733 1.000000 0.000000
0.437204 1.000000 0.000000
0.740675 1.000000 0.000000
0.928700 1.000000 0.000000
1.000000 1.000000 0.000000
1.000000 1.000000 0.000000
0.000000 1.000000 0.000000
0.000000 1.000000 0.000000
0.000000 1.000000 0.000000
0.132060 1.000000 0.000000
0.435531 1.000000 0.000000
0.739002 1.000000 0.000000
0.926858 1.000000 0.000000
1.000000 1.000000 0.000000
1.000000 1.000000 0.000000
0.000000 0.000000 0.102378
0.013027 0.000000 0.099450
0.086426 0.000000 0.086426
0.274179 0.000000 0.079421
0.577649 0.000000 0.068273
0.881121 0.000000 0.057125
1.000000 0.000000 0.050224
1.000000 0.000000 0.047503
1.000000 0.000000 0.046971
0.000000 0.010834 0.100603
0.009935 0.009935 0.098160
0.084736 0.008027 0.084736
0.272505 0.001161 0.077748
0.575976 0.000000 0.066600
0.877711 0.000000 0.055486
1.000000 0.000000 0.048801
1.000000 0.000000 0.046477
1.000000 0.000000 0.046596
0.000000 0.081674 0.081674
0.000000 0.080708 0.080708
0.075520 0.075520 0.075520
0.251031 0.070511 0.070511
0.534684 0.061547 0.061547
0.831514 0.052117 0.052117
1.000000 0.046267 0.046267
1.000000 0.044497 0.044497
1.000000 0.045185 0.045185
0.000000 0.251725 0.053185
0.000000 0.251156 0.052652
0.052081 0.247151 0.052081
0.239460 0.239460 0.050258
0.491834 0.236422 0.063587
0.770728 0.234021 0.055264
0.980887 0.231948 0.047210
1.000000 0.232732 0.043338
1.000000 0.235668 0.042519
0.000000 0.527906 0.016930
0.000000 0.527391 0.016440
0.014218 0.524411 0.014218
0.202659 0.517277 0.007901
0.504348 0.504348 0.006699
0.771840 0.498860 0.031502
0.951038 0.504066 0.040232
1.000000 0.511513 0.040833
1.000000 0.519304 0.040036
0.000000 0.804913 0.000000
0.000000 0.804411 0.000000
0.000000 0.801671 0.000000
0.165156 0.794394 0.000000
0.468627 0.783246 0.000000
0.769984 0.769984 0.000000
0.943013 0.765001 0.000000
1.000000 0.769907 0.022922
1.000000 0.778051 0.037155
0.000000 0.976544 0.000000
0.000000 0.976042 0.000000
0.000000 0.973302 0.000000
0.141941 0.965936 0.000000
0.445412 0.954788 0.000000
0.748883 0.943640 0.000000
0.935250 0.935250 0.000000
1.000000 0.932482 0.000000
1.000000 0.934565 0.017278
0.000000 1.000000 0.000000
0.000000 1.000000 0.000000
0.000000 1.000000 0.000000
0.132812 1.000000 0.000000
0.436283 1.000000 0.000000
0.739754 1.000000 0.000000
0.927657 1.000000 0.000000
1.000000 1.000000 0.000000
1.000000 0.999649 0.000000
0.000000 1.000000 0.000000
0.000000 1.000000 0.000000
0.000000 1.000000 0.000000
0.131139 1.000000 0.000000
0.434610 1.000000 0.000000
0.738081 1.000000 0.000000
0.925937 1.000000 0.000000
0.999826 1.000000 0.000000
1.000000 1.000000 0.000000
0.000000 0.000000 0.322395
0.008703 0.000000 0.319874
0.088961 0.000000 0.302839
0.272162 0.000000 0.272162
0.575306 0.000000 0.260687
0.878777 0.000000 0.249539
1.000000 0.000000 0.242638
1.000000 0.000000 0.239924
1.000000 0.000000 0.239427
0.000000 0.006307 0.320494
0.005439 0.005439 0.318235
0.086450 0.002066 0.301030
0.270473 0.000000 0.270473
0.573633 0.000000 0.259014
0.877104 0.000000 0.247866
1.000000 0.000000 0.240965
1.000000 0.000000 0.238251
1.000000 0.000000 0.237735
0.000000 0.077375 0.309066
0.000000 0.076311 0.307980
0.071028 0.071028 0.295537
0.261256 0.066186 0.261256
0.564504 0.055127 0.249885
0.867975 0.043979 0.238737
1.000000 0.037337 0.231791
1.000000 0.035477 0.229316
1.000000 0.036055 0.229641
0.000000 0.257198 0.257198
0.000000 0.256245 0.256245
0.026535 0.251044 0.251044
0.237818 0.237818 0.237818
0.524965 0.230248 0.230248
0.818711 0.222455 0.222455
1.000000 0.218362 0.218362
1.000000 0.218293 0.218293
1.000000 0.220595 0.220595
0.000000 0.531757 0.203088
0.000000 0.531113 0.202472
0.000000 0.527301 0.199555
0.199954 0.515078 0.199954
0.502835 0.502835 0.199075
0.764807 0.501023 0.234489
0.953943 0.503982 0.231851
1.000000 0.507552 0.228251
1.000000 0.512212 0.227547
0.000000 0.806646 0.165646
0.000000 0.806080 0.165115
0.000000 0.802995 0.162224
0.162091 0.792338 0.162091
0.466283 0.780902 0.151664
0.768225 0.768225 0.160441
0.937938 0.764839 0.220806
1.000000 0.770784 0.246675
1.000000 0.777967 0.254209
0.000000 0.977281 0.143307
0.000000 0.976735 0.142796
0.000000 0.973762 0.140010
0.138652 0.963969 0.138652
0.443068 0.952444 0.128449
0.746539 0.941296 0.117301
0.933099 0.933099 0.140368
1.000000 0.930513 0.213806
1.000000 0.933127 0.262122
0.000000 1.000000 0.134239
0.000000 1.000000 0.133736
0.000000 1.000000 0.130996
0.129435 1.000000 0.129435
0.433939 1.000000 0.119320
0.737410 1.000000 0.108172
0.925266 1.000000 0.101271
0.998297 0.998297 0.138696
1.000000 0.996909 0.219121
0.000000 1.000000 0.132548
0.000000 1.000000 0.132046
0.000000 1.000000 0.129309
0.127746 1.000000 0.127746
0.432266 1.000000 0.117647
0.735737 1.000000 0.106499
0.923593 1.000000 0.099598
0.997468 1.000000 0.098031
1.000000 1.000000 0.146905
0.000000 0.000000 0.677820
0.001446 0.000000 0.675894
0.083813 0.000000 0.658955
0.280489 0.000000 0.616684
0.572208 0.000000 0.572208
0.874991 0.000000 0.560372
1.000000 0.000000 0.553471
1.000000 0.000000 0.550757
1.000000 0.000000 0.550260
0.000000 0.000000 0.675389
0.000000 0.000000 0.673660
0.080861 0.000000 0.656496
0.278175 0.000000 0.614459
0.570519 0.000000 0.570519
0.873318 0.000000 0.558699
1.000000 0.000000 0.551798
1.000000 0.000000 0.549084
1.000000 0.000000 0.548587
0.000000 0.069596 0.666393
0.000000 0.068589 0.665334
0.063772 0.063772 0.650962
0.266910 0.056009 0.607609
0.561302 0.051109 0.561302
0.864189 0.040193 0.549570
1.000000 0.033293 0.542669
1.000000 0.030579 0.539955
1.000000 0.030081 0.539458
0.000000 0.251700 0.628951
0.000000 0.250608 0.627855
0.011516 0.244612 0.621164
0.230562 0.230562 0.593243
0.537863 0.222740 0.537863
0.840974 0.211736 0.526355
1.000000 0.204835 0.519454
1.000000 0.202603 0.516627
1.000000 0.203843 0.516325
0.000000 0.540746 0.540746
0.000000 0.539793 0.539793
0.000000 0.534592 0.534592
0.158685 0.521366 0.521366
0.500000 0.500000 0.500000
0.790463 0.493169 0.493169
0.977787 0.490126 0.490126
1.000000 0.491026 0.491026
1.000000 0.494187 0.494187
0.000000 0.815903 0.475892
0.000000 0.815155 0.475159
0.000000 0.811078 0.471161
0.129982 0.797879 0.463930
0.462137 0.777260 0.462137
0.765172 0.765172 0.463965
0.931876 0.764795 0.513134
1.000000 0.769285 0.515713
1.000000 0.773671 0.515102
0.000000 0.985469 0.447039
0.000000 0.984789 0.446382
0.000000 0.981083 0.442806
0.110325 0.968633 0.438045
0.438698 0.948891 0.438698
0.742753 0.937511 0.428134
0.929684 0.929684 0.446333
0.997608 0.927972 0.522270
1.000000 0.931274 0.553277
0.000000 1.000000 0.435954
0.000000 1.000000 0.435323
0.000000 1.000000 0.431890
0.101144 1.000000 0.427813
0.429481 1.000000 0.429481
0.733624 1.000000 0.419005
0.921480 0.998068 0.412104
0.994632 0.994632 0.446895
1.000000 0.993329 0.533336
0.000000 1.000000 0.433834
0.000000 1.000000 0.433205
0.000000 1.000000 0.429781
0.099158 1.000000 0.425793
0.427792 1.000000 0.427792
0.731951 1.000000 0.417332
0.919807 1.000000 0.410431
0.993681 1.000000 0.407717
1.000000 1.000000 0.457120
0.000000 0.000000 1.000000
0.000000 0.000000 1.000000
0.077143 0.000000 1.000000
0.280007 0.000000 0.971681
0.583070 0.000000 0.909562
0.872254 0.000000 0.872254
1.000000 0.000000 0.864304
1.000000 0.000000 0.861590
1.000000 0.000000 0.861093
0.000000 0.000000 1.000000
0.000000 0.000000 1.000000
0.074080 0.000000 1.000000
0.277375 0.000000 0.969206
0.581059 0.000000 0.907583
0.870565 0.000000 0.870565
1.000000 0.000000 0.862631
1.000000 0.000000 0.859917
1.000000 0.000000 0.859420
0.000000 0.062186 1.000000
0.000000 0.061200 1.000000
0.056516 0.056516 1.000000
0.263829 0.047558 0.962574
0.571156 0.040569 0.898877
0.861348 0.036031 0.861348
1.000000 0.029507 0.853502
1.000000 0.026793 0.850788
1.000000 0.026296 0.850291
0.000000 0.243241 0.991506
0.000000 0.242178 0.990420
0.005573 0.236401 0.982181
0.223306 0.223306 0.948668
0.546145 0.212197 0.880094
0.837909 0.207662 0.837909
1.000000 0.201049 0.830287
1.000000 0.198335 0.827573
1.000000 0.197838 0.827076
0.000000 0.538089 0.914571
0.000000 0.537006 0.913492
0.000000 0.531107 0.907650
0.138654 0.516197 0.893739
0.492744 0.492744 0.855425
0.800046 0.484922 0.800046
0.987541 0.478165 0.792784
1.000000 0.475451 0.790070
1.000000 0.475565 0.789446
0.000000 0.824295 0.824295
0.000000 0.823342 0.823342
0.000000 0.818141 0.818141
0.079552 0.804914 0.804914
0.420867 0.783548 0.783548
0.762182 0.762182 0.762182
0.943541 0.758480 0.758480
1.000000 0.758633 0.758633
1.000000 0.760943 0.760943
0.000000 0.995371 0.777829
0.000000 0.994520 0.776981
0.000000 0.989877 0.772359
0.061909 0.976925 0.760654
0.403415 0.955015 0.744114
0.738744 0.933814 0.738744
0.926397 0.926397 0.741699
0.993611 0.926504 0.779731
1.000000 0.929335 0.783155
0.000000 1.000000 0.762288
0.000000 1.000000 0.761462
0.000000 1.000000 0.756965
0.052758 1.000000 0.746002
0.395388 1.000000 0.732068
0.729527 1.000000 0.729527
0.917694 0.994282 0.722937
0.991161 0.991161 0.739224
1.000000 0.990492 0.794035
0.000000 1.000000 0.759512
0.000000 1.000000 0.758688
0.000000 1.000000 0.754201
0.050245 1.000000 0.743326
0.393142 1.000000 0.729731
0.727838 1.000000 0.727838
0.916021 1.000000 0.721264
0.989895 1.000000 0.718550
1.000000 1.000000 0.746229
0.000000 0.000000 1.000000
0.000000 0.000000 1.000000
0.072838 0.000000 1.000000
0.277195 0.000000 1.000000
0.585087 0.000000 1.000000
0.875272 0.000000 1.000000
1.000000 0.000000 1.000000
1.000000 0.000000 1.000000
1.000000 0.000000 1.000000
0.000000 0.000000 1.000000
0.000000 0.000000 1.000000
0.069752 0.000000 1.000000
0.274504 0.000000 1.000000
0.583017 0.000000 1.000000
0.873592 0.000000 1.000000
1.000000 0.000000 1.000000
1.000000 0.000000 1.000000
1.000000 0.000000 1.000000
0.000000 0.057611 1.000000
0.000000 0.056631 1.000000
0.052025 0.052025 1.000000
0.260381 0.043014 1.000000
0.572800 0.035100 1.000000
0.864652 0.031213 1.000000
1.000000 0.026698 1.000000
1.000000 0.023958 1.000000
1.000000 0.023456 1.000000
0.000000 0.238233 1.000000
0.000000 0.237182 1.000000
0.001411 0.231520 1.000000
0.218814 0.218814 1.000000
0.546298 0.206734 1.000000
0.842609 0.202164 1.000000
1.000000 0.198329 1.000000
1.000000 0.195589 1.000000
1.000000 0.195087 1.000000
0.000000 0.533282 1.000000
0.000000 0.532188 1.000000
0.000000 0.526221 1.000000
0.134303 0.510956 1.000000
0.488252 0.488252 1.000000
0.806144 0.478397 1.000000
0.985782 0.475589 0.985782
1.000000 0.473013 0.982689
1.000000 0.472517 0.982182
0.000000 0.824873 1.000000
0.000000 0.823838 1.000000
0.000000 0.818189 1.000000
0.058528 0.804307 1.000000
0.404834 0.781386 1.000000
0.757691 0.757691 0.982200
0.947919 0.752849 0.947919
1.000000 0.750224 0.944981
1.000000 0.749727 0.944484
0.000000 0.999819 0.999819
0.000000 0.998865 0.998865
0.000000 0.993664 0.993664
0.030567 0.980438 0.980438
0.371882 0.959072 0.959072
0.713197 0.937706 0.937706
0.924480 0.924480 0.924480
0.996391 0.923259 0.923259
1.000000 0.924110 0.924110
0.000000 1.000000 0.980946
0.000000 1.000000 0.980000
0.000000 1.000000 0.974849
0.020564 1.000000 0.961659
0.363484 1.000000 0.940507
0.706311 1.000000 0.920891
0.915264 0.991973 0.915264
0.989081 0.989081 0.917225
1.000000 0.989233 0.935295
0.000000 1.000000 0.977767
0.000000 1.000000 0.976823
0.000000 1.000000 0.971681
0.017685 1.000000 0.958525
0.360692 1.000000 0.937481
0.703922 1.000000 0.918229
0.913574 1.000000 0.913574
0.987552 1.000000 0.910964
1.000000 1.000000 0.919449
0.000000 0.000000 1.000000
0.000000 0.000000 1.000000
0.071139 0.000000 1.000000
0.275714 0.000000 1.000000
0.583948 0.000000 1.000000
0.874347 0.000000 1.000000
1.000000 0.000000 1.000000
1.000000 0.000000 1.000000
1.000000 0.000000 1.000000
0.000000 0.000000 1.000000
0.000000 0.000000 1.000000
0.068050 0.000000 1.000000
0.273020 0.000000 1.000000
0.581874 0.000000 1.000000
0.872666 0.000000 1.000000
1.000000 0.000000 1.000000
1.000000 0.000000 1.000000
1.000000 0.000000 1.000000
0.000000 0.055795 1.000000
0.000000 0.054816 1.000000
0.050258 0.050258 1.000000
0.258821 0.041446 1.000000
0.571600 0.033855 1.000000
0.863711 0.030209 1.000000
1.000000 0.025767 1.000000
1.000000 0.023027 1.000000
1.000000 0.022525 1.000000
0.000000 0.236286 1.000000
0.000000 0.235237 1.000000
0.000000 0.229595 1.000000
0.217048 0.217048 1.000000
0.544954 0.205362 1.000000
0.841634 0.201123 1.000000
1.000000 0.197398 1.000000
1.000000 0.194659 1.000000
1.000000 0.194156 1.000000
0.000000 0.531255 1.000000
0.000000 0.530162 1.000000
0.000000 0.524194 1.000000
0.132298 0.508943 1.000000
0.486486 0.486486 1.000000
0.805333 0.477063 1.000000
0.985325 0.474460 1.000000
1.000000 0.471919 1.000000
1.000000 0.471416 1.000000
0.000000 0.823181 1.000000
0.000000 0.822149 1.000000
0.000000 0.816516 1.000000
0.055449 0.802613 1.000000
0.402356 0.779458 1.000000
0.755925 0.755925 1.000000
0.949259 0.750883 1.000000
1.000000 0.749179 1.000000
1.000000 0.748677 1.000000
0.000000 0.999424 1.000000
0.000000 0.998470 1.000000
0.000000 0.993261 1.000000
0.023171 0.980132 1.000000
0.363692 0.958929 1.000000
0.705847 0.937201 1.000000
0.922718 0.922718 1.000000
0.997520 0.920810 0.997520
1.000000 0.920336 0.996960
0.000000 1.000000 1.000000
0.000000 1.000000 1.000000
0.000000 1.000000 1.000000
0.011304 1.000000 1.000000
0.352619 1.000000 1.000000
0.693934 1.000000 1.000000
0.905266 0.993491 0.993491
0.988303 0.988303 0.988303
1.000000 0.988210 0.988210
0.000000 1.000000 1.000000
0.000000 1.000000 1.000000
0.000000 1.000000 1.000000
0.008097 1.000000 1.000000
0.349412 1.000000 1.000000
0.691231 1.000000 1.000000
0.903497 1.000000 0.990166
0.986629 1.000000 0.986629
1.000000 1.000000 0.987413
0.000000 0.000000 1.000000
0.000000 0.000000 1.000000
0.070827 0.000000 1.000000
0.275442 0.000000 1.000000
0.583739 0.000000 1.000000
0.874177 0.000000 1.000000
1.000000 0.000000 1.000000
1.000000 0.000000 1.000000
1.000000 0.000000 1.000000
0.000000 0.000000 1.000000
0.000000 0.000000 1.000000
0.067738 0.000000 1.000000
0.272747 0.000000 1.000000
0.581665 0.000000 1.000000
0.872496 0.000000 1.000000
1.000000 0.000000 1.000000
1.000000 0.000000 1.000000
1.000000 0.000000 1.000000
0.000000 0.055462 1.000000
0.000000 0.054483 1.000000
0.049935 0.049935 1.000000
0.258534 0.041158 1.000000
0.571380 0.033626 1.000000
0.863538 0.030025 1.000000
1.000000 0.025597 1.000000
1.000000 0.022857 1.000000
1.000000 0.022355 1.000000
0.000000 0.235930 1.000000
0.000000 0.234880 1.000000
0.000000 0.229242 1.000000
0.216724 0.216724 1.000000
0.544708 0.205111 1.000000
0.841455 0.200932 1.000000
1.000000 0.197228 1.000000
1.000000 0.194488 1.000000
1.000000 0.193986 1.000000
0.000000 0.530884 1.000000
0.000000 0.529790 1.000000
0.000000 0.523822 1.000000
0.131930 0.508574 1.000000
0.486162 0.486162 1.000000
0.805127 0.476847 1.000000
0.985159 0.474285 1.000000
1.000000 0.471748 1.000000
1.000000 0.471246 1.000000
0.000000 0.822830 1.000000
0.000000 0.821799 1.000000
0.000000 0.816165 1.000000
0.055082 0.802256 1.000000
0.401984 0.779089 1.000000
0.755601 0.755601 1.000000
0.949080 0.750691 1.000000
1.000000 0.749008 1.000000
1.000000 0.748506 1.000000
0.000000 0.999100 1.000000
0.000000 0.998147 1.000000
0.000000 0.992936 1.000000
0.022820 0.979804 1.000000
0.363337 0.958594 1.000000
0.705480 0.936843 1.000000
0.922390 0.922390 1.000000
0.997433 0.920604 1.000000
1.000000 0.920137 1.000000
0.000000 1.000000 1.000000
0.000000 1.000000 1.000000
0.000000 1.000000 1.000000
0.010980 1.000000 1.000000
0.352295 1.000000 1.000000
0.693323 1.000000 1.000000
0.903890 0.993430 1.000000
0.988122 0.988122 1.000000
1.000000 0.987636 1.000000
0.000000 1.000000 1.000000
0.000000 1.000000 1.000000
0.000000 1.000000 1.000000
0.007774 1.000000 1.000000
0.349089 1.000000 1.000000
0.690404 1.000000 1.000000
0.901687 1.000000 1.000000
0.986324 1.000000 1.000000
1.000000 1.000000 1.000000
