assets/presets/luts/reversal-slide/lut.cube
TITLE "Reversal Slide"
LUT_3D_SIZE 17
0.000000 0.000000 0.000000
0.002166 0.000000 0.000000
0.011928 0.000000 0.000000
0.034564 0.000000 0.000000
0.076127 0.000000 0.000000
0.142978 0.000000 0.000000
0.239803 0.000000 0.000000
0.366513 0.000000 0.000000
0.515446 0.000000 0.000000
0.671592 0.000000 0.000000
0.817251 0.000000 0.000000
0.938585 0.000000 0.000000
1.000000 0.000000 0.000000
1.000000 0.000000 0.000000
1.000000 0.000000 0.000000
1.000000 0.000000 0.000000
1.000000 0.000000 0.000000
0.000000 0.002196 0.000000
0.002095 0.002095 0.000000
0.010710 0.001927 0.000000
0.030209 0.001398 0.000000
0.067153 0.000179 0.000000
0.127947 0.000000 0.000000
0.217833 0.000000 0.000000
0.338027 0.000000 0.000000
0.482681 0.000000 0.000000
0.638233 0.000000 0.000000
0.787118 0.000000 0.000000
0.914249 0.000000 0.000000
1.000000 0.000000 0.000000
1.000000 0.000000 0.000000
1.000000 0.000000 0.000000
1.000000 0.000000 0.000000
1.000000 0.000000 0.000000
0.000000 0.012364 0.000000
0.000732 0.012275 0.000000
0.011778 0.011778 0.000000
0.033028 0.011249 0.000000
0.068082 0.010610 0.000000
0.124607 0.009148 0.000000
0.208691 0.006575 0.000000
0.322434 0.002840 0.000000
0.461496 0.000000 0.000000
0.613933 0.000000 0.000000
0.762989 0.000000 0.000000
0.893098 0.000000 0.000000
0.995062 0.000000 0.000000
1.000000 0.000000 0.000000
1.000000 0.000000 0.000000
1.000000 0.000000 0.000000
1.000000 0.000000 0.000000
0.000000 0.036070 0.000000
0.000000 0.035981 0.000000
0.008659 0.035563 0.000000
0.034340 0.034340 0.000000
0.075087 0.033104 0.000000
0.133206 0.032112 0.000000
0.214674 0.030487 0.000000
0.323154 0.027800 0.000000
0.456043 0.024078 0.000000
0.603024 0.019713 0.000000
0.748738 0.015297 0.000000
0.878085 0.011406 0.000000
0.981325 0.008416 0.000000
1.000000 0.006437 0.000000
1.000000 0.005374 0.000000
1.000000 0.005033 0.000000
1.000000 0.005205 0.000000
0.000000 0.079863 0.000000
0.000000 0.079774 0.000000
0.002706 0.079337 0.000000
0.028687 0.078371 0.000000
0.075992 0.075992 0.000000
0.143170 0.073705 0.000000
0.230001 0.072110 0.000000
0.338370 0.070354 0.000000
0.466450 0.068017 0.000000
0.606566 0.065139 0.000000
0.745880 0.062111 0.000000
0.870693 0.059441 0.000000
0.971630 0.057496 0.000000
1.000000 0.056415 0.000000
1.000000 0.056142 0.000000
1.000000 0.056519 0.000000
1.000000 0.057361 0.000000
0.000000 0.150307 0.000000
0.000000 0.150218 0.000000
0.000000 0.149805 0.000000
0.019159 0.148779 0.000000
0.067114 0.146969 0.000000
0.143007 0.143007 0.000000
0.241250 0.139408 0.000000
0.357002 0.137098 0.000000
0.486241 0.135400 0.000000
0.621762 0.133940 0.000000
0.753376 0.132709 0.000000
0.870649 0.131877 0.000000
0.966021 0.131631 0.000000
1.000000 0.132071 0.000000
1.000000 0.133156 0.000000
1.000000 0.134757 0.000000
1.000000 0.136717 0.000000
0.000000 0.251494 0.000000
0.000000 0.251405 0.000000
0.000000 0.250992 0.000000
0.005321 0.249977 0.000000
0.053395 0.248152 0.000000
0.130666 0.245026 0.000000
0.239324 0.239324 0.000000
0.367221 0.234387 0.000000
0.503572 0.231485 0.000000
0.639453 0.230160 0.000000
0.766030 0.230013 0.000000
0.875657 0.230829 0.000000
0.963558 0.232473 0.000000
1.000000 0.234800 0.000000
1.000000 0.237649 0.000000
1.000000 0.240870 0.000000
1.000000 0.244319 0.000000
0.000000 0.381280 0.000000
0.000000 0.381191 0.000000
0.000000 0.380778 0.000000
0.000000 0.379815 0.000000
0.035840 0.377871 0.000000
0.112944 0.375039 0.000000
0.224041 0.370259 0.000000
0.363025 0.363025 0.000000
0.510302 0.357101 0.000000
0.651198 0.353952 0.000000
0.776484 0.353241 0.000000
0.880736 0.354443 0.000000
0.961893 0.357087 0.000000
1.000000 0.360769 0.000000
1.000000 0.365138 0.000000
1.000000 0.369899 0.000000
1.000000 0.374818 0.000000
0.000000 0.528754 0.000000
0.000000 0.528665 0.000000
0.000000 0.528252 0.000000
0.000000 0.527289 0.000000
0.015657 0.525369 0.000000
0.092997 0.522436 0.000000
0.203749 0.518368 0.000000
0.346278 0.511976 0.000000
0.503889 0.503889 0.000000
0.652985 0.497680 0.000000
0.780641 0.494700 0.000000
0.882411 0.494590 0.000000
0.958654 0.496702 0.000000
1.000000 0.500405 0.000000
1.000000 0.505166 0.000000
1.000000 0.510560 0.000000
1.000000 0.516263 0.000000
0.000000 0.676228 0.000000
0.000000 0.676139 0.000000
0.000000 0.675726 0.000000
0.000000 0.674764 0.000000
0.000000 0.672986 0.000000
0.073049 0.669834 0.000000
0.183801 0.665766 0.000000
0.325875 0.660530 0.000000
0.487753 0.653114 0.000000
0.645171 0.645171 0.000000
0.777877 0.639474 0.000000
0.879968 0.636973 0.000000
0.953452 0.637242 0.000000
1.000000 0.639608 0.000000
1.000000 0.643437 0.000000
1.000000 0.648211 0.000000
1.000000 0.653530 0.000000
0.000000 0.806014 0.000000
0.000000 0.805925 0.000000
0.000000 0.805512 0.000000
0.000000 0.804550 0.000000
0.000000 0.802772 0.000000
0.055470 0.799563 0.000000
0.166246 0.795484 0.000000
0.308302 0.790266 0.000000
0.469875 0.784199 0.000000
0.631492 0.776827 0.000000
0.769956 0.769956 0.000000
0.874502 0.765342 0.000000
0.947222 0.763460 0.000000
0.994578 0.763857 0.000000
1.000000 0.765952 0.000000
1.000000 0.769221 0.000000
1.000000 0.773241 0.000000
0.000000 0.907201 0.000000
0.000000 0.907112 0.000000
0.000000 0.906699 0.000000
0.000000 0.905736 0.000000
0.000000 0.903959 0.000000
0.041614 0.900770 0.000000
0.152560 0.896619 0.000000
0.294615 0.891400 0.000000
0.456031 0.885471 0.000000
0.617760 0.879288 0.000000
0.759678 0.872913 0.000000
0.867638 0.867638 0.000000
0.941148 0.864311 0.000000
0.987397 0.863037 0.000000
1.000000 0.863415 0.000000
1.000000 0.865005 0.000000
1.000000 0.867428 0.000000
0.000000 0.977645 0.000000
0.000000 0.977556 0.000000
0.000000 0.977143 0.000000
0.000000 0.976181 0.000000
0.000000 0.974403 0.000000
0.031891 0.971259 0.000000
0.143031 0.967027 0.000000
0.285087 0.961808 0.000000
0.446502 0.955879 0.000000
0.607918 0.949949 0.000000
0.750359 0.944439 0.000000
0.860740 0.939574 0.000000
0.935951 0.935951 0.000000
0.982125 0.933808 0.000000
1.000000 0.933050 0.000000
1.000000 0.933362 0.000000
1.000000 0.934444 0.000000
0.000000 1.000000 0.000000
0.000000 1.000000 0.000000
0.000000 1.000000 0.000000
0.000000 1.000000 0.000000
0.000000 1.000000 0.000000
0.025830 1.000000 0.000000
0.137109 1.000000 0.000000
0.279164 1.000000 0.000000
0.440580 0.999640 0.000000
0.601996 0.993710 0.000000
0.744052 0.988491 0.000000
0.855158 0.984171 0.000000
0.931825 0.980863 0.000000
0.978642 0.978642 0.000000
1.000000 0.977429 0.000000
1.000000 0.977061 0.000000
1.000000 0.977308 0.000000
0.000000 1.000000 0.000000
0.000000 1.000000 0.000000
0.000000 1.000000 0.000000
0.000000 1.000000 0.000000
0.000000 1.000000 0.000000
0.022546 1.000000 0.000000
0.133902 1.000000 0.000000
0.275957 1.000000 0.000000
0.437373 1.000000 0.000000
0.598789 1.000000 0.000000
0.740844 1.000000 0.000000
0.851639 1.000000 0.000000
0.928962 1.000000 0.000000
0.976512 1.000000 0.000000
1.000000 1.000000 0.000000
1.000000 1.000000 0.000000
1.000000 1.000000 0.000000
0.000000 1.000000 0.000000
0.000000 1.000000 0.000000
0.000000 1.000000 0.000000
0.000000 1.000000 0.000000
0.000000 1.000000 0.000000
0.021136 1.000000 0.000000
0.132526 1.000000 0.000000
0.274582 1.000000 0.000000
0.435997 1.000000 0.000000
0.597413 1.000000 0.000000
0.739468 1.000000 0.000000
0.850221 1.000000 0.000000
0.927404 1.000000 0.000000
0.975404 1.000000 0.000000
1.000000 1.000000 0.000000
1.000000 1.000000 0.000000
1.000000 1.000000 0.000000
0.000000 1.000000 0.000000
0.000000 1.000000 0.000000
0.000000 1.000000 0.000000
0.000000 1.000000 0.000000
0.000000 1.000000 0.000000
0.020831 1.000000 0.000000
0.132229 1.000000 0.000000
0.274284 1.000000 0.000000
0.435700 1.000000 0.000000
0.597116 1.000000 0.000000
0.739171 1.000000 0.000000
0.849923 1.000000 0.000000
0.927027 1.000000 0.000000
0.975030 1.000000 0.000000
1.000000 1.000000 0.000000
1.000000 1.000000 0.000000
1.000000 1.000000 0.000000
0.000000 0.000000 0.002464
0.002375 0.000000 0.002375
0.013509 0.000000 0.001966
0.039460 0.000000 0.001013
0.086968 0.000000 0.000000
0.161470 0.000000 0.000000
0.266743 0.000000 0.000000
0.400947 0.000000 0.000000
0.554220 0.000000 0.000000
0.710081 0.000000 0.000000
0.851080 0.000000 0.000000
0.965137 0.000000 0.000000
1.000000 0.000000 0.000000
1.000000 0.000000 0.000000
1.000000 0.000000 0.000000
1.000000 0.000000 0.000000
1.000000 0.000000 0.000000
0.000000 0.002166 0.002166
0.002078 0.002078 0.002078
0.012479 0.001756 0.001756
0.035808 0.000977 0.000977
0.078490 0.000000 0.000000
0.146759 0.000000 0.000000
0.245141 0.000000 0.000000
0.373217 0.000000 0.000000
0.522913 0.000000 0.000000
0.678935 0.000000 0.000000
0.823629 0.000000 0.000000
0.943490 0.000000 0.000000
1.000000 0.000000 0.000000
1.000000 0.000000 0.000000
1.000000 0.000000 0.000000
1.000000 0.000000 0.000000
1.000000 0.000000 0.000000
0.000000 0.012334 0.000788
0.000701 0.012245 0.000701
0.011795 0.011795 0.000499
0.032480 0.011462 0.000891
0.069884 0.010632 0.000000
0.131681 0.008758 0.000000
0.222850 0.005733 0.000000
0.344248 0.001564 0.000000
0.489594 0.000000 0.000000
0.645003 0.000000 0.000000
0.792895 0.000000 0.000000
0.918479 0.000000 0.000000
1.000000 0.000000 0.000000
1.000000 0.000000 0.000000
1.000000 0.000000 0.000000
1.000000 0.000000 0.000000
1.000000 0.000000 0.000000
0.000000 0.036039 0.000000
0.000000 0.035950 0.000000
0.008629 0.035533 0.000000
0.034394 0.034394 0.000000
0.074148 0.033429 0.000000
0.132141 0.032609 0.000000
0.216815 0.030734 0.000000
0.330973 0.027573 0.000000
0.469920 0.023351 0.000000
0.621432 0.018565 0.000000
0.768779 0.013864 0.000000
0.896729 0.009827 0.000000
0.996517 0.006792 0.000000
1.000000 0.004816 0.000000
1.000000 0.003764 0.000000
1.000000 0.003421 0.000000
1.000000 0.003570 0.000000
0.000000 0.079833 0.000000
0.000000 0.079743 0.000000
0.002676 0.079307 0.000000
0.028657 0.078341 0.000000
0.076108 0.076108 0.000000
0.142226 0.074105 0.000000
0.227725 0.072914 0.000000
0.336907 0.071231 0.000000
0.468505 0.068601 0.000000
0.613092 0.065248 0.000000
0.755628 0.061756 0.000000
0.881534 0.058703 0.000000
0.981595 0.056467 0.000000
1.000000 0.055164 0.000000
1.000000 0.054710 0.000000
1.000000 0.054922 0.000000
1.000000 0.055603 0.000000
0.000000 0.150277 0.000000
0.000000 0.150188 0.000000
0.000000 0.149775 0.000000
0.019129 0.148749 0.000000
0.067052 0.146988 0.000000
0.143201 0.143201 0.000000
0.240420 0.139881 0.000000
0.354404 0.138104 0.000000
0.483227 0.136734 0.000000
0.620308 0.135267 0.000000
0.754691 0.133739 0.000000
0.874353 0.132470 0.000000
0.970714 0.131786 0.000000
1.000000 0.131823 0.000000
1.000000 0.132540 0.000000
1.000000 0.133800 0.000000
1.000000 0.135438 0.000000
0.000000 0.251464 0.000000
0.000000 0.251374 0.000000
0.000000 0.250962 0.000000
0.005290 0.249947 0.000000
0.053365 0.248122 0.000000
0.130517 0.245222 0.000000
0.239600 0.239600 0.000000
0.366567 0.234923 0.000000
0.501182 0.232601 0.000000
0.636252 0.231765 0.000000
0.763442 0.231839 0.000000
0.874558 0.232601 0.000000
0.963978 0.233970 0.000000
1.000000 0.235893 0.000000
1.000000 0.238304 0.000000
1.000000 0.241085 0.000000
1.000000 0.244099 0.000000
0.000000 0.381250 0.000000
0.000000 0.381160 0.000000
0.000000 0.380747 0.000000
0.000000 0.379785 0.000000
0.035810 0.377841 0.000000
0.112914 0.375009 0.000000
0.223886 0.370582 0.000000
0.363366 0.363366 0.000000
0.509845 0.357667 0.000000
0.649298 0.355072 0.000000
0.773822 0.354909 0.000000
0.878299 0.356474 0.000000
0.960264 0.359253 0.000000
1.000000 0.362858 0.000000
1.000000 0.366976 0.000000
1.000000 0.371363 0.000000
1.000000 0.375858 0.000000
0.000000 0.528724 0.000000
0.000000 0.528635 0.000000
0.000000 0.528222 0.000000
0.000000 0.527259 0.000000
0.015626 0.525339 0.000000
0.092967 0.522406 0.000000
0.203719 0.518338 0.000000
0.346174 0.512356 0.000000
0.504254 0.504254 0.000000
0.652703 0.498221 0.000000
0.779294 0.495708 0.000000
0.880502 0.496113 0.000000
0.956823 0.498631 0.000000
1.000000 0.502574 0.000000
1.000000 0.507403 0.000000
1.000000 0.512708 0.000000
1.000000 0.518186 0.000000
0.000000 0.676198 0.000000
0.000000 0.676109 0.000000
0.000000 0.675696 0.000000
0.000000 0.674733 0.000000
0.000000 0.672956 0.000000
0.073019 0.669804 0.000000
0.183771 0.665736 0.000000
0.325827 0.660517 0.000000
0.487722 0.653480 0.000000
0.645508 0.645508 0.000000
0.777716 0.639932 0.000000
0.879091 0.637779 0.000000
0.952211 0.638462 0.000000
1.000000 0.641192 0.000000
1.000000 0.645280 0.000000
1.000000 0.650191 0.000000
1.000000 0.655525 0.000000
0.000000 0.805984 0.000000
0.000000 0.805895 0.000000
0.000000 0.805482 0.000000
0.000000 0.804519 0.000000
0.000000 0.802742 0.000000
0.055440 0.799533 0.000000
0.166216 0.795454 0.000000
0.308272 0.790236 0.000000
0.469706 0.784292 0.000000
0.631523 0.777126 0.000000
0.770222 0.770222 0.000000
0.874405 0.765680 0.000000
0.946677 0.764023 0.000000
0.993817 0.764707 0.000000
1.000000 0.767076 0.000000
1.000000 0.770560 0.000000
1.000000 0.774720 0.000000
0.000000 0.907171 0.000000
0.000000 0.907081 0.000000
0.000000 0.906668 0.000000
0.000000 0.905706 0.000000
0.000000 0.903929 0.000000
0.041584 0.900740 0.000000
0.152530 0.896589 0.000000
0.294585 0.891370 0.000000
0.456001 0.885441 0.000000
0.617560 0.879408 0.000000
0.759738 0.873121 0.000000
0.867815 0.867815 0.000000
0.941073 0.864520 0.000000
0.987056 0.863371 0.000000
1.000000 0.863919 0.000000
1.000000 0.865682 0.000000
1.000000 0.868251 0.000000
0.000000 0.977615 0.000000
0.000000 0.977526 0.000000
0.000000 0.977113 0.000000
0.000000 0.976150 0.000000
0.000000 0.974373 0.000000
0.031861 0.971230 0.000000
0.143001 0.966997 0.000000
0.285057 0.961778 0.000000
0.446472 0.955849 0.000000
0.607888 0.949919 0.000000
0.750195 0.944531 0.000000
0.860797 0.939694 0.000000
0.936043 0.936043 0.000000
0.982048 0.933904 0.000000
1.000000 0.933199 0.000000
1.000000 0.933593 0.000000
1.000000 0.934763 0.000000
0.000000 1.000000 0.000000
0.000000 1.000000 0.000000
0.000000 1.000000 0.000000
0.000000 1.000000 0.000000
0.000000 1.000000 0.000000
0.025799 1.000000 0.000000
0.137079 1.000000 0.000000
0.279134 1.000000 0.000000
0.440550 0.999610 0.000000
0.601966 0.993680 0.000000
0.744021 0.988462 0.000000
0.855047 0.984219 0.000000
0.931860 0.980912 0.000000
0.978665 0.978665 0.000000
1.000000 0.977438 0.000000
1.000000 0.977078 0.000000
1.000000 0.977347 0.000000
0.000000 1.000000 0.000000
0.000000 1.000000 0.000000
0.000000 1.000000 0.000000
0.000000 1.000000 0.000000
0.000000 1.000000 0.000000
0.022516 1.000000 0.000000
0.133872 1.000000 0.000000
0.275927 1.000000 0.000000
0.437343 1.000000 0.000000
0.598759 1.000000 0.000000
0.740814 1.000000 0.000000
0.851567 1.000000 0.000000
0.928892 1.000000 0.000000
0.976517 1.000000 0.000000
1.000000 1.000000 0.000000
1.000000 1.000000 0.000000
1.000000 1.000000 0.000000
0.000000 1.000000 0.000000
0.000000 1.000000 0.000000
0.000000 1.000000 0.000000
0.000000 1.000000 0.000000
0.000000 1.000000 0.000000
0.021105 1.000000 0.000000
0.132496 1.000000 0.000000
0.274552 1.000000 0.000000
0.435967 1.000000 0.000000
0.597383 1.000000 0.000000
0.739438 1.000000 0.000000
0.850191 1.000000 0.000000
0.927322 1.000000 0.000000
0.975357 1.000000 0.000000
1.000000 1.000000 0.000000
1.000000 1.000000 0.000000
1.000000 1.000000 0.000000
0.000000 1.000000 0.000000
0.000000 1.000000 0.000000
0.000000 1.000000 0.000000
0.000000 1.000000 0.000000
0.000000 1.000000 0.000000
0.020800 1.000000 0.000000
0.132199 1.000000 0.000000
0.274254 1.000000 0.000000
0.435670 1.000000 0.000000
0.597086 1.000000 0.000000
0.739141 1.000000 0.000000
0.849893 1.000000 0.000000
0.926997 1.000000 0.000000
0.974965 1.000000 0.000000
1.000000 1.000000 0.000000
1.000000 1.000000 0.000000
1.000000 1.000000 0.000000
0.000000 0.000000 0.014029
0.002244 0.000000 0.013888
0.013371 0.000000 0.013371
0.039321 0.000000 0.012417
0.087244 0.000000 0.010656
0.164348 0.000000 0.007824
0.275100 0.000000 0.003755
0.417002 0.000000 0.000000
0.576341 0.000000 0.000000
0.734415 0.000000 0.000000
0.873703 0.000000 0.000000
0.983449 0.000000 0.000000
1.000000 0.000000 0.000000
1.000000 0.000000 0.000000
1.000000 0.000000 0.000000
1.000000 0.000000 0.000000
1.000000 0.000000 0.000000
0.000000 0.002024 0.013708
0.001932 0.001932 0.013574
0.013073 0.001530 0.013073
0.039024 0.000577 0.012119
0.086947 0.000000 0.010359
0.163417 0.000000 0.007545
0.270677 0.000000 0.003623
0.406509 0.000000 0.000000
0.560680 0.000000 0.000000
0.716489 0.000000 0.000000
0.856601 0.000000 0.000000
0.969304 0.000000 0.000000
1.000000 0.000000 0.000000
1.000000 0.000000 0.000000
1.000000 0.000000 0.000000
1.000000 0.000000 0.000000
1.000000 0.000000 0.000000
0.000000 0.012231 0.012231
0.000485 0.012127 0.012127
0.011697 0.011697 0.011697
0.036134 0.010978 0.010978
0.079733 0.009608 0.009608
0.149422 0.007256 0.007256
0.249351 0.003796 0.003796
0.378763 0.000000 0.000000
0.529170 0.000000 0.000000
0.685013 0.000000 0.000000
0.828695 0.000000 0.000000
0.947060 0.000000 0.000000
1.000000 0.000000 0.000000
1.000000 0.000000 0.000000
1.000000 0.000000 0.000000
1.000000 0.000000 0.000000
1.000000 0.000000 0.000000
0.000000 0.035995 0.008829
0.000000 0.035893 0.008750
0.008482 0.035397 0.008482
0.034355 0.034355 0.008138
0.073097 0.033792 0.009968
0.134890 0.032624 0.007963
0.226816 0.030044 0.004538
0.349081 0.026203 0.000037
0.494868 0.021427 0.000000
0.649936 0.016272 0.000000
0.796691 0.011401 0.000000
0.920640 0.007356 0.000000
1.000000 0.004400 0.000000
1.000000 0.002527 0.000000
1.000000 0.001560 0.000000
1.000000 0.001268 0.000000
1.000000 0.001432 0.000000
0.000000 0.079736 0.002890
0.000000 0.079645 0.002803
0.002480 0.079190 0.002480
0.028518 0.078202 0.001614
0.076115 0.076115 0.001273
0.140670 0.074574 0.003693
0.226102 0.073674 0.002577
0.339520 0.071610 0.000000
0.477369 0.068299 0.000000
0.627186 0.064287 0.000000
0.772271 0.060274 0.000000
0.897704 0.056862 0.000000
0.995112 0.054397 0.000000
1.000000 0.052942 0.000000
1.000000 0.052368 0.000000
1.000000 0.052469 0.000000
1.000000 0.053034 0.000000
0.000000 0.150137 0.000000
0.000000 0.150047 0.000000
0.000000 0.149635 0.000000
0.018990 0.148610 0.000000
0.066913 0.146849 0.000000
0.143284 0.143284 0.000000
0.238999 0.140387 0.000000
0.351402 0.139206 0.000000
0.481397 0.137948 0.000000
0.622208 0.136094 0.000000
0.760425 0.133958 0.000000
0.882099 0.132097 0.000000
0.978496 0.130901 0.000000
1.000000 0.130508 0.000000
1.000000 0.130855 0.000000
1.000000 0.131785 0.000000
1.000000 0.133119 0.000000
0.000000 0.251323 0.000000
0.000000 0.251234 0.000000
0.000000 0.250821 0.000000
0.005148 0.249808 0.000000
0.053226 0.247984 0.000000
0.130330 0.245151 0.000000
0.239763 0.239763 0.000000
0.365418 0.235454 0.000000
0.498138 0.233832 0.000000
0.633044 0.233420 0.000000
0.761897 0.233494 0.000000
0.875354 0.233902 0.000000
0.966416 0.234739 0.000000
1.000000 0.236109 0.000000
1.000000 0.237987 0.000000
1.000000 0.240264 0.000000
1.000000 0.242804 0.000000
0.000000 0.381109 0.000000
0.000000 0.381020 0.000000
0.000000 0.380607 0.000000
0.000000 0.379645 0.000000
0.035671 0.377702 0.000000
0.112775 0.374870 0.000000
0.223591 0.370718 0.000000
0.363592 0.363592 0.000000
0.508994 0.358192 0.000000
0.646789 0.356273 0.000000
0.770787 0.356672 0.000000
0.875968 0.358493 0.000000
0.959154 0.361215 0.000000
1.000000 0.364512 0.000000
1.000000 0.368165 0.000000
1.000000 0.372037 0.000000
1.000000 0.376008 0.000000
0.000000 0.528584 0.000000
0.000000 0.528494 0.000000
0.000000 0.528081 0.000000
0.000000 0.527119 0.000000
0.015485 0.525200 0.000000
0.092828 0.522268 0.000000
0.203580 0.518199 0.000000
0.345892 0.512594 0.000000
0.504501 0.504501 0.000000
0.652113 0.498690 0.000000
0.777470 0.496741 0.000000
0.878189 0.497702 0.000000
0.954797 0.500589 0.000000
1.000000 0.504667 0.000000
1.000000 0.509414 0.000000
1.000000 0.514456 0.000000
1.000000 0.519542 0.000000
0.000000 0.676058 0.000000
0.000000 0.675968 0.000000
0.000000 0.675556 0.000000
0.000000 0.674593 0.000000
0.000000 0.672816 0.000000
0.072880 0.669665 0.000000
0.183633 0.665597 0.000000
0.325688 0.660378 0.000000
0.487511 0.653725 0.000000
0.645724 0.645724 0.000000
0.777313 0.640291 0.000000
0.877859 0.638550 0.000000
0.950631 0.639688 0.000000
1.000000 0.642777 0.000000
1.000000 0.647074 0.000000
1.000000 0.652037 0.000000
1.000000 0.657281 0.000000
0.000000 0.805844 0.000000
0.000000 0.805754 0.000000
0.000000 0.805341 0.000000
0.000000 0.804379 0.000000
0.000000 0.802602 0.000000
0.055300 0.799395 0.000000
0.166078 0.795316 0.000000
0.308133 0.790097 0.000000
0.469549 0.784168 0.000000
0.631387 0.777311 0.000000
0.770365 0.770365 0.000000
0.874110 0.765898 0.000000
0.945865 0.764500 0.000000
0.992784 0.765500 0.000000
1.000000 0.768146 0.000000
1.000000 0.771826 0.000000
1.000000 0.776082 0.000000
0.000000 0.907030 0.000000
0.000000 0.906941 0.000000
0.000000 0.906528 0.000000
0.000000 0.905566 0.000000
0.000000 0.903788 0.000000
0.041443 0.900601 0.000000
0.152391 0.896450 0.000000
0.294446 0.891231 0.000000
0.455862 0.885302 0.000000
0.617295 0.879361 0.000000
0.759648 0.873217 0.000000
0.867867 0.867867 0.000000
0.940825 0.864595 0.000000
0.986500 0.863582 0.000000
1.000000 0.864313 0.000000
1.000000 0.866252 0.000000
1.000000 0.868958 0.000000
0.000000 0.977475 0.000000
0.000000 0.977386 0.000000
0.000000 0.976973 0.000000
0.000000 0.976010 0.000000
0.000000 0.974233 0.000000
0.031719 0.971091 0.000000
0.142862 0.966858 0.000000
0.284918 0.961639 0.000000
0.446333 0.955710 0.000000
0.607749 0.949780 0.000000
0.749919 0.944492 0.000000
0.860718 0.939701 0.000000
0.936007 0.936007 0.000000
0.981811 0.933857 0.000000
1.000000 0.933202 0.000000
1.000000 0.933677 0.000000
1.000000 0.934932 0.000000
0.000000 1.000000 0.000000
0.000000 1.000000 0.000000
0.000000 1.000000 0.000000
0.000000 1.000000 0.000000
0.000000 1.000000 0.000000
0.025657 1.000000 0.000000
0.136940 1.000000 0.000000
0.278996 1.000000 0.000000
0.440411 0.999471 0.000000
0.601827 0.993541 0.000000
0.743882 0.988323 0.000000
0.854812 0.984151 0.000000
0.931767 0.980846 0.000000
0.978557 0.978557 0.000000
1.000000 0.977298 0.000000
1.000000 0.976933 0.000000
1.000000 0.977214 0.000000
0.000000 1.000000 0.000000
0.000000 1.000000 0.000000
0.000000 1.000000 0.000000
0.000000 1.000000 0.000000
0.000000 1.000000 0.000000
0.022373 1.000000 0.000000
0.133733 1.000000 0.000000
0.275789 1.000000 0.000000
0.437204 1.000000 0.000000
0.598620 1.000000 0.000000
0.740675 1.000000 0.000000
0.851428 1.000000 0.000000
0.928700 1.000000 0.000000
0.976400 1.000000 0.000000
1.000000 1.000000 0.000000
1.000000 1.000000 0.000000
1.000000 1.000000 0.000000
0.000000 1.000000 0.000000
0.000000 1.000000 0.000000
0.000000 1.000000 0.000000
0.000000 1.000000 0.000000
0.000000 1.000000 0.000000
0.020962 1.000000 0.000000
0.132357 1.000000 0.000000
0.274413 1.000000 0.000000
0.435828 1.000000 0.000000
0.597244 1.000000 0.000000
0.739299 1.000000 0.000000
0.850052 1.000000 0.000000
0.927156 1.000000 0.000000
0.975192 1.000000 0.000000
1.000000 1.000000 0.000000
1.000000 1.000000 0.000000
1.000000 1.000000 0.000000
0.000000 1.000000 0.000000
0.000000 1.000000 0.000000
0.000000 1.000000 0.000000
0.000000 1.000000 0.000000
0.000000 1.000000 0.000000
0.020658 1.000000 0.000000
0.132060 1.000000 0.000000
0.274115 1.000000 0.000000
0.435531 1.000000 0.000000
0.596947 1.000000 0.000000
0.739002 1.000000 0.000000
0.849755 1.000000 0.000000
0.926858 1.000000 0.000000
0.974796 1.000000 0.000000
1.000000 1.000000 0.000000
1.000000 1.000000 0.000000
1.000000 1.000000 0.000000
0.000000 0.000000 0.043451
0.001841 0.000000 0.043046
0.013368 0.000000 0.041342
0.039021 0.000000 0.039021
0.086920 0.000000 0.037237
0.164024 0.000000 0.034404
0.274776 0.000000 0.030336
0.416832 0.000000 0.025117
0.578247 0.000000 0.019188
0.739663 0.000000 0.013258
0.881718 0.000000 0.008040
0.991943 0.000000 0.003980
1.000000 0.000000 0.001166
1.000000 0.000000 0.000000
1.000000 0.000000 0.000000
1.000000 0.000000 0.000000
1.000000 0.000000 0.000000
0.000000 0.001526 0.043012
0.001415 0.001415 0.042628
0.012992 0.001005 0.040932
