assets/presets/luts/reversal-slide/lut.cube
TITLE "Reversal Slide"
LUT_3D_SIZE 5
0.000000 0.000000 0.000000
0.076127 0.000000 0.000000
0.515446 0.000000 0.000000
1.000000 0.000000 0.000000
1.000000 0.000000 0.000000
0.000000 0.079863 0.000000
0.075992 0.075992 0.000000
0.466450 0.068017 0.000000
0.971630 0.057496 0.000000
1.000000 0.057361 0.000000
0.000000 0.528754 0.000000
0.015657 0.525369 0.000000
0.503889 0.503889 0.000000
0.958654 0.496702 0.000000
1.000000 0.516263 0.000000
0.000000 0.977645 0.000000
0.000000 0.974403 0.000000
0.446502 0.955879 0.000000
0.935951 0.935951 0.000000
1.000000 0.934444 0.000000
0.000000 1.000000 0.000000
0.000000 1.000000 0.000000
0.435700 1.000000 0.000000
0.927027 1.000000 0.000000
1.000000 1.000000 0.000000
0.000000 0.000000 0.102378
0.086426 0.000000 0.086426
0.577649 0.000000 0.068273
1.000000 0.000000 0.050224
1.000000 0.000000 0.046971
0.000000 0.081674 0.081674
0.075520 0.075520 0.075520
0.534684 0.061547 0.061547
1.000000 0.046267 0.046267
1.000000 0.045185 0.045185
0.000000 0.527906 0.016930
0.014218 0.524411 0.014218
0.504348 0.504348 0.006699
0.951038 0.504066 0.040232
1.000000 0.519304 0.040036
0.000000 0.976544 0.000000
0.000000 0.973302 0.000000
0.445412 0.954788 0.000000
0.935250 0.935250 0.000000
1.000000 0.934565 0.017278
0.000000 1.000000 0.000000
0.000000 1.000000 0.000000
0.434610 1.000000 0.000000
0.925937 1.000000 0.000000
1.000000 1.000000 0.000000
0.000000 0.000000 0.677820
0.083813 0.000000 0.658955
0.572208 0.000000 0.572208
1.000000 0.000000 0.553471
1.000000 0.000000 0.550260
0.000000 0.069596 0.666393
0.063772 0.063772 0.650962
0.561302 0.051109 0.561302
1.000000 0.033293 0.542669
1.000000 0.030081 0.539458
0.000000 0.540746 0.540746
0.000000 0.534592 0.534592
0.500000 0.500000 0.500000
0.977787 0.490126 0.490126
1.000000 0.494187 0.494187
0.000000 0.985469 0.447039
0.000000 0.981083 0.442806
0.438698 0.948891 0.438698
0.929684 0.929684 0.446333
1.000000 0.931274 0.553277
0.000000 1.000000 0.433834
0.000000 1.000000 0.429781
0.427792 1.000000 0.427792
0.919807 1.000000 0.410431
1.000000 1.000000 0.457120
0.000000 0.000000 1.000000
0.072838 0.000000 1.000000
0.585087 0.000000 1.000000
1.000000 0.000000 1.000000
1.000000 0.000000 1.000000
0.000000 0.057611 1.000000
0.052025 0.052025 1.000000
0.572800 0.035100 1.000000
1.000000 0.026698 1.000000
1.000000 0.023456 1.000000
0.000000 0.533282 1.000000
0.000000 0.526221 1.000000
0.488252 0.488252 1.000000
0.985782 0.475589 0.985782
1.000000 0.472517 0.982182
0.000000 0.999819 0.999819
0.000000 0.993664 0.993664
0.371882 0.959072 0.959072
0.924480 0.924480 0.924480
1.000000 0.924110 0.924110
0.000000 1.000000 0.977767
0.000000 1.000000 0.971681
0.360692 1.000000 0.937481
0.913574 1.000000 0.913574
1.000000 1.000000 0.919449
0.000000 0.000000 1.000000
0.070827 0.000000 1.000000
0.583739 0.000000 1.000000
1.000000 0.000000 1.000000
1.000000 0.000000 1.000000
0.000000 0.055462 1.000000
0.049935 0.049935 1.000000
0.571380 0.033626 1.000000
1.000000 0.025597 1.000000
1.000000 0.022355 1.000000
0.000000 0.530884 1.000000
0.000000 0.523822 1.000000
0.486162 0.486162 1.000000
0.985159 0.474285 1.000000
1.000000 0.471246 1.000000
0.000000 0.999100 1.000000
0.000000 0.992936 1.000000
0.363337 0.958594 1.000000
0.922390 0.922390 1.000000
1.000000 0.920137 1.000000
0.000000 1.000000 1.000000
0.000000 1.000000 1.000000
0.349089 1.000000 1.000000
0.901687 1.000000 1.000000
1.000000 1.000000 1.000000
