assets/presets/luts/landscape/lut.cube
TITLE "Landscape"
LUT_3D_SIZE 5
0.000000 0.000000 0.000000
0.262898 0.000000 0.000000
0.545476 0.000000 0.000000
0.804236 0.000000 0.000000
1.000000 0.000000 0.000000
0.000000 0.275716 0.000000
0.239068 0.239068 0.000000
0.531259 0.227456 0.000000
0.806177 0.226211 0.000000
1.000000 0.231236 0.000000
0.000000 0.579828 0.000000
0.174939 0.555690 0.000000
0.518968 0.518968 0.000000
0.799493 0.505970 0.000000
1.000000 0.505768 0.000000
0.000000 0.874583 0.000000
0.125456 0.859027 0.000000
0.480865 0.826176 0.000000
0.796199 0.796199 0.000000
1.000000 0.783815 0.000000
0.000000 1.000000 0.000000
0.065506 1.000000 0.000000
0.428638 1.000000 0.000000
0.771345 1.000000 0.000000
1.000000 1.000000 0.000000
0.000000 0.000000 0.331833
0.260019 0.000000 0.260019
0.549779 0.000000 0.245976
0.815811 0.000000 0.235845
1.000000 0.000000 0.231536
0.000000 0.252542 0.252542
0.231500 0.231500 0.231500
0.537898 0.223023 0.223023
0.820476 0.220976 0.220976
1.000000 0.225361 0.225361
0.000000 0.552478 0.197502
0.148187 0.558611 0.148187
0.516678 0.516678 0.170403
0.806259 0.502456 0.198653
1.000000 0.501211 0.211228
0.000000 0.849004 0.158384
0.094907 0.862723 0.094907
0.456899 0.837651 0.076148
0.796578 0.796578 0.140984
1.000000 0.781324 0.194277
0.000000 1.000000 0.112529
0.065126 1.000000 0.065126
0.408352 1.000000 0.041566
0.761505 1.000000 0.070885
1.000000 1.000000 0.145854
0.000000 0.000000 0.664675
0.262359 0.000000 0.585350
0.541902 0.000000 0.541902
0.814729 0.000000 0.524746
1.000000 0.000000 0.509119
0.000000 0.246782 0.630626
0.223692 0.223692 0.606833
0.535019 0.220144 0.535019
0.824779 0.217174 0.520976
1.000000 0.220862 0.510845
0.000000 0.539405 0.539405
0.155233 0.527897 0.527897
0.506500 0.506500 0.506500
0.812898 0.498023 0.498023
1.000000 0.495976 0.495976
0.000000 0.828265 0.495818
0.116867 0.833187 0.475027
0.431082 0.841507 0.431082
0.794289 0.794289 0.448013
1.000000 0.777456 0.473653
0.000000 1.000000 0.465673
0.090245 1.000000 0.437119
0.377802 1.000000 0.377802
0.738860 1.000000 0.358109
1.000000 1.000000 0.418595
0.000000 0.000000 0.957871
0.257122 0.000000 0.896899
0.536208 0.000000 0.833080
0.802151 0.000000 0.802151
1.000000 0.000000 0.782401
0.000000 0.237339 0.958558
0.219191 0.219191 0.939675
0.537359 0.214367 0.860350
0.816902 0.217402 0.816902
1.000000 0.219780 0.799746
0.000000 0.534770 0.889855
0.137938 0.521782 0.905626
0.498692 0.498692 0.881833
0.810019 0.495144 0.810019
1.000000 0.492174 0.795976
0.000000 0.817089 0.817089
0.112609 0.814760 0.814760
0.430588 0.803251 0.803251
0.781500 0.781500 0.781500
1.000000 0.773023 0.773023
0.000000 1.000000 0.783545
0.100658 1.000000 0.772431
0.392882 1.000000 0.753112
0.713978 1.000000 0.713978
1.000000 1.000000 0.725624
0.000000 0.000000 1.000000
0.252067 0.000000 1.000000
0.531107 0.000000 1.000000
0.788850 0.000000 1.000000
1.000000 0.000000 1.000000
0.000000 0.231184 1.000000
0.217775 0.217775 1.000000
0.532122 0.212234 1.000000
0.811208 0.217462 1.000000
1.000000 0.223276 1.000000
0.000000 0.529406 1.000000
0.151729 0.512339 1.000000
0.494191 0.494191 1.000000
0.812359 0.489367 1.000000
1.000000 0.492402 1.000000
0.000000 0.820871 1.000000
0.099600 0.809770 1.000000
0.412938 0.796782 1.000000
0.773692 0.773692 1.000000
1.000000 0.770144 1.000000
0.000000 1.000000 1.000000
0.103982 1.000000 1.000000
0.387964 1.000000 1.000000
0.705942 1.000000 1.000000
1.000000 1.000000 1.000000
