assets/presets/luts/landscape/lut.cube
TITLE "Landscape"
LUT_3D_SIZE 17
0.000000 0.000000 0.000000
0.035332 0.000000 0.000000
0.112676 0.000000 0.000000
0.188531 0.000000 0.000000
0.262898 0.000000 0.000000
0.335775 0.000000 0.000000
0.407164 0.000000 0.000000
0.477065 0.000000 0.000000
0.545476 0.000000 0.000000
0.612399 0.000000 0.000000
0.677834 0.000000 0.000000
0.741779 0.000000 0.000000
0.804236 0.000000 0.000000
0.865204 0.000000 0.000000
0.924684 0.000000 0.000000
0.987750 0.000000 0.000000
1.000000 0.000000 0.000000
0.000000 0.036621 0.000000
0.027242 0.027242 0.000000
0.104412 0.023549 0.000000
0.181277 0.021279 0.000000
0.256676 0.019401 0.000000
0.330593 0.017921 0.000000
0.403025 0.016841 0.000000
0.473970 0.016163 0.000000
0.543427 0.015886 0.000000
0.611397 0.016011 0.000000
0.677878 0.016537 0.000000
0.742870 0.017465 0.000000
0.806374 0.018795 0.000000
0.868390 0.020527 0.000000
0.928917 0.022661 0.000000
0.987956 0.025196 0.000000
1.000000 0.025250 0.000000
0.000000 0.117996 0.000000
0.005896 0.109192 0.000000
0.098118 0.098118 0.000000
0.174440 0.093341 0.000000
0.249509 0.091059 0.000000
0.324387 0.089249 0.000000
0.397815 0.087824 0.000000
0.469775 0.086792 0.000000
0.540257 0.086157 0.000000
0.609257 0.085921 0.000000
0.676773 0.086084 0.000000
0.742803 0.086648 0.000000
0.807347 0.087612 0.000000
0.870404 0.088978 0.000000
0.931973 0.090745 0.000000
0.992055 0.092914 0.000000
1.000000 0.094000 0.000000
0.000000 0.197328 0.000000
0.000000 0.190574 0.000000
0.081114 0.178789 0.000000
0.168676 0.168676 0.000000
0.244770 0.163371 0.000000
0.318310 0.160765 0.000000
0.391791 0.159027 0.000000
0.464679 0.157680 0.000000
0.536127 0.156713 0.000000
0.606116 0.156135 0.000000
0.674635 0.155950 0.000000
0.741679 0.156161 0.000000
0.807243 0.156769 0.000000
0.871325 0.157776 0.000000
0.933924 0.159183 0.000000
0.995039 0.160989 0.000000
1.000000 0.162750 0.000000
0.000000 0.275716 0.000000
0.000000 0.270495 0.000000
0.058767 0.259955 0.000000
0.154435 0.248448 0.000000
0.239068 0.239068 0.000000
0.314819 0.233502 0.000000
0.387585 0.230533 0.000000
0.459548 0.228715 0.000000
0.531259 0.227456 0.000000
0.602155 0.226571 0.000000
0.671618 0.226064 0.000000
0.739628 0.225942 0.000000
0.806177 0.226211 0.000000
0.871256 0.226873 0.000000
0.934861 0.227930 0.000000
0.996988 0.229384 0.000000
1.000000 0.231236 0.000000
0.000000 0.353160 0.000000
0.000000 0.349122 0.000000
0.036919 0.340106 0.000000
0.135096 0.328928 0.000000
0.226785 0.318100 0.000000
0.309293 0.309293 0.000000
0.384573 0.303624 0.000000
0.456786 0.300365 0.000000
0.527732 0.298388 0.000000
0.598056 0.297136 0.000000
0.667911 0.296345 0.000000
0.736816 0.295922 0.000000
0.804290 0.295876 0.000000
0.870319 0.296213 0.000000
0.934892 0.296937 0.000000
0.998000 0.298053 0.000000
1.000000 0.299562 0.000000
0.000000 0.429660 0.000000
0.000000 0.426588 0.000000
0.017157 0.419020 0.000000
0.115115 0.408787 0.000000
0.210046 0.397832 0.000000
0.298554 0.387681 0.000000
0.379351 0.379351 0.000000
0.454065 0.373675 0.000000
0.525772 0.370213 0.000000
0.595936 0.368076 0.000000
0.665201 0.366768 0.000000
0.733794 0.366021 0.000000
0.801749 0.365693 0.000000
0.868661 0.365733 0.000000
0.934146 0.366148 0.000000
0.998191 0.366945 0.000000
1.000000 0.368127 0.000000
0.000000 0.505216 0.000000
0.000000 0.502970 0.000000
0.000000 0.496711 0.000000
0.096385 0.487617 0.000000
0.192166 0.477180 0.000000
0.284010 0.466690 0.000000
0.369919 0.457154 0.000000
0.449243 0.449243 0.000000
0.523320 0.443623 0.000000
0.594509 0.440031 0.000000
0.664003 0.437761 0.000000
0.732395 0.436381 0.000000
0.799947 0.435632 0.000000
0.866744 0.435366 0.000000
0.932772 0.435501 0.000000
0.997691 0.436004 0.000000
1.000000 0.436881 0.000000
0.000000 0.579828 0.000000
0.000000 0.578319 0.000000
0.000000 0.573231 0.000000
0.079688 0.565305 0.000000
0.174939 0.555690 0.000000
0.268164 0.545448 0.000000
0.357255 0.535483 0.000000
0.440969 0.526498 0.000000
0.518968 0.518968 0.000000
0.592359 0.513447 0.000000
0.663000 0.509787 0.000000
0.731866 0.507419 0.000000
0.799493 0.505970 0.000000
0.866148 0.505201 0.000000
0.931941 0.504965 0.000000
0.996895 0.505171 0.000000
1.000000 0.505768 0.000000
0.000000 0.653496 0.000000
0.000000 0.652665 0.000000
0.000000 0.648630 0.000000
0.065351 0.641838 0.000000
0.159284 0.633176 0.000000
0.252596 0.623511 0.000000
0.343297 0.613627 0.000000
0.429953 0.604186 0.000000
0.511754 0.595701 0.000000
0.588526 0.588526 0.000000
0.661192 0.583134 0.000000
0.731251 0.579456 0.000000
0.799505 0.577026 0.000000
0.866426 0.575523 0.000000
0.932274 0.574731 0.000000
0.997172 0.574508 0.000000
1.000000 0.574763 0.000000
0.000000 0.726220 0.000000
0.000000 0.726024 0.000000
0.000000 0.722945 0.000000
0.053505 0.717232 0.000000
0.145676 0.709570 0.000000
0.238238 0.700663 0.000000
0.329401 0.691180 0.000000
0.417729 0.681719 0.000000
0.502213 0.672782 0.000000
0.582305 0.664757 0.000000
0.657917 0.657917 0.000000
0.729831 0.652678 0.000000
0.799274 0.649020 0.000000
0.866912 0.646561 0.000000
0.933159 0.645024 0.000000
0.998256 0.644215 0.000000
1.000000 0.644000 0.000000
0.000000 0.798076 0.000000
0.000000 0.798409 0.000000
0.000000 0.796207 0.000000
0.044197 0.791515 0.000000
0.134358 0.784852 0.000000
0.225635 0.776797 0.000000
0.316452 0.767915 0.000000
0.405457 0.758732 0.000000
0.491587 0.749715 0.000000
0.574109 0.741256 0.000000
0.652640 0.733660 0.000000
0.727141 0.727141 0.000000
0.798280 0.722072 0.000000
0.867078 0.718466 0.000000
0.934090 0.716008 0.000000
0.999676 0.714457 0.000000
1.000000 0.713641 0.000000
0.000000 0.874583 0.000000
0.000000 0.873272 0.000000
0.000000 0.869820 0.000000
0.037436 0.864709 0.000000
0.125456 0.859027 0.000000
0.215106 0.851868 0.000000
0.305014 0.843706 0.000000
0.393948 0.835000 0.000000
0.480865 0.826176 0.000000
0.564961 0.817605 0.000000
0.645688 0.809600 0.000000
0.722771 0.802406 0.000000
0.796199 0.796199 0.000000
0.866545 0.791312 0.000000
0.934671 0.787786 0.000000
1.000000 0.785353 0.000000
1.000000 0.783815 0.000000
0.000000 0.951089 0.000000
0.000000 0.949861 0.000000
0.000000 0.946655 0.000000
0.022580 0.941537 0.000000
0.113075 0.934870 0.000000
0.204300 0.927105 0.000000
0.295138 0.918649 0.000000
0.383758 0.910390 0.000000
0.470786 0.901949 0.000000
0.555715 0.893510 0.000000
0.637920 0.885378 0.000000
0.716986 0.877805 0.000000
0.792708 0.870994 0.000000
0.865090 0.865090 0.000000
0.934765 0.860453 0.000000
1.000000 0.857191 0.000000
1.000000 0.854844 0.000000
0.000000 1.000000 0.000000
0.000000 1.000000 0.000000
0.000000 1.000000 0.000000
0.007012 1.000000 0.000000
0.097137 1.000000 0.000000
0.188265 1.000000 0.000000
0.279382 0.996628 0.000000
0.369621 0.987953 0.000000
0.458262 0.979125 0.000000
0.544735 0.970403 0.000000
0.628614 0.962004 0.000000
0.709624 0.954114 0.000000
0.787629 0.946879 0.000000
0.862638 0.940413 0.000000
0.934795 0.934795 0.000000
1.000000 0.930284 0.000000
1.000000 0.926910 0.000000
0.000000 1.000000 0.000000
0.000000 1.000000 0.000000
0.000000 1.000000 0.000000
0.000000 1.000000 0.000000
0.081279 1.000000 0.000000
0.172225 1.000000 0.000000
0.263459 1.000000 0.000000
0.354180 1.000000 0.000000
0.443704 1.000000 0.000000
0.531470 1.000000 0.000000
0.617035 1.000000 0.000000
0.700078 1.000000 0.000000
0.780393 1.000000 0.000000
0.857895 1.000000 0.000000
0.932609 1.000000 0.000000
1.000000 1.000000 0.000000
1.000000 1.000000 0.000000
0.000000 1.000000 0.000000
0.000000 1.000000 0.000000
0.000000 1.000000 0.000000
0.000000 1.000000 0.000000
0.065506 1.000000 0.000000
0.156214 1.000000 0.000000
0.247450 1.000000 0.000000
0.338473 1.000000 0.000000
0.428638 1.000000 0.000000
0.517403 1.000000 0.000000
0.604324 1.000000 0.000000
0.689053 1.000000 0.000000
0.771345 1.000000 0.000000
0.851049 1.000000 0.000000
0.928110 1.000000 0.000000
1.000000 1.000000 0.000000
1.000000 1.000000 0.000000
0.000000 0.000000 0.052214
0.034408 0.000000 0.034408
0.112200 0.000000 0.031338
0.188510 0.000000 0.028512
0.263325 0.000000 0.026050
0.336649 0.000000 0.023977
0.408482 0.000000 0.022298
0.478825 0.000000 0.021018
0.547679 0.000000 0.020138
0.615044 0.000000 0.019658
0.680920 0.000000 0.019580
0.745308 0.000000 0.019902
0.808206 0.000000 0.020626
0.869615 0.000000 0.021752
0.929536 0.000000 0.023279
0.987968 0.000000 0.025208
1.000000 0.000000 0.025250
0.000000 0.030981 0.030981
0.025250 0.025250 0.025250
0.104082 0.022528 0.022528
0.181426 0.020207 0.020207
0.257281 0.018289 0.018289
0.331648 0.016773 0.016773
0.404525 0.015658 0.015658
0.475914 0.014946 0.014946
0.545815 0.014635 0.014635
0.614226 0.014726 0.014726
0.681149 0.015220 0.015220
0.746584 0.016115 0.016115
0.810529 0.017412 0.017412
0.872986 0.019111 0.019111
0.933954 0.021212 0.021212
0.993434 0.023715 0.023715
1.000000 0.025250 0.025250
0.000000 0.108941 0.013268
0.002776 0.107103 0.002776
0.096565 0.096565 0.007578
0.173162 0.092299 0.011437
0.250027 0.090029 0.010030
0.325426 0.088151 0.009059
0.399343 0.086671 0.008503
0.471775 0.085591 0.008355
0.542720 0.084913 0.008612
0.612177 0.084636 0.009273
0.680147 0.084761 0.010337
0.746628 0.085287 0.011805
0.811620 0.086215 0.013675
0.875124 0.087545 0.015947
0.937140 0.089277 0.018622
0.997667 0.091411 0.021698
1.000000 0.093946 0.025178
0.000000 0.188502 0.000000
0.000000 0.188720 0.000000
0.076386 0.179683 0.000000
0.167520 0.167520 0.000000
0.243278 0.162180 0.000000
0.318259 0.159809 0.001358
0.393137 0.157999 0.001240
0.466566 0.156574 0.001578
0.538525 0.155542 0.002349
0.609007 0.154907 0.003541
0.678007 0.154671 0.005146
0.745523 0.154834 0.007162
0.811553 0.155398 0.009586
0.876097 0.156362 0.012416
0.939154 0.157728 0.015651
1.000000 0.159495 0.019290
1.000000 0.161664 0.023334
0.000000 0.267834 0.000000
0.000000 0.268052 0.000000
0.051597 0.261298 0.000000
0.151274 0.248949 0.000000
0.238079 0.238079 0.000000
0.313710 0.232311 0.000000
0.387093 0.229548 0.000000
0.460541 0.227777 0.000000
0.533429 0.226430 0.000000
0.604877 0.225463 0.000000
0.674865 0.224885 0.000000
0.743385 0.224700 0.002406
0.810429 0.224911 0.005341
0.875993 0.225519 0.008694
0.940075 0.226526 0.012461
1.000000 0.227933 0.016640
1.000000 0.229739 0.021227
0.000000 0.346101 0.000000
0.000000 0.346440 0.000000
0.029075 0.341284 0.000000
0.129258 0.330445 0.000000
0.224408 0.318422 0.000000
0.308471 0.308471 0.000000
0.383835 0.302519 0.000000
0.456424 0.299372 0.000000
0.528315 0.297482 0.000000
0.600009 0.296206 0.000000
0.670905 0.295321 0.000000
0.740367 0.294814 0.000000
0.808378 0.294692 0.001157
0.874927 0.294961 0.004978
0.940006 0.295623 0.009230
1.000000 0.296680 0.013908
1.000000 0.298134 0.019006
0.000000 0.423336 0.000000
0.000000 0.423884 0.000000
0.009310 0.419931 0.000000
0.107564 0.410751 0.000000
0.205397 0.399228 0.000000
0.296643 0.387959 0.000000
0.378696 0.378696 0.000000
0.453646 0.372696 0.000000
0.525679 0.369258 0.000000
0.596533 0.367189 0.000000
0.666817 0.365896 0.000000
0.736661 0.365095 0.000000
0.805566 0.364672 0.000000
0.873040 0.364626 0.001472
0.939069 0.364963 0.006146
1.000000 0.365687 0.011268
1.000000 0.366803 0.016830
0.000000 0.499568 0.000000
0.000000 0.500384 0.000000
0.000000 0.497400 0.000000
0.087881 0.489744 0.000000
0.185605 0.479278 0.000000
0.280206 0.467992 0.000000
0.368335 0.457462 0.000000
0.448754 0.448754 0.000000
0.523180 0.442790 0.000000
0.594712 0.439153 0.000000
0.664775 0.436915 0.000000
0.733984 0.435551 0.000000
0.802551 0.434778 0.000000
0.870499 0.434443 0.000000
0.937411 0.434483 0.003402
1.000000 0.434898 0.008900
1.000000 0.435695 0.014864
0.000000 0.574814 0.000000
0.000000 0.575940 0.000000
0.000000 0.573781 0.000000
0.070672 0.567477 0.000000
0.166990 0.558222 0.000000
0.262524 0.547538 0.000000
0.354064 0.536745 0.000000
0.439645 0.526880 0.000000
0.518645 0.518645 0.000000
0.592468 0.512770 0.000000
0.663491 0.509012 0.000000
0.732878 0.506637 0.000000
0.801205 0.505191 0.000000
0.868721 0.504405 0.000000
0.935499 0.504121 0.000847
1.000000 0.504251 0.006980
1.000000 0.504754 0.013277
0.000000 0.649086 0.000000
0.000000 0.650552 0.000000
0.000000 0.649126 0.000000
0.056054 0.644021 0.000000
0.150365 0.635982 0.000000
0.245429 0.626180 0.000000
0.338413 0.615697 0.000000
0.427228 0.605456 0.000000
0.510653 0.596182 0.000000
0.588370 0.588370 0.000000
0.661533 0.582621 0.000000
0.732016 0.578803 0.000000
0.800776 0.576329 0.000000
0.868332 0.574808 0.000000
0.934942 0.573995 0.000000
1.000000 0.573732 0.004430
1.000000 0.573925 0.011956
0.000000 0.722392 0.000000
0.000000 0.724220 0.000000
0.000000 0.723467 0.000000
0.044033 0.719432 0.000000
0.136075 0.712561 0.000000
0.229865 0.703757 0.000000
0.322984 0.693900 0.000000
0.413457 0.683787 0.000000
0.499863 0.674096 0.000000
0.581407 0.665354 0.000000
0.657928 0.657928 0.000000
0.730388 0.652330 0.000000
0.800297 0.648502 0.000000
0.868445 0.645966 0.000000
0.935293 0.644389 0.000000
1.000000 0.643547 0.000000
1.000000 0.643291 0.009296
0.000000 0.794736 0.000000
0.000000 0.796944 0.000000
0.000000 0.796822 0.000000
0.034588 0.793754 0.000000
0.124260 0.787987 0.000000
0.216321 0.780215 0.000000
0.308728 0.771153 0.000000
0.399702 0.761481 0.000000
0.487816 0.751806 0.000000
0.572072 0.742640 0.000000
0.651932 0.734384 0.000000
0.727319 0.727319 0.000000
0.799044 0.721891 0.000000
0.868346 0.718092 0.000000
0.935881 0.715529 0.000000
1.000000 0.713916 0.000000
1.000000 0.713053 0.004970
0.000000 0.868303 0.000000
0.000000 0.868800 0.000000
0.000000 0.869202 0.000000
0.027689 0.867018 0.000000
0.114973 0.862290 0.000000
0.205049 0.855543 0.000000
0.296201 0.847363 0.000000
0.386859 0.838323 0.000000
0.475682 0.828957 0.000000
0.561612 0.819740 0.000000
0.643925 0.811073 0.000000
0.722246 0.803266 0.000000
0.796544 0.796544 0.000000
0.867508 0.791300 0.000000
0.936173 0.787561 0.000000
1.000000 0.785001 0.000000
1.000000 0.783374 0.000000
0.000000 0.944862 0.000000
0.000000 0.945306 0.000000
0.000000 0.944061 0.000000
0.020070 0.940632 0.000000
0.108226 0.935498 0.000000
0.196180 0.929751 0.000000
0.285728 0.922490 0.000000
0.375504 0.914196 0.000000
0.464282 0.905335 0.000000
0.551025 0.896335 0.000000
0.634934 0.887578 0.000000
0.715469 0.879381 0.000000
0.792360 0.871995 0.000000
0.865602 0.865602 0.000000
0.935786 0.860553 0.000000
1.000000 0.856900 0.000000
1.000000 0.854370 0.000000
0.000000 1.000000 0.000000
0.000000 1.000000 0.000000
0.000000 1.000000 0.000000
0.004921 1.000000 0.000000
0.093378 1.000000 0.000000
0.183823 1.000000 0.000000
0.274966 0.997770 0.000000
0.365692 0.989204 0.000000
0.454179 0.980811 0.000000
0.541055 0.972218 0.000000
0.625818 0.963614 0.000000
0.707850 0.955307 0.000000
0.786737 0.947557 0.000000
0.862283 0.940568 0.000000
0.934493 0.934493 0.000000
1.000000 0.929705 0.000000
1.000000 0.926323 0.000000
0.000000 1.000000 0.000000
0.000000 1.000000 0.000000
0.000000 1.000000 0.000000
0.000000 1.000000 0.000000
0.077816 1.000000 0.000000
0.167903 1.000000 0.000000
0.258963 1.000000 0.000000
0.349987 1.000000 0.000000
0.440111 1.000000 0.000000
0.528620 1.000000 0.000000
0.614946 1.000000 0.000000
0.698669 1.000000 0.000000
0.779516 1.000000 0.000000
0.857355 1.000000 0.000000
0.932200 1.000000 0.000000
1.000000 1.000000 0.000000
1.000000 0.999546 0.000000
0.000000 1.000000 0.000000
0.000000 1.000000 0.000000
0.000000 1.000000 0.000000
0.000000 1.000000 0.000000
0.062351 1.000000 0.000000
0.152058 1.000000 0.000000
0.242949 1.000000 0.000000
0.334104 1.000000 0.000000
0.424726 1.000000 0.000000
0.514135 1.000000 0.000000
0.601770 1.000000 0.000000
0.687195 1.000000 0.000000
0.770089 1.000000 0.000000
0.850252 1.000000 0.000000
0.927599 1.000000 0.000000
1.000000 1.000000 0.000000
1.000000 1.000000 0.000000
0.000000 0.000000 0.149478
0.036578 0.000000 0.122945
0.110964 0.000000 0.110964
0.187698 0.000000 0.107699
0.262980 0.000000 0.104530
0.336771 0.000000 0.101632
0.409065 0.000000 0.099074
0.479865 0.000000 0.096883
0.549173 0.000000 0.095073
0.616988 0.000000 0.093652
0.683313 0.000000 0.092625
0.748148 0.000000 0.091993
0.811492 0.000000 0.091758
0.873347 0.000000 0.091921
0.933712 0.000000 0.092484
0.992588 0.000000 0.093447
1.000000 0.000000 0.094000
0.000000 0.030230 0.134449
0.023152 0.023152 0.120964
0.103158 0.021603 0.103158
0.180950 0.019225 0.100088
0.257260 0.017263 0.097262
0.332075 0.015709 0.094800
0.405399 0.014559 0.092727
0.477232 0.013812 0.091048
0.547575 0.013467 0.089768
0.616429 0.013525 0.088888
0.683794 0.013985 0.088408
0.749670 0.014847 0.088330
0.814057 0.016112 0.088652
0.876956 0.017778 0.089376
0.938365 0.019847 0.090502
0.998286 0.022317 0.092029
1.000000 0.025190 0.093958
0.000000 0.105669 0.105669
0.004391 0.099808 0.099808
0.094000 0.094000 0.094000
0.172832 0.091278 0.091278
0.250176 0.088957 0.088957
0.326031 0.087039 0.087039
0.400398 0.085523 0.085523
0.473275 0.084408 0.084408
0.544664 0.083696 0.083696
0.614565 0.083385 0.083385
0.682976 0.083476 0.083476
0.749899 0.083970 0.083970
0.815334 0.084865 0.084865
0.879279 0.086162 0.086162
0.941736 0.087861 0.087861
1.000000 0.089962 0.089962
1.000000 0.092465 0.092465
0.000000 0.181793 0.088327
0.000000 0.179187 0.082579
0.073258 0.177585 0.073258
0.165887 0.165887 0.076900
0.241912 0.161049 0.080187
0.318777 0.158779 0.078780
0.394176 0.156901 0.077809
0.468093 0.155421 0.077253
0.540525 0.154341 0.077105
0.611470 0.153663 0.077362
0.680927 0.153386 0.078023
0.748897 0.153511 0.079087
0.815378 0.154037 0.080555
0.880370 0.154965 0.082425
0.943874 0.156295 0.084697
1.000000 0.158027 0.087372
1.000000 0.160161 0.090448
0.000000 0.259084 0.072358
0.000000 0.258910 0.062926
0.047602 0.259444 0.047602
0.146876 0.250173 0.043579
0.236923 0.236923 0.059165
0.312117 0.231018 0.068821
0.387009 0.228559 0.070108
0.461887 0.226749 0.069990
0.535316 0.225324 0.070328
0.607275 0.224292 0.071099
0.677757 0.223657 0.072291
0.746757 0.223421 0.073896
0.814273 0.223584 0.075912
0.880303 0.224148 0.078336
0.944847 0.225112 0.081166
1.000000 0.226478 0.084401
1.000000 0.228245 0.088040
0.000000 0.336824 0.055830
0.000000 0.338168 0.042824
0.025985 0.338776 0.025985
0.122321 0.332022 0.017470
0.221434 0.319109 0.026083
0.307481 0.307481 0.044310
0.382651 0.301252 0.057054
0.455876 0.298332 0.062014
0.529291 0.296527 0.063763
0.602179 0.295180 0.064930
0.673627 0.294213 0.066564
0.743616 0.293635 0.068644
0.812135 0.293450 0.071156
0.879179 0.293661 0.074091
0.944743 0.294269 0.077444
1.000000 0.295276 0.081211
1.000000 0.296683 0.085390
0.000000 0.414587 0.039016
0.000000 0.416531 0.023998
0.006739 0.417164 0.006739
0.099864 0.412074 0.000000
0.199748 0.400935 0.000000
0.294382 0.388395 0.012341
0.377873 0.377873 0.031598
0.452852 0.371535 0.046268
0.525262 0.368210 0.054106
0.597082 0.366249 0.058471
0.668759 0.364956 0.061153
0.739655 0.364071 0.063603
0.809117 0.363564 0.066528
0.877128 0.363442 0.069907
0.943677 0.363711 0.073728
1.000000 0.364373 0.077980
1.000000 0.365430 0.082658
0.000000 0.491623 0.023255
0.000000 0.493826 0.007272
0.000000 0.494608 0.000000
0.080119 0.490740 0.000000
0.178209 0.481397 0.000000
0.275697 0.469529 0.000000
0.366502 0.457817 0.001239
0.448098 0.448098 0.021028
0.522718 0.441768 0.037021
0.594572 0.438151 0.047098
0.665334 0.435990 0.053751
0.735577 0.434657 0.058507
0.805411 0.433845 0.062278
0.874316 0.433422 0.066010
0.941790 0.433376 0.070222
1.000000 0.433713 0.074896
1.000000 0.434437 0.080018
0.000000 0.567643 0.009359
0.000000 0.570099 0.000000
0.000000 0.571108 0.000000
0.063058 0.568213 0.000000
0.158605 0.560468 0.000000
0.256095 0.549768 0.000000
0.350366 0.538152 0.000000
0.438116 0.527243 0.000000
0.518157 0.518157 0.012602
0.592294 0.511905 0.029566
0.663652 0.508093 0.041417
0.733614 0.505753 0.050033
0.802767 0.504334 0.056685
0.871308 0.503535 0.062206
0.939249 0.503193 0.067137
1.000000 0.503233 0.072152
1.000000 0.503648 0.077650
0.000000 0.642655 0.000000
0.000000 0.645374 0.000000
0.000000 0.646664 0.000000
0.048600 0.644591 0.000000
0.141438 0.638243 0.000000
0.237595 0.628827 0.000000
0.332882 0.617896 0.000000
0.424119 0.606800 0.000000
0.509371 0.596606 0.000000
0.588048 0.588048 0.006319
0.661616 0.581918 0.024034
0.732472 0.577994 0.037319
0.801753 0.575512 0.047616
0.870015 0.574001 0.055977
0.937494 0.573178 0.063136
1.000000 0.572876 0.069602
1.000000 0.573001 0.075730
0.000000 0.716667 0.000000
0.000000 0.719667 0.000000
0.000000 0.721276 0.000000
0.036675 0.719933 0.000000
0.126843 0.714810 0.000000
0.221043 0.706659 0.000000
0.315919 0.696671 0.000000
0.408662 0.685946 0.000000
0.497202 0.675430 0.000000
0.580338 0.665867 0.000000
0.657773 0.657773 0.002179
0.730707 0.651795 0.020498
0.801032 0.647819 0.034968
0.869685 0.645238 0.046712
0.937171 0.643647 0.056600
1.000000 0.642788 0.065273
1.000000 0.642499 0.073197
0.000000 0.789690 0.000000
0.000000 0.792990 0.000000
0.000000 0.794944 0.000000
0.027235 0.794269 0.000000
0.114835 0.790234 0.000000
0.206799 0.783285 0.000000
0.300446 0.774339 0.000000
0.393373 0.764288 0.000000
0.483617 0.753947 0.000000
0.569773 0.744006 0.000000
0.651060 0.735007 0.000000
0.727331 0.727331 0.000182
0.799583 0.721525 0.019003
0.869344 0.717548 0.034469
0.937386 0.714906 0.047468
1.000000 0.713256 0.058723
1.000000 0.712363 0.068786
0.000000 0.861732 0.000000
0.000000 0.865348 0.000000
0.000000 0.867668 0.000000
0.020250 0.867619 0.000000
0.105397 0.864562 0.000000
0.195015 0.858742 0.000000
0.286966 0.850860 0.000000
0.379219 0.841643 0.000000
0.470002 0.831781 0.000000
0.557902 0.821892 0.000000
0.641930 0.812499 0.000000
0.721559 0.804011 0.000000
0.796722 0.796722 0.000328
0.868257 0.791104 0.019576
0.937418 0.787164 0.035893
1.000000 0.784497 0.049992
1.000000 0.782809 0.062471
0.000000 0.937468 0.000000
0.000000 0.938925 0.000000
0.000000 0.939523 0.000000
0.015697 0.939996 0.000000
0.098500 0.937830 0.000000
0.185748 0.933065 0.000000
0.275740 0.926233 0.000000
0.366766 0.917929 0.000000
0.457267 0.908730 0.000000
0.545907 0.899182 0.000000
0.631637 0.889766 0.000000
0.713741 0.880889 0.000000
0.791852 0.872872 0.000000
0.865946 0.865946 0.002617
0.936737 0.860528 0.022236
1.000000 0.856656 0.039292
1.000000 0.853995 0.054360
0.000000 1.000000 0.000000
0.000000 1.000000 0.000000
0.000000 1.000000 0.000000
0.005186 1.000000 0.000000
0.090882 1.000000 0.000000
0.179015 1.000000 0.000000
0.266904 1.000000 0.000000
0.356350 0.993112 0.000000
0.445994 0.984686 0.000000
0.534616 0.975669 0.000000
0.621185 0.966495 0.000000
0.704908 0.957552 0.000000
0.785250 0.949162 0.000000
0.861949 0.941584 0.000000
0.935004 0.935004 0.007049
1.000000 0.929794 0.026996
1.000000 0.926015 0.044701
0.000000 1.000000 0.000000
0.000000 1.000000 0.000000
0.000000 1.000000 0.000000
0.000000 1.000000 0.000000
0.075733 1.000000 0.000000
0.164177 1.000000 0.000000
0.254572 1.000000 0.000000
0.345631 1.000000 0.000000
0.436247 1.000000 0.000000
0.524599 1.000000 0.000000
0.611324 1.000000 0.000000
0.695922 1.000000 0.000000
0.777779 1.000000 0.000000
0.856489 1.000000 0.000000
0.931857 1.000000 0.000000
1.000000 1.000000 0.013624
1.000000 0.998957 0.032904
0.000000 1.000000 0.000000
0.000000 1.000000 0.000000
0.000000 1.000000 0.000000
0.000000 1.000000 0.000000
0.060662 1.000000 0.000000
0.148621 1.000000 0.000000
0.238669 1.000000 0.000000
0.329661 1.000000 0.000000
0.420592 1.000000 0.000000
0.510601 1.000000 0.000000
0.598978 1.000000 0.000000
0.685157 1.000000 0.000000
0.768724 1.000000 0.000000
0.849407 1.000000 0.000000
0.927081 1.000000 0.000000
1.000000 1.000000 0.000000
1.000000 1.000000 0.009735
0.000000 0.000000 0.241983
0.037047 0.000000 0.215884
0.112190 0.000000 0.194332
0.186167 0.000000 0.186167
0.261832 0.000000 0.182740
0.336076 0.000000 0.179317
0.408840 0.000000 0.176076
0.480111 0.000000 0.173111
0.549886 0.000000 0.170472
0.618166 0.000000 0.168185
0.684951 0.000000 0.166266
0.750243 0.000000 0.164725
0.814042 0.000000 0.163568
0.876350 0.000000 0.162801
0.937167 0.000000 0.162426
0.996493 0.000000 0.162444
1.000000 0.000000 0.162750
0.000000 0.027570 0.233104
0.020933 0.020933 0.218228
0.105328 0.018961 0.191695
