assets/presets/luts/landscape/lut.cube
TITLE "Landscape"
LUT_3D_SIZE 9
0.000000 0.000000 0.000000
0.112676 0.000000 0.000000
0.262898 0.000000 0.000000
0.407164 0.000000 0.000000
0.545476 0.000000 0.000000
0.677834 0.000000 0.000000
0.804236 0.000000 0.000000
0.924684 0.000000 0.000000
1.000000 0.000000 0.000000
0.000000 0.117996 0.000000
0.098118 0.098118 0.000000
0.249509 0.091059 0.000000
0.397815 0.087824 0.000000
0.540257 0.086157 0.000000
0.676773 0.086084 0.000000
0.807347 0.087612 0.000000
0.931973 0.090745 0.000000
1.000000 0.094000 0.000000
0.000000 0.275716 0.000000
0.058767 0.259955 0.000000
0.239068 0.239068 0.000000
0.387585 0.230533 0.000000
0.531259 0.227456 0.000000
0.671618 0.226064 0.000000
0.806177 0.226211 0.000000
0.934861 0.227930 0.000000
1.000000 0.231236 0.000000
0.000000 0.429660 0.000000
0.017157 0.419020 0.000000
0.210046 0.397832 0.000000
0.379351 0.379351 0.000000
0.525772 0.370213 0.000000
0.665201 0.366768 0.000000
0.801749 0.365693 0.000000
0.934146 0.366148 0.000000
1.000000 0.368127 0.000000
0.000000 0.579828 0.000000
0.000000 0.573231 0.000000
0.174939 0.555690 0.000000
0.357255 0.535483 0.000000
0.518968 0.518968 0.000000
0.663000 0.509787 0.000000
0.799493 0.505970 0.000000
0.931941 0.504965 0.000000
1.000000 0.505768 0.000000
0.000000 0.726220 0.000000
0.000000 0.722945 0.000000
0.145676 0.709570 0.000000
0.329401 0.691180 0.000000
0.502213 0.672782 0.000000
0.657917 0.657917 0.000000
0.799274 0.649020 0.000000
0.933159 0.645024 0.000000
1.000000 0.644000 0.000000
0.000000 0.874583 0.000000
0.000000 0.869820 0.000000
0.125456 0.859027 0.000000
0.305014 0.843706 0.000000
0.480865 0.826176 0.000000
0.645688 0.809600 0.000000
0.796199 0.796199 0.000000
0.934671 0.787786 0.000000
1.000000 0.783815 0.000000
0.000000 1.000000 0.000000
0.000000 1.000000 0.000000
0.097137 1.000000 0.000000
0.279382 0.996628 0.000000
0.458262 0.979125 0.000000
0.628614 0.962004 0.000000
0.787629 0.946879 0.000000
0.934795 0.934795 0.000000
1.000000 0.926910 0.000000
0.000000 1.000000 0.000000
0.000000 1.000000 0.000000
0.065506 1.000000 0.000000
0.247450 1.000000 0.000000
0.428638 1.000000 0.000000
0.604324 1.000000 0.000000
0.771345 1.000000 0.000000
0.928110 1.000000 0.000000
1.000000 1.000000 0.000000
0.000000 0.000000 0.149478
0.110964 0.000000 0.110964
0.262980 0.000000 0.104530
0.409065 0.000000 0.099074
0.549173 0.000000 0.095073
0.683313 0.000000 0.092625
0.811492 0.000000 0.091758
0.933712 0.000000 0.092484
1.000000 0.000000 0.094000
0.000000 0.105669 0.105669
0.094000 0.094000 0.094000
0.250176 0.088957 0.088957
0.400398 0.085523 0.085523
0.544664 0.083696 0.083696
0.682976 0.083476 0.083476
0.815334 0.084865 0.084865
0.941736 0.087861 0.087861
1.000000 0.092465 0.092465
0.000000 0.259084 0.072358
0.047602 0.259444 0.047602
0.236923 0.236923 0.059165
0.387009 0.228559 0.070108
0.535316 0.225324 0.070328
0.677757 0.223657 0.072291
0.814273 0.223584 0.075912
0.944847 0.225112 0.081166
1.000000 0.228245 0.088040
0.000000 0.414587 0.039016
0.006739 0.417164 0.006739
0.199748 0.400935 0.000000
0.377873 0.377873 0.031598
0.525262 0.368210 0.054106
0.668759 0.364956 0.061153
0.809117 0.363564 0.066528
0.943677 0.363711 0.073728
1.000000 0.365430 0.082658
0.000000 0.567643 0.009359
0.000000 0.571108 0.000000
0.158605 0.560468 0.000000
0.350366 0.538152 0.000000
0.518157 0.518157 0.012602
0.663652 0.508093 0.041417
0.802767 0.504334 0.056685
0.939249 0.503193 0.067137
1.000000 0.503648 0.077650
0.000000 0.716667 0.000000
0.000000 0.721276 0.000000
0.126843 0.714810 0.000000
0.315919 0.696671 0.000000
0.497202 0.675430 0.000000
0.657773 0.657773 0.002179
0.801032 0.647819 0.034968
0.937171 0.643647 0.056600
1.000000 0.642499 0.073197
0.000000 0.861732 0.000000
0.000000 0.867668 0.000000
0.105397 0.864562 0.000000
0.286966 0.850860 0.000000
0.470002 0.831781 0.000000
0.641930 0.812499 0.000000
0.796722 0.796722 0.000328
0.937418 0.787164 0.035893
1.000000 0.782809 0.062471
0.000000 1.000000 0.000000
0.000000 1.000000 0.000000
0.090882 1.000000 0.000000
0.266904 1.000000 0.000000
0.445994 0.984686 0.000000
0.621185 0.966495 0.000000
0.785250 0.949162 0.000000
0.935004 0.935004 0.007049
1.000000 0.926015 0.044701
0.000000 1.000000 0.000000
0.000000 1.000000 0.000000
0.060662 1.000000 0.000000
0.238669 1.000000 0.000000
0.420592 1.000000 0.000000
0.598978 1.000000 0.000000
0.768724 1.000000 0.000000
0.927081 1.000000 0.000000
1.000000 1.000000 0.009735
0.000000 0.000000 0.331833
0.114247 0.000000 0.283235
0.260019 0.000000 0.260019
0.407802 0.000000 0.252806
0.549779 0.000000 0.245976
0.685787 0.000000 0.240233
0.815811 0.000000 0.235845
0.939858 0.000000 0.232928
1.000000 0.000000 0.231536
0.000000 0.103187 0.306120
0.089683 0.089683 0.286978
0.248464 0.087245 0.248464
0.400481 0.083579 0.242030
0.546565 0.081578 0.236574
0.686673 0.081207 0.232573
0.820813 0.082453 0.230125
0.948992 0.085311 0.229258
1.000000 0.089780 0.229984
0.000000 0.252542 0.252542
0.051617 0.243346 0.243346
0.231500 0.231500 0.231500
0.387676 0.226457 0.226457
0.537898 0.223023 0.223023
0.682164 0.221196 0.221196
0.820476 0.220976 0.220976
0.952834 0.222365 0.222365
1.000000 0.225361 0.225361
0.000000 0.402185 0.222155
0.022523 0.399531 0.211027
0.189050 0.400891 0.189050
0.375728 0.375728 0.197971
0.524509 0.366059 0.207608
0.672816 0.362824 0.207828
0.815257 0.361157 0.209791
0.951773 0.361084 0.213412
1.000000 0.362612 0.218666
0.000000 0.552478 0.197502
0.000000 0.555362 0.178628
0.148187 0.558611 0.148187
0.340728 0.541916 0.139541
0.516678 0.516678 0.170403
0.662940 0.505888 0.191783
0.806259 0.502456 0.198653
0.946617 0.501064 0.204028
1.000000 0.501211 0.211228
0.000000 0.701754 0.175858
0.000000 0.708312 0.150027
0.116806 0.712555 0.116806
0.300052 0.701916 0.099121
0.490686 0.678471 0.115115
0.656962 0.656962 0.151407
0.801533 0.645974 0.179297
0.940333 0.641900 0.194252
1.000000 0.640693 0.204637
0.000000 0.849004 0.158384
0.000000 0.857528 0.128784
0.094907 0.862723 0.094907
0.268422 0.856389 0.072433
0.456899 0.837651 0.076148
0.637149 0.815377 0.102465
0.796578 0.796578 0.140984
0.939065 0.785852 0.173001
1.000000 0.781324 0.194277
0.000000 0.997283 0.140213
0.000000 1.000000 0.116491
0.082490 1.000000 0.082490
0.247014 1.000000 0.057223
0.428256 0.992150 0.052327
0.610603 0.972382 0.067935
0.781647 0.952216 0.099374
0.935527 0.935527 0.139133
1.000000 0.925309 0.174038
0.000000 1.000000 0.112529
0.000000 1.000000 0.089609
0.065126 1.000000 0.065126
0.232507 1.000000 0.048395
0.408352 1.000000 0.041566
0.586975 1.000000 0.048283
0.761505 1.000000 0.070885
0.924813 1.000000 0.105253
1.000000 1.000000 0.145854
0.000000 0.000000 0.503565
0.114000 0.000000 0.459078
0.260704 0.000000 0.419707
0.403665 0.000000 0.403665
0.547170 0.000000 0.395804
0.684991 0.000000 0.387955
0.816895 0.000000 0.380839
0.942826 0.000000 0.374828
1.000000 0.000000 0.370116
0.000000 0.098066 0.492315
0.086192 0.086192 0.469333
0.251747 0.082759 0.420735
0.397519 0.082644 0.397519
0.545302 0.080315 0.390306
0.687279 0.079674 0.383476
0.823287 0.080697 0.377733
0.953311 0.083362 0.373345
1.000000 0.087656 0.370428
0.000000 0.251352 0.445089
0.037754 0.240687 0.443620
0.227183 0.227183 0.424478
0.385964 0.224745 0.385964
0.537980 0.221079 0.379530
0.684065 0.219078 0.374074
0.824173 0.218707 0.370073
0.958313 0.219953 0.367625
1.000000 0.222811 0.366758
0.000000 0.397121 0.397121
0.017556 0.390220 0.390220
0.189294 0.381023 0.381023
0.369000 0.369000 0.369000
0.525176 0.363957 0.363957
0.675398 0.360523 0.360523
0.819664 0.358696 0.358696
0.957976 0.358476 0.358476
1.000000 0.359865 0.359865
0.000000 0.544064 0.369040
0.000000 0.541739 0.360655
0.162085 0.539094 0.350589
0.330498 0.542339 0.330498
0.514533 0.514533 0.336776
0.662009 0.503559 0.345108
0.810315 0.500324 0.345328
0.952757 0.498657 0.347291
1.000000 0.498584 0.350912
0.000000 0.691046 0.348180
0.000000 0.693624 0.335465
0.130581 0.695682 0.318948
0.289634 0.700059 0.289634
0.481709 0.682896 0.280521
0.655483 0.655483 0.309208
0.800617 0.643565 0.329461
0.943759 0.639956 0.336153
1.000000 0.638564 0.341528
0.000000 0.836683 0.331932
0.000000 0.843324 0.313801
0.104600 0.848980 0.290695
0.258253 0.854003 0.258253
0.441500 0.843363 0.240568
0.631006 0.818791 0.255435
0.795767 0.795767 0.290213
0.939414 0.783855 0.317178
1.000000 0.779467 0.331818
0.000000 0.980623 0.320041
0.000000 0.990074 0.297536
0.087459 0.998389 0.269645
0.236355 1.000000 0.236355
0.410000 0.997967 0.214011
0.597880 0.978632 0.217128
0.777096 0.955324 0.242412
0.935383 0.935383 0.279789
1.000000 0.923884 0.311033
0.000000 1.000000 0.297098
0.000000 1.000000 0.280200
0.080227 1.000000 0.257471
0.223938 1.000000 0.223938
0.388632 1.000000 0.198840
0.569546 1.000000 0.193617
0.751204 1.000000 0.208536
0.921364 1.000000 0.239091
1.000000 1.000000 0.277938
0.000000 0.000000 0.664675
0.111062 0.000000 0.626221
0.262359 0.000000 0.585350
0.401427 0.000000 0.554567
0.541902 0.000000 0.541902
0.681110 0.000000 0.533438
0.814729 0.000000 0.524746
0.942501 0.000000 0.516502
1.000000 0.000000 0.509119
0.000000 0.093791 0.663152
0.083528 0.083528 0.641065
0.251500 0.078961 0.596578
0.398204 0.080200 0.557207
0.541165 0.080196 0.541165
0.684670 0.079204 0.533304
0.822491 0.079901 0.525455
0.954395 0.082283 0.518339
1.000000 0.086329 0.512328
0.000000 0.246782 0.630626
0.038442 0.235566 0.629815
0.223692 0.223692 0.606833
0.389247 0.220259 0.558235
0.535019 0.220144 0.535019
0.682802 0.217815 0.527806
0.824779 0.217174 0.520976
0.960787 0.218197 0.515233
1.000000 0.220862 0.510845
0.000000 0.396068 0.581424
0.001377 0.388852 0.582589
0.175254 0.378187 0.581120
0.364683 0.364683 0.561978
0.523464 0.362245 0.523464
0.675480 0.358579 0.517030
0.821565 0.356578 0.511574
0.961673 0.356207 0.507573
1.000000 0.357453 0.505125
0.000000 0.539405 0.539405
0.000000 0.534799 0.534799
0.155233 0.527897 0.527897
0.326972 0.518700 0.518700
0.506500 0.506500 0.506500
0.662676 0.501457 0.501457
0.812898 0.498023 0.498023
0.957164 0.496196 0.496196
1.000000 0.495976 0.495976
0.000000 0.683985 0.513864
0.000000 0.683068 0.507451
0.137291 0.680544 0.499460
0.301648 0.678656 0.490152
0.471945 0.683787 0.471945
0.653338 0.653338 0.475581
0.799509 0.641059 0.482608
0.947815 0.637824 0.482828
1.000000 0.636157 0.484791
0.000000 0.828265 0.495818
0.000000 0.831642 0.486302
0.116867 0.833187 0.475027
0.270901 0.836001 0.459268
0.431082 0.841507 0.431082
0.622689 0.823877 0.421502
0.794289 0.794289 0.448013
0.938294 0.781242 0.467138
1.000000 0.777456 0.473653
0.000000 0.971005 0.483132
0.000000 0.978343 0.469375
0.100810 0.983347 0.453825
0.245268 0.989648 0.431363
0.399701 0.995451 0.399701
0.582948 0.984811 0.382016
0.771326 0.959111 0.395755
0.934572 0.934572 0.429018
1.000000 0.921735 0.455059
0.000000 1.000000 0.465673
0.000000 1.000000 0.455101
0.090245 1.000000 0.437119
0.228319 1.000000 0.410505
0.377802 1.000000 0.377802
0.551579 1.000000 0.355590
0.738860 1.000000 0.358109
0.917044 1.000000 0.382359
1.000000 1.000000 0.418595
0.000000 0.000000 0.815163
0.107405 0.000000 0.783152
0.260736 0.000000 0.745494
0.402279 0.000000 0.710538
0.537222 0.000000 0.685740
0.674731 0.000000 0.674731
0.809630 0.000000 0.665683
0.939017 0.000000 0.656244
1.000000 0.000000 0.647030
0.000000 0.090558 0.821224
0.081691 0.081691 0.802175
0.248562 0.076842 0.763721
0.399859 0.076867 0.722850
0.538927 0.079508 0.692067
0.679402 0.079902 0.679402
0.818610 0.080249 0.670938
0.952229 0.082280 0.662246
1.000000 0.086004 0.654002
0.000000 0.241748 0.801633
0.041504 0.231291 0.800652
0.221028 0.221028 0.778565
0.389000 0.216461 0.734078
0.535704 0.217700 0.694707
0.678665 0.217696 0.678665
0.822170 0.216704 0.670804
0.959991 0.217401 0.662955
1.000000 0.219783 0.655839
0.000000 0.392315 0.761822
0.000438 0.384282 0.768126
0.175942 0.373066 0.767315
0.361192 0.361192 0.744333
0.526747 0.357759 0.695735
0.672519 0.357644 0.672519
0.820302 0.355315 0.665306
0.962279 0.354674 0.658476
1.000000 0.355697 0.652733
0.000000 0.537971 0.715911
0.000000 0.533568 0.718924
0.138877 0.526352 0.720089
0.312754 0.515687 0.718620
0.502183 0.502183 0.699478
0.660964 0.499745 0.660964
0.812980 0.496079 0.654530
0.959065 0.494078 0.649074
1.000000 0.493707 0.645073
0.000000 0.679395 0.679395
0.000000 0.677083 0.677083
0.129672 0.672476 0.672476
0.292911 0.665574 0.665574
0.464649 0.656378 0.656378
0.644000 0.644000 0.644000
0.800176 0.638957 0.638957
0.950398 0.635523 0.635523
1.000000 0.633696 0.633696
0.000000 0.821777 0.656618
0.000000 0.822664 0.652178
0.119054 0.821525 0.645907
0.276096 0.819349 0.638265
0.441210 0.818219 0.629714
0.613393 0.825235 0.613393
0.792143 0.792143 0.614386
0.937009 0.778559 0.620108
1.000000 0.775324 0.620328
0.000000 0.964059 0.641108
0.000000 0.968318 0.634114
0.107394 0.970743 0.625404
0.256430 0.972749 0.614590
0.411221 0.976321 0.599587
0.572530 0.982955 0.572530
0.763670 0.964857 0.562482
0.933094 0.933094 0.586818
1.000000 0.918919 0.604815
0.000000 1.000000 0.625867
0.000000 1.000000 0.619809
0.096517 1.000000 0.607783
0.238607 1.000000 0.592819
0.385801 1.000000 0.571942
0.541149 1.000000 0.541149
0.724396 1.000000 0.523464
0.911645 1.000000 0.536075
1.000000 1.000000 0.567823
0.000000 0.000000 0.957871
0.103795 0.000000 0.929557
0.257122 0.000000 0.896899
0.400835 0.000000 0.862845
0.536208 0.000000 0.833080
0.668038 0.000000 0.812399
0.802151 0.000000 0.802151
0.932736 0.000000 0.792531
1.000000 0.000000 0.782401
0.000000 0.088309 0.967566
0.080680 0.080680 0.952663
0.244905 0.075968 0.920652
0.398236 0.075063 0.882994
0.539779 0.077391 0.848038
0.674722 0.080654 0.823240
0.812231 0.081763 0.812231
0.947130 0.083449 0.803183
1.000000 0.086814 0.793744
0.000000 0.237339 0.958558
0.045392 0.228058 0.958724
0.219191 0.219191 0.939675
0.386062 0.214342 0.901221
0.537359 0.214367 0.860350
0.676427 0.217008 0.829567
0.816902 0.217402 0.816902
0.956110 0.217749 0.808438
1.000000 0.219780 0.799746
0.000000 0.387285 0.930018
0.005992 0.379248 0.939133
0.179004 0.368791 0.938152
0.358528 0.358528 0.916065
0.526500 0.353961 0.871578
0.673204 0.355200 0.832207
0.816165 0.355196 0.816165
0.959670 0.354204 0.808304
1.000000 0.354901 0.800455
0.000000 0.534770 0.889855
0.000000 0.529815 0.899322
0.137938 0.521782 0.905626
0.313442 0.510566 0.904815
0.498692 0.498692 0.881833
0.664247 0.495259 0.833235
0.810019 0.495144 0.810019
0.957802 0.492815 0.802806
1.000000 0.492174 0.795976
0.000000 0.677337 0.848483
0.000000 0.675471 0.853411
0.114998 0.671068 0.856424
0.276377 0.663852 0.857589
0.450254 0.653187 0.856120
0.639683 0.639683 0.836978
0.798464 0.637245 0.798464
0.950481 0.633579 0.792030
1.000000 0.631578 0.786574
0.000000 0.817089 0.817089
0.000000 0.817072 0.817072
0.112609 0.814760 0.814760
0.267349 0.810153 0.810153
0.430588 0.803251 0.803251
0.602326 0.794055 0.794055
0.781500 0.781500 0.781500
0.937676 0.776457 0.776457
1.000000 0.773023 0.773023
0.000000 0.960586 0.798400
0.000000 0.960246 0.794847
0.108498 0.960928 0.790442
0.257511 0.959982 0.784364
0.414901 0.958154 0.777070
0.580773 0.957781 0.769277
0.754841 0.966682 0.754841
0.930949 0.930949 0.753191
1.000000 0.916059 0.757608
0.000000 1.000000 0.783545
0.000000 1.000000 0.779102
0.100658 1.000000 0.772431
0.242734 1.000000 0.763719
0.392882 1.000000 0.753112
0.550381 1.000000 0.739271
0.713978 1.000000 0.713978
0.904650 1.000000 0.703462
1.000000 1.000000 0.725624
0.000000 0.000000 1.000000
0.101206 0.000000 1.000000
0.252550 0.000000 1.000000
0.397145 0.000000 1.000000
0.533955 0.000000 0.977604
0.664839 0.000000 0.951985
0.793758 0.000000 0.934164
0.924163 0.000000 0.924163
1.000000 0.000000 0.919000
0.000000 0.085894 1.000000
0.080275 0.080275 1.000000
0.241295 0.076142 1.000000
0.394622 0.074734 1.000000
0.538335 0.076325 1.000000
0.673708 0.079962 0.970580
0.805539 0.083735 0.949899
0.939651 0.085776 0.939651
1.000000 0.088803 0.930031
0.000000 0.234077 1.000000
0.049957 0.225809 1.000000
0.218180 0.218180 1.000000
0.382405 0.213468 1.000000
0.535736 0.212563 1.000000
0.677279 0.214891 0.985538
0.812222 0.218154 0.960740
0.949731 0.219262 0.949731
1.000000 0.220949 0.940683
0.000000 0.383393 1.000000
0.014229 0.374839 1.000000
0.182892 0.365558 1.000000
0.356691 0.356691 1.000000
0.523562 0.351842 1.000000
0.674859 0.351867 0.997850
0.813927 0.354508 0.967067
0.954402 0.354902 0.954402
1.000000 0.355249 0.945938
0.000000 0.531669 1.000000
0.000000 0.524785 1.000000
0.143492 0.516748 1.000000
0.316504 0.506291 1.000000
0.496028 0.496028 1.000000
0.664000 0.491461 1.000000
0.810704 0.492700 0.969707
0.953665 0.492696 0.953665
1.000000 0.491704 0.945804
0.000000 0.677071 1.000000
0.000000 0.672270 1.000000
0.113054 0.667315 1.000000
0.275438 0.659282 1.000000
0.450942 0.648066 1.000000
0.636192 0.636192 1.000000
0.801747 0.632759 0.970735
0.947519 0.632644 0.947519
1.000000 0.630315 0.940306
0.000000 0.818550 0.986823
0.000000 0.814837 0.985983
0.101209 0.812971 0.990911
0.252498 0.808568 0.993924
0.413877 0.801352 0.995089
0.587754 0.790687 0.993620
0.777183 0.777183 0.974478
0.935964 0.774745 0.935964
1.000000 0.771079 0.929530
0.000000 0.959818 0.959818
0.000000 0.954767 0.954767
0.104046 0.954749 0.954749
0.250287 0.952437 0.952437
0.405026 0.947830 0.947830
0.568265 0.940929 0.940929
0.740003 0.931732 0.931732
0.919000 0.919000 0.919000
1.000000 0.913957 0.913957
0.000000 1.000000 0.941754
0.000000 1.000000 0.936896
0.103448 1.000000 0.933181
0.243986 1.000000 0.928804
0.392943 1.000000 0.922745
0.550509 1.000000 0.915470
0.717705 1.000000 0.907960
0.896289 1.000000 0.896289
1.000000 1.000000 0.891996
0.000000 0.000000 1.000000
0.099530 0.000000 1.000000
0.252067 0.000000 1.000000
0.395577 0.000000 1.000000
0.531107 0.000000 1.000000
0.661193 0.000000 1.000000
0.788850 0.000000 1.000000
0.919584 0.000000 1.000000
1.000000 0.000000 1.000000
0.000000 0.083403 1.000000
0.077988 0.077988 1.000000
0.238706 0.075652 1.000000
0.390050 0.075682 1.000000
0.534645 0.076671 1.000000
0.671455 0.079923 1.000000
0.802339 0.084475 1.000000
0.931258 0.088825 1.000000
1.000000 0.091944 1.000000
0.000000 0.231184 1.000000
0.049148 0.223394 1.000000
0.217775 0.217775 1.000000
0.378794 0.213642 1.000000
0.532122 0.212234 1.000000
0.675835 0.213825 1.000000
0.811208 0.217462 1.000000
0.943039 0.221235 1.000000
1.000000 0.223276 1.000000
0.000000 0.380385 1.000000
0.016308 0.371577 1.000000
0.187457 0.363309 1.000000
0.355680 0.355680 1.000000
0.519905 0.350968 1.000000
0.673236 0.350063 1.000000
0.814779 0.352391 1.000000
0.949722 0.355654 1.000000
1.000000 0.356762 1.000000
0.000000 0.529406 1.000000
0.000000 0.520893 1.000000
0.151729 0.512339 1.000000
0.320392 0.503058 1.000000
0.494191 0.494191 1.000000
0.661062 0.489342 1.000000
0.812359 0.489367 1.000000
0.951427 0.492008 1.000000
1.000000 0.492402 1.000000
0.000000 0.676623 1.000000
0.000000 0.669169 1.000000
0.119552 0.662285 1.000000
0.280992 0.654248 1.000000
0.454004 0.643791 1.000000
0.633528 0.633528 1.000000
0.801500 0.628961 1.000000
0.948204 0.630200 1.000000
1.000000 0.630196 1.000000
0.000000 0.820871 1.000000
0.000000 0.814571 1.000000
0.099600 0.809770 1.000000
0.250555 0.804815 1.000000
0.412938 0.796782 1.000000
0.588442 0.785566 1.000000
0.773692 0.773692 1.000000
0.939247 0.770259 1.000000
1.000000 0.770144 1.000000
0.000000 0.961726 1.000000
0.000000 0.956048 1.000000
0.096605 0.952337 1.000000
0.238709 0.950471 1.000000
0.389998 0.946068 1.000000
0.551377 0.938852 1.000000
0.725254 0.928187 1.000000
0.914683 0.914683 1.000000
1.000000 0.912245 1.000000
0.000000 1.000000 1.000000
0.000000 1.000000 1.000000
0.103982 1.000000 1.000000
0.241723 1.000000 1.000000
0.387964 1.000000 1.000000
0.542704 1.000000 1.000000
0.705942 1.000000 1.000000
0.877681 1.000000 1.000000
1.000000 1.000000 1.000000
