assets/presets/luts/vivid-punch/lut.cube
TITLE "Vivid Punch"
LUT_3D_SIZE 5
0.000000 0.000000 0.000000
0.178975 0.000000 0.000000
0.809894 0.000000 0.000000
1.000000 0.000000 0.000000
1.000000 0.000000 0.000000
0.000000 0.109932 0.000000
0.085299 0.085299 0.000000
0.682203 0.063352 0.000000
1.000000 0.044019 0.000000
1.000000 0.027197 0.000000
0.000000 0.624309 0.000000
0.021672 0.580407 0.000000
0.535742 0.535742 0.000000
1.000000 0.490766 0.000000
1.000000 0.445937 0.000000
0.000000 1.000000 0.000000
0.000000 0.988645 0.000000
0.385847 0.972692 0.000000
0.954273 0.954273 0.000000
1.000000 0.933273 0.000000
0.000000 1.000000 0.000000
0.000000 1.000000 0.000000
0.249041 1.000000 0.000000
0.872948 1.000000 0.000000
1.000000 1.000000 0.000000
0.000000 0.000000 0.200923
0.168131 0.000000 0.168131
0.798183 0.000000 0.137993
1.000000 0.000000 0.110569
1.000000 0.000000 0.085869
0.000000 0.101262 0.101262
0.077547 0.077547 0.077547
0.668050 0.056498 0.056498
1.000000 0.038031 0.038031
1.000000 0.022033 0.022033
0.000000 0.609512 0.031927
0.016797 0.565302 0.016797
0.520480 0.520480 0.003953
1.000000 0.475502 0.000000
1.000000 0.430828 0.000000
0.000000 0.997890 0.000000
0.000000 0.983496 0.000000
0.371189 0.966720 0.000000
0.947435 0.947435 0.000000
1.000000 0.925539 0.000000
0.000000 1.000000 0.000000
0.000000 1.000000 0.000000
0.236492 1.000000 0.000000
0.863033 1.000000 0.000000
1.000000 1.000000 0.000000
0.000000 0.000000 0.852604
0.157594 0.000000 0.820686
0.786186 0.000000 0.786186
1.000000 0.000000 0.749262
1.000000 0.000000 0.710132
0.000000 0.092906 0.735258
0.070103 0.070103 0.695391
0.653715 0.049942 0.653715
1.000000 0.032327 0.610582
1.000000 0.017140 0.566392
0.000000 0.594594 0.594594
0.012186 0.550126 0.550126
0.505200 0.505200 0.505200
0.998214 0.460274 0.460274
1.000000 0.415806 0.415806
0.000000 0.993260 0.444008
0.000000 0.978073 0.399818
0.356685 0.960458 0.356685
0.940297 0.940297 0.315009
1.000000 0.917494 0.275142
0.000000 1.000000 0.300268
0.000000 1.000000 0.261138
0.224214 1.000000 0.224214
0.852806 1.000000 0.189714
1.000000 1.000000 0.157796
0.000000 0.000000 1.000000
0.147367 0.000000 1.000000
0.773908 0.000000 1.000000
1.000000 0.000000 1.000000
1.000000 0.000000 1.000000
0.000000 0.084861 1.000000
0.062965 0.062965 1.000000
0.639211 0.043680 1.000000
1.000000 0.026904 1.000000
1.000000 0.012510 1.000000
0.000000 0.579572 1.000000
0.007833 0.534898 1.000000
0.489920 0.489920 1.000000
0.993603 0.445098 0.993603
1.000000 0.400888 0.978473
0.000000 0.988367 0.988367
0.000000 0.972369 0.972369
0.342350 0.953902 0.953902
0.932853 0.932853 0.932853
1.000000 0.909138 0.909138
0.000000 1.000000 0.924531
0.000000 1.000000 0.899831
0.212217 1.000000 0.872407
0.842269 1.000000 0.842269
1.000000 1.000000 0.809477
0.000000 0.000000 1.000000
0.137452 0.000000 1.000000
0.761358 0.000000 1.000000
1.000000 0.000000 1.000000
1.000000 0.000000 1.000000
0.000000 0.077127 1.000000
0.056127 0.056127 1.000000
0.624553 0.037708 1.000000
1.000000 0.021755 1.000000
1.000000 0.008138 1.000000
0.000000 0.564463 1.000000
0.003733 0.519634 1.000000
0.474658 0.474658 1.000000
0.988728 0.429993 1.000000
1.000000 0.386091 1.000000
0.000000 0.983203 1.000000
0.000000 0.966381 1.000000
0.328197 0.947048 1.000000
0.925101 0.925101 1.000000
1.000000 0.900468 1.000000
0.000000 1.000000 1.000000
0.000000 1.000000 1.000000
0.200506 1.000000 1.000000
0.831425 1.000000 1.000000
1.000000 1.000000 1.000000
