assets/presets/luts/vivid-punch/lut.cube
TITLE "Vivid Punch"
LUT_3D_SIZE 17
0.000000 0.000000 0.000000
0.000000 0.000000 0.000000
0.008027 0.000000 0.000000
0.073957 0.000000 0.000000
0.178975 0.000000 0.000000
0.322151 0.000000 0.000000
0.490618 0.000000 0.000000
0.661232 0.000000 0.000000
0.809894 0.000000 0.000000
0.921661 0.000000 0.000000
0.993819 0.000000 0.000000
1.000000 0.000000 0.000000
1.000000 0.000000 0.000000
1.000000 0.000000 0.000000
1.000000 0.000000 0.000000
1.000000 0.000000 0.000000
1.000000 0.000000 0.000000
0.000000 0.000000 0.000000
0.000000 0.000000 0.000000
0.000000 0.000000 0.000000
0.056438 0.000000 0.000000
0.152683 0.000000 0.000000
0.288207 0.000000 0.000000
0.452888 0.000000 0.000000
0.625237 0.000000 0.000000
0.780371 0.000000 0.000000
0.900792 0.000000 0.000000
0.981284 0.000000 0.000000
1.000000 0.000000 0.000000
1.000000 0.000000 0.000000
1.000000 0.000000 0.000000
1.000000 0.000000 0.000000
1.000000 0.000000 0.000000
1.000000 0.000000 0.000000
0.000000 0.000000 0.000000
0.000000 0.000000 0.000000
0.000000 0.000000 0.000000
0.040745 0.000000 0.000000
0.128295 0.000000 0.000000
0.255691 0.000000 0.000000
0.415536 0.000000 0.000000
0.588395 0.000000 0.000000
0.749154 0.000000 0.000000
0.877995 0.000000 0.000000
0.967050 0.000000 0.000000
1.000000 0.000000 0.000000
1.000000 0.000000 0.000000
1.000000 0.000000 0.000000
1.000000 0.000000 0.000000
1.000000 0.000000 0.000000
1.000000 0.000000 0.000000
0.000000 0.039153 0.000000
0.000000 0.034887 0.000000
0.000000 0.030774 0.000000
0.026812 0.026812 0.000000
0.105834 0.022999 0.000000
0.224761 0.019333 0.000000
0.378825 0.015811 0.000000
0.550958 0.012432 0.000000
0.716377 0.009192 0.000000
0.853273 0.006091 0.000000
0.951043 0.003124 0.000000
1.000000 0.000291 0.000000
1.000000 0.000000 0.000000
1.000000 0.000000 0.000000
1.000000 0.000000 0.000000
1.000000 0.000000 0.000000
1.000000 0.000000 0.000000
0.000000 0.109932 0.000000
0.000000 0.103519 0.000000
0.000000 0.097276 0.000000
0.014565 0.091203 0.000000
0.085299 0.085299 0.000000
0.195544 0.079562 0.000000
0.343001 0.073993 0.000000
0.513191 0.068590 0.000000
0.682203 0.063352 0.000000
0.826653 0.058278 0.000000
0.933200 0.053365 0.000000
1.000000 0.048613 0.000000
1.000000 0.044019 0.000000
1.000000 0.039583 0.000000
1.000000 0.035302 0.000000
1.000000 0.031174 0.000000
1.000000 0.027197 0.000000
0.000000 0.209531 0.000000
0.000000 0.200931 0.000000
0.000000 0.192490 0.000000
0.003917 0.184209 0.000000
0.066664 0.176092 0.000000
0.168139 0.168139 0.000000
0.308293 0.160352 0.000000
0.475365 0.152732 0.000000
0.646824 0.145281 0.000000
0.798191 0.138000 0.000000
0.913471 0.130888 0.000000
0.988960 0.123946 0.000000
1.000000 0.117175 0.000000
1.000000 0.110575 0.000000
1.000000 0.104145 0.000000
1.000000 0.097885 0.000000
1.000000 0.091795 0.000000
0.000000 0.335387 0.000000
0.000000 0.325019 0.000000
0.000000 0.314759 0.000000
0.000000 0.304613 0.000000
0.049889 0.294585 0.000000
0.142611 0.284681 0.000000
0.274905 0.274905 0.000000
0.437756 0.265261 0.000000
0.610458 0.255753 0.000000
0.767971 0.246386 0.000000
0.891825 0.237163 0.000000
0.975749 0.228087 0.000000
1.000000 0.219161 0.000000
1.000000 0.210389 0.000000
1.000000 0.201774 0.000000
1.000000 0.193316 0.000000
1.000000 0.185020 0.000000
0.000000 0.478418 0.000000
0.000000 0.467197 0.000000
0.000000 0.456001 0.000000
0.000000 0.444836 0.000000
0.034915 0.433710 0.000000
0.118999 0.422629 0.000000
0.243011 0.411600 0.000000
0.400631 0.400631 0.000000
0.573345 0.389727 0.000000
0.736107 0.378896 0.000000
0.868249 0.368143 0.000000
0.960808 0.357475 0.000000
1.000000 0.346897 0.000000
1.000000 0.336416 0.000000
1.000000 0.326038 0.000000
1.000000 0.315767 0.000000
1.000000 0.305610 0.000000
0.000000 0.624309 0.000000
0.000000 0.613428 0.000000
0.000000 0.602480 0.000000
0.000000 0.591471 0.000000
0.021672 0.580407 0.000000
0.097317 0.569295 0.000000
0.212759 0.558142 0.000000
0.364249 0.546956 0.000000
0.535742 0.535742 0.000000
0.702745 0.524510 0.000000
0.842757 0.513265 0.000000
0.944067 0.502014 0.000000
1.000000 0.490766 0.000000
1.000000 0.479527 0.000000
1.000000 0.468304 0.000000
1.000000 0.457105 0.000000
1.000000 0.445937 0.000000
0.000000 0.757800 0.000000
0.000000 0.748339 0.000000
0.000000 0.738740 0.000000
0.000000 0.729008 0.000000
0.010081 0.719146 0.000000
0.077552 0.709159 0.000000
0.184263 0.699052 0.000000
0.328849 0.688830 0.000000
0.497919 0.678497 0.000000
0.668060 0.668060 0.000000
0.815386 0.657524 0.000000
0.925468 0.646895 0.000000
0.996049 0.636178 0.000000
1.000000 0.625379 0.000000
1.000000 0.614506 0.000000
1.000000 0.603564 0.000000
1.000000 0.592561 0.000000
0.000000 0.867576 0.000000
0.000000 0.860182 0.000000
0.000000 0.852619 0.000000
0.000000 0.844888 0.000000
0.000054 0.836990 0.000000
0.059674 0.828928 0.000000
0.157609 0.820702 0.000000
0.294651 0.812314 0.000000
0.460147 0.803766 0.000000
0.632255 0.795062 0.000000
0.786203 0.786203 0.000000
0.904968 0.777192 0.000000
0.983832 0.768032 0.000000
1.000000 0.758727 0.000000
1.000000 0.749279 0.000000
1.000000 0.739694 0.000000
1.000000 0.729975 0.000000
0.000000 0.948765 0.000000
0.000000 0.943582 0.000000
0.000000 0.938235 0.000000
0.000000 0.932721 0.000000
0.000000 0.927041 0.000000
0.043634 0.921193 0.000000
0.132851 0.915177 0.000000
0.261846 0.908990 0.000000
0.422702 0.902634 0.000000
0.595558 0.896108 0.000000
0.755304 0.889411 0.000000
0.882544 0.882544 0.000000
0.969932 0.875506 0.000000
1.000000 0.868297 0.000000
1.000000 0.860920 0.000000
1.000000 0.853373 0.000000
1.000000 0.845659 0.000000
0.000000 1.000000 0.000000
0.000000 0.999068 0.000000
0.000000 0.995736 0.000000
0.000000 0.992262 0.000000
0.000000 0.988645 0.000000
0.029367 0.984881 0.000000
0.110018 0.980969 0.000000
0.230599 0.976907 0.000000
0.385847 0.972692 0.000000
0.558216 0.968324 0.000000
0.722816 0.963799 0.000000
0.858192 0.959116 0.000000
0.954273 0.954273 0.000000
1.000000 0.949269 0.000000
1.000000 0.944102 0.000000
1.000000 0.938770 0.000000
1.000000 0.933273 0.000000
0.000000 1.000000 0.000000
0.000000 1.000000 0.000000
0.000000 1.000000 0.000000
0.000000 1.000000 0.000000
0.000000 1.000000 0.000000
0.016801 1.000000 0.000000
0.089112 1.000000 0.000000
0.201043 1.000000 0.000000
0.349833 1.000000 0.000000
0.520491 1.000000 0.000000
0.688897 1.000000 0.000000
0.831935 1.000000 0.000000
0.936788 1.000000 0.000000
1.000000 1.000000 0.000000
1.000000 0.999390 0.000000
1.000000 0.996072 0.000000
1.000000 0.992612 0.000000
0.000000 1.000000 0.000000
0.000000 1.000000 0.000000
0.000000 1.000000 0.000000
0.000000 1.000000 0.000000
0.000000 1.000000 0.000000
0.005851 1.000000 0.000000
0.070114 1.000000 0.000000
0.173282 1.000000 0.000000
0.314893 1.000000 0.000000
0.482655 1.000000 0.000000
0.653735 1.000000 0.000000
0.803823 1.000000 0.000000
0.917426 1.000000 0.000000
0.991317 1.000000 0.000000
1.000000 1.000000 0.000000
1.000000 1.000000 0.000000
1.000000 1.000000 0.000000
0.000000 1.000000 0.000000
0.000000 1.000000 0.000000
0.000000 1.000000 0.000000
0.000000 1.000000 0.000000
0.000000 1.000000 0.000000
0.000000 1.000000 0.000000
0.052984 1.000000 0.000000
0.147388 1.000000 0.000000
0.281236 1.000000 0.000000
0.444983 1.000000 0.000000
0.617541 1.000000 0.000000
0.773934 1.000000 0.000000
0.896152 1.000000 0.000000
0.978430 1.000000 0.000000
1.000000 1.000000 0.000000
1.000000 1.000000 0.000000
1.000000 1.000000 0.000000
0.000000 1.000000 0.000000
0.000000 1.000000 0.000000
0.000000 1.000000 0.000000
0.000000 1.000000 0.000000
0.000000 1.000000 0.000000
0.000000 1.000000 0.000000
0.037667 1.000000 0.000000
0.123405 1.000000 0.000000
0.249041 1.000000 0.000000
0.407744 1.000000 0.000000
0.580553 1.000000 0.000000
0.742377 1.000000 0.000000
0.872948 1.000000 0.000000
0.963829 1.000000 0.000000
1.000000 1.000000 0.000000
1.000000 1.000000 0.000000
1.000000 1.000000 0.000000
0.000000 0.000000 0.000000
0.000000 0.000000 0.000000
0.006975 0.000000 0.000000
0.072104 0.000000 0.000000
0.176235 0.000000 0.000000
0.318664 0.000000 0.000000
0.486800 0.000000 0.000000
0.657644 0.000000 0.000000
0.806993 0.000000 0.000000
0.919642 0.000000 0.000000
0.992628 0.000000 0.000000
1.000000 0.000000 0.000000
1.000000 0.000000 0.000000
1.000000 0.000000 0.000000
1.000000 0.000000 0.000000
1.000000 0.000000 0.000000
1.000000 0.000000 0.000000
0.000000 0.000000 0.000000
0.000000 0.000000 0.000000
0.000000 0.000000 0.000000
0.054772 0.000000 0.000000
0.150134 0.000000 0.000000
0.284857 0.000000 0.000000
0.449096 0.000000 0.000000
0.621552 0.000000 0.000000
0.777294 0.000000 0.000000
0.898578 0.000000 0.000000
0.979925 0.000000 0.000000
1.000000 0.000000 0.000000
1.000000 0.000000 0.000000
1.000000 0.000000 0.000000
1.000000 0.000000 0.000000
1.000000 0.000000 0.000000
1.000000 0.000000 0.000000
0.000000 0.000000 0.000000
0.000000 0.000000 0.000000
0.000000 0.000000 0.000000
0.039260 0.000000 0.000000
0.125940 0.000000 0.000000
0.252494 0.000000 0.000000
0.411797 0.000000 0.000000
0.584638 0.000000 0.000000
0.745914 0.000000 0.000000
0.875586 0.000000 0.000000
0.965516 0.000000 0.000000
1.000000 0.000000 0.000000
1.000000 0.000000 0.000000
1.000000 0.000000 0.000000
1.000000 0.000000 0.000000
1.000000 0.000000 0.000000
1.000000 0.000000 0.000000
0.000000 0.037687 0.000000
0.000000 0.033474 0.000000
0.000000 0.029412 0.000000
0.025501 0.025501 0.000000
0.103674 0.021738 0.000000
0.221732 0.018121 0.000000
0.375164 0.014648 0.000000
0.547156 0.011316 0.000000
0.712988 0.008124 0.000000
0.850671 0.005068 0.000000
0.949326 0.002147 0.000000
1.000000 0.000000 0.000000
1.000000 0.000000 0.000000
1.000000 0.000000 0.000000
1.000000 0.000000 0.000000
1.000000 0.000000 0.000000
1.000000 0.000000 0.000000
0.000000 0.107735 0.000000
0.000000 0.101380 0.000000
0.000000 0.095195 0.000000
0.013419 0.089179 0.000000
0.083332 0.083332 0.000000
0.192694 0.077652 0.000000
0.339443 0.072140 0.000000
0.509370 0.066793 0.000000
0.678683 0.061611 0.000000
0.823863 0.056591 0.000000
0.931294 0.051733 0.000000
0.999427 0.047035 0.000000
1.000000 0.042495 0.000000
1.000000 0.038112 0.000000
1.000000 0.033883 0.000000
1.000000 0.029807 0.000000
1.000000 0.025881 0.000000
0.000000 0.206593 0.000000
0.000000 0.198046 0.000000
0.000000 0.189659 0.000000
0.002928 0.181434 0.000000
0.064887 0.173372 0.000000
0.165475 0.165475 0.000000
0.304860 0.157745 0.000000
0.471554 0.150183 0.000000
0.643194 0.142789 0.000000
0.795219 0.135565 0.000000
0.911373 0.128511 0.000000
0.987703 0.121628 0.000000
1.000000 0.114915 0.000000
1.000000 0.108372 0.000000
1.000000 0.102000 0.000000
1.000000 0.095798 0.000000
1.000000 0.089766 0.000000
0.000000 0.331854 0.000000
0.000000 0.321522 0.000000
0.000000 0.311300 0.000000
0.000000 0.301194 0.000000
0.048297 0.291208 0.000000
0.140140 0.281346 0.000000
0.271614 0.271614 0.000000
0.433981 0.262016 0.000000
0.606741 0.252556 0.000000
0.764827 0.243237 0.000000
0.889532 0.234064 0.000000
0.974320 0.225039 0.000000
1.000000 0.216165 0.000000
1.000000 0.207446 0.000000
1.000000 0.198884 0.000000
1.000000 0.190481 0.000000
1.000000 0.182239 0.000000
0.000000 0.474605 0.000000
0.000000 0.463392 0.000000
0.000000 0.452205 0.000000
0.000000 0.441053 0.000000
0.033501 0.429941 0.000000
0.116723 0.418877 0.000000
0.239881 0.407868 0.000000
0.396920 0.396920 0.000000
0.569567 0.386040 0.000000
0.732804 0.375235 0.000000
0.865763 0.364510 0.000000
0.959201 0.353872 0.000000
1.000000 0.343327 0.000000
1.000000 0.332880 0.000000
1.000000 0.322538 0.000000
1.000000 0.312305 0.000000
1.000000 0.302187 0.000000
0.000000 0.620622 0.000000
0.000000 0.609718 0.000000
0.000000 0.598748 0.000000
0.000000 0.587719 0.000000
0.020428 0.576638 0.000000
0.095235 0.565511 0.000000
0.209801 0.554347 0.000000
0.360627 0.543150 0.000000
0.531930 0.531930 0.000000
0.699301 0.520692 0.000000
0.840078 0.509444 0.000000
0.942275 0.498194 0.000000
1.000000 0.486948 0.000000
1.000000 0.475714 0.000000
1.000000 0.464498 0.000000
1.000000 0.453309 0.000000
1.000000 0.442153 0.000000
0.000000 0.754602 0.000000
0.000000 0.745094 0.000000
0.000000 0.735450 0.000000
0.000000 0.725673 0.000000
0.008999 0.715768 0.000000
0.075663 0.705740 0.000000
0.181488 0.695593 0.000000
0.325339 0.685333 0.000000
0.494099 0.674964 0.000000
0.664493 0.664493 0.000000
0.812521 0.653924 0.000000
0.923485 0.643265 0.000000
0.994890 0.632519 0.000000
1.000000 0.621695 0.000000
1.000000 0.610798 0.000000
1.000000 0.599834 0.000000
1.000000 0.588811 0.000000
0.000000 0.865084 0.000000
0.000000 0.857632 0.000000
0.000000 0.850012 0.000000
0.000000 0.842224 0.000000
0.000000 0.834271 0.000000
0.057973 0.826152 0.000000
0.155023 0.817871 0.000000
0.291273 0.809429 0.000000
0.456348 0.800828 0.000000
0.628587 0.792070 0.000000
0.783159 0.783159 0.000000
0.902792 0.774097 0.000000
0.982507 0.764888 0.000000
1.000000 0.755534 0.000000
1.000000 0.746040 0.000000
1.000000 0.736408 0.000000
1.000000 0.726644 0.000000
0.000000 0.947024 0.000000
0.000000 0.941785 0.000000
0.000000 0.936381 0.000000
0.000000 0.930811 0.000000
0.000000 0.925074 0.000000
0.042114 0.919169 0.000000
0.130458 0.913095 0.000000
0.258619 0.906851 0.000000
0.418950 0.900437 0.000000
0.591813 0.893853 0.000000
0.752094 0.887098 0.000000
0.880173 0.880173 0.000000
0.968432 0.873077 0.000000
1.000000 0.865811 0.000000
1.000000 0.858376 0.000000
1.000000 0.850772 0.000000
1.000000 0.843001 0.000000
0.000000 1.000000 0.000000
0.000000 0.997953 0.000000
0.000000 0.994572 0.000000
0.000000 0.991050 0.000000
0.000000 0.987383 0.000000
0.028023 0.983569 0.000000
0.107820 0.979607 0.000000
0.227537 0.975493 0.000000
0.382169 0.971226 0.000000
0.554420 0.966805 0.000000
0.719454 0.962226 0.000000
0.855627 0.957489 0.000000
0.952591 0.952591 0.000000
1.000000 0.947532 0.000000
1.000000 0.942309 0.000000
1.000000 0.936922 0.000000
1.000000 0.931369 0.000000
0.000000 1.000000 0.000000
0.000000 1.000000 0.000000
0.000000 1.000000 0.000000
0.000000 1.000000 0.000000
0.000000 1.000000 0.000000
0.015623 1.000000 0.000000
0.087108 1.000000 0.000000
0.198158 1.000000 0.000000
0.346254 1.000000 0.000000
0.516672 1.000000 0.000000
0.685401 1.000000 0.000000
0.829180 1.000000 0.000000
0.934920 1.000000 0.000000
1.000000 1.000000 0.000000
1.000000 0.998279 0.000000
1.000000 0.994913 0.000000
1.000000 0.991404 0.000000
0.000000 1.000000 0.000000
0.000000 1.000000 0.000000
0.000000 1.000000 0.000000
0.000000 1.000000 0.000000
0.000000 1.000000 0.000000
0.004832 1.000000 0.000000
0.068300 1.000000 0.000000
0.170582 1.000000 0.000000
0.311434 1.000000 0.000000
0.478840 1.000000 0.000000
0.650124 1.000000 0.000000
0.800885 1.000000 0.000000
0.915366 1.000000 0.000000
0.990091 1.000000 0.000000
1.000000 1.000000 0.000000
1.000000 1.000000 0.000000
1.000000 1.000000 0.000000
0.000000 1.000000 0.000000
0.000000 1.000000 0.000000
0.000000 1.000000 0.000000
0.000000 1.000000 0.000000
0.000000 1.000000 0.000000
0.000000 1.000000 0.000000
0.051356 1.000000 0.000000
0.144880 1.000000 0.000000
0.277916 1.000000 0.000000
0.441200 1.000000 0.000000
0.613839 1.000000 0.000000
0.770822 1.000000 0.000000
0.893897 1.000000 0.000000
0.977035 1.000000 0.000000
1.000000 1.000000 0.000000
1.000000 1.000000 0.000000
1.000000 1.000000 0.000000
0.000000 1.000000 0.000000
0.000000 1.000000 0.000000
0.000000 1.000000 0.000000
0.000000 1.000000 0.000000
0.000000 1.000000 0.000000
0.000000 1.000000 0.000000
0.036219 1.000000 0.000000
0.121091 1.000000 0.000000
0.245879 1.000000 0.000000
0.404019 1.000000 0.000000
0.576784 1.000000 0.000000
0.739104 1.000000 0.000000
0.870499 1.000000 0.000000
0.962257 1.000000 0.000000
1.000000 1.000000 0.000000
1.000000 1.000000 0.000000
1.000000 1.000000 0.000000
0.000000 0.000000 0.012267
0.000000 0.000000 0.009035
0.005940 0.000000 0.005940
0.070270 0.000000 0.002980
0.173515 0.000000 0.000153
0.315191 0.000000 0.000000
0.482983 0.000000 0.000000
0.654044 0.000000 0.000000
0.804075 0.000000 0.000000
0.917602 0.000000 0.000000
0.991421 0.000000 0.000000
1.000000 0.000000 0.000000
1.000000 0.000000 0.000000
1.000000 0.000000 0.000000
1.000000 0.000000 0.000000
1.000000 0.000000 0.000000
1.000000 0.000000 0.000000
0.000000 0.000000 0.001935
0.000000 0.000000 0.000000
0.000000 0.000000 0.000000
0.053124 0.000000 0.000000
0.147604 0.000000 0.000000
0.281521 0.000000 0.000000
0.445308 0.000000 0.000000
0.617859 0.000000 0.000000
0.774201 0.000000 0.000000
0.896344 0.000000 0.000000
0.978549 0.000000 0.000000
1.000000 0.000000 0.000000
1.000000 0.000000 0.000000
1.000000 0.000000 0.000000
1.000000 0.000000 0.000000
1.000000 0.000000 0.000000
1.000000 0.000000 0.000000
0.000000 0.000000 0.000000
0.000000 0.000000 0.000000
0.000000 0.000000 0.000000
0.037792 0.000000 0.000000
0.123605 0.000000 0.000000
0.249314 0.000000 0.000000
0.408064 0.000000 0.000000
0.580876 0.000000 0.000000
0.742657 0.000000 0.000000
0.873158 0.000000 0.000000
0.963963 0.000000 0.000000
1.000000 0.000000 0.000000
1.000000 0.000000 0.000000
1.000000 0.000000 0.000000
1.000000 0.000000 0.000000
1.000000 0.000000 0.000000
1.000000 0.000000 0.000000
0.000000 0.036239 0.000000
0.000000 0.032077 0.000000
0.000000 0.028067 0.000000
0.024207 0.024207 0.000000
0.101533 0.020493 0.000000
0.218720 0.016925 0.000000
0.371513 0.013501 0.000000
0.543351 0.010217 0.000000
0.709584 0.007071 0.000000
0.848050 0.004061 0.000000
0.947590 0.001185 0.000000
1.000000 0.000000 0.000000
1.000000 0.000000 0.000000
1.000000 0.000000 0.000000
1.000000 0.000000 0.000000
1.000000 0.000000 0.000000
1.000000 0.000000 0.000000
0.000000 0.105558 0.000000
0.000000 0.099260 0.000000
0.000000 0.093133 0.000000
0.012289 0.087174 0.000000
0.081384 0.081384 0.000000
0.189863 0.075762 0.000000
0.335897 0.070305 0.000000
0.505549 0.065015 0.000000
0.675151 0.059888 0.000000
0.821053 0.054923 0.000000
0.929370 0.050120 0.000000
0.998316 0.045476 0.000000
1.000000 0.040989 0.000000
1.000000 0.036659 0.000000
1.000000 0.032482 0.000000
1.000000 0.028457 0.000000
1.000000 0.024581 0.000000
0.000000 0.203673 0.000000
0.000000 0.195180 0.000000
0.000000 0.186848 0.000000
0.001954 0.178678 0.000000
0.063129 0.170672 0.000000
0.162831 0.162831 0.000000
0.301440 0.155158 0.000000
0.467745 0.147653 0.000000
0.639554 0.140317 0.000000
0.792228 0.133151 0.000000
0.909256 0.126154 0.000000
0.986428 0.119329 0.000000
1.000000 0.112674 0.000000
1.000000 0.106189 0.000000
1.000000 0.099875 0.000000
1.000000 0.093731 0.000000
1.000000 0.087755 0.000000
0.000000 0.328333 0.000000
0.000000 0.318038 0.000000
0.000000 0.307855 0.000000
0.000000 0.297789 0.000000
0.046723 0.287844 0.000000
0.137688 0.278027 0.000000
0.268340 0.268340 0.000000
0.430212 0.258788 0.000000
0.603017 0.249375 0.000000
0.761666 0.240106 0.000000
0.887220 0.230982 0.000000
0.972874 0.222008 0.000000
1.000000 0.213186 0.000000
1.000000 0.204520 0.000000
1.000000 0.196012 0.000000
1.000000 0.187664 0.000000
1.000000 0.179477 0.000000
0.000000 0.470794 0.000000
0.000000 0.459589 0.000000
0.000000 0.448414 0.000000
0.000000 0.437274 0.000000
0.032104 0.426178 0.000000
0.114466 0.415132 0.000000
0.236767 0.404143 0.000000
0.393218 0.393218 0.000000
0.565784 0.382362 0.000000
0.729487 0.371583 0.000000
0.863256 0.360887 0.000000
0.957575 0.350280 0.000000
1.000000 0.339768 0.000000
1.000000 0.329356 0.000000
1.000000 0.319050 0.000000
1.000000 0.308856 0.000000
1.000000 0.298778 0.000000
0.000000 0.616926 0.000000
0.000000 0.605999 0.000000
0.000000 0.595009 0.000000
0.000000 0.583961 0.000000
0.019201 0.572864 0.000000
0.093173 0.561724 0.000000
0.206861 0.550547 0.000000
0.357015 0.539342 0.000000
0.528115 0.528115 0.000000
0.695843 0.516873 0.000000
0.837381 0.505623 0.000000
0.940463 0.494374 0.000000
1.000000 0.483131 0.000000
1.000000 0.471902 0.000000
1.000000 0.460695 0.000000
1.000000 0.449516 0.000000
1.000000 0.438373 0.000000
0.000000 0.751389 0.000000
0.000000 0.741834 0.000000
0.000000 0.732144 0.000000
0.000000 0.722323 0.000000
0.007933 0.712376 0.000000
0.073792 0.702307 0.000000
0.178731 0.692121 0.000000
0.321841 0.681823 0.000000
0.490279 0.671419 0.000000
0.660914 0.660914 0.000000
0.809637 0.650314 0.000000
0.921483 0.639625 0.000000
0.993714 0.628852 0.000000
1.000000 0.618002 0.000000
1.000000 0.607081 0.000000
1.000000 0.596097 0.000000
1.000000 0.585055 0.000000
0.000000 0.862572 0.000000
0.000000 0.855063 0.000000
0.000000 0.847386 0.000000
0.000000 0.839542 0.000000
0.000000 0.831532 0.000000
0.056289 0.823358 0.000000
0.152456 0.815022 0.000000
0.287909 0.806526 0.000000
0.452552 0.797871 0.000000
0.624910 0.789061 0.000000
0.780099 0.780099 0.000000
0.900596 0.770986 0.000000
0.981164 0.761727 0.000000
1.000000 0.752325 0.000000
1.000000 0.742784 0.000000
1.000000 0.733107 0.000000
1.000000 0.723299 0.000000
0.000000 0.945263 0.000000
0.000000 0.939968 0.000000
0.000000 0.934508 0.000000
0.000000 0.928882 0.000000
0.000000 0.923087 0.000000
0.040612 0.917125 0.000000
0.128085 0.910993 0.000000
0.255407 0.904692 0.000000
0.415205 0.898220 0.000000
0.588062 0.891578 0.000000
0.748868 0.884765 0.000000
0.877782 0.877782 0.000000
0.966915 0.870628 0.000000
1.000000 0.863305 0.000000
1.000000 0.855812 0.000000
1.000000 0.848152 0.000000
1.000000 0.840324 0.000000
0.000000 1.000000 0.000000
0.000000 0.996820 0.000000
0.000000 0.993392 0.000000
0.000000 0.989821 0.000000
0.000000 0.986104 0.000000
0.026696 0.982240 0.000000
0.105642 0.978227 0.000000
0.224492 0.974061 0.000000
0.378500 0.969742 0.000000
0.550621 0.965267 0.000000
0.716077 0.960635 0.000000
0.853043 0.955844 0.000000
0.950892 0.950892 0.000000
1.000000 0.945777 0.000000
1.000000 0.940498 0.000000
1.000000 0.935055 0.000000
1.000000 0.929445 0.000000
0.000000 1.000000 0.000000
0.000000 1.000000 0.000000
0.000000 1.000000 0.000000
0.000000 1.000000 0.000000
0.000000 1.000000 0.000000
0.014462 1.000000 0.000000
0.085123 1.000000 0.000000
0.195291 1.000000 0.000000
0.342685 1.000000 0.000000
0.512852 1.000000 0.000000
0.681892 1.000000 0.000000
0.826407 1.000000 0.000000
0.933032 1.000000 0.000000
1.000000 1.000000 0.000000
1.000000 0.997151 0.000000
1.000000 0.993737 0.000000
1.000000 0.990180 0.000000
0.000000 1.000000 0.000000
0.000000 1.000000 0.000000
0.000000 1.000000 0.000000
0.000000 1.000000 0.000000
0.000000 1.000000 0.000000
0.003829 1.000000 0.000000
0.066506 1.000000 0.000000
0.167902 1.000000 0.000000
0.307988 1.000000 0.000000
0.475027 1.000000 0.000000
0.646503 1.000000 0.000000
0.797929 1.000000 0.000000
0.913286 1.000000 0.000000
0.988849 1.000000 0.000000
1.000000 1.000000 0.000000
1.000000 1.000000 0.000000
1.000000 1.000000 0.000000
0.000000 1.000000 0.000000
0.000000 1.000000 0.000000
0.000000 1.000000 0.000000
0.000000 1.000000 0.000000
0.000000 1.000000 0.000000
0.000000 1.000000 0.000000
0.049747 1.000000 0.000000
0.142391 1.000000 0.000000
0.274612 1.000000 0.000000
0.437421 1.000000 0.000000
0.610129 1.000000 0.000000
0.767693 1.000000 0.000000
0.891622 1.000000 0.000000
0.975623 1.000000 0.000000
1.000000 1.000000 0.000000
1.000000 1.000000 0.000000
1.000000 1.000000 0.000000
0.000000 1.000000 0.000000
0.000000 1.000000 0.000000
0.000000 1.000000 0.000000
0.000000 1.000000 0.000000
0.000000 1.000000 0.000000
0.000000 1.000000 0.000000
0.034789 1.000000 0.000000
0.118797 1.000000 0.000000
0.242733 1.000000 0.000000
0.400302 1.000000 0.000000
0.573011 1.000000 0.000000
0.735815 1.000000 0.000000
0.868030 1.000000 0.000000
0.960666 1.000000 0.000000
1.000000 1.000000 0.000000
1.000000 1.000000 0.000000
1.000000 1.000000 0.000000
0.000000 0.000000 0.085151
0.000000 0.000000 0.079419
0.004919 0.000000 0.073854
0.068455 0.000000 0.068455
0.170813 0.000000 0.063221
0.311731 0.000000 0.058151
0.479168 0.000000 0.053242
0.650434 0.000000 0.048494
0.801138 0.000000 0.043905
0.915544 0.000000 0.039472
0.990197 0.000000 0.035195
1.000000 0.000000 0.031071
1.000000 0.000000 0.027098
1.000000 0.000000 0.023274
1.000000 0.000000 0.019597
1.000000 0.000000 0.016065
1.000000 0.000000 0.012675
0.000000 0.000000 0.066531
0.000000 0.000000 0.061356
0.000000 0.000000 0.056345
