assets/presets/luts/vivid-punch/lut.cube
TITLE "Vivid Punch"
LUT_3D_SIZE 9
0.000000 0.000000 0.000000
0.008027 0.000000 0.000000
0.178975 0.000000 0.000000
0.490618 0.000000 0.000000
0.809894 0.000000 0.000000
0.993819 0.000000 0.000000
1.000000 0.000000 0.000000
1.000000 0.000000 0.000000
1.000000 0.000000 0.000000
0.000000 0.000000 0.000000
0.000000 0.000000 0.000000
0.128295 0.000000 0.000000
0.415536 0.000000 0.000000
0.749154 0.000000 0.000000
0.967050 0.000000 0.000000
1.000000 0.000000 0.000000
1.000000 0.000000 0.000000
1.000000 0.000000 0.000000
0.000000 0.109932 0.000000
0.000000 0.097276 0.000000
0.085299 0.085299 0.000000
0.343001 0.073993 0.000000
0.682203 0.063352 0.000000
0.933200 0.053365 0.000000
1.000000 0.044019 0.000000
1.000000 0.035302 0.000000
1.000000 0.027197 0.000000
0.000000 0.335387 0.000000
0.000000 0.314759 0.000000
0.049889 0.294585 0.000000
0.274905 0.274905 0.000000
0.610458 0.255753 0.000000
0.891825 0.237163 0.000000
1.000000 0.219161 0.000000
1.000000 0.201774 0.000000
1.000000 0.185020 0.000000
0.000000 0.624309 0.000000
0.000000 0.602480 0.000000
0.021672 0.580407 0.000000
0.212759 0.558142 0.000000
0.535742 0.535742 0.000000
0.842757 0.513265 0.000000
1.000000 0.490766 0.000000
1.000000 0.468304 0.000000
1.000000 0.445937 0.000000
0.000000 0.867576 0.000000
0.000000 0.852619 0.000000
0.000054 0.836990 0.000000
0.157609 0.820702 0.000000
0.460147 0.803766 0.000000
0.786203 0.786203 0.000000
0.983832 0.768032 0.000000
1.000000 0.749279 0.000000
1.000000 0.729975 0.000000
0.000000 1.000000 0.000000
0.000000 0.995736 0.000000
0.000000 0.988645 0.000000
0.110018 0.980969 0.000000
0.385847 0.972692 0.000000
0.722816 0.963799 0.000000
0.954273 0.954273 0.000000
1.000000 0.944102 0.000000
1.000000 0.933273 0.000000
0.000000 1.000000 0.000000
0.000000 1.000000 0.000000
0.000000 1.000000 0.000000
0.070114 1.000000 0.000000
0.314893 1.000000 0.000000
0.653735 1.000000 0.000000
0.917426 1.000000 0.000000
1.000000 1.000000 0.000000
1.000000 1.000000 0.000000
0.000000 1.000000 0.000000
0.000000 1.000000 0.000000
0.000000 1.000000 0.000000
0.037667 1.000000 0.000000
0.249041 1.000000 0.000000
0.580553 1.000000 0.000000
0.872948 1.000000 0.000000
1.000000 1.000000 0.000000
1.000000 1.000000 0.000000
0.000000 0.000000 0.012267
0.005940 0.000000 0.005940
0.173515 0.000000 0.000153
0.482983 0.000000 0.000000
0.804075 0.000000 0.000000
0.991421 0.000000 0.000000
1.000000 0.000000 0.000000
1.000000 0.000000 0.000000
1.000000 0.000000 0.000000
0.000000 0.000000 0.000000
0.000000 0.000000 0.000000
0.123605 0.000000 0.000000
0.408064 0.000000 0.000000
0.742657 0.000000 0.000000
0.963963 0.000000 0.000000
1.000000 0.000000 0.000000
1.000000 0.000000 0.000000
1.000000 0.000000 0.000000
0.000000 0.105558 0.000000
0.000000 0.093133 0.000000
0.081384 0.081384 0.000000
0.335897 0.070305 0.000000
0.675151 0.059888 0.000000
0.929370 0.050120 0.000000
1.000000 0.040989 0.000000
1.000000 0.032482 0.000000
1.000000 0.024581 0.000000
0.000000 0.328333 0.000000
0.000000 0.307855 0.000000
0.046723 0.287844 0.000000
0.268340 0.268340 0.000000
0.603017 0.249375 0.000000
0.887220 0.230982 0.000000
1.000000 0.213186 0.000000
1.000000 0.196012 0.000000
1.000000 0.179477 0.000000
0.000000 0.616926 0.000000
0.000000 0.595009 0.000000
0.019201 0.572864 0.000000
0.206861 0.550547 0.000000
0.528115 0.528115 0.000000
0.837381 0.505623 0.000000
1.000000 0.483131 0.000000
1.000000 0.460695 0.000000
1.000000 0.438373 0.000000
0.000000 0.862572 0.000000
0.000000 0.847386 0.000000
0.000000 0.831532 0.000000
0.152456 0.815022 0.000000
0.452552 0.797871 0.000000
0.780099 0.780099 0.000000
0.981164 0.761727 0.000000
1.000000 0.742784 0.000000
1.000000 0.723299 0.000000
0.000000 1.000000 0.000000
0.000000 0.993392 0.000000
0.000000 0.986104 0.000000
0.105642 0.978227 0.000000
0.378500 0.969742 0.000000
0.716077 0.960635 0.000000
0.950892 0.950892 0.000000
1.000000 0.940498 0.000000
1.000000 0.929445 0.000000
0.000000 1.000000 0.000000
0.000000 1.000000 0.000000
0.000000 1.000000 0.000000
0.066506 1.000000 0.000000
0.307988 1.000000 0.000000
0.646503 1.000000 0.000000
0.913286 1.000000 0.000000
1.000000 1.000000 0.000000
1.000000 1.000000 0.000000
0.000000 1.000000 0.000000
0.000000 1.000000 0.000000
0.000000 1.000000 0.000000
0.034789 1.000000 0.000000
0.242733 1.000000 0.000000
0.573011 1.000000 0.000000
0.868030 1.000000 0.000000
1.000000 1.000000 0.000000
1.000000 1.000000 0.000000
0.000000 0.000000 0.200923
0.003915 0.000000 0.184201
0.168131 0.000000 0.168131
0.475354 0.000000 0.152725
0.798183 0.000000 0.137993
0.988957 0.000000 0.123940
1.000000 0.000000 0.110569
1.000000 0.000000 0.097880
1.000000 0.000000 0.085869
0.000000 0.000000 0.147283
0.000000 0.000000 0.132798
0.118993 0.000000 0.118993
0.400621 0.000000 0.105870
0.736098 0.000000 0.093429
0.960804 0.000000 0.081664
1.000000 0.000000 0.070569
1.000000 0.000000 0.060135
1.000000 0.000000 0.050351
0.000000 0.101262 0.101262
0.000000 0.089067 0.089067
0.077547 0.077547 0.077547
0.328839 0.066694 0.066694
0.668050 0.056498 0.056498
0.925462 0.046948 0.046948
1.000000 0.038031 0.038031
1.000000 0.029731 0.029731
1.000000 0.022033 0.022033
0.000000 0.321329 0.062907
0.000000 0.301005 0.052947
0.043629 0.281162 0.043629
0.261837 0.261837 0.034939
0.595548 0.243063 0.026860
0.882537 0.224870 0.019377
1.000000 0.207283 0.012472
1.000000 0.190324 0.006128
1.000000 0.174011 0.000324
0.000000 0.609512 0.031927
0.000000 0.587511 0.024068
0.016797 0.565302 0.016797
0.201035 0.542939 0.010099
0.520480 0.520480 0.003953
0.831928 0.497982 0.000000
1.000000 0.475502 0.000000
1.000000 0.453099 0.000000
1.000000 0.430828 0.000000
0.000000 0.857490 0.007798
0.000000 0.842076 0.001850
0.000000 0.825998 0.000000
0.147381 0.809268 0.000000
0.444972 0.791904 0.000000
0.773926 0.773926 0.000000
0.978426 0.755357 0.000000
1.000000 0.736226 0.000000
1.000000 0.716565 0.000000
0.000000 0.997890 0.000000
0.000000 0.990982 0.000000
0.000000 0.983496 0.000000
0.101345 0.975414 0.000000
0.371189 0.966720 0.000000
0.709282 0.957398 0.000000
0.947435 0.947435 0.000000
1.000000 0.936819 0.000000
1.000000 0.925539 0.000000
0.000000 1.000000 0.000000
0.000000 1.000000 0.000000
0.000000 1.000000 0.000000
0.062974 1.000000 0.000000
0.301137 1.000000 0.000000
0.639231 1.000000 0.000000
0.909067 1.000000 0.000000
1.000000 1.000000 0.000000
1.000000 1.000000 0.000000
0.000000 1.000000 0.000000
0.000000 1.000000 0.000000
0.000000 1.000000 0.000000
0.031981 1.000000 0.000000
0.236492 1.000000 0.000000
0.565449 1.000000 0.000000
0.863033 1.000000 0.000000
1.000000 1.000000 0.000000
1.000000 1.000000 0.000000
0.000000 0.000000 0.535172
0.001951 0.000000 0.512693
0.162824 0.000000 0.490195
0.467735 0.000000 0.467735
0.792220 0.000000 0.445371
0.986425 0.000000 0.423159
1.000000 0.000000 0.401156
1.000000 0.000000 0.379414
1.000000 0.000000 0.357984
0.000000 0.000000 0.459579
0.000000 0.000000 0.437264
0.114460 0.000000 0.415122
0.393207 0.000000 0.393207
0.729478 0.000000 0.371573
0.957570 0.000000 0.350270
1.000000 0.000000 0.329346
1.000000 0.000000 0.308846
1.000000 0.000000 0.288812
0.000000 0.097045 0.385296
0.000000 0.085080 0.363777
0.073787 0.073787 0.342606
0.321831 0.063158 0.321831
0.660905 0.053183 0.301496
0.921478 0.043850 0.281641
1.000000 0.035144 0.262303
1.000000 0.027050 0.243516
1.000000 0.019553 0.225308
0.000000 0.314375 0.314375
0.000000 0.294210 0.294210
0.040608 0.274539 0.274539
0.255398 0.255398 0.255398
0.588052 0.236818 0.236818
0.877775 0.218828 0.218828
1.000000 0.201452 0.201452
1.000000 0.184711 0.184711
1.000000 0.168620 0.168620
0.000000 0.602067 0.248567
0.000000 0.579989 0.230199
0.014459 0.557722 0.212430
0.195283 0.535320 0.195283
0.512841 0.512841 0.178777
0.826399 0.490343 0.162926
1.000000 0.467883 0.147744
1.000000 0.445518 0.133237
1.000000 0.423305 0.119411
0.000000 0.852331 0.189199
0.000000 0.836690 0.172929
0.000000 0.820389 0.157321
0.142384 0.803442 0.142384
0.437410 0.785866 0.128125
0.767684 0.767684 0.114547
0.975619 0.748921 0.101652
1.000000 0.729607 0.089436
1.000000 0.709773 0.077895
0.000000 0.995608 0.137114
0.000000 0.988506 0.123103
0.000000 0.980819 0.109773
0.097126 0.972531 0.097126
0.363917 0.963625 0.085156
0.702431 0.954087 0.073859
0.943904 0.943904 0.063226
1.000000 0.933063 0.053247
1.000000 0.921556 0.043909
0.000000 1.000000 0.092690
0.000000 1.000000 0.080966
0.000000 1.000000 0.069912
0.059518 1.000000 0.059518
0.294341 1.000000 0.049774
0.631921 1.000000 0.040666
0.904770 1.000000 0.032181
1.000000 1.000000 0.024303
1.000000 1.000000 0.017014
0.000000 1.000000 0.055896
0.000000 1.000000 0.046385
0.000000 1.000000 0.037506
0.029244 1.000000 0.029244
0.230318 1.000000 0.021582
0.557869 1.000000 0.014504
0.857958 1.000000 0.007992
1.000000 1.000000 0.002026
1.000000 1.000000 0.000000
0.000000 0.000000 0.852604
0.000049 0.000000 0.836975
0.157594 0.000000 0.820686
0.460126 0.000000 0.803750
0.786186 0.000000 0.786186
0.983825 0.000000 0.768014
1.000000 0.000000 0.749262
1.000000 0.000000 0.729956
1.000000 0.000000 0.710132
0.000000 0.000000 0.797427
0.000000 0.000000 0.779639
0.110006 0.000000 0.761253
0.385826 0.000000 0.742296
0.722797 0.000000 0.722797
0.954264 0.000000 0.702793
1.000000 0.000000 0.682320
1.000000 0.000000 0.661421
1.000000 0.000000 0.640139
0.000000 0.092906 0.735258
0.000000 0.081170 0.715571
0.070103 0.070103 0.695391
0.314874 0.059698 0.674758
0.653715 0.049942 0.653715
0.917415 0.040823 0.632306
1.000000 0.032327 0.610582
1.000000 0.024438 0.588593
1.000000 0.017140 0.566392
0.000000 0.307474 0.667142
0.000000 0.287473 0.645960
0.037659 0.267978 0.624431
0.249024 0.249024 0.602604
0.580532 0.230642 0.580532
0.872935 0.212858 0.558268
1.000000 0.195695 0.535869
1.000000 0.179173 0.513392
1.000000 0.163306 0.490893
0.000000 0.594594 0.594594
0.000000 0.572446 0.572446
0.012186 0.550126 0.550126
0.189605 0.527692 0.527692
0.505200 0.505200 0.505200
0.820795 0.482708 0.482708
0.998214 0.460274 0.460274
1.000000 0.437954 0.437954
1.000000 0.415806 0.415806
0.000000 0.847094 0.519507
0.000000 0.831227 0.497008
0.000000 0.814705 0.474531
0.137465 0.797542 0.452132
0.429868 0.779758 0.429868
0.761376 0.761376 0.407796
0.972741 0.742422 0.385969
1.000000 0.722927 0.364440
1.000000 0.702926 0.343258
0.000000 0.993260 0.444008
0.000000 0.985962 0.421807
0.000000 0.978073 0.399818
0.092985 0.969577 0.378094
0.356685 0.960458 0.356685
0.695526 0.950702 0.335642
0.940297 0.940297 0.315009
1.000000 0.929230 0.294829
1.000000 0.917494 0.275142
0.000000 1.000000 0.370261
0.000000 1.000000 0.348979
0.000000 1.000000 0.328080
0.056137 1.000000 0.307607
0.287603 1.000000 0.287603
0.624574 1.000000 0.268104
0.900394 1.000000 0.249147
1.000000 1.000000 0.230761
1.000000 1.000000 0.212973
0.000000 1.000000 0.300268
0.000000 1.000000 0.280444
0.000000 1.000000 0.261138
0.026575 1.000000 0.242386
0.224214 1.000000 0.224214
0.550274 1.000000 0.206650
0.852806 1.000000 0.189714
1.000000 1.000000 0.173425
1.000000 1.000000 0.157796
0.000000 0.000000 1.000000
0.000000 0.000000 1.000000
0.152442 0.000000 1.000000
0.452531 0.000000 0.995896
0.780082 0.000000 0.988818
0.981156 0.000000 0.981156
1.000000 0.000000 0.972894
1.000000 0.000000 0.964015
1.000000 0.000000 0.954504
0.000000 0.000000 0.993386
0.000000 0.000000 0.986097
0.105630 0.000000 0.978219
0.378480 0.000000 0.969734
0.716059 0.000000 0.960626
0.950882 0.000000 0.950882
1.000000 0.000000 0.940488
1.000000 0.000000 0.929434
1.000000 0.000000 0.917710
0.000000 0.088844 0.966491
0.000000 0.077337 0.957153
0.066496 0.066496 0.947174
0.307969 0.056313 0.936541
0.646483 0.046775 0.925244
0.913274 0.037869 0.913274
1.000000 0.029581 0.900627
1.000000 0.021894 0.887297
1.000000 0.014792 0.873286
0.000000 0.300627 0.932505
0.000000 0.280794 0.920964
0.034781 0.261479 0.908748
0.242716 0.242716 0.895853
0.572990 0.224534 0.882275
0.868016 0.206958 0.868016
1.000000 0.190011 0.853079
1.000000 0.173710 0.837471
1.000000 0.158069 0.821201
0.000000 0.587095 0.890989
0.000000 0.564882 0.877163
0.009978 0.542517 0.862656
0.184001 0.520057 0.847474
0.497559 0.497559 0.831623
0.815117 0.475080 0.815117
0.995941 0.452678 0.797970
1.000000 0.430411 0.780201
1.000000 0.408333 0.761833
0.000000 0.841780 0.841780
0.000000 0.825689 0.825689
0.000000 0.808948 0.808948
0.132625 0.791571 0.791571
0.422348 0.773582 0.773582
0.755002 0.755002 0.755002
0.969792 0.735861 0.735861
1.000000 0.716190 0.716190
1.000000 0.696025 0.696025
0.000000 0.990847 0.785092
0.000000 0.983350 0.766884
0.000000 0.975256 0.748097
0.088922 0.966550 0.728759
0.349496 0.957217 0.708904
0.688569 0.947242 0.688569
0.936613 0.936613 0.667794
1.000000 0.925320 0.646623
1.000000 0.913355 0.625104
0.000000 1.000000 0.721588
0.000000 1.000000 0.701554
0.000000 1.000000 0.681054
0.052830 1.000000 0.660130
0.280922 1.000000 0.638827
0.617193 1.000000 0.617193
0.895940 1.000000 0.595278
1.000000 1.000000 0.573136
1.000000 1.000000 0.550821
0.000000 1.000000 0.652416
0.000000 1.000000 0.630986
0.000000 1.000000 0.609244
0.023975 1.000000 0.587241
0.218180 1.000000 0.565029
0.542665 1.000000 0.542665
0.847576 1.000000 0.520205
1.000000 1.000000 0.497707
1.000000 1.000000 0.475228
0.000000 0.000000 1.000000
0.000000 0.000000 1.000000
0.147367 0.000000 1.000000
0.444951 0.000000 1.000000
0.773908 0.000000 1.000000
0.978419 0.000000 1.000000
1.000000 0.000000 1.000000
1.000000 0.000000 1.000000
1.000000 0.000000 1.000000
0.000000 0.000000 1.000000
0.000000 0.000000 1.000000
0.101333 0.000000 1.000000
0.371169 0.000000 1.000000
0.709263 0.000000 1.000000
0.947426 0.000000 1.000000
1.000000 0.000000 1.000000
1.000000 0.000000 1.000000
1.000000 0.000000 1.000000
0.000000 0.084861 1.000000
0.000000 0.073581 1.000000
0.062965 0.062965 1.000000
0.301118 0.053002 1.000000
0.639211 0.043680 1.000000
0.909055 0.034986 1.000000
1.000000 0.026904 1.000000
1.000000 0.019418 1.000000
1.000000 0.012510 1.000000
0.000000 0.293835 1.000000
0.000000 0.274174 1.000000
0.031974 0.255043 1.000000
0.236474 0.236474 1.000000
0.565428 0.218496 1.000000
0.863019 0.201132 1.000000
1.000000 0.184402 1.000000
1.000000 0.168324 1.000000
1.000000 0.152910 1.000000
0.000000 0.579572 1.000000
0.000000 0.557301 1.000000
0.007833 0.534898 1.000000
0.178472 0.512418 1.000000
0.489920 0.489920 1.000000
0.809365 0.467461 1.000000
0.993603 0.445098 0.993603
1.000000 0.422889 0.986332
1.000000 0.400888 0.978473
0.000000 0.836389 1.000000
0.000000 0.820076 1.000000
0.000000 0.803117 0.997928
0.127863 0.785530 0.991023
0.414852 0.767337 0.983540
0.748563 0.748563 0.975461
0.966771 0.729238 0.966771
1.000000 0.709395 0.957453
1.000000 0.689071 0.947493
0.000000 0.988367 0.988367
0.000000 0.980669 0.980669
0.000000 0.972369 0.972369
0.084938 0.963452 0.963452
0.342350 0.953902 0.953902
0.681561 0.943706 0.943706
0.932853 0.932853 0.932853
1.000000 0.921333 0.921333
1.000000 0.909138 0.909138
0.000000 1.000000 0.960049
0.000000 1.000000 0.950265
0.000000 1.000000 0.939831
0.049597 1.000000 0.928736
0.274302 1.000000 0.916971
0.609779 1.000000 0.904530
0.891407 1.000000 0.891407
1.000000 1.000000 0.877602
1.000000 1.000000 0.863117
0.000000 1.000000 0.924531
0.000000 1.000000 0.912520
0.000000 1.000000 0.899831
0.021443 1.000000 0.886460
0.212217 1.000000 0.872407
0.535046 1.000000 0.857675
0.842269 1.000000 0.842269
1.000000 1.000000 0.826199
1.000000 1.000000 0.809477
0.000000 0.000000 1.000000
0.000000 0.000000 1.000000
0.142370 0.000000 1.000000
0.437389 0.000000 1.000000
0.767667 0.000000 1.000000
0.975611 0.000000 1.000000
1.000000 0.000000 1.000000
1.000000 0.000000 1.000000
1.000000 0.000000 1.000000
0.000000 0.000000 1.000000
0.000000 0.000000 1.000000
0.097114 0.000000 1.000000
0.363897 0.000000 1.000000
0.702412 0.000000 1.000000
0.943894 0.000000 1.000000
1.000000 0.000000 1.000000
1.000000 0.000000 1.000000
1.000000 0.000000 1.000000
0.000000 0.080955 1.000000
0.000000 0.069902 1.000000
0.059508 0.059508 1.000000
0.294323 0.049765 1.000000
0.631900 0.040658 1.000000
0.904758 0.032173 1.000000
1.000000 0.024296 1.000000
1.000000 0.017008 1.000000
1.000000 0.010292 1.000000
0.000000 0.287101 1.000000
0.000000 0.267616 1.000000
0.029236 0.248673 1.000000
0.230301 0.230301 1.000000
0.557848 0.212529 1.000000
0.857944 0.195378 1.000000
1.000000 0.178868 1.000000
1.000000 0.163014 1.000000
1.000000 0.147828 1.000000
0.000000 0.572027 1.000000
0.000000 0.549705 1.000000
0.005752 0.527269 1.000000
0.173019 0.504777 1.000000
0.482285 0.482285 1.000000
0.803539 0.459853 1.000000
0.991199 0.437536 1.000000
1.000000 0.415391 1.000000
1.000000 0.393474 1.000000
0.000000 0.830923 1.000000
0.000000 0.814388 1.000000
0.000000 0.797213 1.000000
0.123180 0.779418 1.000000
0.407383 0.761025 1.000000
0.742060 0.742060 1.000000
0.963677 0.722556 1.000000
1.000000 0.702545 1.000000
1.000000 0.682067 1.000000
0.000000 0.985819 1.000000
0.000000 0.977918 1.000000
0.000000 0.969411 1.000000
0.081030 0.960280 1.000000
0.335249 0.950512 1.000000
0.674503 0.940094 1.000000
0.929016 0.929016 1.000000
1.000000 0.917267 1.000000
1.000000 0.904842 1.000000
0.000000 1.000000 1.000000
0.000000 1.000000 1.000000
0.000000 1.000000 1.000000
0.046437 1.000000 1.000000
0.267743 1.000000 1.000000
0.602336 1.000000 1.000000
0.886795 1.000000 1.000000
1.000000 1.000000 1.000000
1.000000 1.000000 1.000000
0.000000 1.000000 1.000000
0.000000 1.000000 1.000000
0.000000 1.000000 1.000000
0.018979 1.000000 1.000000
0.206325 1.000000 1.000000
0.527417 1.000000 1.000000
0.836885 1.000000 1.000000
1.000000 1.000000 1.000000
1.000000 1.000000 0.998133
0.000000 0.000000 1.000000
0.000000 0.000000 1.000000
0.137452 0.000000 1.000000
0.429847 0.000000 1.000000
0.761358 0.000000 1.000000
0.972733 0.000000 1.000000
1.000000 0.000000 1.000000
1.000000 0.000000 1.000000
1.000000 0.000000 1.000000
0.000000 0.000000 1.000000
0.000000 0.000000 1.000000
0.092974 0.000000 1.000000
0.356665 0.000000 1.000000
0.695507 0.000000 1.000000
0.940286 0.000000 1.000000
1.000000 0.000000 1.000000
1.000000 0.000000 1.000000
1.000000 0.000000 1.000000
0.000000 0.077127 1.000000
0.000000 0.066298 1.000000
0.056127 0.056127 1.000000
0.287584 0.046601 1.000000
0.624553 0.037708 1.000000
0.900382 0.029431 1.000000
1.000000 0.021755 1.000000
1.000000 0.014664 1.000000
1.000000 0.008138 1.000000
0.000000 0.280425 1.000000
0.000000 0.261120 1.000000
0.026568 0.242368 1.000000
0.224197 0.224197 1.000000
0.550253 0.206634 1.000000
0.852791 0.189698 1.000000
1.000000 0.173410 1.000000
1.000000 0.157781 1.000000
1.000000 0.142824 1.000000
0.000000 0.564463 1.000000
0.000000 0.542096 1.000000
0.003733 0.519634 1.000000
0.167643 0.497135 1.000000
0.474658 0.474658 1.000000
0.797641 0.452258 1.000000
0.988728 0.429993 1.000000
1.000000 0.407920 1.000000
1.000000 0.386091 1.000000
0.000000 0.825380 1.000000
0.000000 0.808626 1.000000
0.000000 0.791239 1.000000
0.118575 0.773237 1.000000
0.399942 0.754647 1.000000
0.735495 0.735495 1.000000
0.960511 0.715815 1.000000
1.000000 0.695641 1.000000
1.000000 0.675013 1.000000
0.000000 0.983203 1.000000
0.000000 0.975098 1.000000
0.000000 0.966381 1.000000
0.077200 0.957035 1.000000
0.328197 0.947048 1.000000
0.667399 0.936407 1.000000
0.925101 0.925101 1.000000
1.000000 0.913124 1.000000
1.000000 0.900468 1.000000
0.000000 1.000000 1.000000
0.000000 1.000000 1.000000
0.000000 1.000000 1.000000
0.043350 1.000000 1.000000
0.261246 1.000000 1.000000
0.594864 1.000000 1.000000
0.882105 1.000000 1.000000
1.000000 1.000000 1.000000
1.000000 1.000000 1.000000
0.000000 1.000000 1.000000
0.000000 1.000000 1.000000
0.000000 1.000000 1.000000
0.016581 1.000000 1.000000
0.200506 1.000000 1.000000
0.519782 1.000000 1.000000
0.831425 1.000000 1.000000
1.000000 1.000000 1.000000
1.000000 1.000000 1.000000
