assets/presets/luts/chrome/lut.cube
TITLE "Chrome"
LUT_3D_SIZE 9
0.000000 0.000000 0.000000
0.020302 0.000000 0.000000
0.112701 0.000000 0.000000
0.315238 0.000000 0.000000
0.606531 0.000000 0.000000
0.883290 0.000000 0.000000
1.000000 0.000000 0.000000
1.000000 0.000000 0.000000
1.000000 0.000000 0.000000
0.000000 0.017815 0.000000
0.015381 0.016419 0.000000
0.108052 0.010190 0.000000
0.311238 0.000000 0.000000
0.603522 0.000000 0.000000
0.881300 0.000000 0.000000
1.000000 0.000000 0.000000
1.000000 0.000000 0.000000
1.000000 0.000000 0.000000
0.000000 0.099018 0.000000
0.000000 0.097711 0.000000
0.086262 0.091507 0.000000
0.292038 0.078295 0.000000
0.588800 0.062695 0.000000
0.871223 0.052660 0.000000
1.000000 0.046963 0.000000
1.000000 0.042742 0.000000
1.000000 0.041672 0.000000
0.000000 0.279526 0.000000
0.000000 0.278425 0.000000
0.040999 0.273082 0.000000
0.246529 0.260039 0.000000
0.551039 0.241863 0.000000
0.843340 0.228413 0.000000
1.000000 0.222450 0.000000
1.000000 0.218229 0.000000
1.000000 0.217159 0.000000
0.000000 0.544575 0.000000
0.000000 0.543784 0.000000
0.000000 0.539858 0.000000
0.186759 0.529464 0.000000
0.490759 0.511719 0.000000
0.792504 0.495270 0.000000
0.989868 0.486480 0.000000
1.000000 0.482476 0.000000
1.000000 0.481407 0.000000
0.000000 0.801888 0.000000
0.000000 0.801408 0.000000
0.000000 0.798911 0.000000
0.145578 0.791623 0.000000
0.439692 0.777241 0.000000
0.741077 0.761224 0.000000
0.944144 0.751351 0.000000
1.000000 0.747130 0.000000
1.000000 0.746060 0.000000
0.000000 0.975478 0.000000
0.000000 0.974673 0.000000
0.000000 0.970970 0.000000
0.127464 0.962587 0.000000
0.414767 0.950196 0.000000
0.711056 0.936670 0.000000
0.914721 0.927626 0.000000
1.000000 0.923405 0.000000
1.000000 0.922335 0.000000
0.000000 1.000000 0.000000
0.000000 1.000000 0.000000
0.000000 1.000000 0.000000
0.114372 1.000000 0.000000
0.402365 1.000000 0.000000
0.697963 1.000000 0.000000
0.901629 1.000000 0.000000
0.996681 1.000000 0.000000
1.000000 1.000000 0.000000
0.000000 1.000000 0.000000
0.000000 1.000000 0.000000
0.000000 1.000000 0.000000
0.111486 1.000000 0.000000
0.399480 1.000000 0.000000
0.695078 1.000000 0.000000
0.898744 1.000000 0.000000
0.993795 1.000000 0.000000
1.000000 1.000000 0.000000
0.000000 0.000000 0.023260
0.019781 0.000000 0.021867
0.112308 0.000000 0.015479
0.315132 0.000000 0.002750
0.606860 0.000000 0.000000
0.884067 0.000000 0.000000
1.000000 0.000000 0.000000
1.000000 0.000000 0.000000
1.000000 0.000000 0.000000
0.000000 0.017295 0.018343
0.014860 0.015900 0.016951
0.107671 0.009655 0.010695
0.311144 0.000000 0.000000
0.603864 0.000000 0.000000
0.882089 0.000000 0.000000
1.000000 0.000000 0.000000
1.000000 0.000000 0.000000
1.000000 0.000000 0.000000
0.000000 0.098559 0.000000
0.000000 0.097256 0.000000
0.085771 0.091030 0.000000
0.291948 0.077749 0.000000
0.589175 0.062103 0.000000
0.872054 0.052031 0.000000
1.000000 0.046663 0.000000
1.000000 0.042442 0.000000
1.000000 0.041373 0.000000
0.000000 0.279204 0.000000
0.000000 0.278107 0.000000
0.040206 0.272772 0.000000
0.246111 0.259659 0.000000
0.551308 0.241348 0.000000
0.844157 0.227820 0.000000
1.000000 0.221941 0.000000
1.000000 0.217930 0.000000
1.000000 0.216860 0.000000
0.000000 0.544458 0.000000
0.000000 0.543671 0.000000
0.000000 0.539760 0.000000
0.185803 0.529357 0.000000
0.490460 0.511482 0.000000
0.792962 0.494874 0.000000
0.990782 0.486000 0.000000
1.000000 0.482177 0.000000
1.000000 0.481107 0.000000
0.000000 0.801977 0.000000
0.000000 0.801502 0.000000
0.000000 0.799021 0.000000
0.144244 0.791746 0.000000
0.438790 0.777296 0.000000
0.740916 0.761125 0.000000
0.943845 0.751052 0.000000
1.000000 0.746831 0.000000
1.000000 0.745761 0.000000
0.000000 0.975178 0.000000
0.000000 0.974374 0.000000
0.000000 0.970671 0.000000
0.127164 0.962287 0.000000
0.413533 0.950426 0.000000
0.710756 0.936371 0.000000
0.914422 0.927326 0.000000
1.000000 0.923105 0.000000
1.000000 0.922036 0.000000
0.000000 1.000000 0.000000
0.000000 1.000000 0.000000
0.000000 1.000000 0.000000
0.114072 1.000000 0.000000
0.402066 1.000000 0.000000
0.697664 1.000000 0.000000
0.901330 1.000000 0.000000
0.996381 1.000000 0.000000
1.000000 1.000000 0.000000
0.000000 1.000000 0.000000
0.000000 1.000000 0.000000
0.000000 1.000000 0.000000
0.111187 1.000000 0.000000
0.399180 1.000000 0.000000
0.694779 1.000000 0.000000
0.898444 1.000000 0.000000
0.993496 1.000000 0.000000
1.000000 1.000000 0.000000
0.000000 0.000000 0.127837
0.017325 0.000000 0.126626
0.109864 0.000000 0.120393
0.314020 0.000000 0.105437
0.607777 0.000000 0.086531
0.887040 0.000000 0.073016
1.000000 0.000000 0.065788
1.000000 0.000000 0.061567
1.000000 0.000000 0.060498
0.000000 0.014961 0.123240
0.012579 0.013607 0.122041
0.105319 0.007374 0.115876
0.310121 0.000000 0.101105
0.604855 0.000000 0.082683
0.885129 0.000000 0.069707
1.000000 0.000000 0.062953
1.000000 0.000000 0.058732
1.000000 0.000000 0.057663
0.000000 0.096234 0.101520
0.000000 0.094949 0.100248
0.083424 0.088738 0.094097
0.291168 0.075246 0.080477
0.590420 0.059436 0.064457
0.875349 0.049210 0.054014
1.000000 0.045298 0.049962
1.000000 0.041077 0.045741
1.000000 0.040007 0.044672
0.000000 0.277483 0.055650
0.000000 0.276411 0.054143
0.036783 0.271162 0.047181
0.244085 0.257807 0.033507
0.552321 0.238915 0.021556
0.847561 0.225079 0.016516
1.000000 0.219043 0.016719
1.000000 0.216564 0.016450
1.000000 0.215494 0.015380
0.000000 0.543682 0.002788
0.000000 0.542918 0.001111
0.000000 0.539095 0.000000
0.181448 0.528718 0.000000
0.488977 0.510280 0.000000
0.794908 0.492962 0.000000
0.994763 0.483719 0.000000
1.000000 0.480290 0.000000
1.000000 0.479514 0.000000
0.000000 0.802145 0.000000
0.000000 0.801691 0.000000
0.000000 0.799298 0.000000
0.138288 0.792125 0.000000
0.434595 0.777419 0.000000
0.740065 0.760556 0.000000
0.944730 0.749878 0.000000
1.000000 0.745463 0.000000
1.000000 0.744395 0.000000
0.000000 0.973813 0.000000
0.000000 0.973008 0.000000
0.000000 0.969305 0.000000
0.120825 0.963064 0.000000
0.407873 0.951331 0.000000
0.708315 0.936268 0.000000
0.913056 0.925961 0.000000
1.000000 0.921740 0.000000
1.000000 0.920670 0.000000
0.000000 1.000000 0.000000
0.000000 1.000000 0.000000
0.000000 1.000000 0.000000
0.112707 1.000000 0.000000
0.398699 1.000000 0.000000
0.696162 1.000000 0.000000
0.899964 1.000000 0.000000
0.995016 1.000000 0.000000
1.000000 0.999106 0.000000
0.000000 1.000000 0.000000
0.000000 1.000000 0.000000
0.000000 1.000000 0.000000
0.109821 1.000000 0.000000
0.396907 1.000000 0.000000
0.693413 1.000000 0.000000
0.897079 1.000000 0.000000
0.992130 1.000000 0.000000
1.000000 1.000000 0.000000
0.000000 0.000000 0.353601
0.012483 0.000000 0.352798
0.103149 0.000000 0.348427
0.307616 0.000000 0.334624
0.605836 0.000000 0.309808
0.889911 0.000000 0.287420
1.000000 0.000000 0.275089
1.000000 0.000000 0.270868
1.000000 0.000000 0.269799
0.000000 0.010411 0.349747
0.008164 0.009163 0.348957
0.098903 0.003336 0.344664
0.303922 0.000000 0.331003
0.603140 0.000000 0.306385
0.888210 0.000000 0.284380
1.000000 0.000000 0.272343
1.000000 0.000000 0.268033
1.000000 0.000000 0.266964
0.000000 0.090921 0.331109
0.000000 0.089696 0.330342
0.078688 0.083856 0.326301
0.285921 0.070449 0.313334
0.589692 0.054064 0.289709
0.879321 0.043415 0.269610
1.000000 0.039646 0.259103
1.000000 0.038010 0.255042
1.000000 0.036941 0.253973
0.000000 0.272303 0.285803
0.000000 0.271266 0.284800
0.032158 0.266195 0.279890
0.238892 0.252931 0.266984
0.552784 0.233194 0.246765
0.852810 0.218923 0.231927
1.000000 0.212628 0.225241
1.000000 0.210677 0.223108
1.000000 0.210283 0.222668
0.000000 0.540433 0.223920
0.000000 0.539724 0.222476
0.000000 0.536156 0.215624
0.172383 0.526206 0.199417
0.484942 0.506875 0.179093
0.798339 0.488047 0.170033
1.000000 0.478109 0.168614
1.000000 0.474420 0.169064
1.000000 0.473583 0.169286
0.000000 0.801023 0.179712
0.000000 0.800626 0.178003
0.000000 0.798486 0.170059
0.126228 0.791763 0.152129
0.424808 0.776889 0.128816
0.737447 0.758573 0.116914
0.947596 0.746732 0.116479
1.000000 0.741825 0.118059
1.000000 0.740657 0.118619
0.000000 0.970746 0.160119
0.000000 0.969942 0.159314
0.000000 0.968689 0.150916
0.106841 0.964117 0.131986
0.395175 0.952456 0.107026
0.701404 0.936337 0.092230
0.911410 0.924693 0.090264
1.000000 0.919534 0.091529
1.000000 0.918273 0.092052
0.000000 1.000000 0.147026
0.000000 1.000000 0.146222
0.000000 1.000000 0.142519
0.101132 1.000000 0.125942
0.384842 1.000000 0.100291
0.687492 1.000000 0.084287
0.896525 1.000000 0.081420
0.992869 0.998107 0.082363
1.000000 0.996840 0.082819
0.000000 1.000000 0.144141
0.000000 1.000000 0.143337
0.000000 1.000000 0.139633
0.100116 1.000000 0.124851
0.382803 1.000000 0.099051
0.684624 1.000000 0.082790
0.893382 1.000000 0.079717
0.989694 1.000000 0.080579
1.000000 1.000000 0.081018
0.000000 0.000000 0.665872
0.007090 0.000000 0.665674
0.094456 0.000000 0.664112
0.293765 0.000000 0.656388
0.593161 0.000000 0.634634
0.883526 0.000000 0.606472
1.000000 0.000000 0.587265
1.000000 0.000000 0.581861
1.000000 0.000000 0.580791
0.000000 0.005454 0.663124
0.003408 0.004364 0.662939
0.090806 0.000000 0.661448
0.290436 0.000000 0.653912
0.590759 0.000000 0.632349
0.882163 0.000000 0.604343
1.000000 0.000000 0.585304
1.000000 0.000000 0.579026
1.000000 0.000000 0.577956
0.000000 0.084621 0.649504
0.000000 0.083539 0.649364
0.073456 0.078405 0.648141
0.274217 0.066290 0.641444
0.578676 0.049399 0.620799
0.874835 0.037533 0.593526
1.000000 0.033067 0.575302
1.000000 0.032012 0.567382
1.000000 0.031847 0.565447
0.000000 0.263897 0.613478
0.000000 0.262921 0.613298
0.032082 0.258167 0.612080
0.232553 0.246019 0.606564
0.544938 0.226535 0.588263
0.851758 0.211316 0.562815
1.000000 0.204515 0.546789
1.000000 0.202353 0.540109
1.000000 0.201907 0.538504
0.000000 0.532470 0.552987
0.000000 0.531805 0.552377
0.000000 0.528451 0.549277
0.166291 0.519071 0.540472
0.477303 0.499987 0.522254
0.799793 0.479665 0.501215
1.000000 0.469179 0.490109
1.000000 0.465272 0.485913
1.000000 0.464382 0.484949
0.000000 0.795608 0.498710
0.000000 0.795281 0.497601
0.000000 0.793474 0.492221
0.115248 0.787567 0.478466
0.411003 0.773616 0.454323
0.731753 0.753821 0.433186
0.949871 0.740316 0.425775
1.000000 0.734774 0.423844
1.000000 0.733459 0.423483
0.000000 0.966666 0.470739
0.000000 0.966553 0.469363
0.000000 0.965731 0.462798
0.092747 0.962021 0.446697
0.378209 0.951355 0.420322
0.689620 0.934548 0.397090
0.907395 0.921289 0.388245
1.000000 0.915307 0.386324
1.000000 0.913843 0.386033
0.000000 1.000000 0.458019
0.000000 1.000000 0.457215
0.000000 1.000000 0.452301
0.085693 1.000000 0.435331
0.366536 1.000000 0.408111
0.673390 1.000000 0.384063
0.889601 1.000000 0.374302
0.989781 0.995263 0.372057
1.000000 0.993787 0.371708
0.000000 1.000000 0.455134
0.000000 1.000000 0.454330
0.000000 1.000000 0.450210
0.084383 1.000000 0.433061
0.364205 1.000000 0.405661
0.670040 1.000000 0.381441
0.885831 1.000000 0.371478
0.985959 1.000000 0.369147
1.000000 1.000000 0.368780
0.000000 0.000000 0.944233
0.003904 0.000000 0.944627
0.087981 0.000000 0.945798
0.280576 0.000000 0.944328
0.574671 0.000000 0.930925
0.866696 0.000000 0.905961
1.000000 0.000000 0.889966
1.000000 0.000000 0.885745
1.000000 0.000000 0.884675
0.000000 0.002694 0.942566
0.000844 0.001758 0.942973
0.084941 0.000000 0.944212
0.277748 0.000000 0.942926
0.572570 0.000000 0.929786
0.865607 0.000000 0.904987
1.000000 0.000000 0.887131
1.000000 0.000000 0.882910
1.000000 0.000000 0.881840
0.000000 0.080524 0.933885
0.000000 0.079592 0.934343
0.070427 0.075162 0.935853
0.263949 0.064571 0.935372
0.561893 0.048734 0.923470
0.859538 0.036099 0.899447
1.000000 0.030733 0.879223
1.000000 0.029001 0.869919
1.000000 0.027932 0.868849
0.000000 0.257070 0.908521
0.000000 0.256205 0.909009
0.035145 0.252004 0.910784
0.228447 0.241346 0.911612
0.531611 0.223668 0.902583
0.839360 0.207837 0.880462
1.000000 0.200156 0.861241
1.000000 0.197602 0.852053
1.000000 0.197060 0.849738
0.000000 0.523468 0.859254
0.000000 0.522845 0.859505
0.000000 0.519692 0.860339
0.169161 0.510844 0.860187
0.471416 0.493197 0.853524
0.792003 0.473197 0.834898
1.000000 0.462034 0.817294
1.000000 0.457859 0.809189
1.000000 0.456905 0.807190
0.000000 0.787169 0.806289
0.000000 0.786877 0.806051
0.000000 0.785238 0.804660
0.116243 0.779741 0.799723
0.405328 0.766579 0.787416
0.724267 0.747070 0.768774
0.948816 0.732426 0.753702
1.000000 0.726565 0.747559
1.000000 0.725179 0.746102
0.000000 0.961737 0.774995
0.000000 0.960933 0.774191
0.000000 0.958881 0.770815
0.090456 0.955747 0.762259
0.369321 0.946166 0.744569
0.677835 0.930221 0.721320
0.901389 0.915880 0.706186
1.000000 0.909109 0.701129
1.000000 0.907461 0.700020
0.000000 1.000000 0.761903
0.000000 1.000000 0.761099
0.000000 1.000000 0.757395
0.081852 1.000000 0.747393
0.356229 1.000000 0.727648
0.660098 1.000000 0.703055
0.880837 0.997121 0.687273
0.984681 0.990402 0.681901
1.000000 0.988720 0.680764
0.000000 1.000000 0.759018
0.000000 1.000000 0.758213
0.000000 1.000000 0.754510
0.080200 1.000000 0.744294
0.353590 1.000000 0.724128
0.656432 1.000000 0.699271
0.876500 1.000000 0.683357
0.980226 1.000000 0.677891
1.000000 1.000000 0.676737
0.000000 0.000000 1.000000
0.001503 0.000000 1.000000
0.084899 0.000000 1.000000
0.273679 0.000000 1.000000
0.561882 0.000000 1.000000
0.857271 0.000000 1.000000
1.000000 0.000000 1.000000
1.000000 0.000000 1.000000
1.000000 0.000000 1.000000
0.000000 0.000377 1.000000
0.000000 0.000000 1.000000
0.082064 0.000000 1.000000
0.270844 0.000000 1.000000
0.560027 0.000000 1.000000
0.854436 0.000000 1.000000
1.000000 0.000000 1.000000
1.000000 0.000000 1.000000
1.000000 0.000000 1.000000
0.000000 0.078207 1.000000
0.000000 0.077403 1.000000
0.069073 0.073699 1.000000
0.258337 0.064582 1.000000
0.550520 0.049844 1.000000
0.846167 0.037316 1.000000
1.000000 0.030355 1.000000
1.000000 0.026134 1.000000
1.000000 0.025065 1.000000
0.000000 0.253695 1.000000
0.000000 0.252890 1.000000
0.038320 0.249085 1.000000
0.226893 0.239427 1.000000
0.523209 0.223166 1.000000
0.827842 0.207723 1.000000
1.000000 0.199657 1.000000
1.000000 0.196843 1.000000
1.000000 0.196231 1.000000
0.000000 0.517981 1.000000
0.000000 0.517403 1.000000
0.000000 0.514470 1.000000
0.173155 0.506224 1.000000
0.468721 0.489912 1.000000
0.783493 0.471029 1.000000
0.997713 0.459554 1.000000
1.000000 0.455111 1.000000
1.000000 0.454087 1.000000
0.000000 0.782595 1.000000
0.000000 0.781791 0.999286
0.000000 0.779189 0.998181
0.122012 0.773924 0.999189
0.406708 0.761171 0.995753
0.720237 0.742460 0.985137
0.943741 0.727994 0.971384
1.000000 0.721920 0.963464
1.000000 0.720485 0.961438
0.000000 0.958870 0.970667
0.000000 0.958066 0.969863
0.000000 0.954363 0.966159
0.095161 0.950191 0.962269
0.369781 0.940964 0.953574
0.673878 0.925492 0.938648
0.896497 0.911296 0.924824
1.000000 0.904149 0.917572
1.000000 0.902435 0.915813
0.000000 1.000000 0.957575
0.000000 1.000000 0.956771
0.000000 1.000000 0.953067
0.085762 1.000000 0.946724
0.355808 1.000000 0.935528
0.655218 1.000000 0.918066
0.874635 0.993252 0.902691
0.980308 0.986182 0.895415
1.000000 0.984369 0.893771
0.000000 1.000000 0.954689
0.000000 1.000000 0.953885
0.000000 1.000000 0.950182
0.083919 1.000000 0.943411
0.352959 1.000000 0.931673
0.651344 1.000000 0.913680
0.870059 1.000000 0.898043
0.975450 1.000000 0.890699
1.000000 1.000000 0.889036
0.000000 0.000000 1.000000
0.000289 0.000000 1.000000
0.083685 0.000000 1.000000
0.272464 0.000000 1.000000
0.560458 0.000000 1.000000
0.856056 0.000000 1.000000
1.000000 0.000000 1.000000
1.000000 0.000000 1.000000
1.000000 0.000000 1.000000
0.000000 0.000000 1.000000
0.000000 0.000000 1.000000
0.080850 0.000000 1.000000
0.269629 0.000000 1.000000
0.557623 0.000000 1.000000
0.853221 0.000000 1.000000
1.000000 0.000000 1.000000
1.000000 0.000000 1.000000
1.000000 0.000000 1.000000
0.000000 0.076993 1.000000
0.000000 0.076188 1.000000
0.067859 0.072485 1.000000
0.256638 0.064102 1.000000
0.545764 0.050627 1.000000
0.840230 0.038185 1.000000
1.000000 0.029141 1.000000
1.000000 0.024920 1.000000
1.000000 0.023850 1.000000
0.000000 0.252480 1.000000
0.000000 0.251676 1.000000
0.038567 0.247972 1.000000
0.226492 0.238872 1.000000
0.519833 0.223234 1.000000
0.822600 0.208092 1.000000
1.000000 0.199959 1.000000
1.000000 0.197060 1.000000
1.000000 0.196424 1.000000
0.000000 0.516727 1.000000
0.000000 0.515923 1.000000
0.000000 0.512436 1.000000
0.175199 0.504489 1.000000
0.467837 0.488778 1.000000
0.779793 0.470465 1.000000
0.993449 0.459017 1.000000
1.000000 0.454492 1.000000
1.000000 0.453443 1.000000
0.000000 0.781381 1.000000
0.000000 0.780577 1.000000
0.000000 0.776873 1.000000
0.125311 0.771468 1.000000
0.407952 0.758976 1.000000
0.718791 0.740763 1.000000
0.940667 0.726605 1.000000
1.000000 0.720464 1.000000
1.000000 0.719001 1.000000
0.000000 0.957656 1.000000
0.000000 0.956852 1.000000
0.000000 0.953148 1.000000
0.098376 0.947658 1.000000
0.371218 0.938565 1.000000
0.673463 0.923245 1.000000
0.894600 0.909241 1.000000
1.000000 0.902137 1.000000
1.000000 0.900399 1.000000
0.000000 1.000000 1.000000
0.000000 1.000000 1.000000
0.000000 1.000000 1.000000
0.088759 1.000000 1.000000
0.357032 1.000000 1.000000
0.654614 1.000000 1.000000
0.872746 0.991173 0.996130
0.978207 0.984135 0.989157
1.000000 0.982277 0.987292
0.000000 1.000000 1.000000
0.000000 1.000000 1.000000
0.000000 1.000000 1.000000
0.086856 1.000000 1.000000
0.354120 1.000000 1.000000
0.650666 1.000000 1.000000
0.868085 1.000000 0.991292
0.973215 1.000000 0.984145
1.000000 1.000000 0.982277
0.000000 0.000000 1.000000
0.000061 0.000000 1.000000
0.083457 0.000000 1.000000
0.272236 0.000000 1.000000
0.560230 0.000000 1.000000
0.855828 0.000000 1.000000
1.000000 0.000000 1.000000
1.000000 0.000000 1.000000
1.000000 0.000000 1.000000
0.000000 0.000000 1.000000
0.000000 0.000000 1.000000
0.080622 0.000000 1.000000
0.269401 0.000000 1.000000
0.557395 0.000000 1.000000
0.852993 0.000000 1.000000
1.000000 0.000000 1.000000
1.000000 0.000000 1.000000
1.000000 0.000000 1.000000
0.000000 0.076765 1.000000
0.000000 0.075960 1.000000
0.067631 0.072257 1.000000
0.256410 0.063873 1.000000
0.544878 0.050794 1.000000
0.840002 0.037957 1.000000
1.000000 0.028913 1.000000
1.000000 0.024692 1.000000
1.000000 0.023622 1.000000
0.000000 0.252252 1.000000
0.000000 0.251448 1.000000
0.038339 0.247744 1.000000
0.226433 0.238784 1.000000
0.519212 0.223265 1.000000
0.821602 0.208187 1.000000
1.000000 0.200047 1.000000
1.000000 0.197135 1.000000
1.000000 0.196494 1.000000
0.000000 0.516499 1.000000
0.000000 0.515695 1.000000
0.000000 0.512067 1.000000
0.175604 0.504179 1.000000
0.467688 0.488582 1.000000
0.779102 0.470380 1.000000
0.992611 0.458947 1.000000
1.000000 0.454410 1.000000
1.000000 0.453357 1.000000
0.000000 0.781153 1.000000
0.000000 0.780349 1.000000
0.000000 0.776645 1.000000
0.125979 0.771012 1.000000
0.408218 0.758575 1.000000
0.718537 0.740462 1.000000
0.940073 0.726370 1.000000
1.000000 0.720224 1.000000
1.000000 0.718758 1.000000
0.000000 0.957428 1.000000
0.000000 0.956623 1.000000
0.000000 0.952920 1.000000
0.099051 0.947175 1.000000
0.371555 0.938110 1.000000
0.673440 0.922824 1.000000
0.894262 0.908872 1.000000
0.999802 0.901793 1.000000
1.000000 0.900051 1.000000
0.000000 1.000000 1.000000
0.000000 1.000000 1.000000
0.000000 1.000000 1.000000
0.089402 1.000000 1.000000
0.357343 1.000000 1.000000
0.654584 1.000000 1.000000
0.872480 0.990763 1.000000
0.977822 0.983738 1.000000
1.000000 0.981882 1.000000
0.000000 1.000000 1.000000
0.000000 1.000000 1.000000
0.000000 1.000000 1.000000
0.087489 1.000000 1.000000
0.354421 1.000000 1.000000
0.650627 1.000000 1.000000
0.867810 1.000000 1.000000
0.972829 1.000000 1.000000
0.999809 1.000000 1.000000
