assets/presets/luts/chrome/lut.cube
TITLE "Chrome"
LUT_3D_SIZE 5
0.000000 0.000000 0.000000
0.112701 0.000000 0.000000
0.606531 0.000000 0.000000
1.000000 0.000000 0.000000
1.000000 0.000000 0.000000
0.000000 0.099018 0.000000
0.086262 0.091507 0.000000
0.588800 0.062695 0.000000
1.000000 0.046963 0.000000
1.000000 0.041672 0.000000
0.000000 0.544575 0.000000
0.000000 0.539858 0.000000
0.490759 0.511719 0.000000
0.989868 0.486480 0.000000
1.000000 0.481407 0.000000
0.000000 0.975478 0.000000
0.000000 0.970970 0.000000
0.414767 0.950196 0.000000
0.914721 0.927626 0.000000
1.000000 0.922335 0.000000
0.000000 1.000000 0.000000
0.000000 1.000000 0.000000
0.399480 1.000000 0.000000
0.898744 1.000000 0.000000
1.000000 1.000000 0.000000
0.000000 0.000000 0.127837
0.109864 0.000000 0.120393
0.607777 0.000000 0.086531
1.000000 0.000000 0.065788
1.000000 0.000000 0.060498
0.000000 0.096234 0.101520
0.083424 0.088738 0.094097
0.590420 0.059436 0.064457
1.000000 0.045298 0.049962
1.000000 0.040007 0.044672
0.000000 0.543682 0.002788
0.000000 0.539095 0.000000
0.488977 0.510280 0.000000
0.994763 0.483719 0.000000
1.000000 0.479514 0.000000
0.000000 0.973813 0.000000
0.000000 0.969305 0.000000
0.407873 0.951331 0.000000
0.913056 0.925961 0.000000
1.000000 0.920670 0.000000
0.000000 1.000000 0.000000
0.000000 1.000000 0.000000
0.396907 1.000000 0.000000
0.897079 1.000000 0.000000
1.000000 1.000000 0.000000
0.000000 0.000000 0.665872
0.094456 0.000000 0.664112
0.593161 0.000000 0.634634
1.000000 0.000000 0.587265
1.000000 0.000000 0.580791
0.000000 0.084621 0.649504
0.073456 0.078405 0.648141
0.578676 0.049399 0.620799
1.000000 0.033067 0.575302
1.000000 0.031847 0.565447
0.000000 0.532470 0.552987
0.000000 0.528451 0.549277
0.477303 0.499987 0.522254
1.000000 0.469179 0.490109
1.000000 0.464382 0.484949
0.000000 0.966666 0.470739
0.000000 0.965731 0.462798
0.378209 0.951355 0.420322
0.907395 0.921289 0.388245
1.000000 0.913843 0.386033
0.000000 1.000000 0.455134
0.000000 1.000000 0.450210
0.364205 1.000000 0.405661
0.885831 1.000000 0.371478
1.000000 1.000000 0.368780
0.000000 0.000000 1.000000
0.084899 0.000000 1.000000
0.561882 0.000000 1.000000
1.000000 0.000000 1.000000
1.000000 0.000000 1.000000
0.000000 0.078207 1.000000
0.069073 0.073699 1.000000
0.550520 0.049844 1.000000
1.000000 0.030355 1.000000
1.000000 0.025065 1.000000
0.000000 0.517981 1.000000
0.000000 0.514470 1.000000
0.468721 0.489912 1.000000
0.997713 0.459554 1.000000
1.000000 0.454087 1.000000
0.000000 0.958870 0.970667
0.000000 0.954363 0.966159
0.369781 0.940964 0.953574
0.896497 0.911296 0.924824
1.000000 0.902435 0.915813
0.000000 1.000000 0.954689
0.000000 1.000000 0.950182
0.352959 1.000000 0.931673
0.870059 1.000000 0.898043
1.000000 1.000000 0.889036
0.000000 0.000000 1.000000
0.083457 0.000000 1.000000
0.560230 0.000000 1.000000
1.000000 0.000000 1.000000
1.000000 0.000000 1.000000
0.000000 0.076765 1.000000
0.067631 0.072257 1.000000
0.544878 0.050794 1.000000
1.000000 0.028913 1.000000
1.000000 0.023622 1.000000
0.000000 0.516499 1.000000
0.000000 0.512067 1.000000
0.467688 0.488582 1.000000
0.992611 0.458947 1.000000
1.000000 0.453357 1.000000
0.000000 0.957428 1.000000
0.000000 0.952920 1.000000
0.371555 0.938110 1.000000
0.894262 0.908872 1.000000
1.000000 0.900051 1.000000
0.000000 1.000000 1.000000
0.000000 1.000000 1.000000
0.354421 1.000000 1.000000
0.867810 1.000000 1.000000
0.999809 1.000000 1.000000
