assets/presets/luts/chrome/lut.cube
TITLE "Chrome"
LUT_3D_SIZE 17
0.000000 0.000000 0.000000
0.004046 0.000000 0.000000
0.020302 0.000000 0.000000
0.054555 0.000000 0.000000
0.112701 0.000000 0.000000
0.199325 0.000000 0.000000
0.315238 0.000000 0.000000
0.455014 0.000000 0.000000
0.606531 0.000000 0.000000
0.753998 0.000000 0.000000
0.883290 0.000000 0.000000
0.990328 0.000000 0.000000
1.000000 0.000000 0.000000
1.000000 0.000000 0.000000
1.000000 0.000000 0.000000
1.000000 0.000000 0.000000
1.000000 0.000000 0.000000
0.000000 0.003587 0.000000
0.003049 0.003307 0.000000
0.019315 0.002187 0.000000
0.053590 0.000000 0.000000
0.111771 0.000000 0.000000
0.198451 0.000000 0.000000
0.314440 0.000000 0.000000
0.454310 0.000000 0.000000
0.605932 0.000000 0.000000
0.753506 0.000000 0.000000
0.882896 0.000000 0.000000
0.989758 0.000000 0.000000
1.000000 0.000000 0.000000
1.000000 0.000000 0.000000
1.000000 0.000000 0.000000
1.000000 0.000000 0.000000
1.000000 0.000000 0.000000
0.000000 0.017815 0.000000
0.000000 0.017538 0.000000
0.015381 0.016419 0.000000
0.049728 0.014071 0.000000
0.108052 0.010190 0.000000
0.194950 0.004684 0.000000
0.311238 0.000000 0.000000
0.451481 0.000000 0.000000
0.603522 0.000000 0.000000
0.751521 0.000000 0.000000
0.881300 0.000000 0.000000
0.987493 0.000000 0.000000
1.000000 0.000000 0.000000
1.000000 0.000000 0.000000
1.000000 0.000000 0.000000
1.000000 0.000000 0.000000
1.000000 0.000000 0.000000
0.000000 0.047829 0.000000
0.000000 0.047559 0.000000
0.007166 0.046464 0.000000
0.041505 0.044121 0.000000
0.100062 0.040163 0.000000
0.187402 0.034503 0.000000
0.304317 0.027463 0.000000
0.445345 0.019864 0.000000
0.598270 0.012845 0.000000
0.747167 0.007381 0.000000
0.877765 0.003841 0.000000
0.982704 0.001695 0.000000
1.000000 0.000000 0.000000
1.000000 0.000000 0.000000
1.000000 0.000000 0.000000
1.000000 0.000000 0.000000
1.000000 0.000000 0.000000
0.000000 0.099018 0.000000
0.000000 0.098760 0.000000
0.000000 0.097711 0.000000
0.027728 0.095448 0.000000
0.086262 0.091507 0.000000
0.174133 0.085675 0.000000
0.292038 0.078295 0.000000
0.434375 0.070239 0.000000
0.588800 0.062695 0.000000
0.739225 0.056693 0.000000
0.871223 0.052660 0.000000
0.976304 0.050374 0.000000
1.000000 0.046963 0.000000
1.000000 0.044333 0.000000
1.000000 0.042742 0.000000
1.000000 0.041935 0.000000
1.000000 0.041672 0.000000
0.000000 0.175820 0.000000
0.000000 0.175579 0.000000
0.000000 0.174599 0.000000
0.008166 0.172480 0.000000
0.066125 0.168731 0.000000
0.153944 0.162937 0.000000
0.272810 0.155253 0.000000
0.416889 0.146609 0.000000
0.573470 0.138320 0.000000
0.726151 0.131531 0.000000
0.860234 0.126769 0.000000
0.967045 0.123876 0.000000
1.000000 0.121203 0.000000
1.000000 0.118573 0.000000
1.000000 0.116982 0.000000
1.000000 0.116175 0.000000
1.000000 0.115912 0.000000
0.000000 0.279526 0.000000
0.000000 0.279309 0.000000
0.000000 0.278425 0.000000
0.000000 0.276507 0.000000
0.040999 0.273082 0.000000
0.127758 0.267649 0.000000
0.246529 0.260039 0.000000
0.392015 0.250963 0.000000
0.551039 0.241863 0.000000
0.706546 0.234111 0.000000
0.843340 0.228413 0.000000
0.952438 0.224727 0.000000
1.000000 0.222450 0.000000
1.000000 0.219820 0.000000
1.000000 0.218229 0.000000
1.000000 0.217423 0.000000
1.000000 0.217159 0.000000
0.000000 0.405935 0.000000
0.000000 0.405747 0.000000
0.000000 0.404981 0.000000
0.000000 0.403311 0.000000
0.014025 0.400305 0.000000
0.098981 0.395453 0.000000
0.216175 0.388390 0.000000
0.361525 0.379428 0.000000
0.522196 0.369841 0.000000
0.680403 0.361214 0.000000
0.820113 0.354542 0.000000
0.931794 0.349979 0.000000
1.000000 0.347141 0.000000
1.000000 0.344837 0.000000
1.000000 0.343246 0.000000
1.000000 0.342440 0.000000
1.000000 0.342176 0.000000
0.000000 0.544575 0.000000
0.000000 0.544419 0.000000
0.000000 0.543784 0.000000
0.000000 0.542391 0.000000
0.000000 0.539858 0.000000
0.072100 0.535696 0.000000
0.186759 0.529464 0.000000
0.330239 0.521168 0.000000
0.490759 0.511719 0.000000
0.650479 0.502668 0.000000
0.792504 0.495270 0.000000
0.906514 0.489950 0.000000
0.989868 0.486480 0.000000
1.000000 0.484068 0.000000
1.000000 0.482476 0.000000
1.000000 0.481670 0.000000
1.000000 0.481407 0.000000
0.000000 0.681067 0.000000
0.000000 0.680944 0.000000
0.000000 0.680440 0.000000
0.000000 0.679325 0.000000
0.000000 0.677266 0.000000
0.050793 0.673811 0.000000
0.162603 0.668489 0.000000
0.303273 0.661133 0.000000
0.462056 0.652325 0.000000
0.621653 0.643406 0.000000
0.764757 0.635727 0.000000
0.880290 0.629951 0.000000
0.965063 0.626038 0.000000
1.000000 0.623409 0.000000
1.000000 0.621818 0.000000
1.000000 0.621011 0.000000
1.000000 0.620748 0.000000
0.000000 0.801888 0.000000
0.000000 0.801794 0.000000
0.000000 0.801408 0.000000
0.000000 0.800543 0.000000
0.000000 0.798911 0.000000
0.036448 0.796097 0.000000
0.145578 0.791623 0.000000
0.283321 0.785219 0.000000
0.439692 0.777241 0.000000
0.598046 0.768803 0.000000
0.741077 0.761224 0.000000
0.857207 0.755311 0.000000
0.944144 0.751351 0.000000
1.000000 0.748721 0.000000
1.000000 0.747130 0.000000
1.000000 0.746324 0.000000
1.000000 0.746060 0.000000
0.000000 0.900841 0.000000
0.000000 0.900681 0.000000
0.000000 0.900037 0.000000
0.000000 0.898673 0.000000
0.000000 0.896334 0.000000
0.028173 0.893941 0.000000
0.135084 0.890165 0.000000
0.270299 0.884574 0.000000
0.424341 0.877373 0.000000
0.581109 0.869501 0.000000
0.723460 0.862204 0.000000
0.839963 0.856863 0.000000
0.927179 0.852990 0.000000
0.986395 0.850360 0.000000
1.000000 0.848769 0.000000
1.000000 0.847962 0.000000
1.000000 0.847699 0.000000
0.000000 0.975478 0.000000
0.000000 0.975318 0.000000
0.000000 0.974673 0.000000
0.000000 0.973309 0.000000
0.000000 0.970970 0.000000
0.018380 0.967431 0.000000
0.127464 0.962587 0.000000
0.262580 0.956787 0.000000
0.414767 0.950196 0.000000
0.569963 0.942936 0.000000
0.711056 0.936670 0.000000
0.827505 0.931499 0.000000
0.914721 0.927626 0.000000
0.973937 0.924996 0.000000
1.000000 0.923405 0.000000
1.000000 0.922598 0.000000
1.000000 0.922335 0.000000
0.000000 1.000000 0.000000
0.000000 1.000000 0.000000
0.000000 1.000000 0.000000
0.000000 1.000000 0.000000
0.000000 1.000000 0.000000
0.010121 1.000000 0.000000
0.119204 1.000000 0.000000
0.254765 1.000000 0.000000
0.407198 0.999281 0.000000
0.561703 0.992419 0.000000
0.702796 0.986153 0.000000
0.819246 0.980982 0.000000
0.906462 0.977109 0.000000
0.965678 0.974479 0.000000
1.000000 0.972888 0.000000
1.000000 0.972082 0.000000
1.000000 0.971818 0.000000
0.000000 1.000000 0.000000
0.000000 1.000000 0.000000
0.000000 1.000000 0.000000
0.000000 1.000000 0.000000
0.000000 1.000000 0.000000
0.005288 1.000000 0.000000
0.114372 1.000000 0.000000
0.249933 1.000000 0.000000
0.402365 1.000000 0.000000
0.556870 1.000000 0.000000
0.697963 1.000000 0.000000
0.814413 1.000000 0.000000
0.901629 1.000000 0.000000
0.960845 1.000000 0.000000
0.996681 1.000000 0.000000
1.000000 1.000000 0.000000
1.000000 1.000000 0.000000
0.000000 1.000000 0.000000
0.000000 1.000000 0.000000
0.000000 1.000000 0.000000
0.000000 1.000000 0.000000
0.000000 1.000000 0.000000
0.002993 1.000000 0.000000
0.112076 1.000000 0.000000
0.247637 1.000000 0.000000
0.400069 1.000000 0.000000
0.554575 1.000000 0.000000
0.695668 1.000000 0.000000
0.812117 1.000000 0.000000
0.899333 1.000000 0.000000
0.958549 1.000000 0.000000
0.994385 1.000000 0.000000
1.000000 1.000000 0.000000
1.000000 1.000000 0.000000
0.000000 1.000000 0.000000
0.000000 1.000000 0.000000
0.000000 1.000000 0.000000
0.000000 1.000000 0.000000
0.000000 1.000000 0.000000
0.002403 1.000000 0.000000
0.111486 1.000000 0.000000
0.247047 1.000000 0.000000
0.399480 1.000000 0.000000
0.553985 1.000000 0.000000
0.695078 1.000000 0.000000
0.811528 1.000000 0.000000
0.898744 1.000000 0.000000
0.957960 1.000000 0.000000
0.993795 1.000000 0.000000
1.000000 1.000000 0.000000
1.000000 1.000000 0.000000
0.000000 0.000000 0.004738
0.003939 0.000000 0.004459
0.020201 0.000000 0.003333
0.054463 0.000000 0.000996
0.112625 0.000000 0.000000
0.199273 0.000000 0.000000
0.315220 0.000000 0.000000
0.455038 0.000000 0.000000
0.606601 0.000000 0.000000
0.754116 0.000000 0.000000
0.883452 0.000000 0.000000
0.990267 0.000000 0.000000
1.000000 0.000000 0.000000
1.000000 0.000000 0.000000
1.000000 0.000000 0.000000
1.000000 0.000000 0.000000
1.000000 0.000000 0.000000
0.000000 0.003480 0.003742
0.002943 0.003201 0.003462
0.019214 0.002080 0.002341
0.053498 0.000000 0.000016
0.111696 0.000000 0.000000
0.198400 0.000000 0.000000
0.314422 0.000000 0.000000
0.454334 0.000000 0.000000
0.606003 0.000000 0.000000
0.753624 0.000000 0.000000
0.883058 0.000000 0.000000
0.989697 0.000000 0.000000
1.000000 0.000000 0.000000
1.000000 0.000000 0.000000
1.000000 0.000000 0.000000
1.000000 0.000000 0.000000
1.000000 0.000000 0.000000
0.000000 0.017710 0.000000
0.000000 0.017434 0.000000
0.015276 0.016314 0.000000
0.049636 0.013964 0.000000
0.107978 0.010081 0.000000
0.194900 0.004573 0.000000
0.311223 0.000000 0.000000
0.451507 0.000000 0.000000
0.603595 0.000000 0.000000
0.751642 0.000000 0.000000
0.881463 0.000000 0.000000
0.987432 0.000000 0.000000
1.000000 0.000000 0.000000
1.000000 0.000000 0.000000
1.000000 0.000000 0.000000
1.000000 0.000000 0.000000
1.000000 0.000000 0.000000
0.000000 0.047729 0.000000
0.000000 0.047459 0.000000
0.007051 0.046365 0.000000
0.041402 0.044019 0.000000
0.099985 0.040056 0.000000
0.187353 0.034393 0.000000
0.304303 0.027349 0.000000
0.445373 0.019747 0.000000
0.598347 0.012725 0.000000
0.747291 0.007256 0.000000
0.877933 0.003713 0.000000
0.982643 0.001634 0.000000
1.000000 0.000000 0.000000
1.000000 0.000000 0.000000
1.000000 0.000000 0.000000
1.000000 0.000000 0.000000
1.000000 0.000000 0.000000
0.000000 0.098926 0.000000
0.000000 0.098668 0.000000
0.000000 0.097620 0.000000
0.027605 0.095357 0.000000
0.086163 0.091411 0.000000
0.174074 0.085570 0.000000
0.292021 0.078184 0.000000
0.434405 0.070124 0.000000
0.588879 0.062575 0.000000
0.739353 0.056568 0.000000
0.871395 0.052532 0.000000
0.976512 0.050243 0.000000
1.000000 0.046902 0.000000
1.000000 0.044272 0.000000
1.000000 0.042681 0.000000
1.000000 0.041874 0.000000
1.000000 0.041611 0.000000
0.000000 0.175739 0.000000
0.000000 0.175499 0.000000
0.000000 0.174520 0.000000
0.008024 0.172402 0.000000
0.065994 0.168650 0.000000
0.153851 0.162850 0.000000
0.272774 0.155154 0.000000
0.416910 0.146500 0.000000
0.573546 0.138203 0.000000
0.726279 0.131409 0.000000
0.860408 0.126642 0.000000
0.967257 0.123746 0.000000
1.000000 0.121142 0.000000
1.000000 0.118512 0.000000
1.000000 0.116921 0.000000
1.000000 0.116114 0.000000
1.000000 0.115851 0.000000
0.000000 0.279462 0.000000
0.000000 0.279245 0.000000
0.000000 0.278362 0.000000
0.000000 0.276444 0.000000
0.040837 0.273020 0.000000
0.127619 0.267583 0.000000
0.246445 0.259963 0.000000
0.392002 0.250872 0.000000
0.551095 0.241759 0.000000
0.706663 0.233998 0.000000
0.843508 0.228293 0.000000
0.952646 0.224602 0.000000
1.000000 0.222389 0.000000
1.000000 0.219760 0.000000
1.000000 0.218168 0.000000
1.000000 0.217362 0.000000
1.000000 0.217099 0.000000
0.000000 0.405891 0.000000
0.000000 0.405703 0.000000
0.000000 0.404937 0.000000
0.000000 0.403268 0.000000
0.013832 0.400264 0.000000
0.098800 0.395411 0.000000
0.216033 0.388342 0.000000
0.361452 0.379365 0.000000
0.522204 0.369761 0.000000
0.680485 0.361120 0.000000
0.820256 0.354437 0.000000
0.931983 0.349867 0.000000
1.000000 0.347024 0.000000
1.000000 0.344776 0.000000
1.000000 0.343185 0.000000
1.000000 0.342379 0.000000
1.000000 0.342116 0.000000
0.000000 0.544552 0.000000
0.000000 0.544397 0.000000
0.000000 0.543763 0.000000
0.000000 0.542371 0.000000
0.000000 0.539839 0.000000
0.071881 0.535679 0.000000
0.186565 0.529443 0.000000
0.330099 0.521137 0.000000
0.490699 0.511672 0.000000
0.650502 0.502603 0.000000
0.792598 0.495190 0.000000
0.906662 0.489860 0.000000
0.990055 0.486383 0.000000
1.000000 0.484007 0.000000
1.000000 0.482415 0.000000
1.000000 0.481609 0.000000
1.000000 0.481346 0.000000
0.000000 0.681067 0.000000
0.000000 0.680944 0.000000
0.000000 0.680441 0.000000
0.000000 0.679327 0.000000
0.000000 0.677269 0.000000
0.050540 0.673816 0.000000
0.162366 0.668494 0.000000
0.303076 0.661131 0.000000
0.461929 0.652310 0.000000
0.621607 0.643374 0.000000
0.764788 0.635678 0.000000
0.880381 0.629890 0.000000
0.965197 0.625968 0.000000
1.000000 0.623348 0.000000
1.000000 0.621757 0.000000
1.000000 0.620950 0.000000
1.000000 0.620687 0.000000
0.000000 0.801908 0.000000
0.000000 0.801814 0.000000
0.000000 0.801429 0.000000
0.000000 0.800565 0.000000
0.000000 0.798935 0.000000
0.036166 0.796122 0.000000
0.145306 0.791649 0.000000
0.283081 0.785242 0.000000
0.439509 0.777253 0.000000
0.597938 0.768800 0.000000
0.741045 0.761205 0.000000
0.857238 0.755278 0.000000
0.944083 0.751290 0.000000
1.000000 0.748661 0.000000
1.000000 0.747069 0.000000
1.000000 0.746263 0.000000
1.000000 0.746000 0.000000
0.000000 0.900781 0.000000
0.000000 0.900621 0.000000
0.000000 0.899976 0.000000
0.000000 0.898612 0.000000
0.000000 0.896273 0.000000
0.027867 0.893983 0.000000
0.134786 0.890208 0.000000
0.270026 0.884615 0.000000
0.424117 0.877406 0.000000
0.580954 0.869521 0.000000
0.723378 0.862209 0.000000
0.839903 0.856802 0.000000
0.927118 0.852929 0.000000
0.986334 0.850299 0.000000
1.000000 0.848708 0.000000
1.000000 0.847901 0.000000
1.000000 0.847638 0.000000
0.000000 0.975417 0.000000
0.000000 0.975257 0.000000
0.000000 0.974613 0.000000
0.000000 0.973248 0.000000
0.000000 0.970909 0.000000
0.018320 0.967370 0.000000
0.127403 0.962526 0.000000
0.262286 0.956841 0.000000
0.414517 0.950244 0.000000
0.569902 0.942875 0.000000
0.710995 0.936609 0.000000
0.827445 0.931438 0.000000
0.914660 0.927565 0.000000
0.973876 0.924935 0.000000
1.000000 0.923344 0.000000
1.000000 0.922538 0.000000
1.000000 0.922274 0.000000
0.000000 1.000000 0.000000
0.000000 1.000000 0.000000
0.000000 1.000000 0.000000
0.000000 1.000000 0.000000
0.000000 1.000000 0.000000
0.010060 1.000000 0.000000
0.119143 1.000000 0.000000
0.254704 1.000000 0.000000
0.407137 0.999220 0.000000
0.561642 0.992358 0.000000
0.702735 0.986093 0.000000
0.819185 0.980921 0.000000
0.906401 0.977048 0.000000
0.965617 0.974419 0.000000
1.000000 0.972827 0.000000
1.000000 0.972021 0.000000
1.000000 0.971758 0.000000
0.000000 1.000000 0.000000
0.000000 1.000000 0.000000
0.000000 1.000000 0.000000
0.000000 1.000000 0.000000
0.000000 1.000000 0.000000
0.005227 1.000000 0.000000
0.114311 1.000000 0.000000
0.249872 1.000000 0.000000
0.402304 1.000000 0.000000
0.556810 1.000000 0.000000
0.697903 1.000000 0.000000
0.814352 1.000000 0.000000
0.901568 1.000000 0.000000
0.960784 1.000000 0.000000
0.996620 1.000000 0.000000
1.000000 1.000000 0.000000
1.000000 1.000000 0.000000
0.000000 1.000000 0.000000
0.000000 1.000000 0.000000
0.000000 1.000000 0.000000
0.000000 1.000000 0.000000
0.000000 1.000000 0.000000
0.002932 1.000000 0.000000
0.112015 1.000000 0.000000
0.247576 1.000000 0.000000
0.400008 1.000000 0.000000
0.554514 1.000000 0.000000
0.695607 1.000000 0.000000
0.812057 1.000000 0.000000
0.899272 1.000000 0.000000
0.958488 1.000000 0.000000
0.994324 1.000000 0.000000
1.000000 1.000000 0.000000
1.000000 1.000000 0.000000
0.000000 1.000000 0.000000
0.000000 1.000000 0.000000
0.000000 1.000000 0.000000
0.000000 1.000000 0.000000
0.000000 1.000000 0.000000
0.002342 1.000000 0.000000
0.111425 1.000000 0.000000
0.246986 1.000000 0.000000
0.399419 1.000000 0.000000
0.553924 1.000000 0.000000
0.695017 1.000000 0.000000
0.811467 1.000000 0.000000
0.898683 1.000000 0.000000
0.957899 1.000000 0.000000
0.993734 1.000000 0.000000
1.000000 1.000000 0.000000
1.000000 1.000000 0.000000
0.000000 0.000000 0.023260
0.003519 0.000000 0.022987
0.019781 0.000000 0.021867
0.054081 0.000000 0.019468
0.112308 0.000000 0.015479
0.199053 0.000000 0.009804
0.315132 0.000000 0.002750
0.455113 0.000000 0.000000
0.606860 0.000000 0.000000
0.754561 0.000000 0.000000
0.884067 0.000000 0.000000
0.990029 0.000000 0.000000
1.000000 0.000000 0.000000
1.000000 0.000000 0.000000
1.000000 0.000000 0.000000
1.000000 0.000000 0.000000
1.000000 0.000000 0.000000
0.000000 0.003064 0.022275
0.002529 0.002786 0.022002
0.018797 0.001666 0.020885
0.053119 0.000000 0.018492
0.111381 0.000000 0.014520
0.198182 0.000000 0.008874
0.314336 0.000000 0.001862
0.454411 0.000000 0.000000
0.606264 0.000000 0.000000
0.754072 0.000000 0.000000
0.883676 0.000000 0.000000
0.989458 0.000000 0.000000
1.000000 0.000000 0.000000
1.000000 0.000000 0.000000
1.000000 0.000000 0.000000
1.000000 0.000000 0.000000
1.000000 0.000000 0.000000
0.000000 0.017295 0.018343
0.000000 0.017019 0.018068
0.014860 0.015900 0.016951
0.049265 0.013543 0.014590
0.107671 0.009655 0.010695
0.194690 0.004140 0.005168
0.311144 0.000000 0.000000
0.451592 0.000000 0.000000
0.603864 0.000000 0.000000
0.752097 0.000000 0.000000
0.882089 0.000000 0.000000
0.987194 0.000000 0.000000
1.000000 0.000000 0.000000
1.000000 0.000000 0.000000
1.000000 0.000000 0.000000
1.000000 0.000000 0.000000
1.000000 0.000000 0.000000
0.000000 0.047331 0.010110
0.000000 0.047062 0.009827
0.006604 0.045970 0.008686
0.040995 0.043617 0.006323
0.099673 0.039637 0.002553
0.187149 0.033961 0.000000
0.304235 0.026905 0.000000
0.445471 0.019290 0.000000
0.598629 0.012253 0.000000
0.747760 0.006771 0.000000
0.878573 0.003215 0.000000
0.982673 0.001324 0.000000
1.000000 0.000000 0.000000
1.000000 0.000000 0.000000
1.000000 0.000000 0.000000
1.000000 0.000000 0.000000
1.000000 0.000000 0.000000
0.000000 0.098559 0.000000
0.000000 0.098301 0.000000
0.000000 0.097256 0.000000
0.027124 0.094994 0.000000
0.085771 0.091030 0.000000
0.173838 0.085159 0.000000
0.291948 0.077749 0.000000
0.434510 0.069669 0.000000
0.589175 0.062103 0.000000
0.739839 0.056081 0.000000
0.872054 0.052031 0.000000
0.977313 0.049732 0.000000
1.000000 0.046663 0.000000
1.000000 0.044034 0.000000
1.000000 0.042442 0.000000
1.000000 0.041636 0.000000
1.000000 0.041373 0.000000
0.000000 0.175418 0.000000
0.000000 0.175178 0.000000
0.000000 0.174202 0.000000
0.007470 0.172087 0.000000
0.065479 0.168332 0.000000
0.153484 0.162502 0.000000
0.272625 0.154761 0.000000
0.416983 0.146070 0.000000
0.573835 0.137745 0.000000
0.726771 0.130930 0.000000
0.861079 0.126146 0.000000
0.968074 0.123236 0.000000
1.000000 0.120903 0.000000
1.000000 0.118274 0.000000
1.000000 0.116682 0.000000
1.000000 0.115876 0.000000
1.000000 0.115613 0.000000
0.000000 0.279204 0.000000
0.000000 0.278987 0.000000
0.000000 0.278107 0.000000
0.000000 0.276194 0.000000
0.040206 0.272772 0.000000
0.127074 0.267323 0.000000
0.246111 0.259659 0.000000
0.391946 0.250510 0.000000
0.551308 0.241348 0.000000
0.707112 0.233551 0.000000
0.844157 0.227820 0.000000
0.953453 0.224110 0.000000
1.000000 0.221941 0.000000
1.000000 0.219521 0.000000
1.000000 0.217930 0.000000
1.000000 0.217123 0.000000
1.000000 0.216860 0.000000
0.000000 0.405710 0.000000
0.000000 0.405522 0.000000
0.000000 0.404760 0.000000
0.000000 0.403096 0.000000
0.013083 0.400097 0.000000
0.098093 0.395242 0.000000
0.215472 0.388149 0.000000
0.361162 0.379115 0.000000
0.522231 0.369444 0.000000
0.680802 0.360747 0.000000
0.820810 0.354023 0.000000
0.932718 0.349424 0.000000
1.000000 0.346563 0.000000
1.000000 0.344538 0.000000
1.000000 0.342947 0.000000
1.000000 0.342140 0.000000
1.000000 0.341877 0.000000
0.000000 0.544458 0.000000
0.000000 0.544303 0.000000
0.000000 0.543671 0.000000
0.000000 0.542285 0.000000
0.000000 0.539760 0.000000
0.071027 0.535603 0.000000
0.185803 0.529357 0.000000
0.329549 0.521013 0.000000
0.490460 0.511482 0.000000
0.650588 0.502344 0.000000
0.792962 0.494874 0.000000
0.907239 0.489504 0.000000
0.990782 0.486000 0.000000
1.000000 0.483768 0.000000
1.000000 0.482177 0.000000
1.000000 0.481370 0.000000
1.000000 0.481107 0.000000
0.000000 0.681059 0.000000
0.000000 0.680937 0.000000
0.000000 0.680436 0.000000
0.000000 0.679327 0.000000
0.000000 0.677277 0.000000
0.049553 0.673831 0.000000
0.161437 0.668507 0.000000
0.302305 0.661120 0.000000
0.461425 0.652246 0.000000
0.621423 0.643242 0.000000
0.764903 0.635483 0.000000
0.880734 0.629645 0.000000
0.965720 0.625689 0.000000
1.000000 0.623110 0.000000
1.000000 0.621518 0.000000
1.000000 0.620712 0.000000
1.000000 0.620449 0.000000
0.000000 0.801977 0.000000
0.000000 0.801885 0.000000
0.000000 0.801502 0.000000
0.000000 0.800643 0.000000
0.000000 0.799021 0.000000
0.035066 0.796217 0.000000
0.144244 0.791746 0.000000
0.282139 0.785324 0.000000
0.438790 0.777296 0.000000
0.597513 0.768783 0.000000
0.740916 0.761125 0.000000
0.857357 0.755145 0.000000
0.943845 0.751052 0.000000
1.000000 0.748422 0.000000
1.000000 0.746831 0.000000
1.000000 0.746024 0.000000
1.000000 0.745761 0.000000
0.000000 0.900542 0.000000
0.000000 0.900382 0.000000
0.000000 0.899738 0.000000
0.000000 0.898373 0.000000
0.000000 0.896423 0.000000
0.026678 0.894141 0.000000
0.133623 0.890372 0.000000
0.268959 0.884770 0.000000
0.423241 0.877531 0.000000
0.580345 0.869594 0.000000
0.723051 0.862223 0.000000
0.839664 0.856563 0.000000
0.926880 0.852690 0.000000
0.986096 0.850061 0.000000
1.000000 0.848469 0.000000
1.000000 0.847663 0.000000
1.000000 0.847400 0.000000
0.000000 0.975178 0.000000
0.000000 0.975018 0.000000
0.000000 0.974374 0.000000
0.000000 0.973009 0.000000
0.000000 0.970671 0.000000
0.018081 0.967131 0.000000
0.127164 0.962287 0.000000
0.261132 0.957048 0.000000
0.413533 0.950426 0.000000
0.569201 0.942984 0.000000
0.710756 0.936371 0.000000
0.827206 0.931200 0.000000
0.914422 0.927326 0.000000
0.973638 0.924697 0.000000
1.000000 0.923105 0.000000
1.000000 0.922299 0.000000
1.000000 0.922036 0.000000
0.000000 1.000000 0.000000
0.000000 1.000000 0.000000
0.000000 1.000000 0.000000
0.000000 1.000000 0.000000
0.000000 1.000000 0.000000
0.009822 1.000000 0.000000
0.118905 1.000000 0.000000
0.254466 1.000000 0.000000
0.406898 0.998981 0.000000
0.561404 0.992120 0.000000
0.702497 0.985854 0.000000
0.818947 0.980683 0.000000
0.906162 0.976810 0.000000
0.965378 0.974180 0.000000
1.000000 0.972589 0.000000
1.000000 0.971782 0.000000
1.000000 0.971519 0.000000
0.000000 1.000000 0.000000
0.000000 1.000000 0.000000
0.000000 1.000000 0.000000
0.000000 1.000000 0.000000
0.000000 1.000000 0.000000
0.004989 1.000000 0.000000
0.114072 1.000000 0.000000
0.249633 1.000000 0.000000
0.402066 1.000000 0.000000
0.556571 1.000000 0.000000
0.697664 1.000000 0.000000
0.814114 1.000000 0.000000
0.901330 1.000000 0.000000
0.960546 1.000000 0.000000
0.996381 1.000000 0.000000
1.000000 1.000000 0.000000
1.000000 1.000000 0.000000
0.000000 1.000000 0.000000
0.000000 1.000000 0.000000
0.000000 1.000000 0.000000
0.000000 1.000000 0.000000
0.000000 1.000000 0.000000
0.002693 1.000000 0.000000
0.111776 1.000000 0.000000
0.247337 1.000000 0.000000
0.399770 1.000000 0.000000
0.554275 1.000000 0.000000
0.695368 1.000000 0.000000
0.811818 1.000000 0.000000
0.899034 1.000000 0.000000
0.958250 1.000000 0.000000
0.994085 1.000000 0.000000
1.000000 1.000000 0.000000
1.000000 1.000000 0.000000
0.000000 1.000000 0.000000
0.000000 1.000000 0.000000
0.000000 1.000000 0.000000
0.000000 1.000000 0.000000
0.000000 1.000000 0.000000
0.002104 1.000000 0.000000
0.111187 1.000000 0.000000
0.246748 1.000000 0.000000
0.399180 1.000000 0.000000
0.553686 1.000000 0.000000
0.694779 1.000000 0.000000
0.811229 1.000000 0.000000
0.898444 1.000000 0.000000
0.957660 1.000000 0.000000
0.993496 1.000000 0.000000
1.000000 1.000000 0.000000
1.000000 1.000000 0.000000
0.000000 0.000000 0.062113
0.002651 0.000000 0.061854
0.018860 0.000000 0.060787
0.053168 0.000000 0.058422
0.111528 0.000000 0.054255
0.198486 0.000000 0.048175
0.314847 0.000000 0.040524
0.455177 0.000000 0.032154
0.607314 0.000000 0.024264
0.755409 0.000000 0.017914
0.885275 0.000000 0.013566
0.989525 0.000000 0.010826
1.000000 0.000000 0.006953
1.000000 0.000000 0.004323
1.000000 0.000000 0.002732
1.000000 0.000000 0.001926
1.000000 0.000000 0.001662
0.000000 0.002205 0.061153
0.001674 0.001931 0.060894
0.017886 0.000822 0.059830
