assets/presets/luts/cyber-neon/lut.cube
TITLE "Cyber Neon"
LUT_3D_SIZE 9
0.000000 0.000000 0.000000
0.057349 0.000000 0.000000
0.236835 0.000000 0.000000
0.415588 0.000000 0.000000
0.594506 0.000000 0.000000
0.773654 0.000000 0.000000
0.953021 0.000000 0.000000
1.000000 0.000000 0.000000
1.000000 0.000000 0.000000
0.000000 0.065421 0.000000
0.030163 0.056344 0.000000
0.194968 0.053858 0.000000
0.371789 0.047510 0.000000
0.550369 0.040605 0.000000
0.729553 0.033577 0.000000
0.909042 0.026522 0.000000
1.000000 0.019467 0.000000
1.000000 0.012414 0.000000
0.000000 0.219999 0.000000
0.028713 0.209637 0.000000
0.186622 0.207006 0.000000
0.347529 0.206641 0.000000
0.519048 0.202777 0.000000
0.694575 0.197449 0.000000
0.871863 0.191445 0.000000
1.000000 0.185036 0.000000
1.000000 0.178166 0.000000
0.000000 0.375244 0.000000
0.026377 0.364383 0.000000
0.193060 0.358337 0.000000
0.345635 0.358573 0.000000
0.505276 0.358713 0.000000
0.673697 0.355882 0.000000
0.847018 0.351173 0.000000
1.000000 0.345263 0.000000
1.000000 0.338522 0.000000
0.000000 0.530743 0.000000
0.024545 0.519183 0.000000
0.196665 0.511143 0.000000
0.354952 0.507733 0.000000
0.507762 0.508224 0.000000
0.667982 0.507602 0.000000
0.835208 0.504540 0.000000
1.000000 0.499704 0.000000
1.000000 0.493704 0.000000
0.000000 0.684882 0.000000
0.025296 0.671945 0.000000
0.200834 0.662293 0.000000
0.364253 0.656391 0.000000
0.518604 0.654053 0.000000
0.671937 0.654072 0.000000
0.831776 0.652650 0.000000
0.997198 0.649183 0.000000
1.000000 0.644240 0.000000
0.000000 0.836546 0.000000
0.026549 0.822553 0.000000
0.203805 0.811666 0.000000
0.370390 0.803918 0.000000
0.528036 0.799039 0.000000
0.679574 0.797246 0.000000
0.832827 0.796790 0.000000
0.991973 0.795021 0.000000
1.000000 0.791713 0.000000
0.000000 0.985981 0.000000
0.024987 0.971468 0.000000
0.203083 0.959622 0.000000
0.372147 0.950587 0.000000
0.533096 0.944274 0.000000
0.687432 0.940591 0.000000
0.838238 0.939603 0.000000
0.991785 0.939294 0.000000
1.000000 0.937667 0.000000
0.000000 1.000000 0.000000
0.020928 1.000000 0.000000
0.200432 1.000000 0.000000
0.371745 1.000000 0.000000
0.535411 1.000000 0.000000
0.692507 1.000000 0.000000
0.844256 1.000000 0.000000
0.994228 1.000000 0.000000
1.000000 1.000000 0.000000
0.000000 0.000000 0.176697
0.050928 0.000000 0.169764
0.243161 0.000000 0.165260
0.430588 0.000000 0.151989
0.612897 0.000000 0.137856
0.793833 0.000000 0.124422
0.974307 0.000000 0.111409
1.000000 0.000000 0.098598
1.000000 0.000000 0.085875
0.000000 0.066010 0.144248
0.024620 0.056737 0.129002
0.211507 0.046800 0.120322
0.392658 0.039177 0.106759
0.572636 0.031870 0.094498
0.752508 0.024653 0.082454
0.932401 0.017493 0.070414
1.000000 0.010370 0.058337
1.000000 0.003270 0.046237
0.000000 0.226483 0.102465
0.008041 0.216264 0.092764
0.187345 0.207026 0.102657
0.353175 0.204914 0.082209
0.530156 0.198994 0.067025
0.708942 0.192381 0.053595
0.888277 0.185544 0.040795
1.000000 0.178488 0.028487
1.000000 0.171097 0.016803
0.000000 0.382947 0.066449
0.005476 0.371607 0.065035
0.190038 0.360235 0.081762
0.346291 0.358585 0.085500
0.508170 0.357963 0.061929
0.680348 0.353745 0.042805
0.856860 0.347791 0.027147
1.000000 0.340871 0.013637
1.000000 0.333315 0.001617
0.000000 0.538808 0.035458
0.004089 0.526353 0.040711
0.190324 0.514051 0.059943
0.355421 0.508142 0.077052
0.508765 0.507929 0.071198
0.670401 0.506802 0.048686
0.840183 0.502780 0.029416
1.000000 0.496944 0.013510
1.000000 0.490061 0.000727
0.000000 0.692837 0.010390
0.005295 0.678847 0.021803
0.192238 0.665729 0.043049
0.362697 0.657428 0.063626
0.519741 0.653711 0.076672
0.672864 0.653495 0.064848
0.833706 0.651677 0.044265
1.000000 0.647488 0.026278
1.000000 0.641808 0.012913
0.000000 0.844325 0.000000
0.006421 0.829271 0.008411
0.193170 0.815486 0.031300
0.366483 0.805496 0.054223
0.527755 0.799202 0.073920
0.680420 0.796576 0.081661
0.833519 0.796066 0.067180
0.993543 0.794028 0.047483
1.000000 0.790271 0.032552
0.000000 0.993716 0.000000
0.004052 0.978163 0.000273
0.190488 0.963857 0.024269
0.366052 0.952788 0.048246
0.531267 0.945026 0.069995
0.687865 0.940350 0.086644
0.838909 0.938948 0.087367
0.992327 0.938645 0.070393
1.000000 0.936867 0.055078
0.000000 1.000000 0.000000
0.000000 1.000000 0.000000
0.186352 1.000000 0.017802
0.363727 1.000000 0.041653
0.531802 1.000000 0.064011
0.691592 1.000000 0.083053
0.844679 1.000000 0.094864
0.994504 1.000000 0.089947
1.000000 1.000000 0.076962
0.000000 0.000000 0.363360
0.047529 0.000000 0.356426
0.232970 0.000000 0.349514
0.427513 0.000000 0.345550
0.619643 0.000000 0.333884
0.805687 0.000000 0.318631
0.989193 0.000000 0.303308
1.000000 0.000000 0.288403
1.000000 0.000000 0.273899
0.000000 0.062409 0.328404
0.021511 0.053916 0.316471
0.205721 0.044871 0.307249
0.400112 0.032676 0.300337
0.587946 0.023396 0.284774
0.771080 0.015585 0.269252
0.952729 0.008173 0.254704
1.000000 0.000921 0.240817
1.000000 0.000000 0.227375
0.000000 0.226009 0.291599
0.000000 0.216643 0.277585
0.185009 0.207383 0.257725
0.370041 0.198327 0.249668
0.550736 0.191132 0.236264
0.730866 0.184027 0.223785
0.910892 0.176920 0.211577
1.000000 0.169604 0.199830
1.000000 0.162000 0.188632
0.000000 0.387091 0.244587
0.000000 0.377370 0.231803
0.172829 0.366281 0.224542
0.347029 0.358570 0.235348
0.513839 0.356207 0.214218
0.691378 0.349927 0.199425
0.871313 0.342580 0.187124
1.000000 0.334694 0.176112
1.000000 0.326428 0.166014
0.000000 0.544660 0.203709
0.000000 0.533512 0.196860
0.172495 0.520387 0.200829
0.353947 0.509333 0.220373
0.509779 0.507611 0.221715
0.673912 0.505605 0.200078
0.847371 0.500186 0.183315
1.000000 0.493107 0.170084
1.000000 0.485226 0.159536
0.000000 0.699236 0.172885
0.000000 0.686381 0.172898
0.174102 0.672003 0.183994
0.357784 0.659586 0.205876
0.520569 0.653591 0.224006
0.673782 0.652893 0.216060
0.836232 0.650472 0.196043
1.000000 0.645284 0.179715
1.000000 0.638682 0.167956
0.000000 0.850955 0.151423
0.000000 0.836901 0.157072
0.174231 0.821752 0.172715
0.358475 0.808379 0.196274
0.526271 0.799822 0.218610
0.681275 0.795966 0.231653
0.834234 0.795336 0.218778
0.995530 0.792899 0.199313
1.000000 0.788524 0.185130
0.000000 1.000000 0.138239
0.000000 0.985804 0.147956
0.170439 0.970295 0.165999
0.355567 0.956379 0.190028
0.527520 0.946451 0.213419
0.687707 0.940443 0.232741
0.839598 0.938318 0.238188
0.992874 0.937998 0.221871
1.000000 0.935999 0.206615
0.000000 1.000000 0.129575
0.000000 1.000000 0.140838
0.165506 1.000000 0.159485
0.351246 1.000000 0.183120
0.525762 1.000000 0.206509
0.689686 1.000000 0.227372
0.844881 1.000000 0.242581
0.994773 1.000000 0.240934
1.000000 1.000000 0.228230
0.000000 0.000000 0.549949
0.044529 0.000000 0.543000
0.228826 0.000000 0.535825
0.416310 0.000000 0.528525
0.612288 0.000000 0.524605
0.807172 0.000000 0.514340
0.996252 0.000000 0.499245
1.000000 0.000000 0.483118
1.000000 0.000000 0.467056
0.000000 0.059473 0.513297
0.019150 0.051057 0.502259
0.202738 0.042268 0.492725
0.389993 0.032382 0.484284
0.586845 0.019452 0.478602
0.778886 0.008880 0.464400
0.965245 0.000286 0.447851
1.000000 0.000000 0.431699
1.000000 0.000000 0.416266
0.000000 0.221806 0.476576
0.000000 0.213000 0.461677
0.181037 0.204713 0.447655
0.366555 0.195733 0.437544
0.561769 0.183793 0.428456
0.748097 0.175255 0.411924
0.930798 0.167658 0.396579
1.000000 0.160050 0.382838
1.000000 0.152252 0.370324
0.000000 0.386513 0.434321
0.000000 0.377315 0.419981
0.156884 0.368087 0.405573
0.347256 0.358684 0.385325
0.530318 0.350042 0.378264
0.711700 0.342226 0.367029
0.893302 0.334152 0.356648
1.000000 0.325816 0.346889
1.000000 0.317227 0.337719
0.000000 0.547466 0.386319
0.000000 0.537412 0.373840
0.147732 0.526582 0.363409
0.341221 0.514041 0.361844
0.510806 0.507268 0.372279
0.680350 0.503331 0.353360
0.858953 0.495887 0.340973
1.000000 0.487425 0.331168
1.000000 0.478550 0.322976
0.000000 0.703476 0.348448
0.000000 0.691815 0.340930
0.148500 0.679160 0.338009
0.342679 0.664866 0.347023
0.519990 0.654124 0.368809
0.674714 0.652259 0.367323
0.840047 0.648786 0.348547
1.000000 0.642173 0.334919
1.000000 0.634411 0.325326
0.000000 0.855973 0.321843
0.000000 0.843029 0.319688
0.148258 0.829173 0.323165
0.341257 0.814022 0.337851
0.521788 0.801485 0.361802
0.681997 0.795521 0.380402
0.834998 0.794593 0.370365
0.998283 0.791511 0.351466
1.000000 0.786251 0.338477
0.000000 1.000000 0.305148
0.000000 0.992292 0.307385
0.144264 0.977838 0.314826
0.336763 0.962457 0.331674
0.519812 0.949177 0.355641
0.686437 0.940996 0.377575
0.840302 0.937736 0.388513
0.993449 0.937348 0.373328
1.000000 0.935007 0.358209
0.000000 1.000000 0.293446
0.000000 1.000000 0.297688
0.139263 1.000000 0.307023
0.331241 1.000000 0.324665
0.515354 1.000000 0.348113
0.685914 1.000000 0.370648
0.844543 1.000000 0.388726
0.995042 1.000000 0.391666
1.000000 1.000000 0.379462
0.000000 0.000000 0.736466
0.041680 0.000000 0.729504
0.225540 0.000000 0.722281
0.411402 0.000000 0.714213
0.600593 0.000000 0.706878
0.797597 0.000000 0.702828
0.994226 0.000000 0.693551
1.000000 0.000000 0.679079
1.000000 0.000000 0.662829
0.000000 0.056616 0.698480
0.016823 0.048204 0.688028
0.200268 0.039512 0.678321
0.385740 0.030281 0.668956
0.575343 0.019740 0.661197
0.773476 0.006467 0.656016
0.968046 0.000000 0.643349
1.000000 0.000000 0.627049
1.000000 0.000000 0.610320
0.000000 0.218487 0.660297
0.000000 0.210115 0.646129
0.178983 0.201936 0.633044
0.363493 0.193305 0.622548
0.552172 0.183286 0.613734
0.749875 0.170421 0.606558
0.940569 0.160427 0.591223
1.000000 0.151731 0.575392
1.000000 0.143331 0.560842
0.000000 0.382544 0.621480
0.000000 0.373296 0.605869
0.158323 0.364385 0.589959
0.343263 0.355919 0.576161
0.530495 0.346181 0.567375
0.726104 0.333910 0.558036
0.912464 0.324764 0.543866
1.000000 0.316023 0.531618
1.000000 0.307188 0.520909
0.000000 0.546715 0.576591
0.000000 0.536967 0.563484
0.133988 0.526968 0.550962
0.323191 0.516707 0.539018
0.511746 0.506876 0.523434
0.697342 0.496787 0.517677
0.879614 0.487786 0.509359
1.000000 0.478562 0.501770
1.000000 0.469098 0.494819
0.000000 0.705123 0.534300
0.000000 0.694303 0.523676
0.126205 0.683077 0.514195
0.317584 0.671187 0.507069
0.510806 0.657467 0.510894
0.675806 0.651550 0.518642
0.847274 0.645819 0.503454
1.000000 0.637232 0.494269
1.000000 0.628137 0.487347
0.000000 0.859007 0.502514
0.000000 0.847009 0.495778
0.123321 0.834472 0.491359
0.315113 0.821075 0.491512
0.507653 0.806162 0.503558
0.681723 0.795643 0.526463
0.835903 0.793810 0.521944
1.000000 0.789557 0.504502
1.000000 0.782987 0.493515
0.000000 1.000000 0.481639
0.000000 0.997132 0.478615
0.118358 0.983849 0.478032
0.310525 0.969841 0.482286
0.502925 0.954697 0.497216
0.682371 0.942537 0.520870
0.840952 0.937275 0.537825
0.994104 0.936679 0.524767
1.000000 0.933761 0.509991
0.000000 1.000000 0.466027
0.000000 1.000000 0.464846
0.112894 1.000000 0.466531
0.304857 1.000000 0.473298
0.496566 1.000000 0.489504
0.678249 1.000000 0.512659
0.843124 1.000000 0.533402
0.995318 1.000000 0.541956
1.000000 1.000000 0.530655
0.000000 0.000000 0.922912
0.038925 0.000000 0.915950
0.222556 0.000000 0.908630
0.407819 0.000000 0.900454
0.594953 0.000000 0.891919
0.785604 0.000000 0.884651
0.983382 0.000000 0.880431
1.000000 0.000000 0.871868
1.000000 0.000000 0.858137
0.000000 0.053780 0.883786
0.014529 0.045358 0.873763
0.197940 0.036727 0.863904
0.382812 0.027733 0.854251
0.569855 0.018117 0.845095
0.761287 0.007055 0.837916
0.960177 0.000000 0.832994
1.000000 0.000000 0.821623
1.000000 0.000000 0.806122
0.000000 0.215541 0.844415
0.000000 0.207331 0.831018
0.176942 0.199159 0.818436
0.361182 0.190628 0.807836
0.547433 0.181449 0.797872
0.738375 0.170641 0.790191
0.937538 0.157136 0.784445
1.000000 0.145820 0.771435
1.000000 0.136011 0.756474
0.000000 0.378610 0.804929
0.000000 0.369904 0.789460
0.157085 0.361467 0.774366
0.341467 0.353016 0.761792
0.527138 0.343761 0.752508
0.718248 0.332501 0.746042
0.917091 0.318803 0.739793
1.000000 0.308069 0.726699
1.000000 0.298300 0.713935
0.000000 0.542965 0.765548
0.000000 0.532964 0.751905
0.136053 0.522688 0.738040
0.324969 0.512625 0.724559
0.510951 0.503023 0.713813
0.700414 0.491682 0.708546
0.895298 0.478836 0.700627
1.000000 0.468755 0.689727
1.000000 0.458808 0.680753
0.000000 0.703909 0.725531
0.000000 0.693303 0.714695
0.114215 0.682485 0.704512
0.303309 0.671458 0.694994
0.492370 0.660195 0.686103
0.676304 0.650600 0.673853
0.865386 0.638323 0.670931
1.000000 0.628431 0.665179
1.000000 0.618467 0.659525
0.000000 0.859777 0.690921
0.000000 0.848363 0.682563
0.103338 0.836706 0.675079
0.292317 0.824753 0.668663
0.482145 0.812349 0.663834
0.674002 0.798308 0.669272
0.837440 0.792828 0.673646
1.000000 0.786073 0.660562
1.000000 0.777625 0.652816
0.000000 1.000000 0.666261
0.000000 0.999935 0.660316
0.095216 0.987646 0.655048
0.285456 0.975031 0.651210
0.476705 0.961760 0.651016
0.668821 0.947064 0.662541
0.840926 0.937274 0.684597
0.995015 0.935935 0.676221
1.000000 0.931922 0.662402
0.000000 1.000000 0.646478
0.000000 1.000000 0.641676
0.088116 1.000000 0.638035
0.278747 1.000000 0.636625
0.470034 1.000000 0.639898
0.661381 1.000000 0.653918
0.839041 1.000000 0.676501
0.995566 1.000000 0.691347
1.000000 1.000000 0.681799
0.000000 0.000000 1.000000
0.036237 0.000000 1.000000
0.219747 0.000000 1.000000
0.404680 0.000000 1.000000
0.591025 0.000000 1.000000
0.779291 0.000000 1.000000
0.971180 0.000000 1.000000
1.000000 0.000000 1.000000
1.000000 0.000000 1.000000
0.000000 0.050953 1.000000
0.012264 0.042519 1.000000
0.195684 0.033933 1.000000
0.380261 0.025070 1.000000
0.566325 0.015820 1.000000
0.754740 0.005830 1.000000
0.947572 0.000000 1.000000
1.000000 0.000000 1.000000
1.000000 0.000000 0.999504
0.000000 0.212715 1.000000
0.000000 0.204565 1.000000
0.174910 0.196384 1.000000
0.359025 0.187905 0.993149
0.544490 0.178986 0.982926
0.732250 0.169268 0.973687
0.925361 0.157588 0.967417
1.000000 0.143493 0.963015
1.000000 0.131162 0.952228
0.000000 0.375353 0.988488
0.000000 0.366955 0.973575
0.155373 0.358626 0.959323
0.339717 0.350083 0.947493
0.525114 0.340866 0.938298
0.712994 0.330669 0.930433
0.906633 0.318304 0.925880
1.000000 0.303793 0.921815
1.000000 0.291731 0.911003
0.000000 0.538552 0.950566
0.000000 0.528697 0.936195
0.137308 0.518911 0.922391
0.324103 0.509332 0.909921
0.509459 0.499742 0.900399
0.696099 0.489292 0.894103
0.888775 0.476536 0.891199
1.000000 0.462161 0.886835
1.000000 0.450472 0.876996
0.000000 0.700124 0.915909
0.000000 0.689251 0.904772
0.115154 0.678126 0.893887
0.305476 0.666829 0.882830
0.493706 0.655902 0.872418
0.678690 0.645392 0.865443
0.868191 0.632805 0.863802
1.000000 0.619380 0.858167
1.000000 0.608393 0.849424
0.000000 0.858101 0.883205
0.000000 0.846778 0.874889
0.092703 0.835280 0.867292
0.280725 0.823647 0.860212
0.468892 0.811967 0.853109
0.657497 0.800194 0.845672
0.839281 0.790893 0.833905
1.000000 0.777832 0.831512
1.000000 0.767918 0.824954
0.000000 1.000000 0.856702
0.000000 1.000000 0.849744
0.077558 0.988730 0.842790
0.265779 0.977031 0.835864
0.454211 0.965264 0.829119
0.643316 0.953210 0.823400
0.834323 0.939614 0.827572
0.997127 0.934797 0.828083
1.000000 0.928306 0.817413
0.000000 1.000000 0.833366
0.000000 1.000000 0.826639
0.066769 1.000000 0.820084
0.255533 1.000000 0.813979
0.444741 1.000000 0.809060
0.634795 1.000000 0.807549
0.825580 1.000000 0.817825
0.995317 1.000000 0.838362
1.000000 1.000000 0.832876
0.000000 0.000000 1.000000
0.033603 0.000000 1.000000
0.216775 0.000000 1.000000
0.400423 0.000000 1.000000
0.584334 0.000000 1.000000
0.769236 0.000000 1.000000
0.957407 0.000000 1.000000
1.000000 0.000000 1.000000
1.000000 0.000000 1.000000
0.000000 0.048133 1.000000
0.010028 0.039688 1.000000
0.193475 0.031137 1.000000
0.377657 0.022553 1.000000
0.562195 0.014039 1.000000
0.747622 0.005224 1.000000
0.936096 0.000000 1.000000
1.000000 0.000000 1.000000
1.000000 0.000000 1.000000
0.000000 0.209936 1.000000
0.000000 0.201802 1.000000
0.172886 0.193611 1.000000
0.356929 0.185163 1.000000
0.541987 0.176373 1.000000
0.728020 0.167331 1.000000
0.916572 0.157249 1.000000
1.000000 0.144443 1.000000
1.000000 0.128937 1.000000
0.000000 0.372370 1.000000
0.000000 0.364122 1.000000
0.153588 0.355769 1.000000
0.338007 0.347120 1.000000
0.523326 0.337877 1.000000
0.710321 0.327919 1.000000
0.899956 0.316882 1.000000
1.000000 0.303737 1.000000
1.000000 0.288268 1.000000
0.000000 0.534637 1.000000
0.000000 0.525098 1.000000
0.136795 0.515582 1.000000
0.322748 0.506110 1.000000
0.507965 0.496437 1.000000
0.694048 0.486090 1.000000
0.882412 0.474741 1.000000
1.000000 0.461070 1.000000
1.000000 0.445932 1.000000
0.000000 0.695463 1.000000
0.000000 0.684485 1.000000
0.118196 0.673543 1.000000
0.306350 0.662806 1.000000
0.492412 0.652340 1.000000
0.676827 0.641822 1.000000
0.862630 0.630454 1.000000
1.000000 0.616870 1.000000
1.000000 0.602217 1.000000
0.000000 0.854170 1.000000
0.000000 0.842595 1.000000
0.092704 0.830805 1.000000
0.282010 0.818904 1.000000
0.471164 0.807133 1.000000
0.657915 0.796048 1.000000
0.842156 0.785400 1.000000
1.000000 0.772729 1.000000
1.000000 0.759207 1.000000
0.000000 1.000000 1.000000
0.000000 0.998378 1.000000
0.068367 0.986789 1.000000
0.256205 0.975239 1.000000
0.443995 0.963736 1.000000
0.631822 0.952271 1.000000
0.820023 0.940813 1.000000
1.000000 0.931691 0.993526
1.000000 0.918863 0.989094
0.000000 1.000000 1.000000
0.000000 1.000000 1.000000
0.050827 1.000000 1.000000
0.238061 1.000000 1.000000
0.425149 1.000000 0.994072
0.612219 1.000000 0.986092
0.799733 1.000000 0.978804
0.989116 1.000000 0.981253
1.000000 1.000000 0.983784
0.000000 0.000000 1.000000
0.031015 0.000000 1.000000
0.213618 0.000000 1.000000
0.395965 0.000000 1.000000
0.577990 0.000000 1.000000
0.760603 0.000000 1.000000
0.946260 0.000000 1.000000
1.000000 0.000000 1.000000
1.000000 0.000000 1.000000
0.000000 0.045260 1.000000
0.007778 0.036833 1.000000
0.191228 0.028698 1.000000
0.374319 0.020892 1.000000
0.556791 0.013353 1.000000
0.739429 0.005601 1.000000
0.924723 0.000000 1.000000
1.000000 0.000000 1.000000
1.000000 0.000000 1.000000
0.000000 0.207178 1.000000
0.000000 0.198986 1.000000
0.170840 0.190817 1.000000
0.354689 0.182832 1.000000
0.537837 0.175172 1.000000
0.720666 0.167432 1.000000
0.905415 0.158555 1.000000
1.000000 0.146628 1.000000
1.000000 0.129770 1.000000
0.000000 0.369560 1.000000
0.000000 0.361318 1.000000
0.151505 0.352844 1.000000
0.336324 0.344118 1.000000
0.521267 0.335373 1.000000
0.705450 0.326777 1.000000
0.889929 0.317614 1.000000
1.000000 0.305646 1.000000
1.000000 0.288603 1.000000
0.000000 0.531197 1.000000
0.000000 0.521817 1.000000
0.135364 0.512381 1.000000
0.321024 0.502849 1.000000
0.506478 0.493127 1.000000
0.691461 0.483528 1.000000
0.875290 0.473997 1.000000
1.000000 0.462264 1.000000
1.000000 0.445406 1.000000
0.000000 0.690959 1.000000
0.000000 0.680276 1.000000
0.118576 0.669684 1.000000
0.305289 0.659216 1.000000
0.490515 0.648803 1.000000
0.674947 0.638290 1.000000
0.858428 0.628168 1.000000
1.000000 0.617160 1.000000
1.000000 0.601090 1.000000
0.000000 0.849426 1.000000
0.000000 0.837722 1.000000
0.095378 0.825898 1.000000
0.283933 0.814311 1.000000
0.470927 0.803157 1.000000
0.656012 0.792457 1.000000
0.840056 0.781999 1.000000
1.000000 0.771929 1.000000
1.000000 0.757303 1.000000
0.000000 1.000000 1.000000
0.000000 0.994281 1.000000
0.067398 0.982540 1.000000
0.256047 0.970823 1.000000
0.444806 0.959162 1.000000
0.633269 0.947726 1.000000
0.819043 0.937089 1.000000
1.000000 0.927212 1.000000
1.000000 0.914894 1.000000
0.000000 1.000000 1.000000
0.000000 1.000000 1.000000
0.042890 1.000000 1.000000
0.229806 1.000000 1.000000
0.416400 1.000000 1.000000
0.602636 1.000000 1.000000
0.788511 1.000000 1.000000
0.974206 1.000000 1.000000
1.000000 1.000000 1.000000
