assets/presets/luts/cyber-neon/lut.cube
TITLE "Cyber Neon"
LUT_3D_SIZE 17
0.000000 0.000000 0.000000
0.000000 0.000000 0.000000
0.057349 0.000000 0.000000
0.147387 0.000000 0.000000
0.236835 0.000000 0.000000
0.326202 0.000000 0.000000
0.415588 0.000000 0.000000
0.505019 0.000000 0.000000
0.594506 0.000000 0.000000
0.684051 0.000000 0.000000
0.773654 0.000000 0.000000
0.863311 0.000000 0.000000
0.953021 0.000000 0.000000
1.000000 0.000000 0.000000
1.000000 0.000000 0.000000
1.000000 0.000000 0.000000
1.000000 0.000000 0.000000
0.000000 0.000000 0.000000
0.000000 0.000000 0.000000
0.032799 0.000000 0.000000
0.125034 0.000000 0.000000
0.214358 0.000000 0.000000
0.303771 0.000000 0.000000
0.393256 0.000000 0.000000
0.482803 0.000000 0.000000
0.572407 0.000000 0.000000
0.662063 0.000000 0.000000
0.751767 0.000000 0.000000
0.841515 0.000000 0.000000
0.931302 0.000000 0.000000
1.000000 0.000000 0.000000
1.000000 0.000000 0.000000
1.000000 0.000000 0.000000
1.000000 0.000000 0.000000
0.000000 0.065421 0.000000
0.000000 0.060663 0.000000
0.030163 0.056344 0.000000
0.109047 0.056143 0.000000
0.194968 0.053858 0.000000
0.282987 0.050819 0.000000
0.371789 0.047510 0.000000
0.460970 0.044085 0.000000
0.550369 0.040605 0.000000
0.639911 0.037097 0.000000
0.729553 0.033577 0.000000
0.819269 0.030050 0.000000
0.909042 0.026522 0.000000
0.998860 0.022994 0.000000
1.000000 0.019467 0.000000
1.000000 0.015940 0.000000
1.000000 0.012414 0.000000
0.000000 0.142598 0.000000
0.000000 0.137866 0.000000
0.029969 0.132606 0.000000
0.107907 0.131462 0.000000
0.186330 0.131735 0.000000
0.270081 0.130401 0.000000
0.356425 0.128157 0.000000
0.444075 0.125444 0.000000
0.532457 0.122470 0.000000
0.621284 0.119339 0.000000
0.710402 0.116110 0.000000
0.799719 0.112813 0.000000
0.889176 0.109470 0.000000
0.978735 0.106093 0.000000
1.000000 0.102688 0.000000
1.000000 0.099263 0.000000
1.000000 0.095818 0.000000
0.000000 0.219999 0.000000
0.000000 0.215174 0.000000
0.028713 0.209637 0.000000
0.110571 0.206999 0.000000
0.186622 0.207006 0.000000
0.265024 0.207441 0.000000
0.347529 0.206641 0.000000
0.432537 0.204979 0.000000
0.519048 0.202777 0.000000
0.606502 0.200229 0.000000
0.694575 0.197449 0.000000
0.783071 0.194506 0.000000
0.871863 0.191445 0.000000
0.960871 0.188296 0.000000
1.000000 0.185036 0.000000
1.000000 0.181656 0.000000
1.000000 0.178166 0.000000
0.000000 0.297565 0.000000
0.000000 0.292583 0.000000
0.027473 0.286945 0.000000
0.111823 0.283541 0.000000
0.190315 0.282199 0.000000
0.265997 0.282754 0.000000
0.344403 0.283259 0.000000
0.426096 0.282776 0.000000
0.510064 0.281517 0.000000
0.595558 0.279709 0.000000
0.682106 0.277507 0.000000
0.769498 0.274971 0.000000
0.857547 0.272164 0.000000
0.946108 0.269136 0.000000
1.000000 0.265924 0.000000
1.000000 0.262553 0.000000
1.000000 0.259043 0.000000
0.000000 0.375244 0.000000
0.000000 0.370069 0.000000
0.026377 0.364383 0.000000
0.112321 0.360499 0.000000
0.193060 0.358337 0.000000
0.269861 0.357798 0.000000
0.345635 0.358573 0.000000
0.424036 0.359082 0.000000
0.505276 0.358713 0.000000
0.588684 0.357592 0.000000
0.673697 0.355882 0.000000
0.759904 0.353710 0.000000
0.847018 0.351173 0.000000
0.934830 0.348340 0.000000
1.000000 0.345263 0.000000
1.000000 0.341981 0.000000
1.000000 0.338522 0.000000
0.000000 0.452988 0.000000
0.000000 0.447596 0.000000
0.025326 0.441876 0.000000
0.112332 0.437660 0.000000
0.194821 0.434875 0.000000
0.273631 0.433366 0.000000
0.349767 0.433237 0.000000
0.426071 0.433901 0.000000
0.504854 0.434173 0.000000
0.586074 0.433680 0.000000
0.669246 0.432506 0.000000
0.753926 0.430773 0.000000
0.839769 0.428584 0.000000
0.926515 0.426023 0.000000
1.000000 0.423155 0.000000
1.000000 0.420029 0.000000
1.000000 0.416720 0.000000
0.000000 0.530743 0.000000
0.000000 0.525054 0.000000
0.024545 0.519183 0.000000
0.112605 0.514547 0.000000
0.196665 0.511143 0.000000
0.277225 0.508892 0.000000
0.354952 0.507733 0.000000
0.430956 0.507750 0.000000
0.507762 0.508224 0.000000
0.586812 0.508253 0.000000
0.667982 0.507602 0.000000
0.750899 0.506334 0.000000
0.835208 0.504540 0.000000
0.920618 0.502306 0.000000
1.000000 0.499704 0.000000
1.000000 0.496791 0.000000
1.000000 0.493704 0.000000
0.000000 0.608100 0.000000
0.000000 0.601942 0.000000
0.024654 0.595861 0.000000
0.113503 0.590863 0.000000
0.198745 0.586951 0.000000
0.280709 0.584083 0.000000
0.359901 0.582164 0.000000
0.436798 0.581299 0.000000
0.512813 0.581338 0.000000
0.589967 0.581596 0.000000
0.669132 0.581387 0.000000
0.750154 0.580567 0.000000
0.832738 0.579184 0.000000
0.916594 0.577309 0.000000
1.000000 0.575014 0.000000
1.000000 0.572359 0.000000
1.000000 0.569518 0.000000
0.000000 0.684882 0.000000
0.000000 0.678218 0.000000
0.025296 0.671945 0.000000
0.114708 0.666634 0.000000
0.200834 0.662293 0.000000
0.283898 0.658899 0.000000
0.364253 0.656391 0.000000
0.442329 0.654718 0.000000
0.518604 0.654053 0.000000
0.594627 0.654041 0.000000
0.671937 0.654072 0.000000
0.751038 0.653638 0.000000
0.831776 0.652650 0.000000
0.913910 0.651146 0.000000
0.997198 0.649183 0.000000
1.000000 0.646819 0.000000
1.000000 0.644240 0.000000
0.000000 0.761130 0.000000
0.000000 0.753943 0.000000
0.026065 0.747490 0.000000
0.115859 0.741901 0.000000
0.202634 0.737187 0.000000
0.286545 0.733336 0.000000
0.367845 0.730308 0.000000
0.446879 0.728038 0.000000
0.523931 0.726596 0.000000
0.599721 0.726013 0.000000
0.675664 0.725900 0.000000
0.752916 0.725708 0.000000
0.831761 0.725069 0.000000
0.912119 0.723945 0.000000
0.993841 0.722381 0.000000
1.000000 0.720426 0.000000
1.000000 0.718226 0.000000
0.000000 0.836546 0.000000
0.000000 0.829176 0.000000
0.026549 0.822553 0.000000
0.116575 0.816711 0.000000
0.203805 0.811666 0.000000
0.288349 0.807410 0.000000
0.370390 0.803918 0.000000
0.450182 0.801144 0.000000
0.528036 0.799039 0.000000
0.604153 0.797789 0.000000
0.679574 0.797246 0.000000
0.755506 0.797075 0.000000
0.832827 0.796790 0.000000
0.911691 0.796118 0.000000
0.991973 0.795021 0.000000
1.000000 0.793525 0.000000
1.000000 0.791713 0.000000
0.000000 0.911449 0.000000
0.000000 0.903978 0.000000
0.026330 0.897192 0.000000
0.116457 0.891119 0.000000
0.203979 0.885772 0.000000
0.288973 0.881152 0.000000
0.371612 0.877251 0.000000
0.452158 0.874061 0.000000
0.530857 0.871541 0.000000
0.607912 0.869721 0.000000
0.683648 0.868737 0.000000
0.759055 0.868337 0.000000
0.835142 0.868205 0.000000
0.912564 0.867920 0.000000
0.991389 0.867275 0.000000
1.000000 0.866247 0.000000
1.000000 0.864818 0.000000
0.000000 0.985981 0.000000
0.000000 0.978410 0.000000
0.024987 0.971468 0.000000
0.115191 0.965196 0.000000
0.203083 0.959622 0.000000
0.288705 0.954754 0.000000
0.372147 0.950587 0.000000
0.453548 0.947104 0.000000
0.533096 0.944274 0.000000
0.611029 0.942054 0.000000
0.687432 0.940591 0.000000
0.762871 0.939854 0.000000
0.838238 0.939603 0.000000
0.914383 0.939533 0.000000
0.991785 0.939294 0.000000
1.000000 0.938724 0.000000
1.000000 0.937667 0.000000
0.000000 1.000000 0.000000
0.000000 1.000000 0.000000
0.023021 1.000000 0.000000
0.113566 1.000000 0.000000
0.201925 1.000000 0.000000
0.288126 1.000000 0.000000
0.372237 1.000000 0.000000
0.454365 1.000000 0.000000
0.534658 1.000000 0.000000
0.613306 1.000000 0.000000
0.690490 1.000000 0.000000
0.766319 1.000000 0.000000
0.841482 1.000000 0.000000
0.916754 1.000000 0.000000
0.992845 1.000000 0.000000
1.000000 1.000000 0.000000
1.000000 1.000000 0.000000
0.000000 1.000000 0.000000
0.000000 1.000000 0.000000
0.020928 1.000000 0.000000
0.111718 1.000000 0.000000
0.200432 1.000000 0.000000
0.287091 1.000000 0.000000
0.371745 1.000000 0.000000
0.454479 1.000000 0.000000
0.535411 1.000000 0.000000
0.614692 1.000000 0.000000
0.692507 1.000000 0.000000
0.768941 1.000000 0.000000
0.844256 1.000000 0.000000
0.919127 1.000000 0.000000
0.994228 1.000000 0.000000
1.000000 1.000000 0.000000
1.000000 1.000000 0.000000
0.000000 0.000000 0.083337
0.000000 0.000000 0.079433
0.053524 0.000000 0.076778
0.150847 0.000000 0.074322
0.243710 0.000000 0.067618
0.334687 0.000000 0.060827
0.424999 0.000000 0.054376
0.515032 0.000000 0.048175
0.604942 0.000000 0.042124
0.694801 0.000000 0.036154
0.784647 0.000000 0.030221
0.874500 0.000000 0.024298
0.964370 0.000000 0.018367
1.000000 0.000000 0.012418
1.000000 0.000000 0.006444
1.000000 0.000000 0.000445
1.000000 0.000000 0.000000
0.000000 0.000000 0.067497
0.000000 0.000000 0.060931
0.034645 0.000000 0.052389
0.133746 0.000000 0.052923
0.224740 0.000000 0.046113
0.314829 0.000000 0.039938
0.404682 0.000000 0.034048
0.494463 0.000000 0.028269
0.584229 0.000000 0.022520
0.674006 0.000000 0.016766
0.763803 0.000000 0.010986
0.853624 0.000000 0.005173
0.943471 0.000000 0.000000
1.000000 0.000000 0.000000
1.000000 0.000000 0.000000
1.000000 0.000000 0.000000
1.000000 0.000000 0.000000
0.000000 0.067716 0.049821
0.000000 0.062948 0.043773
0.029925 0.056538 0.040229
0.110357 0.055387 0.036115
0.202088 0.051241 0.028726
0.291655 0.047585 0.023146
0.381312 0.043931 0.017550
0.471030 0.040290 0.011905
0.560795 0.036663 0.006204
0.650600 0.033051 0.000449
0.740441 0.029453 0.000000
0.830312 0.025866 0.000000
0.920209 0.022290 0.000000
1.000000 0.018723 0.000000
1.000000 0.015163 0.000000
1.000000 0.011609 0.000000
1.000000 0.008058 0.000000
0.000000 0.146142 0.030610
0.000000 0.141401 0.025992
0.023157 0.135157 0.027153
0.108232 0.131497 0.035208
0.187577 0.131394 0.025147
0.273619 0.129241 0.015898
0.361727 0.126332 0.008242
0.450629 0.123135 0.001281
0.539913 0.119806 0.000000
0.629413 0.116408 0.000000
0.719046 0.112971 0.000000
0.808767 0.109510 0.000000
0.898550 0.106033 0.000000
0.988375 0.102545 0.000000
1.000000 0.099047 0.000000
1.000000 0.095541 0.000000
1.000000 0.092028 0.000000
0.000000 0.223939 0.014369
0.000000 0.219116 0.011591
0.020988 0.212509 0.016109
0.109444 0.207785 0.025474
0.186961 0.207004 0.028173
0.265811 0.207291 0.016509
0.349706 0.206014 0.005607
0.436096 0.203849 0.000000
0.523765 0.201212 0.000000
0.612155 0.198303 0.000000
0.700984 0.195227 0.000000
0.790093 0.192040 0.000000
0.879391 0.188775 0.000000
0.968833 0.185445 0.000000
1.000000 0.182015 0.000000
1.000000 0.178483 0.000000
1.000000 0.174858 0.000000
0.000000 0.301674 0.000000
0.000000 0.296696 0.000000
0.019345 0.289962 0.004674
0.109203 0.284859 0.014158
0.190345 0.282549 0.021724
0.266328 0.282762 0.019568
0.345030 0.283177 0.007462
0.427637 0.282386 0.000000
0.512647 0.280755 0.000000
0.599114 0.278587 0.000000
0.686547 0.276046 0.000000
0.774723 0.273203 0.000000
0.863450 0.270125 0.000000
0.952600 0.266858 0.000000
1.000000 0.263433 0.000000
1.000000 0.259873 0.000000
1.000000 0.256193 0.000000
0.000000 0.379437 0.000000
0.000000 0.374247 0.000000
0.018029 0.367478 0.000000
0.108594 0.362186 0.002484
0.192180 0.359067 0.011031
0.270231 0.357939 0.016154
0.345956 0.358582 0.010555
0.424609 0.359007 0.000000
0.506538 0.358403 0.000000
0.590792 0.356979 0.000000
0.676658 0.354950 0.000000
0.763666 0.352472 0.000000
0.851505 0.349650 0.000000
0.939968 0.346557 0.000000
1.000000 0.343244 0.000000
1.000000 0.339747 0.000000
1.000000 0.336093 0.000000
0.000000 0.457224 0.000000
0.000000 0.451783 0.000000
0.016826 0.445019 0.000000
0.107795 0.439598 0.000000
0.193100 0.435889 0.000000
0.273515 0.433785 0.007274
0.350289 0.433237 0.009790
0.426507 0.433832 0.002390
0.505503 0.434030 0.000000
0.587258 0.433351 0.000000
0.671110 0.431932 0.000000
0.756508 0.429929 0.000000
0.843049 0.427471 0.000000
0.930450 0.424652 0.000000
1.000000 0.421541 0.000000
1.000000 0.418189 0.000000
1.000000 0.414679 0.000000
0.000000 0.534987 0.000000
0.000000 0.529185 0.000000
0.016021 0.522303 0.000000
0.107558 0.516610 0.000000
0.194268 0.512349 0.000000
0.276584 0.509479 0.000000
0.355314 0.507869 0.004642
0.431542 0.507640 0.004484
0.508262 0.508079 0.000000
0.587502 0.508038 0.000000
0.669104 0.507234 0.000000
0.752580 0.505759 0.000000
0.837497 0.503735 0.000000
0.923515 0.501263 0.000000
1.000000 0.498427 0.000000
1.000000 0.495290 0.000000
1.000000 0.492002 0.000000
0.000000 0.612289 0.000000
0.000000 0.605972 0.000000
0.016116 0.598945 0.000000
0.108044 0.593010 0.000000
0.195755 0.588308 0.000000
0.279509 0.584826 0.000000
0.359826 0.582478 0.000000
0.437355 0.581244 0.002902
0.513392 0.581140 0.000627
0.590478 0.581379 0.000000
0.669810 0.581103 0.000000
0.751191 0.580151 0.000000
0.834244 0.578590 0.000000
0.918619 0.576514 0.000000
1.000000 0.574008 0.000000
1.000000 0.571141 0.000000
1.000000 0.568110 0.000000
0.000000 0.689010 0.000000
0.000000 0.682149 0.000000
0.016702 0.674998 0.000000
0.108877 0.668846 0.000000
0.197300 0.663774 0.000000
0.282134 0.659783 0.000000
0.363721 0.656824 0.000000
0.442581 0.654802 0.000000
0.519187 0.653868 0.002386
0.595142 0.653770 0.000000
0.672402 0.653786 0.000000
0.751650 0.653289 0.000000
0.832689 0.652184 0.000000
0.915219 0.650525 0.000000
0.998951 0.648384 0.000000
1.000000 0.645831 0.000000
1.000000 0.643091 0.000000
0.000000 0.765195 0.000000
0.000000 0.757783 0.000000
0.017361 0.750521 0.000000
0.109662 0.744168 0.000000
0.198578 0.738775 0.000000
0.284212 0.734349 0.000000
0.366797 0.730862 0.000000
0.446693 0.728252 0.000000
0.524313 0.726492 0.002245
0.600229 0.725731 0.003504
0.676064 0.725566 0.000000
0.753278 0.725359 0.000000
0.832257 0.724663 0.000000
0.912906 0.723446 0.000000
0.995004 0.721757 0.000000
1.000000 0.719657 0.000000
1.000000 0.717326 0.000000
0.000000 0.840547 0.000000
0.000000 0.832941 0.000000
0.017669 0.825575 0.000000
0.109990 0.819033 0.000000
0.199224 0.813353 0.000000
0.285434 0.808545 0.000000
0.368781 0.804594 0.000000
0.449520 0.801461 0.000000
0.528004 0.799077 0.001178
0.604525 0.797560 0.006529
0.679993 0.796907 0.006414
0.755843 0.796717 0.000587
0.833171 0.796429 0.000000
0.912182 0.795714 0.000000
0.992719 0.794537 0.000000
1.000000 0.792933 0.000000
1.000000 0.791021 0.000000
0.000000 0.915429 0.000000
0.000000 0.907688 0.000000
0.017201 0.900219 0.000000
0.109447 0.893498 0.000000
0.198850 0.887557 0.000000
0.285451 0.882407 0.000000
0.369438 0.878063 0.000000
0.451030 0.874512 0.000000
0.530477 0.871715 0.000000
0.608078 0.869637 0.007509
0.684056 0.868466 0.011034
0.759446 0.867993 0.009395
0.835452 0.867857 0.002634
0.912887 0.867570 0.000000
0.991843 0.866888 0.000000
1.000000 0.865791 0.000000
1.000000 0.864294 0.000000
0.000000 0.989938 0.000000
0.000000 0.982090 0.000000
0.015548 0.974520 0.000000
0.107773 0.967653 0.000000
0.197490 0.961526 0.000000
0.284710 0.956159 0.000000
0.369498 0.951558 0.000000
0.451981 0.947710 0.000000
0.532350 0.944588 0.000000
0.610857 0.942148 0.006593
0.687694 0.940441 0.012976
0.763259 0.939571 0.014846
0.838571 0.939273 0.011842
0.914640 0.939209 0.004332
0.992056 0.938969 0.000000
1.000000 0.938369 0.000000
1.000000 0.937273 0.000000
0.000000 1.000000 0.000000
0.000000 1.000000 0.000000
0.013391 1.000000 0.000000
0.105839 1.000000 0.000000
0.195936 1.000000 0.000000
0.283680 1.000000 0.000000
0.369119 1.000000 0.000000
0.452347 1.000000 0.000000
0.533510 1.000000 0.000000
0.612804 1.000000 0.004724
0.690471 1.000000 0.012661
0.766595 1.000000 0.017401
0.841807 1.000000 0.017782
0.917003 1.000000 0.013568
0.993021 1.000000 0.005461
1.000000 1.000000 0.000000
1.000000 1.000000 0.000000
0.000000 1.000000 0.000000
0.000000 1.000000 0.000000
0.011109 1.000000 0.000000
0.103694 1.000000 0.000000
0.194062 1.000000 0.000000
0.282208 1.000000 0.000000
0.368164 1.000000 0.000000
0.452002 1.000000 0.000000
0.533834 1.000000 0.000000
0.613816 1.000000 0.002052
0.692141 1.000000 0.010584
0.768985 1.000000 0.017436
0.844485 1.000000 0.020608
0.919355 1.000000 0.019660
0.994367 1.000000 0.014387
1.000000 1.000000 0.005799
1.000000 1.000000 0.001316
0.000000 0.000000 0.176697
0.000000 0.000000 0.172819
0.050928 0.000000 0.169764
0.144928 0.000000 0.167100
0.243161 0.000000 0.165260
0.338057 0.000000 0.159161
0.430588 0.000000 0.151989
0.522025 0.000000 0.144827
0.612897 0.000000 0.137856
0.703456 0.000000 0.131068
0.793833 0.000000 0.124422
0.884102 0.000000 0.117879
0.974307 0.000000 0.111409
1.000000 0.000000 0.104987
1.000000 0.000000 0.098598
1.000000 0.000000 0.092230
1.000000 0.000000 0.085875
0.000000 0.000000 0.160000
0.000000 0.000000 0.154855
0.036443 0.000000 0.150564
0.130015 0.000000 0.147300
0.227655 0.000000 0.143815
0.321083 0.000000 0.136548
0.412634 0.000000 0.129233
0.503433 0.000000 0.122267
0.593878 0.000000 0.115573
0.684138 0.000000 0.109061
0.774297 0.000000 0.102666
0.864400 0.000000 0.096344
0.954472 0.000000 0.090068
1.000000 0.000000 0.083819
1.000000 0.000000 0.077587
1.000000 0.000000 0.071366
1.000000 0.000000 0.065152
0.000000 0.066010 0.144248
0.000000 0.061291 0.137780
0.024620 0.056737 0.129002
0.111840 0.053991 0.120820
0.211507 0.046800 0.120322
0.302440 0.042901 0.113219
0.392658 0.039177 0.106759
0.482680 0.035508 0.100571
0.572636 0.031870 0.094498
0.662572 0.028253 0.088469
0.752508 0.024653 0.082454
0.842450 0.021067 0.076438
0.932401 0.017493 0.070414
1.000000 0.013928 0.064380
1.000000 0.010370 0.058337
1.000000 0.006818 0.052288
1.000000 0.003270 0.046237
0.000000 0.147354 0.123792
0.000000 0.142656 0.117315
0.011529 0.137788 0.110804
0.108330 0.131661 0.108855
0.189539 0.130566 0.103202
0.280398 0.126821 0.095610
0.370089 0.123280 0.089618
0.459888 0.119718 0.083685
0.549742 0.116155 0.077751
0.639633 0.112596 0.071802
0.729549 0.109041 0.065835
0.819485 0.105490 0.059851
0.909433 0.101943 0.053855
0.999391 0.098397 0.047851
1.000000 0.094853 0.041845
1.000000 0.091307 0.035842
1.000000 0.087752 0.029859
0.000000 0.226483 0.102465
0.000000 0.221769 0.096705
0.008041 0.216264 0.092764
0.104300 0.209877 0.095683
0.187345 0.207026 0.102657
0.267124 0.206964 0.091758
0.353175 0.204914 0.082209
0.441261 0.202108 0.074245
0.530156 0.198994 0.067025
0.619441 0.195729 0.060195
0.708942 0.192381 0.053595
0.798570 0.188980 0.047143
0.888277 0.185544 0.040795
0.978082 0.182059 0.034560
1.000000 0.178488 0.028487
1.000000 0.174832 0.022570
1.000000 0.171097 0.016803
0.000000 0.304844 0.083592
0.000000 0.300001 0.079199
0.006524 0.294004 0.078287
0.102758 0.287376 0.084133
0.189611 0.283219 0.093207
0.266676 0.282769 0.094454
0.345867 0.283026 0.082479
0.429804 0.281775 0.071489
0.516139 0.279658 0.062018
0.603730 0.277063 0.053553
0.692126 0.274145 0.045800
0.781099 0.270982 0.038583
0.870488 0.267633 0.031776
0.960194 0.264135 0.025301
1.000000 0.260509 0.019106
1.000000 0.256773 0.013157
1.000000 0.252937 0.007428
0.000000 0.382947 0.066449
0.000000 0.377908 0.063562
0.005476 0.371607 0.065035
0.101475 0.364917 0.072388
0.190038 0.360235 0.081762
0.270399 0.358219 0.088879
0.346291 0.358585 0.085500
0.425305 0.358891 0.073373
0.508170 0.357963 0.061929
0.593482 0.356152 0.051815
0.680348 0.353745 0.042805
0.768246 0.350921 0.034646
0.856860 0.347791 0.027147
0.945993 0.344425 0.020175
1.000000 0.340871 0.013637
1.000000 0.337160 0.007467
1.000000 0.333315 0.001617
0.000000 0.460938 0.050467
0.000000 0.455657 0.049090
0.004538 0.449156 0.052380
0.100278 0.442442 0.060654
0.189900 0.437389 0.070298
0.272916 0.434388 0.078872
0.350792 0.433275 0.083659
0.426951 0.433756 0.077482
0.506235 0.433857 0.065625
0.588686 0.432936 0.054286
0.673375 0.431211 0.044047
0.759614 0.428890 0.034841
0.846943 0.426126 0.026502
0.935058 0.423022 0.018879
1.000000 0.419651 0.011850
1.000000 0.416062 0.005325
1.000000 0.412344 0.000000
0.000000 0.538808 0.035458
0.000000 0.533152 0.035736
0.004089 0.526353 0.040711
0.099856 0.519472 0.049875
0.190324 0.514051 0.059943
0.275240 0.510313 0.069426
0.355421 0.508142 0.077052
0.432141 0.507539 0.079053
0.508765 0.507929 0.071198
0.588251 0.507800 0.059723
0.670401 0.506802 0.048686
0.754557 0.505076 0.038579
0.840183 0.502780 0.029416
0.926890 0.500039 0.021098
1.000000 0.496944 0.013510
1.000000 0.493564 0.006551
1.000000 0.490061 0.000727
0.000000 0.616127 0.022079
0.000000 0.609967 0.024154
0.004486 0.602893 0.030545
0.100186 0.595875 0.040385
0.191213 0.590153 0.050855
0.277460 0.585854 0.061001
0.359392 0.582925 0.069938
0.437822 0.581252 0.076402
0.513982 0.580943 0.075675
0.590988 0.581156 0.066901
0.670536 0.580799 0.055894
0.752362 0.579684 0.045279
0.835977 0.577911 0.035471
0.920954 0.575601 0.026526
1.000000 0.572855 0.018389
1.000000 0.569755 0.010977
1.000000 0.566515 0.005318
0.000000 0.692837 0.010390
0.000000 0.686150 0.014245
0.005295 0.678847 0.021803
0.100848 0.671711 0.032187
0.192238 0.665729 0.043049
0.279426 0.660974 0.053746
0.362697 0.657428 0.063626
0.442591 0.654999 0.071970
0.519741 0.653711 0.076672
0.595661 0.653495 0.073953
0.672864 0.653495 0.064848
0.752298 0.652922 0.054373
0.833706 0.651677 0.044265
0.916706 0.649834 0.034874
1.000000 0.647488 0.026278
1.000000 0.644725 0.018439
1.000000 0.641808 0.012913
0.000000 0.768992 0.000316
0.000000 0.761777 0.005908
0.006084 0.754284 0.014435
0.101421 0.747039 0.025281
0.193022 0.740822 0.036530
0.280873 0.735683 0.047718
0.365149 0.731617 0.058352
0.446206 0.728573 0.067883
0.524561 0.726463 0.075638
0.600727 0.725461 0.078375
0.676459 0.725226 0.074270
0.753633 0.725003 0.065277
0.832792 0.724245 0.055354
0.913787 0.722917 0.045641
0.996322 0.721081 0.036431
1.000000 0.718813 0.027804
1.000000 0.716333 0.022183
0.000000 0.844325 0.000000
0.000000 0.836920 0.000000
0.006421 0.829271 0.008411
0.101482 0.821919 0.019670
0.193170 0.815486 0.031300
0.281467 0.810010 0.042947
0.366483 0.805496 0.054223
0.448457 0.801914 0.064702
0.527755 0.799202 0.073920
0.604839 0.797379 0.080631
0.680420 0.796576 0.081661
0.756181 0.796358 0.076372
0.833519 0.796066 0.067180
0.912705 0.795300 0.057246
0.993543 0.794028 0.047483
1.000000 0.792298 0.038145
1.000000 0.790271 0.032552
0.000000 0.919210 0.000000
0.000000 0.911649 0.000000
0.005869 0.903873 0.003707
0.100604 0.896413 0.015355
0.192269 0.889777 0.027363
0.280854 0.884002 0.039434
0.366518 0.879121 0.051172
0.449428 0.875129 0.062218
0.529833 0.871990 0.072190
0.608087 0.869641 0.080675
0.684437 0.868225 0.085538
0.759843 0.867655 0.084819
0.835760 0.867510 0.078420
0.913212 0.867219 0.068964
0.992323 0.866493 0.058965
1.000000 0.865316 0.049101
1.000000 0.863739 0.043655
0.000000 0.993716 0.000000
0.000000 0.986031 0.000000
0.004052 0.978163 0.000273
0.098615 0.970622 0.012151
0.190488 0.963857 0.024269
0.279625 0.957906 0.036389
0.366052 0.952788 0.048246
0.449872 0.948502 0.059552
0.531267 0.945026 0.069995
0.610500 0.942316 0.079237
0.687865 0.940350 0.086644
0.763635 0.939309 0.089625
0.838909 0.938948 0.087367
0.914892 0.938887 0.080094
0.992327 0.938645 0.070393
1.000000 0.938008 0.060276
1.000000 0.936867 0.055078
0.000000 1.000000 0.000000
0.000000 1.000000 0.000000
0.001825 1.000000 0.000000
0.096449 1.000000 0.009067
0.188570 1.000000 0.021141
0.278139 1.000000 0.033234
0.365169 1.000000 0.045122
0.449731 1.000000 0.056563
0.531962 1.000000 0.067297
0.612057 1.000000 0.077043
0.690282 1.000000 0.085502
0.766816 1.000000 0.091422
0.842127 1.000000 0.092737
0.917254 1.000000 0.089134
0.993191 1.000000 0.081176
1.000000 1.000000 0.071232
1.000000 1.000000 0.066356
0.000000 1.000000 0.000000
0.000000 1.000000 0.000000
0.000000 1.000000 0.000000
0.094079 1.000000 0.005822
0.186352 1.000000 0.017802
0.276234 1.000000 0.029809
0.363727 1.000000 0.041653
0.448883 1.000000 0.053127
0.531802 1.000000 0.064011
0.612638 1.000000 0.074070
0.691592 1.000000 0.083053
0.768909 1.000000 0.090641
0.844679 1.000000 0.094864
0.919580 1.000000 0.094709
0.994504 1.000000 0.089947
1.000000 1.000000 0.081445
1.000000 1.000000 0.076962
0.000000 0.000000 0.270038
0.000000 0.000000 0.266200
0.049141 0.000000 0.263103
0.141754 0.000000 0.259743
0.236591 0.000000 0.257181
0.335310 0.000000 0.255602
0.431561 0.000000 0.250188
0.525420 0.000000 0.243101
0.617934 0.000000 0.235627
0.709672 0.000000 0.228168
0.800934 0.000000 0.220831
0.891889 0.000000 0.213630
0.982642 0.000000 0.206553
1.000000 0.000000 0.199580
1.000000 0.000000 0.192692
1.000000 0.000000 0.185873
1.000000 0.000000 0.179111
0.000000 0.000000 0.252771
0.000000 0.000000 0.247917
0.035047 0.000000 0.243606
