assets/presets/luts/cyber-neon/lut.cube
TITLE "Cyber Neon"
LUT_3D_SIZE 5
0.000000 0.000000 0.000000
0.236835 0.000000 0.000000
0.594506 0.000000 0.000000
0.953021 0.000000 0.000000
1.000000 0.000000 0.000000
0.000000 0.219999 0.000000
0.186622 0.207006 0.000000
0.519048 0.202777 0.000000
0.871863 0.191445 0.000000
1.000000 0.178166 0.000000
0.000000 0.530743 0.000000
0.196665 0.511143 0.000000
0.507762 0.508224 0.000000
0.835208 0.504540 0.000000
1.000000 0.493704 0.000000
0.000000 0.836546 0.000000
0.203805 0.811666 0.000000
0.528036 0.799039 0.000000
0.832827 0.796790 0.000000
1.000000 0.791713 0.000000
0.000000 1.000000 0.000000
0.200432 1.000000 0.000000
0.535411 1.000000 0.000000
0.844256 1.000000 0.000000
1.000000 1.000000 0.000000
0.000000 0.000000 0.363360
0.232970 0.000000 0.349514
0.619643 0.000000 0.333884
0.989193 0.000000 0.303308
1.000000 0.000000 0.273899
0.000000 0.226009 0.291599
0.185009 0.207383 0.257725
0.550736 0.191132 0.236264
0.910892 0.176920 0.211577
1.000000 0.162000 0.188632
0.000000 0.544660 0.203709
0.172495 0.520387 0.200829
0.509779 0.507611 0.221715
0.847371 0.500186 0.183315
1.000000 0.485226 0.159536
0.000000 0.850955 0.151423
0.174231 0.821752 0.172715
0.526271 0.799822 0.218610
0.834234 0.795336 0.218778
1.000000 0.788524 0.185130
0.000000 1.000000 0.129575
0.165506 1.000000 0.159485
0.525762 1.000000 0.206509
0.844881 1.000000 0.242581
1.000000 1.000000 0.228230
0.000000 0.000000 0.736466
0.225540 0.000000 0.722281
0.600593 0.000000 0.706878
0.994226 0.000000 0.693551
1.000000 0.000000 0.662829
0.000000 0.218487 0.660297
0.178983 0.201936 0.633044
0.552172 0.183286 0.613734
0.940569 0.160427 0.591223
1.000000 0.143331 0.560842
0.000000 0.546715 0.576591
0.133988 0.526968 0.550962
0.511746 0.506876 0.523434
0.879614 0.487786 0.509359
1.000000 0.469098 0.494819
0.000000 0.859007 0.502514
0.123321 0.834472 0.491359
0.507653 0.806162 0.503558
0.835903 0.793810 0.521944
1.000000 0.782987 0.493515
0.000000 1.000000 0.466027
0.112894 1.000000 0.466531
0.496566 1.000000 0.489504
0.843124 1.000000 0.533402
1.000000 1.000000 0.530655
0.000000 0.000000 1.000000
0.219747 0.000000 1.000000
0.591025 0.000000 1.000000
0.971180 0.000000 1.000000
1.000000 0.000000 1.000000
0.000000 0.212715 1.000000
0.174910 0.196384 1.000000
0.544490 0.178986 0.982926
0.925361 0.157588 0.967417
1.000000 0.131162 0.952228
0.000000 0.538552 0.950566
0.137308 0.518911 0.922391
0.509459 0.499742 0.900399
0.888775 0.476536 0.891199
1.000000 0.450472 0.876996
0.000000 0.858101 0.883205
0.092703 0.835280 0.867292
0.468892 0.811967 0.853109
0.839281 0.790893 0.833905
1.000000 0.767918 0.824954
0.000000 1.000000 0.833366
0.066769 1.000000 0.820084
0.444741 1.000000 0.809060
0.825580 1.000000 0.817825
1.000000 1.000000 0.832876
0.000000 0.000000 1.000000
0.213618 0.000000 1.000000
0.577990 0.000000 1.000000
0.946260 0.000000 1.000000
1.000000 0.000000 1.000000
0.000000 0.207178 1.000000
0.170840 0.190817 1.000000
0.537837 0.175172 1.000000
0.905415 0.158555 1.000000
1.000000 0.129770 1.000000
0.000000 0.531197 1.000000
0.135364 0.512381 1.000000
0.506478 0.493127 1.000000
0.875290 0.473997 1.000000
1.000000 0.445406 1.000000
0.000000 0.849426 1.000000
0.095378 0.825898 1.000000
0.470927 0.803157 1.000000
0.840056 0.781999 1.000000
1.000000 0.757303 1.000000
0.000000 1.000000 1.000000
0.042890 1.000000 1.000000
0.416400 1.000000 1.000000
0.788511 1.000000 1.000000
1.000000 1.000000 1.000000
