assets/presets/luts/hdr-look/lut.cube
TITLE "HDR Look"
LUT_3D_SIZE 5
0.050000 0.050000 0.050000
0.449253 0.025901 0.025901
0.665157 0.018907 0.018907
0.859174 0.017823 0.017823
1.000000 0.023950 0.023950
0.000000 0.392283 0.000000
0.368184 0.368184 0.000000
0.604468 0.354296 0.000000
0.821860 0.345133 0.000000
1.000000 0.341437 0.000000
0.000000 0.591652 0.000000
0.324053 0.574225 0.000000
0.560559 0.560559 0.000000
0.785930 0.548938 0.000000
1.000000 0.540752 0.000000
0.000000 0.783105 0.000000
0.296518 0.773245 0.000000
0.525320 0.762312 0.000000
0.750928 0.750928 0.000000
0.997558 0.740513 0.000000
0.000000 0.994897 0.000000
0.288213 0.994110 0.000000
0.503435 0.987683 0.000000
0.721894 0.978939 0.000000
0.968847 0.968847 0.000000
0.041816 0.041816 0.465168
0.441069 0.017717 0.441069
0.667595 0.009247 0.417423
0.872599 0.006962 0.395872
1.000000 0.011904 0.376617
0.000000 0.384099 0.384099
0.360000 0.360000 0.360000
0.611615 0.343364 0.343364
0.841343 0.332637 0.332637
1.000000 0.327600 0.327600
0.000000 0.588009 0.337837
0.304035 0.572286 0.304035
0.555650 0.555650 0.287398
0.798519 0.540442 0.282365
1.000000 0.529397 0.286099
0.000000 0.784324 0.307597
0.267949 0.776655 0.267949
0.506226 0.764304 0.248149
0.749293 0.749293 0.240587
1.000000 0.734536 0.247151
0.000000 1.000000 0.295895
0.251004 1.000000 0.251004
0.471592 0.996603 0.228294
0.703289 0.985459 0.215905
0.971003 0.971003 0.218603
0.039441 0.039441 0.685691
0.425871 0.017695 0.676044
0.654598 0.008348 0.654598
0.865446 0.004790 0.628454
1.000000 0.008427 0.598974
0.000000 0.376528 0.626700
0.354350 0.354350 0.622602
0.605965 0.337714 0.605965
0.842293 0.326138 0.584216
1.000000 0.320369 0.563667
0.000000 0.581093 0.581093
0.298385 0.566636 0.566636
0.550000 0.550000 0.550000
0.801615 0.533364 0.533364
1.000000 0.521484 0.521484
0.000000 0.779674 0.542682
0.257707 0.773862 0.515784
0.494035 0.762286 0.494035
0.745650 0.745650 0.477398
1.000000 0.728491 0.472338
0.000000 1.000000 0.516148
0.235777 1.000000 0.479075
0.454069 0.998201 0.454069
0.689993 0.986592 0.433839
0.969684 0.969684 0.425553
0.039072 0.039072 0.880424
0.409452 0.020543 0.886180
0.635051 0.011388 0.872043
0.848247 0.006895 0.848247
1.000000 0.009034 0.815221
0.000000 0.369792 0.846520
0.350707 0.350707 0.859413
0.593774 0.335696 0.851851
0.832051 0.323345 0.832051
1.000000 0.316200 0.803584
0.000000 0.572898 0.809890
0.301481 0.559558 0.817635
0.544350 0.544350 0.812602
0.795965 0.527714 0.795965
1.000000 0.514875 0.771028
0.000000 0.772177 0.772177
0.258657 0.767363 0.767363
0.488385 0.756636 0.756636
0.740000 0.740000 0.740000
1.000000 0.721277 0.721277
0.000000 0.995252 0.738207
0.230981 1.000000 0.718366
0.443127 0.995880 0.699281
0.677015 0.985081 0.677015
0.966358 0.966358 0.658292
0.041153 0.041153 1.000000
0.391485 0.026772 1.000000
0.609398 0.018852 1.000000
0.820422 0.014236 1.000000
1.000000 0.015103 1.000000
0.000000 0.363986 1.000000
0.348997 0.348997 1.000000
0.579815 0.336517 1.000000
0.812313 0.324928 1.000000
1.000000 0.316596 1.000000
0.000000 0.563890 1.000000
0.309730 0.553027 1.000000
0.540316 0.540316 1.000000
0.781783 0.525629 1.000000
1.000000 0.511799 1.000000
0.000000 0.762027 1.000000
0.270957 0.758341 1.000000
0.492380 0.748534 1.000000
0.733642 0.733642 1.000000
1.000000 0.714919 1.000000
0.000000 0.986050 0.986050
0.240000 0.992400 0.992400
0.444385 0.988516 0.988516
0.670657 0.978723 0.978723
0.960000 0.960000 0.960000
