assets/presets/luts/hdr-look/lut.cube
TITLE "HDR Look"
LUT_3D_SIZE 17
0.050000 0.050000 0.050000
0.159028 0.042247 0.042247
0.266552 0.035406 0.035406
0.365351 0.029908 0.029908
0.449253 0.025901 0.025901
0.515090 0.023229 0.023229
0.568447 0.021394 0.021394
0.616346 0.020021 0.020021
0.665157 0.018907 0.018907
0.714975 0.018092 0.018092
0.762986 0.017637 0.017637
0.810627 0.017536 0.017536
0.859174 0.017823 0.017823
0.909289 0.018572 0.018572
0.959813 0.019844 0.019844
1.000000 0.021649 0.021649
1.000000 0.023950 0.023950
0.023918 0.140699 0.023918
0.132946 0.132946 0.016165
0.242878 0.125283 0.010370
0.344270 0.118882 0.006188
0.430502 0.114058 0.003411
0.498239 0.110718 0.001754
0.553181 0.108326 0.000774
0.602540 0.106439 0.000190
0.652878 0.104788 0.000000
0.704295 0.103410 0.000000
0.753890 0.102397 0.000366
0.803148 0.101726 0.001146
0.853392 0.101415 0.002359
0.905317 0.101527 0.004097
0.957733 0.102132 0.006403
1.000000 0.103259 0.009260
1.000000 0.104887 0.012605
0.000904 0.232050 0.000904
0.107487 0.225082 0.000000
0.217456 0.217456 0.000000
0.320560 0.210508 0.000000
0.408797 0.205011 0.000000
0.478299 0.201067 0.000000
0.534761 0.198151 0.000000
0.585543 0.195771 0.000000
0.637384 0.193598 0.000000
0.690389 0.191666 0.000000
0.741567 0.190102 0.000000
0.792448 0.188863 0.000000
0.844401 0.187954 0.000000
0.898154 0.187425 0.000000
0.952483 0.187359 0.000000
1.000000 0.187802 0.000000
1.000000 0.188750 0.000028
0.000000 0.317853 0.000000
0.086332 0.311720 0.000000
0.194618 0.304670 0.000000
0.297761 0.297761 0.000000
0.387022 0.291959 0.000000
0.457745 0.287624 0.000000
0.515384 0.284321 0.000000
0.567335 0.281550 0.000000
0.620455 0.278945 0.000000
0.674849 0.276541 0.000000
0.727436 0.274494 0.000000
0.779782 0.272751 0.000000
0.833295 0.271303 0.000000
0.888729 0.270192 0.000000
0.944830 0.269511 0.000000
1.000000 0.269322 0.000000
1.000000 0.269639 0.000000
0.000000 0.392283 0.000000
0.070455 0.386898 0.000000
0.176721 0.380507 0.000000
0.278891 0.373954 0.000000
0.368184 0.368184 0.000000
0.439423 0.363709 0.000000
0.497734 0.360202 0.000000
0.550445 0.357192 0.000000
0.604468 0.354296 0.000000
0.659895 0.351552 0.000000
0.713573 0.349142 0.000000
0.767082 0.347009 0.000000
0.821860 0.345133 0.000000
0.878680 0.343550 0.000000
0.936259 0.342363 0.000000
0.992961 0.341649 0.000000
1.000000 0.341437 0.000000
0.000000 0.451801 0.000000
0.059505 0.447026 0.000000
0.163978 0.441210 0.000000
0.264946 0.435067 0.000000
0.353769 0.429483 0.000000
0.425029 0.425029 0.000000
0.483592 0.421461 0.000000
0.536686 0.418342 0.000000
0.591233 0.415287 0.000000
0.647317 0.412338 0.000000
0.701729 0.409692 0.000000
0.756056 0.407293 0.000000
0.811748 0.405115 0.000000
0.869593 0.403190 0.000000
0.928285 0.401628 0.000000
0.986154 0.400519 0.000000
1.000000 0.399904 0.000000
0.000000 0.500821 0.000000
0.051699 0.496554 0.000000
0.154622 0.491231 0.000000
0.254416 0.485479 0.000000
0.342594 0.480127 0.000000
0.413637 0.475768 0.000000
0.472215 0.472215 0.000000
0.525461 0.469063 0.000000
0.580289 0.465932 0.000000
0.636775 0.462863 0.000000
0.691677 0.460067 0.000000
0.746576 0.457487 0.000000
0.802935 0.455095 0.000000
0.861547 0.452919 0.000000
0.921091 0.451076 0.000000
0.979867 0.449665 0.000000
1.000000 0.448735 0.000000
0.000000 0.545473 0.000000
0.045573 0.541675 0.000000
0.147040 0.536812 0.000000
0.245660 0.531444 0.000000
0.333097 0.526350 0.000000
0.403783 0.522126 0.000000
0.462234 0.518633 0.000000
0.515494 0.515494 0.000000
0.570452 0.512336 0.000000
0.627189 0.509201 0.000000
0.682432 0.506306 0.000000
0.737763 0.503595 0.000000
0.794646 0.501039 0.000000
0.853884 0.498664 0.000000
0.914139 0.496590 0.000000
0.973688 0.494925 0.000000
1.000000 0.493728 0.000000
0.000000 0.591652 0.000000
0.040253 0.588343 0.000000
0.140179 0.583965 0.000000
0.237507 0.579017 0.000000
0.324053 0.574225 0.000000
0.394237 0.570183 0.000000
0.452433 0.566790 0.000000
0.505587 0.563703 0.000000
0.560559 0.560559 0.000000
0.617433 0.557398 0.000000
0.672921 0.554439 0.000000
0.728597 0.551629 0.000000
0.785930 0.548938 0.000000
0.845729 0.546389 0.000000
0.906645 0.544105 0.000000
0.966928 0.542203 0.000000
1.000000 0.540752 0.000000
0.000000 0.639542 0.000000
0.035860 0.636745 0.000000
0.134156 0.632879 0.000000
0.230076 0.628384 0.000000
0.315592 0.623936 0.000000
0.385137 0.620116 0.000000
0.442952 0.616865 0.000000
0.495881 0.613868 0.000000
0.550744 0.610779 0.000000
0.607633 0.607633 0.000000
0.663255 0.604649 0.000000
0.719176 0.601777 0.000000
0.776868 0.598985 0.000000
0.837148 0.596292 0.000000
0.898657 0.593826 0.000000
0.959621 0.591709 0.000000
1.000000 0.590021 0.000000
0.000000 0.686478 0.000000
0.032697 0.684189 0.000000
0.129367 0.680833 0.000000
0.223854 0.676797 0.000000
0.308278 0.672708 0.000000
0.377099 0.669136 0.000000
0.434443 0.666052 0.000000
0.487050 0.663176 0.000000
0.541694 0.660177 0.000000
0.598478 0.657085 0.000000
0.654116 0.654116 0.000000
0.710163 0.651221 0.000000
0.768096 0.648368 0.000000
0.828740 0.645574 0.000000
0.890730 0.642967 0.000000
0.952272 0.640673 0.000000
1.000000 0.638782 0.000000
0.000000 0.733880 0.000000
0.030687 0.732109 0.000000
0.125690 0.729274 0.000000
0.218683 0.725714 0.000000
0.301934 0.722008 0.000000
0.369945 0.718708 0.000000
0.426729 0.715818 0.000000
0.478923 0.713090 0.000000
0.533245 0.710213 0.000000
0.589813 0.707212 0.000000
0.645353 0.704294 0.000000
0.701416 0.701416 0.000000
0.759479 0.698541 0.000000
0.820378 0.695684 0.000000
0.882747 0.692971 0.000000
0.944775 0.690534 0.000000
1.000000 0.688470 0.000000
0.000000 0.783105 0.000000
0.029900 0.781877 0.000000
0.123145 0.779592 0.000000
0.214545 0.776537 0.000000
0.296518 0.773245 0.000000
0.363615 0.770248 0.000000
0.419742 0.767582 0.000000
0.471427 0.765033 0.000000
0.525320 0.762312 0.000000
0.581554 0.759438 0.000000
0.636883 0.756610 0.000000
0.692847 0.753785 0.000000
0.750928 0.750928 0.000000
0.811971 0.748047 0.000000
0.874614 0.745266 0.000000
0.937037 0.742720 0.000000
0.997558 0.740513 0.000000
0.000000 0.834991 0.000000
0.030553 0.834344 0.000000
0.121917 0.832646 0.000000
0.211597 0.830134 0.000000
0.292165 0.827295 0.000000
0.358233 0.824635 0.000000
0.413597 0.822225 0.000000
0.464668 0.819887 0.000000
0.518017 0.817358 0.000000
0.573795 0.814651 0.000000
0.628788 0.811953 0.000000
0.684529 0.809223 0.000000
0.742501 0.806425 0.000000
0.803564 0.803564 0.000000
0.866364 0.800758 0.000000
0.929078 0.798141 0.000000
0.990001 0.795824 0.000000
0.000000 0.888522 0.000000
0.032879 0.888480 0.000000
0.122272 0.887397 0.000000
0.210138 0.885457 0.000000
0.289202 0.883099 0.000000
0.354148 0.880805 0.000000
0.408662 0.878677 0.000000
0.459028 0.876577 0.000000
0.511730 0.874270 0.000000
0.566936 0.871767 0.000000
0.621474 0.869237 0.000000
0.676867 0.866643 0.000000
0.734600 0.863947 0.000000
0.795545 0.861151 0.000000
0.858366 0.858366 0.000000
0.921241 0.855725 0.000000
0.982451 0.853339 0.000000
0.000000 0.942276 0.000000
0.036967 0.942850 0.000000
0.124352 0.942392 0.000000
0.210357 0.941037 0.000000
0.287863 0.939175 0.000000
0.351629 0.937263 0.000000
0.405232 0.935434 0.000000
0.454828 0.933591 0.000000
0.506806 0.931531 0.000000
0.561347 0.929258 0.000000
0.615328 0.926927 0.000000
0.670261 0.924503 0.000000
0.727632 0.921949 0.000000
0.788325 0.919262 0.000000
0.851028 0.916545 0.000000
0.913925 0.913925 0.000000
0.975289 0.911517 0.000000
0.000000 0.994897 0.000000
0.042737 0.996082 0.000000
0.128126 0.996246 0.000000
0.212273 0.995474 0.000000
0.288213 0.994110 0.000000
0.350777 0.992584 0.000000
0.403441 0.991061 0.000000
0.452231 0.989484 0.000000
0.503435 0.987683 0.000000
0.557248 0.985659 0.000000
0.610598 0.983548 0.000000
0.664986 0.981320 0.000000
0.721894 0.978939 0.000000
0.782220 0.976397 0.000000
0.844675 0.973788 0.000000
0.907461 0.971233 0.000000
0.968847 0.968847 0.000000
0.047367 0.047367 0.164148
0.156395 0.039614 0.156395
0.265126 0.032618 0.147531
0.365091 0.027009 0.139703
0.450008 0.022916 0.133564
0.516662 0.020177 0.129141
0.570696 0.018289 0.125841
0.619217 0.016867 0.123116
0.668677 0.015704 0.120588
0.719173 0.014836 0.118288
0.767855 0.014331 0.116363
0.816180 0.014178 0.114759
0.865444 0.014411 0.113467
0.916323 0.015103 0.112533
0.967645 0.016316 0.112045
1.000000 0.018061 0.112060
1.000000 0.020301 0.112584
0.021285 0.138066 0.138066
0.130313 0.130313 0.130313
0.241839 0.122391 0.122391
0.344457 0.115862 0.115862
0.431722 0.110947 0.110947
0.500283 0.107539 0.107539
0.555907 0.105092 0.105092
0.605891 0.103156 0.103156
0.656878 0.101455 0.101455
0.708975 0.100024 0.100024
0.759241 0.098961 0.098961
0.809184 0.098238 0.098238
0.860147 0.097873 0.097873
0.912837 0.097927 0.097927
0.966051 0.098472 0.098472
1.000000 0.099539 0.099539
1.000000 0.101107 0.101107
0.000000 0.229940 0.112345
0.103664 0.223112 0.103664
0.215190 0.215190 0.095742
0.320144 0.207866 0.090219
0.409733 0.202142 0.086472
0.480218 0.198060 0.084070
0.537454 0.195048 0.082481
0.588927 0.192588 0.081343
0.641472 0.190340 0.080481
0.695202 0.188334 0.079933
0.747087 0.186701 0.079748
0.798683 0.185396 0.079923
0.851381 0.184419 0.080503
0.905923 0.183821 0.081566
0.961071 0.183685 0.083168
1.000000 0.184059 0.085309
1.000000 0.184939 0.087945
0.000000 0.316266 0.090878
0.081700 0.310295 0.081700
0.190857 0.303136 0.073211
0.295845 0.295845 0.067250
0.386814 0.289683 0.063778
0.458793 0.285103 0.061912
0.517393 0.281628 0.060894
0.570172 0.278721 0.060345
0.624115 0.275990 0.060143
0.679335 0.273468 0.060323
0.732712 0.271316 0.060883
0.785842 0.269476 0.061839
0.840161 0.267933 0.063253
0.896438 0.266728 0.065221
0.953406 0.265955 0.067778
1.000000 0.265678 0.070901
1.000000 0.265911 0.074516
0.000000 0.391157 0.074714
0.065167 0.385942 0.065167
0.171941 0.379531 0.056271
0.275576 0.372707 0.049671
0.366576 0.366576 0.045802
0.439223 0.361802 0.043899
0.498651 0.358065 0.043033
0.552332 0.354864 0.042738
0.607312 0.351789 0.042891
0.663689 0.348878 0.043518
0.718263 0.346319 0.044577
0.772651 0.344050 0.046087
0.828318 0.342044 0.048120
0.886057 0.340334 0.050780
0.944570 0.339026 0.054087
1.000000 0.338198 0.057996
1.000000 0.337879 0.062408
0.000000 0.451049 0.063528
0.053701 0.446445 0.053701
0.158496 0.440653 0.044506
0.260632 0.434322 0.037440
0.351004 0.428425 0.033102
0.423672 0.423672 0.030927
0.483413 0.419852 0.029956
0.537560 0.416512 0.029666
0.593162 0.413242 0.029917
0.650298 0.410087 0.030730
0.705701 0.407256 0.032045
0.760993 0.404686 0.033874
0.817658 0.402344 0.036292
0.876498 0.400261 0.039407
0.936195 0.398549 0.043229
0.995054 0.397300 0.047694
1.000000 0.396555 0.052683
0.000000 0.500379 0.055524
0.045471 0.496285 0.045471
0.148604 0.491011 0.036038
0.249360 0.485125 0.028625
0.338923 0.479509 0.023891
0.411309 0.474869 0.021413
0.471065 0.471065 0.020251
0.525397 0.467681 0.019852
0.581334 0.464315 0.020063
0.638942 0.461016 0.020912
0.694907 0.458008 0.022329
0.750845 0.455229 0.024321
0.808247 0.452646 0.026966
0.867925 0.450284 0.030372
0.928539 0.448264 0.034542
0.988365 0.446688 0.039400
1.000000 0.445608 0.044810
0.000000 0.545316 0.049215
0.038957 0.541691 0.038957
0.140556 0.536895 0.029311
0.239982 0.531434 0.021606
0.328651 0.526118 0.016524
0.400593 0.521641 0.013747
0.460190 0.517906 0.012361
0.514535 0.514535 0.011801
0.570627 0.511135 0.011898
0.628529 0.507754 0.012691
0.684890 0.504627 0.014117
0.741319 0.501696 0.016178
0.799309 0.498925 0.018950
0.859677 0.496339 0.022547
0.921066 0.494063 0.026968
0.981722 0.492209 0.032123
1.000000 0.490842 0.037864
0.000000 0.591793 0.043703
0.033234 0.588657 0.033234
0.133228 0.584360 0.023369
0.231226 0.579352 0.015380
0.318857 0.574380 0.009959
0.390194 0.570114 0.006869
0.449479 0.566498 0.005228
0.503694 0.563186 0.004457
0.559800 0.559800 0.004377
0.617862 0.556385 0.005041
0.674506 0.553181 0.006400
0.731331 0.550132 0.008453
0.789828 0.547205 0.011278
0.850822 0.544421 0.014995
0.912935 0.541911 0.019599
0.974388 0.539797 0.024995
1.000000 0.538152 0.031018
0.000000 0.639994 0.039109
0.028421 0.637371 0.028421
0.126730 0.633598 0.018329
0.223204 0.629071 0.010059
0.309667 0.624479 0.004307
0.380257 0.620468 0.000900
0.439088 0.617014 0.000000
0.493033 0.613807 0.000000
0.549006 0.610483 0.000000
0.607083 0.607083 0.000000
0.663882 0.603847 0.000000
0.720986 0.600724 0.001320
0.779891 0.597678 0.004121
0.841423 0.594730 0.007877
0.904192 0.592015 0.012590
0.966389 0.589662 0.018158
1.000000 0.587756 0.024405
0.000000 0.687238 0.035746
0.024843 0.685124 0.024843
0.121483 0.681869 0.014530
0.216428 0.677824 0.005995
0.301679 0.673623 0.000000
0.371443 0.669887 0.000000
0.429726 0.666624 0.000000
0.483292 0.663555 0.000000
0.539007 0.660333 0.000000
0.596959 0.656993 0.000000
0.653772 0.653772 0.000000
0.711020 0.650621 0.000000
0.770198 0.647504 0.000000
0.832138 0.644438 0.001734
0.895442 0.641561 0.006473
0.958275 0.639010 0.012132
1.000000 0.636880 0.018528
0.000000 0.734954 0.033533
0.022412 0.733358 0.022412
0.117346 0.730633 0.011873
0.210716 0.727082 0.003078
0.294689 0.723290 0.000000
0.363546 0.719853 0.000000
0.421191 0.716806 0.000000
0.474281 0.713904 0.000000
0.529622 0.710820 0.000000
0.587320 0.707583 0.000000
0.644020 0.704419 0.000000
0.701283 0.701283 0.000000
0.760607 0.698139 0.000000
0.822834 0.694999 0.000000
0.886559 0.692002 0.001176
0.949929 0.689290 0.006850
1.000000 0.686968 0.013322
0.000000 0.784509 0.032532
0.021183 0.783457 0.021183
0.114326 0.781288 0.010409
0.206031 0.778258 0.001351
0.288631 0.774905 0.000000
0.356482 0.771795 0.000000
0.413392 0.768993 0.000000
0.465906 0.766289 0.000000
0.520756 0.763380 0.000000
0.578072 0.760285 0.000000
0.634527 0.757221 0.000000
0.691676 0.754144 0.000000
0.751017 0.751017 0.000000
0.813404 0.747848 0.000000
0.877434 0.744773 0.000000
0.941240 0.741937 0.002344
1.000000 0.739454 0.008820
0.000000 0.836747 0.032957
0.021365 0.836275 0.021365
0.112597 0.834699 0.010343
0.202518 0.832227 0.001010
0.283625 0.829347 0.000000
0.350361 0.826598 0.000000
0.406432 0.824073 0.000000
0.458261 0.821600 0.000000
0.512501 0.818902 0.000000
0.569299 0.815992 0.000000
0.625372 0.813073 0.000000
0.682266 0.810101 0.000000
0.741483 0.807038 0.000000
0.803889 0.803889 0.000000
0.868093 0.800782 0.000000
0.932219 0.797866 0.000000
0.994518 0.795259 0.005211
0.000000 0.890645 0.035044
0.023200 0.890778 0.023200
0.112436 0.889822 0.011919
0.200484 0.887935 0.002307
0.280011 0.885555 0.000000
0.345546 0.883191 0.000000
0.400693 0.880968 0.000000
0.451749 0.878752 0.000000
0.505272 0.876296 0.000000
0.561432 0.873609 0.000000
0.616994 0.870874 0.000000
0.673495 0.868052 0.000000
0.732441 0.865102 0.000000
0.794713 0.862024 0.000000
0.858938 0.858938 0.000000
0.923241 0.855991 0.000000
0.985854 0.853306 0.002857
0.000000 0.944771 0.038889
0.026789 0.945521 0.026789
0.113994 0.945195 0.015245
0.200133 0.943904 0.005356
0.278034 0.942036 0.000000
0.342318 0.940072 0.000000
0.396488 0.938165 0.000000
0.446710 0.936223 0.000000
0.499440 0.934032 0.000000
0.554868 0.931595 0.000000
0.609813 0.929077 0.000000
0.665802 0.926441 0.000000
0.724343 0.923646 0.000000
0.786332 0.920686 0.000000
0.850423 0.917673 0.000000
0.914748 0.914748 0.000000
0.977528 0.912036 0.002036
0.000000 0.997763 0.044417
0.032064 0.999123 0.032064
0.117255 0.999422 0.020261
0.201494 0.998724 0.010099
0.277770 0.997367 0.002299
0.340792 0.995804 0.000000
0.393964 0.994218 0.000000
0.443322 0.992557 0.000000
0.495216 0.990643 0.000000
0.549850 0.988473 0.000000
0.604103 0.986193 0.000000
0.659491 0.983769 0.000000
0.717519 0.981162 0.000000
0.779101 0.978360 0.000000
0.842917 0.975464 0.000000
0.907116 0.972608 0.000000
0.969918 0.969918 0.002859
0.045044 0.045044 0.276190
0.152502 0.037589 0.270097
0.261596 0.030450 0.261596
0.362674 0.024625 0.252622
0.448669 0.020373 0.244883
0.516200 0.017524 0.238968
0.570959 0.015554 0.234350
0.620142 0.014062 0.230371
0.670289 0.012829 0.226504
0.721501 0.011893 0.222778
0.770888 0.011322 0.219423
0.819930 0.011105 0.216345
0.869943 0.011273 0.213496
0.921619 0.011897 0.210890
0.973771 0.013040 0.208647
1.000000 0.014715 0.206869
1.000000 0.016888 0.205610
0.020199 0.135112 0.252707
0.127622 0.127622 0.247070
0.239149 0.119701 0.239149
0.342944 0.113019 0.230666
0.431262 0.108001 0.223672
0.500666 0.104519 0.218509
0.556988 0.102015 0.214581
0.607611 0.100027 0.211273
0.659265 0.098273 0.208132
0.712057 0.096788 0.205189
0.763012 0.095672 0.202625
0.813655 0.094896 0.200368
0.865353 0.094474 0.198391
0.918826 0.094470 0.196724
0.972857 0.094954 0.195471
1.000000 0.095959 0.194708
1.000000 0.097465 0.194459
0.000000 0.227094 0.227094
0.100974 0.220422 0.220422
0.212500 0.212500 0.212500
0.319027 0.204916 0.204916
0.409733 0.199072 0.199072
0.481082 0.194911 0.194911
0.539025 0.191838 0.191838
0.591143 0.189326 0.189326
0.644357 0.187023 0.187023
0.698785 0.184963 0.184963
0.751361 0.183276 0.183276
0.803659 0.181917 0.181917
0.857093 0.180884 0.180884
0.912419 0.180227 0.180227
0.968385 0.180029 0.180029
1.000000 0.180341 0.180341
1.000000 0.181159 0.181159
0.000000 0.313866 0.203814
0.078189 0.308114 0.195835
0.186986 0.301097 0.186986
0.293513 0.293513 0.179402
0.386166 0.287007 0.174387
0.459299 0.282226 0.171113
0.518764 0.278621 0.168829
0.572293 0.275614 0.167062
0.626988 0.272792 0.165550
0.682971 0.270185 0.164326
0.737089 0.267955 0.163472
0.790963 0.266042 0.162967
0.846053 0.264426 0.162834
0.903144 0.263147 0.163138
0.960956 0.262299 0.163946
1.000000 0.261949 0.165282
1.000000 0.262111 0.167118
0.000000 0.389214 0.185428
0.060972 0.384232 0.176642
0.167327 0.377988 0.167327
0.271880 0.371039 0.159261
0.364560 0.364560 0.153899
0.438631 0.359484 0.150784
0.499152 0.355530 0.148853
0.553760 0.352158 0.147521
0.609643 0.348930 0.146534
0.666910 0.345880 0.145912
0.722325 0.343202 0.145689
0.777539 0.340822 0.145854
0.834048 0.338712 0.146443
0.892662 0.336900 0.147534
0.952072 0.335493 0.149177
1.000000 0.334571 0.151373
1.000000 0.334165 0.154069
0.000000 0.449486 0.172254
0.048971 0.445118 0.162961
0.153329 0.439500 0.153329
0.256054 0.433127 0.144941
0.347819 0.426966 0.139119
0.421911 0.421911 0.135740
0.482853 0.417836 0.133767
0.538056 0.414277 0.132530
0.594694 0.410803 0.131752
0.652848 0.407459 0.131436
0.709202 0.404464 0.131584
0.765416 0.401744 0.132174
0.823006 0.399264 0.133250
0.882798 0.397046 0.134892
0.943456 0.395207 0.137138
1.000000 0.393840 0.139968
1.000000 0.392986 0.143310
0.000000 0.499135 0.162526
0.040303 0.495276 0.152869
0.142991 0.490179 0.142991
0.244153 0.484295 0.134361
0.334862 0.478484 0.128185
0.408560 0.473577 0.124492
0.469517 0.469517 0.122329
0.524958 0.465896 0.121012
0.582014 0.462297 0.120246
0.640738 0.458773 0.120036
0.697747 0.455564 0.120364
0.754695 0.452602 0.121201
0.813105 0.449846 0.122585
0.873810 0.447319 0.124602
0.935454 0.445144 0.127277
0.996291 0.443424 0.130573
1.000000 0.442215 0.134401
0.000000 0.544366 0.154594
0.033390 0.540974 0.144636
0.134540 0.536357 0.134540
0.234248 0.530927 0.125696
0.323867 0.525469 0.119230
0.396986 0.520765 0.115239
0.457729 0.516791 0.112845
0.513183 0.513183 0.111366
0.570433 0.509535 0.110504
0.629514 0.505906 0.110277
0.686994 0.502552 0.110666
0.744510 0.499408 0.111631
0.803585 0.496434 0.113212
0.865056 0.493654 0.115491
0.927544 0.491195 0.118488
0.989275 0.489173 0.122151
1.000000 0.487653 0.126372
0.000000 0.591150 0.147364
0.027254 0.588245 0.137113
0.126795 0.584129 0.126795
0.224978 0.579174 0.117736
0.313390 0.574103 0.110994
0.385759 0.569650 0.106708
0.446104 0.565822 0.104053
0.501388 0.562286 0.102356
0.558652 0.558652 0.101318
0.617927 0.554977 0.100978
0.675746 0.551526 0.101331
0.733725 0.548240 0.102333
0.793383 0.545082 0.104023
0.855556 0.542074 0.106486
0.918845 0.539352 0.109736
0.981442 0.537041 0.113708
1.000000 0.535219 0.118278
0.000000 0.639672 0.140949
0.022009 0.637278 0.130410
0.119863 0.633686 0.119863
0.216443 0.629229 0.110584
0.303545 0.624575 0.103576
0.375027 0.620416 0.099004
0.434814 0.616780 0.096078
0.489761 0.613369 0.094132
0.546858 0.609809 0.092860
0.606149 0.606149 0.092326
0.664150 0.602656 0.092552
0.722459 0.599278 0.093497
0.782587 0.595979 0.095201
0.845373 0.592779 0.097757
0.909394 0.589822 0.101177
0.972809 0.587244 0.105387
1.000000 0.585135 0.110246
0.000000 0.687235 0.135770
0.018007 0.685346 0.124960
0.114189 0.682273 0.114189
0.209178 0.678312 0.104695
0.294953 0.674076 0.097441
0.365487 0.670225 0.092607
0.424626 0.666808 0.089425
0.479116 0.663558 0.087230
0.535897 0.660118 0.085702
0.595033 0.656528 0.084929
0.653050 0.653050 0.084965
0.711525 0.649636 0.085774
0.771970 0.646250 0.087405
0.835223 0.642912 0.089957
0.899845 0.639769 0.093450
0.963966 0.636967 0.097804
1.000000 0.634607 0.102867
0.000000 0.735275 0.131691
0.015142 0.733902 0.120615
0.109618 0.731359 0.109618
0.202982 0.727903 0.099907
0.287383 0.724099 0.092415
0.356903 0.720575 0.087333
0.415308 0.717401 0.083906
0.469240 0.714342 0.081463
0.525576 0.711060 0.079668
0.584407 0.707588 0.078626
0.642286 0.704175 0.078424
0.700777 0.700777 0.079035
0.761390 0.697356 0.080516
0.824970 0.693930 0.082978
0.890069 0.690647 0.086454
0.954789 0.687661 0.090866
1.000000 0.685085 0.096054
0.000000 0.785169 0.128722
0.013460 0.784338 0.117376
0.106143 0.782352 0.106143
0.197800 0.779426 0.096207
0.280744 0.776080 0.088475
0.349164 0.772907 0.083151
0.406743 0.770002 0.079483
0.460014 0.767165 0.076791
0.515781 0.764081 0.074721
0.574164 0.760772 0.073386
0.631753 0.757473 0.072907
0.690107 0.754140 0.073266
0.750737 0.750737 0.074528
0.814498 0.747274 0.076820
0.879943 0.743899 0.080190
0.945152 0.740770 0.084572
1.000000 0.738012 0.089801
0.000000 0.837769 0.127040
0.013160 0.837516 0.115415
0.103932 0.836124 0.103932
0.193766 0.833763 0.093757
0.275145 0.830907 0.085779
0.342365 0.828116 0.080210
0.399019 0.825510 0.076302
0.451524 0.822926 0.073361
0.506595 0.820077 0.071007
0.564383 0.816976 0.069361
0.621529 0.813840 0.068574
0.679586 0.810626 0.068634
0.740070 0.807294 0.069616
0.803851 0.803851 0.071659
0.869491 0.800437 0.074836
0.935057 0.797214 0.079095
0.998753 0.794315 0.084277
0.000000 0.892045 0.126921
0.014492 0.892395 0.115009
0.103267 0.891623 0.103267
0.191196 0.889853 0.092844
0.270932 0.887511 0.084616
0.336875 0.885124 0.078806
0.392529 0.882839 0.074662
0.444183 0.880533 0.071476
0.498456 0.877950 0.068840
0.555523 0.875095 0.066878
0.612087 0.872164 0.065768
0.669695 0.869117 0.065502
0.729866 0.865911 0.066158
0.793491 0.862545 0.067891
0.859152 0.859152 0.070796
0.924915 0.855892 0.074845
0.988960 0.852903 0.079889
0.000000 0.946555 0.128515
0.017570 0.947520 0.116319
0.104314 0.947378 0.104314
0.190306 0.946210 0.093639
0.268362 0.944392 0.085164
0.332990 0.942419 0.079119
0.387601 0.940467 0.074749
0.438351 0.938453 0.071329
0.491755 0.936156 0.068422
0.548009 0.933573 0.066152
0.603882 0.930881 0.064719
0.660911 0.928039 0.064117
0.720623 0.925005 0.064425
0.783927 0.921770 0.065808
0.849433 0.918456 0.068386
0.915218 0.915218 0.072154
0.979448 0.912197 0.076981
0.000000 0.999927 0.131808
0.022339 1.000000 0.119334
0.107068 1.000000 0.107068
0.191137 1.000000 0.096145
0.267524 1.000000 0.087429
0.330835 0.998556 0.081159
0.384391 0.996940 0.076577
0.434217 0.995223 0.072936
0.486715 0.993220 0.069775
0.542102 0.990925 0.067213
0.597211 0.988491 0.065472
0.653571 0.985882 0.064540
0.712709 0.983053 0.064499
0.775554 0.979992 0.065516
0.840750 0.976806 0.067736
0.906393 0.973644 0.071177
0.970643 0.970643 0.075727
0.043177 0.043177 0.378619
0.148796 0.036102 0.374184
0.257060 0.029064 0.367112
0.358528 0.023085 0.358528
0.445346 0.018639 0.350283
0.513666 0.015638 0.343546
0.569114 0.013552 0.338051
0.618940 0.011961 0.333156
0.669760 0.010633 0.328250
0.721676 0.009605 0.323368
0.771757 0.008949 0.318815
0.821504 0.008649 0.314474
0.872255 0.008735 0.310263
0.924712 0.009277 0.306175
0.977676 0.010337 0.302357
1.000000 0.011932 0.298956
1.000000 0.014028 0.296068
0.019827 0.132521 0.357909
0.125405 0.125405 0.354000
0.235417 0.117770 0.347695
