assets/presets/luts/hdr-look/lut.cube
TITLE "HDR Look"
LUT_3D_SIZE 9
0.050000 0.050000 0.050000
0.266552 0.035406 0.035406
0.449253 0.025901 0.025901
0.568447 0.021394 0.021394
0.665157 0.018907 0.018907
0.762986 0.017637 0.017637
0.859174 0.017823 0.017823
0.959813 0.019844 0.019844
1.000000 0.023950 0.023950
0.000904 0.232050 0.000904
0.217456 0.217456 0.000000
0.408797 0.205011 0.000000
0.534761 0.198151 0.000000
0.637384 0.193598 0.000000
0.741567 0.190102 0.000000
0.844401 0.187954 0.000000
0.952483 0.187359 0.000000
1.000000 0.188750 0.000028
0.000000 0.392283 0.000000
0.176721 0.380507 0.000000
0.368184 0.368184 0.000000
0.497734 0.360202 0.000000
0.604468 0.354296 0.000000
0.713573 0.349142 0.000000
0.821860 0.345133 0.000000
0.936259 0.342363 0.000000
1.000000 0.341437 0.000000
0.000000 0.500821 0.000000
0.154622 0.491231 0.000000
0.342594 0.480127 0.000000
0.472215 0.472215 0.000000
0.580289 0.465932 0.000000
0.691677 0.460067 0.000000
0.802935 0.455095 0.000000
0.921091 0.451076 0.000000
1.000000 0.448735 0.000000
0.000000 0.591652 0.000000
0.140179 0.583965 0.000000
0.324053 0.574225 0.000000
0.452433 0.566790 0.000000
0.560559 0.560559 0.000000
0.672921 0.554439 0.000000
0.785930 0.548938 0.000000
0.906645 0.544105 0.000000
1.000000 0.540752 0.000000
0.000000 0.686478 0.000000
0.129367 0.680833 0.000000
0.308278 0.672708 0.000000
0.434443 0.666052 0.000000
0.541694 0.660177 0.000000
0.654116 0.654116 0.000000
0.768096 0.648368 0.000000
0.890730 0.642967 0.000000
1.000000 0.638782 0.000000
0.000000 0.783105 0.000000
0.123145 0.779592 0.000000
0.296518 0.773245 0.000000
0.419742 0.767582 0.000000
0.525320 0.762312 0.000000
0.636883 0.756610 0.000000
0.750928 0.750928 0.000000
0.874614 0.745266 0.000000
0.997558 0.740513 0.000000
0.000000 0.888522 0.000000
0.122272 0.887397 0.000000
0.289202 0.883099 0.000000
0.408662 0.878677 0.000000
0.511730 0.874270 0.000000
0.621474 0.869237 0.000000
0.734600 0.863947 0.000000
0.858366 0.858366 0.000000
0.982451 0.853339 0.000000
0.000000 0.994897 0.000000
0.128126 0.996246 0.000000
0.288213 0.994110 0.000000
0.403441 0.991061 0.000000
0.503435 0.987683 0.000000
0.610598 0.983548 0.000000
0.721894 0.978939 0.000000
0.844675 0.973788 0.000000
0.968847 0.968847 0.000000
0.045044 0.045044 0.276190
0.261596 0.030450 0.261596
0.448669 0.020373 0.244883
0.570959 0.015554 0.234350
0.670289 0.012829 0.226504
0.770888 0.011322 0.219423
0.869943 0.011273 0.213496
0.973771 0.013040 0.208647
1.000000 0.016888 0.205610
0.000000 0.227094 0.227094
0.212500 0.212500 0.212500
0.409733 0.199072 0.199072
0.539025 0.191838 0.191838
0.644357 0.187023 0.187023
0.751361 0.183276 0.183276
0.857093 0.180884 0.180884
0.968385 0.180029 0.180029
1.000000 0.181159 0.181159
0.000000 0.389214 0.185428
0.167327 0.377988 0.167327
0.364560 0.364560 0.153899
0.499152 0.355530 0.148853
0.609643 0.348930 0.146534
0.722325 0.343202 0.145689
0.834048 0.338712 0.146443
0.952072 0.335493 0.149177
1.000000 0.334165 0.154069
0.000000 0.499135 0.162526
0.142991 0.490179 0.142991
0.334862 0.478484 0.128185
0.469517 0.469517 0.122329
0.582014 0.462297 0.120246
0.697747 0.455564 0.120364
0.813105 0.449846 0.122585
0.935454 0.445144 0.127277
1.000000 0.442215 0.134401
0.000000 0.591150 0.147364
0.126795 0.584129 0.126795
0.313390 0.574103 0.110994
0.446104 0.565822 0.104053
0.558652 0.558652 0.101318
0.675746 0.551526 0.101331
0.793383 0.545082 0.104023
0.918845 0.539352 0.109736
1.000000 0.535219 0.118278
0.000000 0.687235 0.135770
0.114189 0.682273 0.114189
0.294953 0.674076 0.097441
0.424626 0.666808 0.089425
0.535897 0.660118 0.085702
0.653050 0.653050 0.084965
0.771970 0.646250 0.087405
0.899845 0.639769 0.093450
1.000000 0.634607 0.102867
0.000000 0.785169 0.128722
0.106143 0.782352 0.106143
0.280744 0.776080 0.088475
0.406743 0.770002 0.079483
0.515781 0.764081 0.074721
0.631753 0.757473 0.072907
0.750737 0.750737 0.074528
0.879943 0.743899 0.080190
1.000000 0.738012 0.089801
0.000000 0.892045 0.126921
0.103267 0.891623 0.103267
0.270932 0.887511 0.084616
0.392529 0.882839 0.074662
0.498456 0.877950 0.068840
0.612087 0.872164 0.065768
0.729866 0.865911 0.066158
0.859152 0.859152 0.070796
0.988960 0.852903 0.079889
0.000000 0.999927 0.131808
0.107068 1.000000 0.107068
0.267524 1.000000 0.087429
0.384391 0.996940 0.076577
0.486715 0.993220 0.069775
0.597211 0.988491 0.065472
0.712709 0.983053 0.064499
0.840750 0.976806 0.067736
0.970643 0.970643 0.075727
0.041816 0.041816 0.465168
0.252786 0.028276 0.456572
0.441069 0.017717 0.441069
0.565862 0.012377 0.428329
0.667595 0.009247 0.417423
0.770815 0.007360 0.406384
0.872599 0.006962 0.395872
0.979452 0.008382 0.385556
1.000000 0.011904 0.376617
0.000000 0.221619 0.425405
0.207940 0.207940 0.418601
0.405173 0.194512 0.405173
0.537203 0.186904 0.393580
0.644941 0.181832 0.384228
0.754483 0.177847 0.375360
0.862834 0.175229 0.367498
0.977031 0.174136 0.360452
1.000000 0.175028 0.355123
0.000000 0.384099 0.384099
0.162767 0.373428 0.373428
0.360000 0.360000 0.360000
0.498459 0.350291 0.350291
0.611615 0.343364 0.343364
0.726947 0.337368 0.337368
0.841343 0.332637 0.332637
0.962304 0.329171 0.329171
1.000000 0.327600 0.327600
0.000000 0.495003 0.357470
0.136494 0.486793 0.343170
0.327339 0.475506 0.327339
0.465797 0.465797 0.317630
0.582166 0.457777 0.312065
0.701390 0.450428 0.308014
0.819947 0.444240 0.305466
0.945595 0.439128 0.304508
1.000000 0.435844 0.305568
0.000000 0.588009 0.337837
0.118701 0.581810 0.321097
0.304035 0.572286 0.304035
0.439237 0.563626 0.293525
0.555650 0.555650 0.287398
0.676966 0.547636 0.283769
0.798519 0.540442 0.282365
0.927862 0.534062 0.283086
1.000000 0.529397 0.286099
0.000000 0.685207 0.320777
0.104462 0.681098 0.301975
0.283864 0.673443 0.283864
0.415077 0.666039 0.272662
0.529440 0.658769 0.265572
0.650811 0.650811 0.261232
0.774174 0.643071 0.259910
0.906603 0.635684 0.261518
1.000000 0.629758 0.265987
0.000000 0.784324 0.307597
0.094761 0.782366 0.287030
0.267949 0.776655 0.267949
0.394882 0.770588 0.256107
0.506226 0.764304 0.248149
0.625867 0.756971 0.242707
0.749293 0.749293 0.240587
0.883478 0.741397 0.242061
1.000000 0.734536 0.247151
0.000000 0.892530 0.298633
0.090066 0.892961 0.276382
0.256290 0.889423 0.256290
0.378393 0.884860 0.243773
0.485975 0.879776 0.235000
0.602553 0.873472 0.228387
0.724331 0.866412 0.224995
0.858595 0.858595 0.225461
0.993576 0.851244 0.230232
0.000000 1.000000 0.295895
0.092005 1.000000 0.272101
0.251004 1.000000 0.251004
0.368086 1.000000 0.237810
0.471592 0.996603 0.228294
0.584394 0.991529 0.220623
0.703289 0.985459 0.215905
0.835937 0.978269 0.214924
0.971003 0.971003 0.218603
0.040285 0.040285 0.587338
0.246510 0.027714 0.583119
0.433248 0.017295 0.570780
0.558732 0.011679 0.558732
0.661700 0.008231 0.547343
0.766544 0.006000 0.534935
0.870167 0.005267 0.522327
0.979135 0.006350 0.509121
1.000000 0.009559 0.496782
0.000000 0.218215 0.554825
0.205483 0.205483 0.552671
0.399354 0.192677 0.542977
0.532009 0.184821 0.532009
0.641203 0.179434 0.521485
0.752530 0.175148 0.510348
0.862783 0.172264 0.499524
0.979092 0.170915 0.488782
1.000000 0.171575 0.479389
0.000000 0.379996 0.517529
0.162935 0.369612 0.513234
0.356703 0.356703 0.504870
0.495161 0.346994 0.495161
0.609952 0.339851 0.485563
0.727055 0.333679 0.476093
0.843272 0.328790 0.467565
0.966248 0.325161 0.459781
1.000000 0.323428 0.453704
0.000000 0.491106 0.491106
0.135975 0.483162 0.483162
0.324041 0.472209 0.472209
0.462500 0.462500 0.462500
0.581094 0.454104 0.454104
0.702213 0.446546 0.446546
0.822630 0.440190 0.440190
0.950311 0.434910 0.434910
1.000000 0.431461 0.431461
0.000000 0.584567 0.470210
0.116977 0.578746 0.459028
0.299592 0.569693 0.445304
0.434257 0.561247 0.434257
0.552851 0.552851 0.425861
0.676955 0.544274 0.419607
0.800872 0.536697 0.415037
0.932541 0.530017 0.411876
1.000000 0.525108 0.410668
0.000000 0.682399 0.450790
0.101388 0.678770 0.436588
0.278266 0.671643 0.420681
0.408830 0.664497 0.408830
0.524393 0.657074 0.399726
0.648543 0.648543 0.392876
0.774932 0.640171 0.388906
0.910291 0.632242 0.387253
1.000000 0.625900 0.388006
0.000000 0.782262 0.434422
0.090330 0.780850 0.417591
0.261200 0.775681 0.399974
0.387447 0.769887 0.387447
0.499416 0.763591 0.377757
0.621129 0.755890 0.369865
0.747577 0.747577 0.365137
0.885183 0.738960 0.363681
1.000000 0.731478 0.365523
0.000000 0.891351 0.421336
0.084191 0.892368 0.402058
0.248283 0.889369 0.382903
0.369684 0.885085 0.369684
0.477546 0.880070 0.359405
0.595527 0.873577 0.350538
0.719812 0.866035 0.344533
0.857495 0.857495 0.342094
0.996050 0.849387 0.343850
0.000000 1.000000 0.413932
0.084694 1.000000 0.392508
0.241710 1.000000 0.371985
0.358083 1.000000 0.358083
0.461663 0.997896 0.347223
0.575404 0.992748 0.337510
0.696232 0.986358 0.330278
0.831902 0.978565 0.326366
0.970541 0.970541 0.327043
0.039441 0.039441 0.685691
0.241426 0.027752 0.685212
0.425871 0.017695 0.676044
0.551114 0.012002 0.665471
0.654598 0.008348 0.654598
0.760464 0.005834 0.641982
0.865446 0.004790 0.628454
0.976111 0.005537 0.613571
1.000000 0.008427 0.598974
0.002031 0.215706 0.659492
0.203848 0.203848 0.661182
0.394156 0.191760 0.654869
0.526009 0.183958 0.645727
0.635705 0.178371 0.635705
0.748209 0.173794 0.623989
0.859972 0.170612 0.611671
0.978076 0.168967 0.598582
1.000000 0.169358 0.586299
0.000000 0.376528 0.626700
0.164170 0.366565 0.627278
0.354350 0.354350 0.622602
0.490742 0.345030 0.615131
0.605965 0.337714 0.605965
0.724463 0.331265 0.595133
0.842293 0.326138 0.584216
0.967070 0.322294 0.573269
1.000000 0.320369 0.563667
0.000000 0.487479 0.601836
0.137693 0.479744 0.599462
0.323311 0.469024 0.593412
0.459649 0.459649 0.586639
0.578243 0.451253 0.578243
0.700854 0.443505 0.568172
0.822836 0.437002 0.558661
0.952243 0.431578 0.549719
1.000000 0.427990 0.542430
0.000000 0.581093 0.581093
0.118143 0.575477 0.575477
0.298385 0.566636 0.566636
0.431406 0.558396 0.558396
0.550000 0.550000 0.550000
0.676059 0.541108 0.541108
0.801615 0.533364 0.533364
0.935032 0.526535 0.526535
1.000000 0.521484 0.521484
0.000000 0.679292 0.560809
0.101524 0.675940 0.551719
0.275943 0.669140 0.539811
0.404944 0.662292 0.529611
0.520085 0.655037 0.520085
0.646145 0.646145 0.511193
0.774998 0.637276 0.504885
0.912572 0.628997 0.500178
1.000000 0.622405 0.497461
0.000000 0.779674 0.542682
0.089261 0.778621 0.530320
0.257707 0.773862 0.515784
0.382553 0.768387 0.504212
0.494035 0.762286 0.494035
0.616746 0.754468 0.484355
0.745650 0.745650 0.477398
0.886121 0.736437 0.473409
1.000000 0.728491 0.472338
0.000000 0.889438 0.526898
0.081773 0.890882 0.511389
0.243561 0.888337 0.494536
0.363707 0.884372 0.481848
0.471062 0.879559 0.471062
0.589505 0.873080 0.460686
0.715550 0.865234 0.452522
0.856094 0.856094 0.447596
0.997672 0.847348 0.446765
0.000000 1.000000 0.516148
0.080928 1.000000 0.497869
0.235777 1.000000 0.479075
0.351005 1.000000 0.465445
0.454069 0.998201 0.454069
0.567989 0.993132 0.443046
0.689993 0.986592 0.433839
0.828024 0.978348 0.427441
0.969684 0.969684 0.425553
0.039009 0.039009 0.784358
0.236389 0.028288 0.787854
0.417799 0.018776 0.782230
0.542093 0.013158 0.773702
0.645542 0.009394 0.764024
0.751995 0.006647 0.751995
0.858062 0.005294 0.738334
0.970285 0.005672 0.722522
1.000000 0.008185 0.706272
0.005370 0.213470 0.764935
0.202575 0.202575 0.770660
0.388838 0.191325 0.767961
0.518991 0.183791 0.761173
0.628354 0.178159 0.752575
0.741436 0.173352 0.741436
0.854416 0.169850 0.728696
0.974236 0.167841 0.714160
1.000000 0.167884 0.699624
0.000000 0.373056 0.737487
0.166189 0.363702 0.742825
0.352314 0.352314 0.741893
0.485969 0.343554 0.736931
0.600216 0.336349 0.729546
0.719261 0.329682 0.719261
0.838497 0.324233 0.707393
0.965142 0.320057 0.694223
1.000000 0.317843 0.681614
0.000000 0.483573 0.715182
0.140969 0.476169 0.718351
0.323493 0.465907 0.716870
0.457082 0.457082 0.712749
0.573726 0.449059 0.706407
0.696795 0.441128 0.696795
0.820353 0.434327 0.685592
0.951677 0.428639 0.673628
1.000000 0.424830 0.662724
0.000000 0.577114 0.695597
0.121519 0.571714 0.695934
0.299223 0.563090 0.692420
0.430379 0.555046 0.687727
0.546980 0.546980 0.681932
0.673040 0.538088 0.673040
0.800246 0.530133 0.662524
0.935523 0.523129 0.651948
1.000000 0.517920 0.642864
0.000000 0.675488 0.675488
0.104264 0.672349 0.672349
0.276178 0.665757 0.665757
0.403412 0.659079 0.659079
0.517066 0.652017 0.652017
0.643125 0.643125 0.643125
0.774150 0.633904 0.633904
0.913672 0.625427 0.625427
1.000000 0.618670 0.618670
0.000000 0.776254 0.656527
0.090909 0.775475 0.649755
0.256752 0.771016 0.639912
0.379783 0.765808 0.631047
0.489868 0.759981 0.622259
0.612106 0.752352 0.612106
0.743131 0.743131 0.602885
0.886509 0.733337 0.596103
1.000000 0.725015 0.591645
0.000000 0.886608 0.638845
0.082012 0.888407 0.628331
0.241169 0.886254 0.615335
0.359575 0.882613 0.604564
0.465698 0.878092 0.594517
0.583588 0.871833 0.583588
0.710697 0.863868 0.573462
0.854135 0.854135 0.565890
0.998876 0.844731 0.562274
0.000000 0.998285 0.625335
0.079668 1.000000 0.611407
0.231946 1.000000 0.595717
0.345550 1.000000 0.583445
0.447513 0.997599 0.572457
0.560858 0.992760 0.560858
0.683360 0.986239 0.549990
0.823485 0.977631 0.541029
0.968305 0.968305 0.536403
0.039072 0.039072 0.880424
0.231600 0.029377 0.888047
0.409452 0.020543 0.886180
0.532202 0.015143 0.880042
0.635051 0.011388 0.872043
0.741543 0.008502 0.861270
0.848247 0.006895 0.848247
0.961696 0.006917 0.832348
1.000000 0.009034 0.815221
0.009412 0.211635 0.868083
0.201763 0.201763 0.877972
0.383691 0.191423 0.879027
0.511565 0.184304 0.874824
0.619857 0.178797 0.868157
0.732746 0.173900 0.858465
0.846357 0.170148 0.846357
0.967525 0.167772 0.831480
1.000000 0.167418 0.815629
0.000000 0.369792 0.846520
0.168922 0.361191 0.856527
0.350707 0.350707 0.859413
0.481353 0.342578 0.857060
0.593774 0.335696 0.851851
0.712199 0.329039 0.843302
0.832051 0.323345 0.832051
0.960211 0.318794 0.818130
1.000000 0.316200 0.803584
0.000000 0.479651 0.827491
0.145473 0.472734 0.835993
0.324347 0.463121 0.838828
0.454923 0.454923 0.837363
0.569076 0.447416 0.833251
0.690911 0.439647 0.825672
0.815053 0.432613 0.815053
0.948055 0.426553 0.801832
1.000000 0.422399 0.788354
0.000000 0.572898 0.809890
0.126748 0.567808 0.816108
0.301481 0.559558 0.817635
0.430247 0.551907 0.816082
0.544350 0.544350 0.812602
0.668259 0.535868 0.805981
0.795965 0.527714 0.795965
0.933078 0.520366 0.783394
1.000000 0.514875 0.771028
0.000000 0.671221 0.790948
0.109457 0.668302 0.794022
0.278761 0.661921 0.793025
0.404143 0.655407 0.790169
0.516133 0.648524 0.786246
0.639994 0.639994 0.780240
0.771019 0.630773 0.771019
0.912460 0.622054 0.759288
1.000000 0.615111 0.748481
0.000000 0.772177 0.772177
0.095407 0.771616 0.771616
0.258657 0.767363 0.767363
0.379870 0.762310 0.762310
0.488385 0.756636 0.756636
0.608974 0.749221 0.749221
0.740000 0.740000 0.740000
0.885873 0.729808 0.729808
1.000000 0.721277 0.721277
0.000000 0.882962 0.753614
0.085282 0.885034 0.748990
0.241750 0.883166 0.741086
0.358261 0.879763 0.733540
0.462775 0.875487 0.725803
0.579129 0.869535 0.716363
0.705714 0.861778 0.705714
0.851586 0.851586 0.695522
0.999475 0.841548 0.688914
0.000000 0.995252 0.738207
0.081446 1.000000 0.729657
0.230981 1.000000 0.718366
0.342697 0.998777 0.708651
0.443127 0.995880 0.699281
0.555114 0.991363 0.688484
0.677015 0.985081 0.677015
0.818402 0.976329 0.665768
0.966358 0.966358 0.658292
0.039759 0.039759 0.979728
0.226828 0.031221 0.991953
0.400406 0.023232 0.994302
0.520969 0.018198 0.990984
0.622615 0.014581 0.985155
0.728526 0.011675 0.976289
0.835328 0.009897 0.964675
0.949572 0.009603 0.949572
1.000000 0.011313 0.932410
0.014582 0.210189 0.975313
0.201473 0.201473 0.989829
0.378487 0.192171 0.995066
0.503480 0.185613 0.993790
0.610006 0.180391 0.989500
0.721893 0.175574 0.981969
0.835400 0.171692 0.971445
0.957358 0.169002 0.957358
1.000000 0.168231 0.941245
0.000000 0.366644 0.960541
0.172662 0.358978 0.975557
0.349530 0.349530 0.982664
0.476747 0.342127 0.983214
0.586702 0.335726 0.980502
0.703478 0.329312 0.974397
0.822897 0.323562 0.964978
0.951835 0.318702 0.951835
1.000000 0.315679 0.936691
0.000000 0.475599 0.945614
0.151503 0.469370 0.959680
0.325984 0.460604 0.967071
0.453130 0.453130 0.968531
0.564377 0.446236 0.966900
0.683884 0.438895 0.961933
0.807181 0.431902 0.953404
0.940941 0.425540 0.940941
1.000000 0.420953 0.926490
0.000000 0.568317 0.930857
0.134094 0.563709 0.943203
0.305080 0.556056 0.949856
0.430836 0.548977 0.951500
0.542031 0.542031 0.950529
0.662980 0.534161 0.946555
0.789229 0.526201 0.938913
0.927063 0.518566 0.927063
1.000000 0.512646 0.913229
0.000000 0.666342 0.914105
0.117426 0.663745 0.923821
0.283555 0.657721 0.928640
0.406546 0.651535 0.929584
0.516221 0.645040 0.928616
0.637115 0.637115 0.925360
0.765613 0.628378 0.918784
0.907662 0.619417 0.907662
1.000000 0.612079 0.894535
0.000000 0.767260 0.896608
0.103234 0.766942 0.902987
0.263583 0.762919 0.905000
0.382758 0.758037 0.904260
0.489497 0.752525 0.902209
0.608094 0.745328 0.898500
0.736539 0.736539 0.892603
0.882411 0.726347 0.882411
1.000000 0.717533 0.870167
0.000000 0.878281 0.878281
0.092240 0.880596 0.880596
0.245821 0.878954 0.878954
0.360314 0.875715 0.875715
0.463093 0.871590 0.871590
0.577578 0.865823 0.865823
0.702252 0.858317 0.858317
0.848125 0.848125 0.848125
0.998930 0.837614 0.837614
0.000000 0.991053 0.861941
0.087025 0.996096 0.860039
0.233582 0.996926 0.854594
0.343201 0.995401 0.848738
0.441826 0.992733 0.842409
0.551904 0.988506 0.834360
0.672017 0.982578 0.824651
0.812765 0.974081 0.812765
0.963570 0.963570 0.802254
0.041153 0.041153 1.000000
0.222545 0.033823 1.000000
0.391485 0.026772 1.000000
0.509435 0.022212 1.000000
0.609398 0.018852 1.000000
0.714145 0.016058 1.000000
0.820422 0.014236 1.000000
0.934830 0.013733 1.000000
1.000000 0.015103 1.000000
0.020644 0.209366 1.000000
0.201857 0.201857 1.000000
0.373739 0.193644 1.000000
0.495542 0.187728 1.000000
0.599848 0.182908 1.000000
0.710070 0.178331 1.000000
0.822698 0.174487 1.000000
0.944640 0.171626 1.000000
1.000000 0.170516 1.000000
0.000000 0.363986 1.000000
0.177261 0.357357 1.000000
0.348997 0.348997 1.000000
0.472632 0.342356 1.000000
0.579815 0.336517 1.000000
0.694286 0.330515 1.000000
0.812313 0.324928 1.000000
0.940967 0.319955 1.000000
1.000000 0.316596 1.000000
0.000000 0.471879 1.000000
0.158671 0.466485 1.000000
0.328396 0.458672 1.000000
0.451959 0.451959 1.000000
0.560153 0.445713 1.000000
0.676830 0.438936 1.000000
0.798200 0.432245 1.000000
0.931374 0.425837 1.000000
1.000000 0.420920 1.000000
0.000000 0.563890 1.000000
0.142981 0.559921 1.000000
0.309730 0.553027 1.000000
0.432173 0.546613 1.000000
0.540316 0.540316 1.000000
0.658065 0.533121 1.000000
0.781783 0.525629 1.000000
0.918627 0.518044 1.000000
1.000000 0.511799 1.000000
0.000000 0.661391 1.000000
0.127510 0.659250 1.000000
0.289983 0.653754 1.000000
0.410152 0.648047 1.000000
0.517129 0.642073 1.000000
0.634820 0.634820 1.000000
0.760117 0.626747 1.000000
0.900470 0.618013 1.000000
1.000000 0.610365 1.000000
0.000000 0.762027 1.000000
0.113817 0.762028 1.000000
0.270957 0.758341 1.000000
0.387788 0.753742 1.000000
0.492380 0.748534 1.000000
0.608405 0.741775 1.000000
0.733642 0.733642 1.000000
0.876633 0.723999 1.000000
1.000000 0.714919 1.000000
0.000000 0.873024 1.000000
0.102574 0.875588 1.000000
0.253165 0.874178 1.000000
0.365570 0.871107 1.000000
0.466549 0.867132 1.000000
0.579084 0.861540 1.000000
0.701629 0.854263 1.000000
0.844555 0.844555 1.000000
0.995360 0.834044 0.995360
0.000000 0.986050 0.986050
0.096424 0.991341 0.991341
0.240000 0.992400 0.992400
0.347541 0.991039 0.991039
0.444385 0.988516 0.988516
0.552553 0.984455 0.984455
0.670657 0.978723 0.978723
0.809195 0.970511 0.970511
0.960000 0.960000 0.960000
