assets/presets/luts/print-2383/lut.cube
TITLE "Print 2383"
LUT_3D_SIZE 17
0.000000 0.001011 0.017008
0.005256 0.000908 0.016912
0.025369 0.000586 0.016614
0.061950 0.000003 0.016067
0.117810 0.000000 0.015225
0.194611 0.000000 0.014052
0.291707 0.000000 0.012547
0.405241 0.000000 0.010758
0.528073 0.000000 0.008791
0.650941 0.000000 0.006798
0.764572 0.000000 0.004939
0.861800 0.000000 0.003340
0.938738 0.000000 0.002075
0.994716 0.000000 0.001159
1.000000 0.000000 0.000565
1.000000 0.000000 0.000242
1.000000 0.000000 0.000140
0.000000 0.007239 0.016686
0.004910 0.007136 0.016589
0.025024 0.006815 0.016289
0.061607 0.006233 0.015741
0.117472 0.005349 0.014895
0.194278 0.004142 0.013717
0.291380 0.002629 0.012206
0.404921 0.000876 0.010411
0.527759 0.000000 0.008440
0.650633 0.000000 0.006443
0.764270 0.000000 0.004580
0.861502 0.000000 0.002981
0.938442 0.000000 0.001718
0.994421 0.000000 0.000805
1.000000 0.000000 0.000216
1.000000 0.000000 0.000000
1.000000 0.000000 0.000000
0.000000 0.026616 0.015673
0.003842 0.026513 0.015575
0.023961 0.026195 0.015271
0.060552 0.025617 0.014714
0.116429 0.024739 0.013858
0.193251 0.023539 0.012666
0.290373 0.022035 0.011139
0.403934 0.020293 0.009327
0.526792 0.018425 0.007341
0.649684 0.016573 0.005333
0.763335 0.014874 0.003465
0.860578 0.013428 0.001867
0.937525 0.012289 0.000613
0.993510 0.011463 0.000000
1.000000 0.010923 0.000000
1.000000 0.010626 0.000000
1.000000 0.010531 0.000000
0.000000 0.061873 0.013795
0.001939 0.061771 0.013695
0.022065 0.061457 0.013384
0.058671 0.060886 0.012815
0.114569 0.060018 0.011940
0.191418 0.058831 0.010725
0.288572 0.057343 0.009172
0.402167 0.055617 0.007335
0.525059 0.053765 0.005327
0.647980 0.051927 0.003307
0.761654 0.050239 0.001440
0.858914 0.048802 0.000000
0.935873 0.047668 0.000000
0.991865 0.046846 0.000000
1.000000 0.046308 0.000000
1.000000 0.046012 0.000000
1.000000 0.045917 0.000000
0.000000 0.115747 0.010851
0.000000 0.115647 0.010748
0.019259 0.115337 0.010428
0.055884 0.114776 0.009843
0.111810 0.113921 0.008945
0.188696 0.112752 0.007702
0.285892 0.111284 0.006118
0.399533 0.109580 0.004254
0.522467 0.107749 0.002232
0.645424 0.105929 0.000233
0.759127 0.104254 0.000000
0.856407 0.102826 0.000000
0.933379 0.101699 0.000000
0.989379 0.100881 0.000000
1.000000 0.100345 0.000000
1.000000 0.100050 0.000000
1.000000 0.099955 0.000000
0.000000 0.189872 0.006683
0.000000 0.189775 0.006578
0.015549 0.189471 0.006249
0.052196 0.188920 0.005649
0.108153 0.188080 0.004731
0.185080 0.186931 0.003466
0.282323 0.185486 0.001868
0.396011 0.183804 0.000030
0.518989 0.181994 0.000000
0.641981 0.180191 0.000000
0.755708 0.178528 0.000000
0.853003 0.177107 0.000000
0.929983 0.175984 0.000000
0.985987 0.175167 0.000000
1.000000 0.174632 0.000000
1.000000 0.174338 0.000000
1.000000 0.174243 0.000000
0.000000 0.283656 0.001316
0.000000 0.283560 0.001211
0.011052 0.283262 0.000883
0.047718 0.282720 0.000292
0.103704 0.281894 0.000000
0.180666 0.280762 0.000000
0.277947 0.279335 0.000000
0.391672 0.277671 0.000000
0.514678 0.275875 0.000000
0.637688 0.274080 0.000000
0.751423 0.272421 0.000000
0.848733 0.271003 0.000000
0.925739 0.269882 0.000000
0.981769 0.269068 0.000000
1.000000 0.268535 0.000000
1.000000 0.268242 0.000000
1.000000 0.268148 0.000000
0.000000 0.393371 0.000000
0.000000 0.393276 0.000000
0.005969 0.392982 0.000000
0.042648 0.392446 0.000000
0.098650 0.391628 0.000000
0.175630 0.390505 0.000000
0.272927 0.389085 0.000000
0.386662 0.387426 0.000000
0.509699 0.385634 0.000000
0.632769 0.383846 0.000000
0.746579 0.382193 0.000000
0.843954 0.380778 0.000000
0.921001 0.379656 0.000000
0.977055 0.378839 0.000000
1.000000 0.378303 0.000000
1.000000 0.378008 0.000000
1.000000 0.377913 0.000000
0.000000 0.512076 0.000000
0.000000 0.511982 0.000000
0.000555 0.511688 0.000000
0.037243 0.511154 0.000000
0.093263 0.510339 0.000000
0.170278 0.509219 0.000000
0.267633 0.507805 0.000000
0.381452 0.506152 0.000000
0.504566 0.504360 0.000000
0.627688 0.502564 0.000000
0.741524 0.500895 0.000000
0.838904 0.499460 0.000000
0.915943 0.498320 0.000000
0.971986 0.497487 0.000000
1.000000 0.496939 0.000000
1.000000 0.496638 0.000000
1.000000 0.496541 0.000000
0.000000 0.630803 0.000000
0.000000 0.630708 0.000000
0.000000 0.630415 0.000000
0.032079 0.629881 0.000000
0.088132 0.629065 0.000000
0.165182 0.627941 0.000000
0.262567 0.626516 0.000000
0.376401 0.624844 0.000000
0.499508 0.623023 0.000000
0.622597 0.621189 0.000000
0.736380 0.619477 0.000000
0.833697 0.618000 0.000000
0.910676 0.616822 0.000000
0.966668 0.615960 0.000000
1.000000 0.615392 0.000000
1.000000 0.615079 0.000000
1.000000 0.614978 0.000000
0.000000 0.740547 0.000000
0.000000 0.740451 0.000000
0.000000 0.740154 0.000000
0.027411 0.739613 0.000000
0.083458 0.738784 0.000000
0.160493 0.737639 0.000000
0.257847 0.736185 0.000000
0.371626 0.734470 0.000000
0.494650 0.732597 0.000000
0.617632 0.730701 0.000000
0.731317 0.728935 0.000000
0.828571 0.727425 0.000000
0.905518 0.726230 0.000000
0.961495 0.725360 0.000000
0.998158 0.724791 0.000000
1.000000 0.724477 0.000000
1.000000 0.724376 0.000000
0.000000 0.834347 0.000000
0.000000 0.834250 0.000000
0.000000 0.833946 0.000000
0.023322 0.833392 0.000000
0.079339 0.832543 0.000000
0.156325 0.831369 0.000000
0.253606 0.829872 0.000000
0.367293 0.828108 0.000000
0.490250 0.826199 0.000000
0.613204 0.824289 0.000000
0.726883 0.822522 0.000000
0.824126 0.821010 0.000000
0.901060 0.819812 0.000000
0.957026 0.818941 0.000000
0.993679 0.818369 0.000000
1.000000 0.818055 0.000000
1.000000 0.817954 0.000000
0.000000 0.908473 0.000000
0.000000 0.908373 0.000000
0.000000 0.908062 0.000000
0.019926 0.907495 0.000000
0.075905 0.906625 0.000000
0.152852 0.905430 0.000000
0.250107 0.903920 0.000000
0.363789 0.902154 0.000000
0.486738 0.900243 0.000000
0.609677 0.898331 0.000000
0.723335 0.896560 0.000000
0.820556 0.895044 0.000000
0.897468 0.893842 0.000000
0.953417 0.892967 0.000000
0.990058 0.892394 0.000000
1.000000 0.892078 0.000000
1.000000 0.891977 0.000000
0.000000 0.962347 0.000000
0.000000 0.962246 0.000000
0.000000 0.961933 0.000000
0.017378 0.961364 0.000000
0.073358 0.960494 0.000000
0.150303 0.959299 0.000000
0.247553 0.957788 0.000000
0.361226 0.956020 0.000000
0.484159 0.954107 0.000000
0.607078 0.952190 0.000000
0.720711 0.950415 0.000000
0.817908 0.948894 0.000000
0.894799 0.947689 0.000000
0.950731 0.946811 0.000000
0.987361 0.946235 0.000000
1.000000 0.945918 0.000000
1.000000 0.945817 0.000000
0.000000 0.997629 0.000000
0.000000 0.997528 0.000000
0.000000 0.997215 0.000000
0.015709 0.996645 0.000000
0.071686 0.995776 0.000000
0.148628 0.994580 0.000000
0.245872 0.993067 0.000000
0.359534 0.991298 0.000000
0.482453 0.989381 0.000000
0.605353 0.987462 0.000000
0.718967 0.985683 0.000000
0.816145 0.984159 0.000000
0.893018 0.982950 0.000000
0.948937 0.982070 0.000000
0.985558 0.981492 0.000000
1.000000 0.981175 0.000000
1.000000 0.981073 0.000000
0.000000 1.000000 0.000000
0.000000 1.000000 0.000000
0.000000 1.000000 0.000000
0.014789 1.000000 0.000000
0.070764 1.000000 0.000000
0.147704 1.000000 0.000000
0.244942 1.000000 0.000000
0.358598 1.000000 0.000000
0.481507 1.000000 0.000000
0.604396 1.000000 0.000000
0.717997 1.000000 0.000000
0.815163 1.000000 0.000000
0.892027 1.000000 0.000000
0.947938 1.000000 0.000000
0.984554 1.000000 0.000000
1.000000 1.000000 0.000000
1.000000 1.000000 0.000000
0.000000 1.000000 0.000000
0.000000 1.000000 0.000000
0.000000 1.000000 0.000000
0.014493 1.000000 0.000000
0.070468 1.000000 0.000000
0.147406 1.000000 0.000000
0.244643 1.000000 0.000000
0.358296 1.000000 0.000000
0.481201 1.000000 0.000000
0.604086 1.000000 0.000000
0.717684 1.000000 0.000000
0.814846 1.000000 0.000000
0.891706 1.000000 0.000000
0.947615 1.000000 0.000000
0.984228 1.000000 0.000000
1.000000 1.000000 0.000000
1.000000 1.000000 0.000000
0.000000 0.000976 0.023069
0.005221 0.000872 0.022973
0.025334 0.000551 0.022672
0.061915 0.000000 0.022122
0.117776 0.000000 0.021274
0.194577 0.000000 0.020093
0.291674 0.000000 0.018575
0.405209 0.000000 0.016770
0.528041 0.000000 0.014784
0.650909 0.000000 0.012768
0.764542 0.000000 0.010881
0.861770 0.000000 0.009253
0.938708 0.000000 0.007958
0.994686 0.000000 0.007013
1.000000 0.000000 0.006394
1.000000 0.000000 0.006053
1.000000 0.000000 0.005943
0.000000 0.007204 0.022744
0.004875 0.007101 0.022648
0.024989 0.006780 0.022346
0.061573 0.006199 0.021793
0.117438 0.005315 0.020941
0.194244 0.004108 0.019755
0.291347 0.002595 0.018231
0.404889 0.000843 0.016420
0.527728 0.000000 0.014429
0.650602 0.000000 0.012407
0.764239 0.000000 0.010517
0.861472 0.000000 0.008887
0.938412 0.000000 0.007590
0.994392 0.000000 0.006645
1.000000 0.000000 0.006025
1.000000 0.000000 0.005684
1.000000 0.000000 0.005574
0.000000 0.026581 0.021725
0.003807 0.026478 0.021626
0.023926 0.026160 0.021320
0.060518 0.025582 0.020759
0.116396 0.024704 0.019896
0.193218 0.023505 0.018695
0.290340 0.022001 0.017155
0.403902 0.020259 0.015326
0.526761 0.018392 0.013317
0.649653 0.016540 0.011282
0.763305 0.014841 0.009381
0.860548 0.013396 0.007744
0.937496 0.012257 0.006445
0.993480 0.011430 0.005498
1.000000 0.010890 0.004877
1.000000 0.010594 0.004536
1.000000 0.010498 0.004426
0.000000 0.061838 0.019833
0.001905 0.061737 0.019733
0.022032 0.061422 0.019419
0.058638 0.060852 0.018846
0.114536 0.059984 0.017963
0.191386 0.058798 0.016738
0.288540 0.057309 0.015169
0.402136 0.055583 0.013311
0.525028 0.053732 0.011275
0.647949 0.051895 0.009219
0.761624 0.050206 0.007304
0.858884 0.048769 0.005660
0.935844 0.047636 0.004358
0.991836 0.046813 0.003411
1.000000 0.046275 0.002793
1.000000 0.045980 0.002454
1.000000 0.045885 0.002345
0.000000 0.115713 0.016864
0.000000 0.115613 0.016761
0.019227 0.115304 0.016437
0.055852 0.114742 0.015847
0.111778 0.113888 0.014940
0.188664 0.112719 0.013682
0.285861 0.111251 0.012078
0.399502 0.109547 0.010185
0.522437 0.107716 0.008119
0.645395 0.105896 0.006043
0.759098 0.104222 0.004119
0.856378 0.102794 0.002478
0.933350 0.101667 0.001190
0.989350 0.100848 0.000269
1.000000 0.100313 0.000000
1.000000 0.100018 0.000000
1.000000 0.099923 0.000000
0.000000 0.189839 0.012651
0.000000 0.189741 0.012544
0.015518 0.189438 0.012211
0.052165 0.188887 0.011602
0.108123 0.188048 0.010670
0.185050 0.186899 0.009382
0.282293 0.185453 0.007745
0.395982 0.183772 0.005824
0.518960 0.181962 0.003743
0.641952 0.180158 0.001674
0.755679 0.178496 0.000000
0.852974 0.177075 0.000000
0.929955 0.175952 0.000000
0.985959 0.175135 0.000000
1.000000 0.174600 0.000000
1.000000 0.174306 0.000000
1.000000 0.174211 0.000000
0.000000 0.283623 0.007176
0.000000 0.283527 0.007067
0.011022 0.283229 0.006726
0.047688 0.282687 0.006106
0.103674 0.281862 0.005159
0.180636 0.280730 0.003857
0.277918 0.279303 0.002217
0.391643 0.277639 0.000329
0.514650 0.275843 0.000000
0.637660 0.274048 0.000000
0.751394 0.272388 0.000000
0.848705 0.270970 0.000000
0.925711 0.269850 0.000000
0.981742 0.269036 0.000000
1.000000 0.268503 0.000000
1.000000 0.268210 0.000000
1.000000 0.268116 0.000000
0.000000 0.393339 0.000734
0.000000 0.393244 0.000628
0.005940 0.392949 0.000298
0.042619 0.392414 0.000000
0.098621 0.391596 0.000000
0.175601 0.390473 0.000000
0.272898 0.389053 0.000000
0.386634 0.387394 0.000000
0.509671 0.385602 0.000000
0.632741 0.383814 0.000000
0.746552 0.382161 0.000000
0.843927 0.380746 0.000000
0.920974 0.379624 0.000000
0.977028 0.378807 0.000000
1.000000 0.378271 0.000000
1.000000 0.377976 0.000000
1.000000 0.377881 0.000000
0.000000 0.512044 0.000000
0.000000 0.511950 0.000000
0.000527 0.511656 0.000000
0.037214 0.511122 0.000000
0.093235 0.510307 0.000000
0.170250 0.509187 0.000000
0.267606 0.507773 0.000000
0.381425 0.506120 0.000000
0.504539 0.504328 0.000000
0.627661 0.502531 0.000000
0.741497 0.500863 0.000000
0.838877 0.499428 0.000000
0.915916 0.498287 0.000000
0.971958 0.497454 0.000000
1.000000 0.496906 0.000000
1.000000 0.496605 0.000000
1.000000 0.496508 0.000000
0.000000 0.630771 0.000000
0.000000 0.630676 0.000000
0.000000 0.630383 0.000000
0.032052 0.629849 0.000000
0.088105 0.629033 0.000000
0.165155 0.627909 0.000000
0.262540 0.626484 0.000000
0.376374 0.624811 0.000000
0.499481 0.622991 0.000000
0.622569 0.621156 0.000000
0.736352 0.619444 0.000000
0.833668 0.617967 0.000000
0.910647 0.616788 0.000000
0.966639 0.615926 0.000000
1.000000 0.615358 0.000000
1.000000 0.615045 0.000000
1.000000 0.614944 0.000000
0.000000 0.740515 0.000000
0.000000 0.740419 0.000000
0.000000 0.740122 0.000000
0.027384 0.739580 0.000000
0.083431 0.738751 0.000000
0.160466 0.737607 0.000000
0.257819 0.736151 0.000000
0.371597 0.734437 0.000000
0.494621 0.732563 0.000000
0.617602 0.730667 0.000000
0.731287 0.728901 0.000000
0.828542 0.727391 0.000000
0.905488 0.726196 0.000000
0.961466 0.725326 0.000000
0.998128 0.724756 0.000000
1.000000 0.724443 0.000000
1.000000 0.724342 0.000000
0.000000 0.834314 0.000000
0.000000 0.834217 0.000000
0.000000 0.833913 0.000000
0.023294 0.833359 0.000000
0.079311 0.832510 0.000000
0.156297 0.831335 0.000000
0.253577 0.829838 0.000000
0.367263 0.828074 0.000000
0.490220 0.826165 0.000000
0.613175 0.824255 0.000000
0.726853 0.822488 0.000000
0.824096 0.820976 0.000000
0.901029 0.819778 0.000000
0.956995 0.818906 0.000000
0.993649 0.818335 0.000000
1.000000 0.818021 0.000000
1.000000 0.817920 0.000000
0.000000 0.908439 0.000000
0.000000 0.908339 0.000000
0.000000 0.908028 0.000000
0.019896 0.907460 0.000000
0.075875 0.906591 0.000000
0.152822 0.905396 0.000000
0.250077 0.903886 0.000000
0.363760 0.902120 0.000000
0.486708 0.900209 0.000000
0.609647 0.898296 0.000000
0.723305 0.896526 0.000000
0.820525 0.895009 0.000000
0.897437 0.893808 0.000000
0.953386 0.892933 0.000000
0.990027 0.892359 0.000000
1.000000 0.892044 0.000000
1.000000 0.891942 0.000000
0.000000 0.962313 0.000000
0.000000 0.962212 0.000000
0.000000 0.961899 0.000000
0.017349 0.961330 0.000000
0.073328 0.960460 0.000000
0.150273 0.959265 0.000000
0.247523 0.957754 0.000000
0.361196 0.955986 0.000000
0.484129 0.954072 0.000000
0.607047 0.952156 0.000000
0.720681 0.950381 0.000000
0.817877 0.948860 0.000000
0.894767 0.947654 0.000000
0.950699 0.946776 0.000000
0.987329 0.946201 0.000000
1.000000 0.945884 0.000000
1.000000 0.945782 0.000000
0.000000 0.997595 0.000000
0.000000 0.997494 0.000000
0.000000 0.997181 0.000000
0.015679 0.996611 0.000000
0.071656 0.995741 0.000000
0.148598 0.994546 0.000000
0.245841 0.993033 0.000000
0.359504 0.991264 0.000000
0.482422 0.989347 0.000000
0.605322 0.987427 0.000000
0.718936 0.985649 0.000000
0.816113 0.984124 0.000000
0.892986 0.982916 0.000000
0.948905 0.982035 0.000000
0.985526 0.981458 0.000000
1.000000 0.981140 0.000000
1.000000 0.981038 0.000000
0.000000 1.000000 0.000000
0.000000 1.000000 0.000000
0.000000 1.000000 0.000000
0.014759 1.000000 0.000000
0.070734 1.000000 0.000000
0.147673 1.000000 0.000000
0.244912 1.000000 0.000000
0.358567 1.000000 0.000000
0.481476 1.000000 0.000000
0.604364 1.000000 0.000000
0.717966 1.000000 0.000000
0.815131 1.000000 0.000000
0.891995 1.000000 0.000000
0.947905 1.000000 0.000000
0.984521 1.000000 0.000000
1.000000 1.000000 0.000000
1.000000 1.000000 0.000000
0.000000 1.000000 0.000000
0.000000 1.000000 0.000000
0.000000 1.000000 0.000000
0.014463 1.000000 0.000000
0.070438 1.000000 0.000000
0.147376 1.000000 0.000000
0.244612 1.000000 0.000000
0.358265 1.000000 0.000000
0.481170 1.000000 0.000000
0.604055 1.000000 0.000000
0.717652 1.000000 0.000000
0.814814 1.000000 0.000000
0.891674 1.000000 0.000000
0.947582 1.000000 0.000000
0.984196 1.000000 0.000000
1.000000 1.000000 0.000000
1.000000 1.000000 0.000000
0.000000 0.000867 0.042101
0.005112 0.000763 0.042003
0.025226 0.000442 0.041699
0.061807 0.000000 0.041141
0.117670 0.000000 0.040281
0.194473 0.000000 0.039082
0.291571 0.000000 0.037542
0.405108 0.000000 0.035708
0.527943 0.000000 0.033688
0.650813 0.000000 0.031635
0.764447 0.000000 0.029710
0.861676 0.000000 0.028046
0.938615 0.000000 0.026720
0.994593 0.000000 0.025751
1.000000 0.000000 0.025114
1.000000 0.000000 0.024763
1.000000 0.000000 0.024651
0.000000 0.007095 0.041772
0.004766 0.006992 0.041674
0.024881 0.006671 0.041367
0.061466 0.006090 0.040807
0.117332 0.005207 0.039943
0.194140 0.004001 0.038739
0.291245 0.002489 0.037193
0.404789 0.000738 0.035352
0.527630 0.000000 0.033326
0.650506 0.000000 0.031268
0.764145 0.000000 0.029338
0.861378 0.000000 0.027671
0.938319 0.000000 0.026343
0.994299 0.000000 0.025372
1.000000 0.000000 0.024735
1.000000 0.000000 0.024384
1.000000 0.000000 0.024271
0.000000 0.026473 0.040738
0.003700 0.026370 0.040638
0.023820 0.026052 0.040327
0.060413 0.025475 0.039759
0.116291 0.024597 0.038883
0.193115 0.023399 0.037663
0.290239 0.021896 0.036099
0.403803 0.020155 0.034239
0.526664 0.018288 0.032195
0.649558 0.016438 0.030119
0.763211 0.014739 0.028177
0.860455 0.013294 0.026501
0.937403 0.012156 0.025167
0.993388 0.011330 0.024192
1.000000 0.010789 0.023552
1.000000 0.010493 0.023199
1.000000 0.010397 0.023086
0.000000 0.061731 0.038819
0.001801 0.061630 0.038717
0.021928 0.061316 0.038398
0.058535 0.060745 0.037816
0.114434 0.059878 0.036920
0.191285 0.058692 0.035675
0.288441 0.057205 0.034080
0.402039 0.055480 0.032188
0.524933 0.053629 0.030113
0.647856 0.051793 0.028012
0.761531 0.050105 0.026049
0.858792 0.048668 0.024359
0.935753 0.047535 0.023015
0.991745 0.046713 0.022035
1.000000 0.046175 0.021391
1.000000 0.045879 0.021037
1.000000 0.045784 0.020924
0.000000 0.115608 0.035804
0.000000 0.115508 0.035698
0.019127 0.115199 0.035370
0.055752 0.114637 0.034769
0.111679 0.113783 0.033846
0.188567 0.112616 0.032567
0.285765 0.111148 0.030932
0.399408 0.109445 0.028999
0.522344 0.107615 0.026886
0.645303 0.105795 0.024753
0.759007 0.104121 0.022768
0.856287 0.102694 0.021063
0.933260 0.101567 0.019710
0.989260 0.100748 0.018725
1.000000 0.100212 0.018080
1.000000 0.099918 0.017725
1.000000 0.099823 0.017610
0.000000 0.189736 0.031516
0.000000 0.189638 0.031407
0.015422 0.189335 0.031067
0.052070 0.188784 0.030446
0.108028 0.187945 0.029495
0.184956 0.186797 0.028178
0.282200 0.185352 0.026502
0.395890 0.183671 0.024528
0.518869 0.181861 0.022379
0.641862 0.180058 0.020221
0.755589 0.178396 0.018220
0.852885 0.176975 0.016508
0.929865 0.175852 0.015155
0.985869 0.175035 0.014171
1.000000 0.174500 0.013528
1.000000 0.174206 0.013175
1.000000 0.174111 0.013061
0.000000 0.283522 0.025918
0.000000 0.283426 0.025806
0.010930 0.283128 0.025456
0.047596 0.282586 0.024818
0.103583 0.281761 0.023842
0.180545 0.280629 0.022497
0.277827 0.279202 0.020791
0.391553 0.277539 0.018791
0.514560 0.275743 0.016626
0.637570 0.273948 0.014464
0.751304 0.272289 0.012471
0.848617 0.270871 0.010753
0.925625 0.269751 0.009380
0.981656 0.268937 0.008374
1.000000 0.268404 0.007713
1.000000 0.268111 0.007349
1.000000 0.268016 0.007232
0.000000 0.393239 0.019226
0.000000 0.393144 0.019112
0.005850 0.392849 0.018757
0.042529 0.392314 0.018112
0.098531 0.391496 0.017126
0.175512 0.390373 0.015772
0.272809 0.388953 0.014063
0.386545 0.387294 0.012070
0.509584 0.385503 0.009888
0.632656 0.383714 0.007679
0.746468 0.382061 0.005622
0.843843 0.380646 0.003859
0.920891 0.379524 0.002469
0.976945 0.378707 0.001464
1.000000 0.378171 0.000813
1.000000 0.377876 0.000458
1.000000 0.377781 0.000346
0.000000 0.511944 0.011956
0.000000 0.511850 0.011842
0.000438 0.511556 0.011486
0.037126 0.511022 0.010836
0.093148 0.510207 0.009838
0.170164 0.509088 0.008458
0.267521 0.507674 0.006702
0.381341 0.506020 0.004642
0.504456 0.504229 0.002418
0.627577 0.502431 0.000234
0.741414 0.500762 0.000000
0.838792 0.499327 0.000000
0.915831 0.498185 0.000000
0.971873 0.497352 0.000000
1.000000 0.496804 0.000000
1.000000 0.496502 0.000000
1.000000 0.496405 0.000000
0.000000 0.630671 0.004525
0.000000 0.630577 0.004408
0.000000 0.630283 0.004042
0.031968 0.629749 0.003379
0.088021 0.628933 0.002368
0.165071 0.627809 0.000992
0.262457 0.626384 0.000000
0.376290 0.624710 0.000000
0.499396 0.622889 0.000000
0.622483 0.621053 0.000000
0.736265 0.619340 0.000000
0.833579 0.617862 0.000000
0.910557 0.616683 0.000000
0.966547 0.615820 0.000000
1.000000 0.615251 0.000000
1.000000 0.614938 0.000000
1.000000 0.614838 0.000000
0.000000 0.740414 0.000000
0.000000 0.740318 0.000000
0.000000 0.740021 0.000000
0.027300 0.739479 0.000000
0.083347 0.738649 0.000000
0.160381 0.737504 0.000000
0.257733 0.736049 0.000000
0.371509 0.734333 0.000000
0.494531 0.732458 0.000000
0.617510 0.730560 0.000000
0.731194 0.728795 0.000000
0.828449 0.727284 0.000000
0.905395 0.726089 0.000000
0.961373 0.725220 0.000000
0.998035 0.724650 0.000000
1.000000 0.724337 0.000000
1.000000 0.724236 0.000000
0.000000 0.834211 0.000000
0.000000 0.834114 0.000000
0.000000 0.833809 0.000000
0.023206 0.833255 0.000000
0.079222 0.832405 0.000000
0.156207 0.831230 0.000000
0.253485 0.829732 0.000000
0.367171 0.827968 0.000000
0.490127 0.826058 0.000000
0.613082 0.824148 0.000000
0.726760 0.822382 0.000000
0.824003 0.820869 0.000000
0.900935 0.819672 0.000000
0.956901 0.818800 0.000000
0.993554 0.818228 0.000000
1.000000 0.817914 0.000000
1.000000 0.817813 0.000000
0.000000 0.908334 0.000000
0.000000 0.908234 0.000000
0.000000 0.907922 0.000000
0.019804 0.907354 0.000000
0.075783 0.906485 0.000000
0.152730 0.905290 0.000000
0.249984 0.903780 0.000000
0.363667 0.902014 0.000000
0.486615 0.900103 0.000000
0.609553 0.898190 0.000000
0.723210 0.896419 0.000000
0.820430 0.894902 0.000000
0.897341 0.893701 0.000000
0.953289 0.892826 0.000000
0.989930 0.892252 0.000000
1.000000 0.891937 0.000000
1.000000 0.891835 0.000000
0.000000 0.962206 0.000000
0.000000 0.962106 0.000000
0.000000 0.961793 0.000000
0.017256 0.961223 0.000000
0.073235 0.960354 0.000000
0.150181 0.959159 0.000000
0.247430 0.957647 0.000000
0.361103 0.955880 0.000000
0.484035 0.953966 0.000000
0.606952 0.952049 0.000000
0.720584 0.950274 0.000000
0.817780 0.948753 0.000000
0.894669 0.947547 0.000000
0.950600 0.946669 0.000000
0.987229 0.946093 0.000000
1.000000 0.945776 0.000000
1.000000 0.945674 0.000000
0.000000 0.997488 0.000000
0.000000 0.997388 0.000000
0.000000 0.997074 0.000000
0.015586 0.996505 0.000000
0.071563 0.995635 0.000000
0.148505 0.994439 0.000000
0.245748 0.992927 0.000000
0.359410 0.991157 0.000000
0.482327 0.989240 0.000000
0.605226 0.987320 0.000000
0.718838 0.985541 0.000000
0.816014 0.984017 0.000000
0.892887 0.982808 0.000000
0.948805 0.981927 0.000000
0.985425 0.981350 0.000000
1.000000 0.981032 0.000000
1.000000 0.980930 0.000000
0.000000 1.000000 0.000000
0.000000 1.000000 0.000000
0.000000 1.000000 0.000000
0.014666 1.000000 0.000000
0.070641 1.000000 0.000000
0.147580 1.000000 0.000000
0.244818 1.000000 0.000000
0.358472 1.000000 0.000000
0.481380 1.000000 0.000000
0.604267 1.000000 0.000000
0.717868 1.000000 0.000000
0.815032 1.000000 0.000000
0.891894 1.000000 0.000000
0.947804 1.000000 0.000000
0.984419 1.000000 0.000000
1.000000 1.000000 0.000000
1.000000 1.000000 0.000000
0.000000 1.000000 0.000000
0.000000 1.000000 0.000000
0.000000 1.000000 0.000000
0.014370 1.000000 0.000000
0.070344 1.000000 0.000000
0.147282 1.000000 0.000000
0.244518 1.000000 0.000000
0.358170 1.000000 0.000000
0.481074 1.000000 0.000000
0.603958 1.000000 0.000000
0.717554 1.000000 0.000000
0.814714 1.000000 0.000000
0.891573 1.000000 0.000000
0.947480 1.000000 0.000000
0.984093 1.000000 0.000000
1.000000 1.000000 0.000000
1.000000 1.000000 0.000000
0.000000 0.000668 0.077133
0.004915 0.000565 0.077033
0.025029 0.000244 0.076724
0.061612 0.000000 0.076158
0.117477 0.000000 0.075284
0.194283 0.000000 0.074067
0.291385 0.000000 0.072503
0.404925 0.000000 0.070641
0.527764 0.000000 0.068589
0.650638 0.000000 0.066502
0.764274 0.000000 0.064545
0.861506 0.000000 0.062853
0.938446 0.000000 0.061503
0.994425 0.000000 0.060516
1.000000 0.000000 0.059868
1.000000 0.000000 0.059510
1.000000 0.000000 0.059395
0.000000 0.006897 0.076798
0.004569 0.006794 0.076699
0.024685 0.006474 0.076388
