assets/presets/luts/print-2383/lut.cube
TITLE "Print 2383"
LUT_3D_SIZE 9
0.000000 0.001011 0.017008
0.025369 0.000586 0.016614
0.117810 0.000000 0.015225
0.291707 0.000000 0.012547
0.528073 0.000000 0.008791
0.764572 0.000000 0.004939
0.938738 0.000000 0.002075
1.000000 0.000000 0.000565
1.000000 0.000000 0.000140
0.000000 0.026616 0.015673
0.023961 0.026195 0.015271
0.116429 0.024739 0.013858
0.290373 0.022035 0.011139
0.526792 0.018425 0.007341
0.763335 0.014874 0.003465
0.937525 0.012289 0.000613
1.000000 0.010923 0.000000
1.000000 0.010531 0.000000
0.000000 0.115747 0.010851
0.019259 0.115337 0.010428
0.111810 0.113921 0.008945
0.285892 0.111284 0.006118
0.522467 0.107749 0.002232
0.759127 0.104254 0.000000
0.933379 0.101699 0.000000
1.000000 0.100345 0.000000
1.000000 0.099955 0.000000
0.000000 0.283656 0.001316
0.011052 0.283262 0.000883
0.103704 0.281894 0.000000
0.277947 0.279335 0.000000
0.514678 0.275875 0.000000
0.751423 0.272421 0.000000
0.925739 0.269882 0.000000
1.000000 0.268535 0.000000
1.000000 0.268148 0.000000
0.000000 0.512076 0.000000
0.000555 0.511688 0.000000
0.093263 0.510339 0.000000
0.267633 0.507805 0.000000
0.504566 0.504360 0.000000
0.741524 0.500895 0.000000
0.915943 0.498320 0.000000
1.000000 0.496939 0.000000
1.000000 0.496541 0.000000
0.000000 0.740547 0.000000
0.000000 0.740154 0.000000
0.083458 0.738784 0.000000
0.257847 0.736185 0.000000
0.494650 0.732597 0.000000
0.731317 0.728935 0.000000
0.905518 0.726230 0.000000
0.998158 0.724791 0.000000
1.000000 0.724376 0.000000
0.000000 0.908473 0.000000
0.000000 0.908062 0.000000
0.075905 0.906625 0.000000
0.250107 0.903920 0.000000
0.486738 0.900243 0.000000
0.723335 0.896560 0.000000
0.897468 0.893842 0.000000
0.990058 0.892394 0.000000
1.000000 0.891977 0.000000
0.000000 0.997629 0.000000
0.000000 0.997215 0.000000
0.071686 0.995776 0.000000
0.245872 0.993067 0.000000
0.482453 0.989381 0.000000
0.718967 0.985683 0.000000
0.893018 0.982950 0.000000
0.985558 0.981492 0.000000
1.000000 0.981073 0.000000
0.000000 1.000000 0.000000
0.000000 1.000000 0.000000
0.070468 1.000000 0.000000
0.244643 1.000000 0.000000
0.481201 1.000000 0.000000
0.717684 1.000000 0.000000
0.891706 1.000000 0.000000
0.984228 1.000000 0.000000
1.000000 1.000000 0.000000
0.000000 0.000867 0.042101
0.025226 0.000442 0.041699
0.117670 0.000000 0.040281
0.291571 0.000000 0.037542
0.527943 0.000000 0.033688
0.764447 0.000000 0.029710
0.938615 0.000000 0.026720
1.000000 0.000000 0.025114
1.000000 0.000000 0.024651
0.000000 0.026473 0.040738
0.023820 0.026052 0.040327
0.116291 0.024597 0.038883
0.290239 0.021896 0.036099
0.526664 0.018288 0.032195
0.763211 0.014739 0.028177
0.937403 0.012156 0.025167
1.000000 0.010789 0.023552
1.000000 0.010397 0.023086
0.000000 0.115608 0.035804
0.019127 0.115199 0.035370
0.111679 0.113783 0.033846
0.285765 0.111148 0.030932
0.522344 0.107615 0.026886
0.759007 0.104121 0.022768
0.933260 0.101567 0.019710
1.000000 0.100212 0.018080
1.000000 0.099823 0.017610
0.000000 0.283522 0.025918
0.010930 0.283128 0.025456
0.103583 0.281761 0.023842
0.277827 0.279202 0.020791
0.514560 0.275743 0.016626
0.751304 0.272289 0.012471
0.925625 0.269751 0.009380
1.000000 0.268404 0.007713
1.000000 0.268016 0.007232
0.000000 0.511944 0.011956
0.000438 0.511556 0.011486
0.093148 0.510207 0.009838
0.267521 0.507674 0.006702
0.504456 0.504229 0.002418
0.741414 0.500762 0.000000
0.915831 0.498185 0.000000
1.000000 0.496804 0.000000
1.000000 0.496405 0.000000
0.000000 0.740414 0.000000
0.000000 0.740021 0.000000
0.083347 0.738649 0.000000
0.257733 0.736049 0.000000
0.494531 0.732458 0.000000
0.731194 0.728795 0.000000
0.905395 0.726089 0.000000
0.998035 0.724650 0.000000
1.000000 0.724236 0.000000
0.000000 0.908334 0.000000
0.000000 0.907922 0.000000
0.075783 0.906485 0.000000
0.249984 0.903780 0.000000
0.486615 0.900103 0.000000
0.723210 0.896419 0.000000
0.897341 0.893701 0.000000
0.989930 0.892252 0.000000
1.000000 0.891835 0.000000
0.000000 0.997488 0.000000
0.000000 0.997074 0.000000
0.071563 0.995635 0.000000
0.245748 0.992927 0.000000
0.482327 0.989240 0.000000
0.718838 0.985541 0.000000
0.892887 0.982808 0.000000
0.985425 0.981350 0.000000
1.000000 0.980930 0.000000
0.000000 1.000000 0.000000
0.000000 1.000000 0.000000
0.070344 1.000000 0.000000
0.244518 1.000000 0.000000
0.481074 1.000000 0.000000
0.717554 1.000000 0.000000
0.891573 1.000000 0.000000
0.984093 1.000000 0.000000
1.000000 1.000000 0.000000
0.000000 0.000365 0.131222
0.024729 0.000000 0.130807
0.117183 0.000000 0.129346
0.291101 0.000000 0.126524
0.527492 0.000000 0.122553
0.764011 0.000000 0.118451
0.938188 0.000000 0.115366
1.000000 0.000000 0.113707
1.000000 0.000000 0.113228
0.000000 0.025976 0.129817
0.023333 0.025556 0.129394
0.115813 0.024106 0.127906
0.289777 0.021413 0.125037
0.526220 0.017813 0.121013
0.762780 0.014271 0.116870
0.936981 0.011691 0.113761
1.000000 0.010327 0.112093
1.000000 0.009935 0.111611
0.000000 0.115125 0.124733
0.018668 0.114717 0.124286
0.111228 0.113305 0.122716
0.285325 0.110676 0.119711
0.521917 0.107148 0.115536
0.758588 0.103659 0.111282
0.932846 0.101107 0.108118
1.000000 0.099753 0.106429
1.000000 0.099364 0.105942
0.000000 0.283057 0.114537
0.010506 0.282663 0.114060
0.103163 0.281298 0.112393
0.277412 0.278742 0.109237
0.514148 0.275283 0.104921
0.750895 0.271830 0.100597
0.925228 0.269293 0.097351
1.000000 0.267946 0.095595
1.000000 0.267559 0.095088
0.000000 0.511486 0.100057
0.000033 0.511098 0.099563
0.092750 0.509749 0.097833
0.267131 0.507216 0.094527
0.504072 0.503769 0.089966
0.741029 0.500298 0.085376
0.915441 0.497717 0.082014
1.000000 0.496333 0.080241
1.000000 0.495933 0.079734
0.000000 0.739949 0.084808
0.000000 0.739556 0.084293
0.082958 0.738182 0.082506
0.257336 0.735575 0.079177
0.494115 0.731975 0.074756
0.730769 0.728306 0.070467
0.904969 0.725601 0.067323
0.997607 0.724161 0.065657
1.000000 0.723747 0.065179
0.000000 0.907848 0.073735
0.000000 0.907435 0.073252
0.075357 0.905996 0.071578
0.249558 0.903291 0.068431
0.486186 0.899613 0.064178
0.722774 0.895929 0.059976
0.896898 0.893209 0.056933
0.989483 0.891760 0.055336
1.000000 0.891342 0.054880
0.000000 0.997000 0.068104
0.000000 0.996586 0.067623
0.071136 0.995146 0.065956
0.245317 0.992437 0.062839
0.481888 0.988749 0.058660
0.718389 0.985048 0.054569
0.892427 0.982313 0.051632
0.984959 0.980854 0.050100
1.000000 0.980434 0.049664
0.000000 1.000000 0.066489
0.000000 1.000000 0.066011
0.069915 1.000000 0.064349
0.244085 1.000000 0.061248
0.480632 1.000000 0.057098
0.717100 1.000000 0.053049
0.891108 1.000000 0.050150
0.983621 1.000000 0.048640
1.000000 1.000000 0.048211
0.000000 0.000000 0.301962
0.023805 0.000000 0.301535
0.116276 0.000000 0.300030
0.290224 0.000000 0.297128
0.526650 0.000000 0.293051
0.763197 0.000000 0.288847
0.937390 0.000000 0.285689
1.000000 0.000000 0.283993
1.000000 0.000000 0.283503
0.000000 0.025046 0.300515
0.022425 0.024629 0.300080
0.114922 0.023187 0.298548
0.288914 0.020507 0.295601
0.525389 0.016923 0.291472
0.761975 0.013392 0.287228
0.936189 0.010819 0.284048
1.000000 0.009458 0.282343
1.000000 0.009067 0.281851
0.000000 0.114220 0.295288
0.017812 0.113814 0.294829
0.110385 0.112409 0.293218
0.284504 0.109790 0.290137
0.521118 0.106273 0.285864
0.757805 0.102791 0.281515
0.932069 0.100242 0.278284
1.000000 0.098889 0.276560
1.000000 0.098500 0.276064
0.000000 0.282183 0.284842
0.009713 0.281791 0.284354
0.102376 0.280428 0.282650
0.276633 0.277876 0.279426
0.513374 0.274420 0.275022
0.750131 0.270967 0.270599
0.924486 0.268433 0.267260
1.000000 0.267086 0.265458
1.000000 0.266699 0.264937
0.000000 0.510624 0.270043
0.000000 0.510236 0.269535
0.092005 0.508889 0.267756
0.266401 0.506356 0.264362
0.503352 0.502904 0.259690
0.740304 0.499425 0.255002
0.914704 0.496834 0.251575
1.000000 0.495444 0.249770
1.000000 0.495042 0.249254
0.000000 0.739074 0.254423
0.000000 0.738679 0.253897
0.082223 0.737300 0.252076
0.256582 0.734682 0.248688
0.493326 0.731062 0.244200
0.729969 0.727387 0.239817
0.904166 0.724681 0.236598
0.996802 0.723241 0.234893
1.000000 0.722827 0.234404
0.000000 0.906930 0.243164
0.000000 0.906516 0.242671
0.074557 0.905077 0.240955
0.248757 0.902372 0.237732
0.485377 0.898693 0.233379
0.721952 0.895006 0.229081
0.896062 0.892284 0.225971
0.988638 0.890833 0.224339
1.000000 0.890415 0.223873
0.000000 0.996080 0.237397
0.000000 0.995667 0.236905
0.070331 0.994227 0.235199
0.244504 0.991516 0.232009
0.481060 0.987826 0.227736
0.717539 0.984121 0.223557
0.891558 0.981382 0.220558
0.984078 0.979920 0.218995
1.000000 0.979500 0.218550
0.000000 1.000000 0.235744
0.000000 1.000000 0.235254
0.069107 1.000000 0.233554
0.243267 1.000000 0.230381
0.479797 1.000000 0.226140
0.716240 1.000000 0.222005
0.890227 1.000000 0.219046
0.982728 1.000000 0.217506
1.000000 1.000000 0.217068
0.000000 0.000000 0.537034
0.022567 0.000000 0.536595
0.115061 0.000000 0.535048
0.289049 0.000000 0.532070
0.525519 0.000000 0.527898
0.762100 0.000000 0.523607
0.936312 0.000000 0.520391
1.000000 0.000000 0.518665
1.000000 0.000000 0.518168
0.000000 0.023791 0.535546
0.021210 0.023377 0.535099
0.113728 0.021946 0.533527
0.287756 0.019283 0.530506
0.524272 0.015719 0.526285
0.760889 0.012203 0.521957
0.935119 0.009638 0.518722
1.000000 0.008279 0.516988
1.000000 0.007889 0.516489
0.000000 0.112998 0.530186
0.016663 0.112594 0.529716
0.109252 0.111197 0.528069
0.283397 0.108591 0.524923
0.520040 0.105087 0.520568
0.756744 0.101614 0.516148
0.931015 0.099068 0.512870
1.000000 0.097716 0.511123
1.000000 0.097327 0.510620
0.000000 0.281000 0.519529
0.008642 0.280609 0.519032
0.101312 0.279250 0.517300
0.275578 0.276701 0.514027
0.512322 0.273247 0.509566
0.749107 0.269798 0.505053
0.923486 0.267265 0.501639
1.000000 0.265917 0.499801
1.000000 0.265529 0.499270
0.000000 0.509455 0.504483
0.000000 0.509067 0.503964
0.091002 0.507720 0.502145
0.265416 0.505186 0.498685
0.502372 0.501727 0.493940
0.739313 0.498233 0.489198
0.913693 0.495628 0.485745
1.000000 0.494229 0.483931
1.000000 0.493824 0.483413
0.000000 0.737881 0.488614
0.000000 0.737484 0.488084
0.081216 0.736097 0.486249
0.255547 0.733462 0.482845
0.492240 0.729814 0.478349
0.728881 0.726139 0.473908
0.903072 0.723432 0.470651
0.995704 0.721991 0.468928
1.000000 0.721577 0.468434
0.000000 0.905682 0.477300
0.000000 0.905268 0.476799
0.073470 0.903829 0.475061
0.247666 0.901123 0.471798
0.484273 0.897442 0.467400
0.720828 0.893751 0.463067
0.894917 0.891025 0.459937
0.987481 0.889572 0.458298
1.000000 0.889153 0.457830
0.000000 0.994832 0.471459
0.000000 0.994417 0.470962
0.069234 0.992977 0.469237
0.243395 0.990264 0.466018
0.479928 0.986569 0.461712
0.716375 0.982859 0.457512
0.890365 0.980114 0.454506
0.982868 0.978650 0.452941
1.000000 0.978228 0.452496
0.000000 1.000000 0.469788
0.000000 1.000000 0.469293
0.068004 1.000000 0.467576
0.242150 1.000000 0.464376
0.478653 1.000000 0.460107
0.715062 1.000000 0.455955
0.889018 1.000000 0.452991
0.981500 1.000000 0.451452
1.000000 1.000000 0.451014
0.000000 0.000000 0.774232
0.021349 0.000000 0.773782
0.113865 0.000000 0.772201
0.287889 0.000000 0.769162
0.524400 0.000000 0.764914
0.761013 0.000000 0.760558
0.935242 0.000000 0.757299
1.000000 0.000000 0.755554
1.000000 0.000000 0.755050
0.000000 0.022546 0.772710
0.020013 0.022135 0.772253
0.112552 0.020713 0.770647
0.286614 0.018066 0.767568
0.523167 0.014520 0.763275
0.759811 0.011018 0.758886
0.934055 0.008459 0.755610
1.000000 0.007103 0.753859
1.000000 0.006714 0.753354
0.000000 0.111783 0.767242
0.015528 0.111381 0.766764
0.108132 0.109991 0.765088
0.282302 0.107397 0.761893
0.518968 0.103905 0.757479
0.755688 0.100439 0.753009
0.929963 0.097895 0.749701
1.000000 0.096543 0.747941
1.000000 0.096154 0.747435
0.000000 0.279820 0.756427
0.007577 0.279430 0.755925
0.100252 0.278073 0.754174
0.274525 0.275528 0.750869
0.511270 0.272074 0.746372
0.748096 0.268629 0.741772
0.922495 0.266096 0.738305
1.000000 0.264746 0.736442
1.000000 0.264358 0.735905
0.000000 0.508286 0.741193
0.000000 0.507899 0.740665
0.090009 0.506552 0.738818
0.264434 0.504014 0.735313
0.501391 0.500545 0.730525
0.738314 0.497036 0.725760
0.912670 0.494415 0.722304
1.000000 0.493006 0.720493
1.000000 0.492598 0.719976
0.000000 0.736681 0.725175
0.000000 0.736281 0.724644
0.080196 0.734886 0.722808
0.254495 0.732232 0.719410
0.491153 0.728566 0.714915
0.727791 0.724891 0.710442
0.901975 0.722182 0.707167
0.994600 0.720740 0.705437
1.000000 0.720325 0.704941
0.000000 0.904434 0.713857
0.000000 0.904020 0.713353
0.072381 0.902581 0.711601
0.246572 0.899874 0.708320
0.483164 0.896190 0.703904
0.719695 0.892495 0.699565
0.893762 0.889765 0.696437
0.986311 0.888309 0.694802
1.000000 0.887889 0.694335
0.000000 0.993582 0.707979
0.000000 0.993168 0.707479
0.068132 0.991726 0.705747
0.242279 0.989011 0.702519
0.478786 0.985311 0.698210
0.715199 0.981594 0.694018
0.889158 0.978844 0.691024
0.981643 0.977376 0.689469
1.000000 0.976953 0.689027
0.000000 1.000000 0.706301
0.000000 1.000000 0.705804
0.066896 1.000000 0.704081
0.241025 1.000000 0.700875
0.477499 1.000000 0.696607
0.713870 1.000000 0.692467
0.887793 1.000000 0.689519
0.980256 1.000000 0.687991
1.000000 1.000000 0.687556
0.000000 0.000000 0.949801
0.020465 0.000000 0.949345
0.112996 0.000000 0.947741
0.287045 0.000000 0.944662
0.523584 0.000000 0.940366
0.760218 0.000000 0.935969
0.934458 0.000000 0.932686
1.000000 0.000000 0.930928
1.000000 0.000000 0.930422
0.000000 0.021634 0.948257
0.019143 0.021225 0.947794
0.111696 0.019810 0.946167
0.285781 0.017175 0.943049
0.522360 0.013641 0.938711
0.759022 0.010147 0.934284
0.933275 0.007593 0.930986
1.000000 0.006238 0.929223
1.000000 0.005849 0.928715
0.000000 0.110893 0.942720
0.014701 0.110493 0.942236
0.107315 0.109107 0.940542
0.281501 0.106521 0.937316
0.518184 0.103037 0.932867
0.754912 0.099575 0.928369
0.929189 0.097032 0.925045
1.000000 0.095679 0.923278
1.000000 0.095291 0.922768
0.000000 0.278953 0.931808
0.006797 0.278563 0.931302
0.099475 0.277208 0.929540
0.273750 0.274664 0.926218
0.510504 0.271211 0.921691
0.747358 0.267769 0.917035
0.921770 0.265234 0.913536
1.000000 0.263883 0.911660
1.000000 0.263494 0.911119
0.000000 0.507426 0.916450
0.000000 0.507039 0.915916
0.089282 0.505691 0.914053
0.263713 0.503150 0.910524
0.500667 0.499672 0.905715
0.737573 0.496150 0.900945
0.911907 0.493516 0.897495
1.000000 0.492099 0.895691
1.000000 0.491689 0.895177
0.000000 0.735793 0.900360
0.000000 0.735391 0.899830
0.079437 0.733989 0.897998
0.253708 0.731321 0.894614
0.490353 0.727648 0.890113
0.726987 0.723971 0.885625
0.901164 0.721262 0.882345
0.993784 0.719819 0.880613
1.000000 0.719403 0.880117
0.000000 0.903515 0.889051
0.000000 0.903101 0.888545
0.071579 0.901662 0.886788
0.245763 0.898954 0.883499
0.482343 0.895267 0.879080
0.718854 0.891568 0.874745
0.892903 0.888835 0.871626
0.985442 0.887377 0.869996
1.000000 0.886957 0.869532
0.000000 0.992662 0.883157
0.000000 0.992247 0.882657
0.067317 0.990804 0.880923
0.241453 0.988087 0.877695
0.477938 0.984384 0.873393
0.714324 0.980662 0.869216
0.888259 0.977907 0.866239
0.980730 0.976437 0.864694
1.000000 0.976013 0.864255
0.000000 1.000000 0.881477
0.000000 1.000000 0.880980
0.066075 1.000000 0.879257
0.240192 1.000000 0.876053
0.476642 1.000000 0.871795
0.712983 1.000000 0.867673
0.886880 1.000000 0.864744
0.979328 1.000000 0.863227
1.000000 1.000000 0.862796
0.000000 0.000000 1.000000
0.019998 0.000000 1.000000
0.112537 0.000000 1.000000
0.286599 0.000000 1.000000
0.523153 0.000000 1.000000
0.759797 0.000000 1.000000
0.934042 0.000000 1.000000
1.000000 0.000000 1.000000
1.000000 0.000000 1.000000
0.000000 0.021151 1.000000
0.018685 0.020743 1.000000
0.111244 0.019332 1.000000
0.285341 0.016702 1.000000
0.521933 0.013174 1.000000
0.758604 0.009685 1.000000
0.932861 0.007133 1.000000
1.000000 0.005779 1.000000
1.000000 0.005390 1.000000
0.000000 0.110420 1.000000
0.014264 0.110021 1.000000
0.106883 0.108638 1.000000
0.281078 0.106056 1.000000
0.517768 0.102575 1.000000
0.754499 0.099115 1.000000
0.928777 0.096573 1.000000
1.000000 0.095220 1.000000
1.000000 0.094832 1.000000
0.000000 0.278492 1.000000
0.006382 0.278103 1.000000
0.099062 0.276748 1.000000
0.273339 0.274205 1.000000
0.510101 0.270753 1.000000
0.746968 0.267311 1.000000
0.921385 0.264776 1.000000
1.000000 0.263424 1.000000
1.000000 0.263034 1.000000
0.000000 0.506969 1.000000
0.000000 0.506581 1.000000
0.088897 0.505233 1.000000
0.263330 0.502689 1.000000
0.500280 0.499207 0.999171
0.737176 0.495677 0.994402
0.911498 0.493036 0.990957
1.000000 0.491615 0.989158
1.000000 0.491204 0.988646
0.000000 0.735319 0.993817
0.000000 0.734917 0.993288
0.079030 0.733511 0.991459
0.253286 0.730834 0.988085
0.489927 0.727159 0.983578
0.726558 0.723482 0.979085
0.900732 0.720772 0.975803
0.993349 0.719328 0.974071
1.000000 0.718913 0.973575
0.000000 0.903026 0.982514
0.000000 0.902613 0.982008
0.071151 0.901173 0.980249
0.245333 0.898464 0.976957
0.481904 0.894776 0.972539
0.718405 0.891076 0.968209
0.892444 0.888340 0.965095
0.984976 0.886881 0.963470
1.000000 0.886461 0.963007
0.000000 0.992172 0.976615
0.000000 0.991757 0.976115
0.066882 0.990314 0.974382
0.241011 0.987596 0.971155
0.477485 0.983890 0.966859
0.713855 0.980165 0.962693
0.887777 0.977408 0.959726
0.980240 0.975936 0.958187
1.000000 0.975512 0.957750
0.000000 1.000000 0.974935
0.000000 1.000000 0.974438
0.065637 1.000000 0.972715
0.239746 1.000000 0.969515
0.476183 1.000000 0.965264
0.712508 1.000000 0.961155
0.886391 1.000000 0.958237
0.978831 1.000000 0.956727
1.000000 1.000000 0.956299
0.000000 0.000000 1.000000
0.019865 0.000000 1.000000
0.112406 0.000000 1.000000
0.286472 0.000000 1.000000
0.523029 0.000000 1.000000
0.759676 0.000000 1.000000
0.933923 0.000000 1.000000
1.000000 0.000000 1.000000
1.000000 0.000000 1.000000
0.000000 0.021013 1.000000
0.018553 0.020605 1.000000
0.111115 0.019194 1.000000
0.285215 0.016566 1.000000
0.521810 0.013040 1.000000
0.758484 0.009552 1.000000
0.932742 0.007000 1.000000
1.000000 0.005647 1.000000
1.000000 0.005258 1.000000
0.000000 0.110285 1.000000
0.014138 0.109886 1.000000
0.106759 0.108504 1.000000
0.280956 0.105922 1.000000
0.517648 0.102443 1.000000
0.754381 0.098983 1.000000
0.928659 0.096441 1.000000
1.000000 0.095088 1.000000
1.000000 0.094700 1.000000
0.000000 0.278360 1.000000
0.006263 0.277970 1.000000
0.098943 0.276616 1.000000
0.273220 0.274073 1.000000
0.509985 0.270621 1.000000
0.746856 0.267180 1.000000
0.921274 0.264644 1.000000
1.000000 0.263292 1.000000
1.000000 0.262902 1.000000
0.000000 0.506837 1.000000
0.000000 0.506450 1.000000
0.088786 0.505101 1.000000
0.263220 0.502557 1.000000
0.500169 0.499073 1.000000
0.737061 0.495541 1.000000
0.911380 0.492898 1.000000
1.000000 0.491476 1.000000
1.000000 0.491064 1.000000
0.000000 0.735182 1.000000
0.000000 0.734780 1.000000
0.078913 0.733373 1.000000
0.253164 0.730693 1.000000
0.489805 0.727018 1.000000
0.726435 0.723341 1.000000
0.900607 0.720631 1.000000
0.993224 0.719187 1.000000
1.000000 0.718772 1.000000
0.000000 0.902886 1.000000
0.000000 0.902472 1.000000
0.071028 0.901033 1.000000
0.245209 0.898323 1.000000
0.481778 0.894635 0.999450
0.718276 0.890934 0.995122
0.892312 0.888198 0.992010
0.984842 0.886739 0.990387
1.000000 0.886318 0.989924
0.000000 0.992031 1.000000
0.000000 0.991616 1.000000
0.066757 0.990173 1.000000
0.240884 0.987454 0.998067
0.477354 0.983748 0.993773
0.713720 0.980022 0.989610
0.887638 0.977265 0.986646
0.980099 0.975793 0.985110
1.000000 0.975368 0.984673
0.000000 1.000000 1.000000
0.000000 1.000000 1.000000
0.065511 1.000000 0.999627
0.239618 1.000000 0.996427
0.476051 1.000000 0.992179
0.712371 1.000000 0.988073
0.886250 1.000000 0.985159
0.978687 1.000000 0.983652
1.000000 1.000000 0.983224
