assets/presets/luts/print-2383/lut.cube
TITLE "Print 2383"
LUT_3D_SIZE 5
0.000000 0.001011 0.017008
0.117810 0.000000 0.015225
0.528073 0.000000 0.008791
0.938738 0.000000 0.002075
1.000000 0.000000 0.000140
0.000000 0.115747 0.010851
0.111810 0.113921 0.008945
0.522467 0.107749 0.002232
0.933379 0.101699 0.000000
1.000000 0.099955 0.000000
0.000000 0.512076 0.000000
0.093263 0.510339 0.000000
0.504566 0.504360 0.000000
0.915943 0.498320 0.000000
1.000000 0.496541 0.000000
0.000000 0.908473 0.000000
0.075905 0.906625 0.000000
0.486738 0.900243 0.000000
0.897468 0.893842 0.000000
1.000000 0.891977 0.000000
0.000000 1.000000 0.000000
0.070468 1.000000 0.000000
0.481201 1.000000 0.000000
0.891706 1.000000 0.000000
1.000000 1.000000 0.000000
0.000000 0.000365 0.131222
0.117183 0.000000 0.129346
0.527492 0.000000 0.122553
0.938188 0.000000 0.115366
1.000000 0.000000 0.113228
0.000000 0.115125 0.124733
0.111228 0.113305 0.122716
0.521917 0.107148 0.115536
0.932846 0.101107 0.108118
1.000000 0.099364 0.105942
0.000000 0.511486 0.100057
0.092750 0.509749 0.097833
0.504072 0.503769 0.089966
0.915441 0.497717 0.082014
1.000000 0.495933 0.079734
0.000000 0.907848 0.073735
0.075357 0.905996 0.071578
0.486186 0.899613 0.064178
0.896898 0.893209 0.056933
1.000000 0.891342 0.054880
0.000000 1.000000 0.066489
0.069915 1.000000 0.064349
0.480632 1.000000 0.057098
0.891108 1.000000 0.050150
1.000000 1.000000 0.048211
0.000000 0.000000 0.537034
0.115061 0.000000 0.535048
0.525519 0.000000 0.527898
0.936312 0.000000 0.520391
1.000000 0.000000 0.518168
0.000000 0.112998 0.530186
0.109252 0.111197 0.528069
0.520040 0.105087 0.520568
0.931015 0.099068 0.512870
1.000000 0.097327 0.510620
0.000000 0.509455 0.504483
0.091002 0.507720 0.502145
0.502372 0.501727 0.493940
0.913693 0.495628 0.485745
1.000000 0.493824 0.483413
0.000000 0.905682 0.477300
0.073470 0.903829 0.475061
0.484273 0.897442 0.467400
0.894917 0.891025 0.459937
1.000000 0.889153 0.457830
0.000000 1.000000 0.469788
0.068004 1.000000 0.467576
0.478653 1.000000 0.460107
0.889018 1.000000 0.452991
1.000000 1.000000 0.451014
0.000000 0.000000 0.949801
0.112996 0.000000 0.947741
0.523584 0.000000 0.940366
0.934458 0.000000 0.932686
1.000000 0.000000 0.930422
0.000000 0.110893 0.942720
0.107315 0.109107 0.940542
0.518184 0.103037 0.932867
0.929189 0.097032 0.925045
1.000000 0.095291 0.922768
0.000000 0.507426 0.916450
0.089282 0.505691 0.914053
0.500667 0.499672 0.905715
0.911907 0.493516 0.897495
1.000000 0.491689 0.895177
0.000000 0.903515 0.889051
0.071579 0.901662 0.886788
0.482343 0.895267 0.879080
0.892903 0.888835 0.871626
1.000000 0.886957 0.869532
0.000000 1.000000 0.881477
0.066075 1.000000 0.879257
0.476642 1.000000 0.871795
0.886880 1.000000 0.864744
1.000000 1.000000 0.862796
0.000000 0.000000 1.000000
0.112406 0.000000 1.000000
0.523029 0.000000 1.000000
0.933923 0.000000 1.000000
1.000000 0.000000 1.000000
0.000000 0.110285 1.000000
0.106759 0.108504 1.000000
0.517648 0.102443 1.000000
0.928659 0.096441 1.000000
1.000000 0.094700 1.000000
0.000000 0.506837 1.000000
0.088786 0.505101 1.000000
0.500169 0.499073 1.000000
0.911380 0.492898 1.000000
1.000000 0.491064 1.000000
0.000000 0.902886 1.000000
0.071028 0.901033 1.000000
0.481778 0.894635 0.999450
0.892312 0.888198 0.992010
1.000000 0.886318 0.989924
0.000000 1.000000 1.000000
0.065511 1.000000 0.999627
0.476051 1.000000 0.992179
0.886250 1.000000 0.985159
1.000000 1.000000 0.983224
