assets/presets/luts/three-strip/lut.cube
TITLE "Three Strip"
LUT_3D_SIZE 17
0.000000 0.000000 0.000000
0.008654 0.000000 0.000000
0.069460 0.000000 0.000000
0.185155 0.000000 0.000000
0.349139 0.000000 0.000000
0.539374 0.000000 0.000000
0.722545 0.000000 0.000000
0.868550 0.000000 0.000000
0.961978 0.000000 0.000000
0.999856 0.000000 0.000000
1.000000 0.000000 0.000000
1.000000 0.000000 0.000000
1.000000 0.000000 0.000000
1.000000 0.000000 0.000000
1.000000 0.000000 0.000000
1.000000 0.000000 0.000000
1.000000 0.000000 0.000000
0.000000 0.001729 0.000000
0.000445 0.000445 0.000000
0.035867 0.000000 0.000000
0.130045 0.000000 0.000000
0.279079 0.000000 0.000000
0.465413 0.000000 0.000000
0.657282 0.000000 0.000000
0.820846 0.000000 0.000000
0.934665 0.000000 0.000000
0.992955 0.000000 0.000000
1.000000 0.000000 0.000000
1.000000 0.000000 0.000000
1.000000 0.000000 0.000000
1.000000 0.000000 0.000000
1.000000 0.000000 0.000000
1.000000 0.000000 0.000000
1.000000 0.000000 0.000000
0.000000 0.029315 0.000000
0.000000 0.023853 0.000000
0.019151 0.019151 0.000000
0.081611 0.016315 0.000000
0.202227 0.012609 0.000000
0.374236 0.008844 0.000000
0.570216 0.005552 0.000000
0.752825 0.002915 0.000000
0.892016 0.001027 0.000000
0.975132 0.000038 0.000000
1.000000 0.000000 0.000000
1.000000 0.000000 0.000000
1.000000 0.000000 0.000000
1.000000 0.000000 0.000000
1.000000 0.000000 0.000000
1.000000 0.000000 0.000000
1.000000 0.000000 0.000000
0.000000 0.085999 0.000000
0.000000 0.077403 0.000000
0.009691 0.066997 0.000000
0.059992 0.059992 0.000000
0.149416 0.055298 0.000000
0.292405 0.049559 0.000000
0.476924 0.042853 0.000000
0.669174 0.036025 0.000000
0.832181 0.029515 0.000000
0.943102 0.023522 0.000000
0.996229 0.018136 0.000000
1.000000 0.013392 0.000000
1.000000 0.009310 0.000000
1.000000 0.005963 0.000000
1.000000 0.003324 0.000000
1.000000 0.001358 0.000000
1.000000 0.000176 0.000000
0.000000 0.171621 0.000000
0.000000 0.159925 0.000000
0.001964 0.145577 0.000000
0.043648 0.131818 0.000000
0.122719 0.122719 0.000000
0.238408 0.116062 0.000000
0.398094 0.108688 0.000000
0.584239 0.099750 0.000000
0.761116 0.090016 0.000000
0.897187 0.080128 0.000000
0.977906 0.070465 0.000000
1.000000 0.061238 0.000000
1.000000 0.052562 0.000000
1.000000 0.044630 0.000000
1.000000 0.037697 0.000000
1.000000 0.031289 0.000000
1.000000 0.025416 0.000000
0.000000 0.283690 0.000000
0.000000 0.269124 0.000000
0.000000 0.252575 0.000000
0.026718 0.233668 0.000000
0.099704 0.217722 0.000000
0.206769 0.206769 0.000000
0.345046 0.198200 0.000000
0.512994 0.189371 0.000000
0.689644 0.178766 0.000000
0.842133 0.166785 0.000000
0.947276 0.154100 0.000000
0.997202 0.141213 0.000000
1.000000 0.128457 0.000000
1.000000 0.116043 0.000000
1.000000 0.105301 0.000000
1.000000 0.094988 0.000000
1.000000 0.085118 0.000000
0.000000 0.415208 0.000000
0.000000 0.398847 0.000000
0.000000 0.381399 0.000000
0.012619 0.359938 0.000000
0.074931 0.338939 0.000000
0.177509 0.321766 0.000000
0.309431 0.309431 0.000000
0.463045 0.299285 0.000000
0.628838 0.289241 0.000000
0.786073 0.277553 0.000000
0.908520 0.264117 0.000000
0.981598 0.249474 0.000000
1.000000 0.234149 0.000000
1.000000 0.218546 0.000000
1.000000 0.204422 0.000000
1.000000 0.191000 0.000000
1.000000 0.177858 0.000000
0.000000 0.554836 0.000000
0.000000 0.538200 0.000000
0.000000 0.521106 0.000000
0.003224 0.499827 0.000000
0.051194 0.476859 0.000000
0.145786 0.455638 0.000000
0.275066 0.438278 0.000000
0.425276 0.425276 0.000000
0.584062 0.414183 0.000000
0.737143 0.403347 0.000000
0.867750 0.391230 0.000000
0.957893 0.377246 0.000000
0.998988 0.361704 0.000000
1.000000 0.345052 0.000000
1.000000 0.328905 0.000000
1.000000 0.313770 0.000000
1.000000 0.298702 0.000000
0.000000 0.689186 0.000000
0.000000 0.673869 0.000000
0.000000 0.658289 0.000000
0.000000 0.639474 0.000000
0.030921 0.617671 0.000000
0.113460 0.595711 0.000000
0.237735 0.575818 0.000000
0.387769 0.559348 0.000000
0.546543 0.546543 0.000000
0.699133 0.535314 0.000000
0.830879 0.524309 0.000000
0.931065 0.512467 0.000000
0.989108 0.498870 0.000000
1.000000 0.483573 0.000000
1.000000 0.467475 0.000000
1.000000 0.452341 0.000000
1.000000 0.437072 0.000000
0.000000 0.806221 0.000000
0.000000 0.793484 0.000000
0.000000 0.780390 0.000000
0.000000 0.765399 0.000000
0.015260 0.747102 0.000000
0.083200 0.727433 0.000000
0.198316 0.708187 0.000000
0.346894 0.690805 0.000000
0.508464 0.676173 0.000000
0.664416 0.664416 0.000000
0.800504 0.653866 0.000000
0.905486 0.643430 0.000000
0.974496 0.632536 0.000000
1.000000 0.620163 0.000000
1.000000 0.606213 0.000000
1.000000 0.592602 0.000000
1.000000 0.578725 0.000000
0.000000 0.897912 0.000000
0.000000 0.888459 0.000000
0.000000 0.878596 0.000000
0.000000 0.867730 0.000000
0.004715 0.854115 0.000000
0.056714 0.838679 0.000000
0.159301 0.822612 0.000000
0.302645 0.807045 0.000000
0.466714 0.792908 0.000000
0.628476 0.780780 0.000000
0.770745 0.770745 0.000000
0.882956 0.761559 0.000000
0.958959 0.752360 0.000000
0.997477 0.742959 0.000000
1.000000 0.732426 0.000000
1.000000 0.721211 0.000000
1.000000 0.709754 0.000000
0.000000 0.960889 0.000000
0.000000 0.954909 0.000000
0.000000 0.948516 0.000000
0.000000 0.941564 0.000000
0.000007 0.932776 0.000000
0.034881 0.922297 0.000000
0.122758 0.910761 0.000000
0.257027 0.898866 0.000000
0.420603 0.887312 0.000000
0.588714 0.876694 0.000000
0.739263 0.867394 0.000000
0.859486 0.859486 0.000000
0.943976 0.852112 0.000000
0.990992 0.844627 0.000000
1.000000 0.837067 0.000000
1.000000 0.828776 0.000000
1.000000 0.820092 0.000000
0.000000 0.994855 0.000000
0.000000 0.992342 0.000000
0.000000 0.989401 0.000000
0.000000 0.986033 0.000000
0.000000 0.981663 0.000000
0.018072 0.976041 0.000000
0.090062 0.969369 0.000000
0.212143 0.961964 0.000000
0.371465 0.954226 0.000000
0.544003 0.946577 0.000000
0.704009 0.939399 0.000000
0.834019 0.932951 0.000000
0.927310 0.927310 0.000000
0.983120 0.921944 0.000000
1.000000 0.916415 0.000000
1.000000 0.910767 0.000000
1.000000 0.904724 0.000000
0.000000 1.000000 0.000000
0.000000 1.000000 0.000000
0.000000 1.000000 0.000000
0.000000 1.000000 0.000000
0.000000 1.000000 0.000000
0.006447 0.999642 0.000000
0.062008 0.998067 0.000000
0.169706 0.995516 0.000000
0.321117 0.992209 0.000000
0.494976 0.988404 0.000000
0.663673 0.984381 0.000000
0.805035 0.980400 0.000000
0.908573 0.976659 0.000000
0.973248 0.973248 0.000000
0.999920 0.969908 0.000000
1.000000 0.966383 0.000000
1.000000 0.962671 0.000000
0.000000 1.000000 0.000000
0.000000 1.000000 0.000000
0.000000 1.000000 0.000000
0.000000 1.000000 0.000000
0.000000 1.000000 0.000000
0.000388 1.000000 0.000000
0.038977 1.000000 0.000000
0.130954 1.000000 0.000000
0.271326 1.000000 0.000000
0.442926 1.000000 0.000000
0.618282 1.000000 0.000000
0.771249 0.999999 0.000000
0.886720 0.999443 0.000000
0.961325 0.998464 0.000000
0.997329 0.997329 0.000000
1.000000 0.996050 0.000000
1.000000 0.994565 0.000000
0.000000 1.000000 0.000000
0.000000 1.000000 0.000000
0.000000 1.000000 0.000000
0.000000 1.000000 0.000000
0.000000 1.000000 0.000000
0.000000 1.000000 0.000000
0.021271 1.000000 0.000000
0.097103 1.000000 0.000000
0.224077 1.000000 0.000000
0.389607 1.000000 0.000000
0.568520 1.000000 0.000000
0.732269 1.000000 0.000000
0.860639 1.000000 0.000000
0.946721 1.000000 0.000000
0.992250 1.000000 0.000000
1.000000 1.000000 0.000000
1.000000 1.000000 0.000000
0.000000 1.000000 0.000000
0.000000 1.000000 0.000000
0.000000 1.000000 0.000000
0.000000 1.000000 0.000000
0.000000 1.000000 0.000000
0.000000 1.000000 0.000000
0.008825 1.000000 0.000000
0.069118 1.000000 0.000000
0.182605 1.000000 0.000000
0.340485 1.000000 0.000000
0.520032 1.000000 0.000000
0.691584 1.000000 0.000000
0.831479 1.000000 0.000000
0.929174 1.000000 0.000000
0.984788 1.000000 0.000000
1.000000 1.000000 0.000000
1.000000 1.000000 0.000000
0.000000 0.000000 0.004670
0.003287 0.000000 0.003287
0.050862 0.000000 0.003048
0.161828 0.000000 0.001915
0.326130 0.000000 0.000613
0.520193 0.000000 0.000000
0.708936 0.000000 0.000000
0.860421 0.000000 0.000000
0.958178 0.000000 0.000000
0.999436 0.000000 0.000000
1.000000 0.000000 0.000000
1.000000 0.000000 0.000000
1.000000 0.000000 0.000000
1.000000 0.000000 0.000000
1.000000 0.000000 0.000000
1.000000 0.000000 0.000000
1.000000 0.000000 0.000000
0.000000 0.000877 0.000877
0.000270 0.000270 0.000270
0.039201 0.000000 0.000000
0.133609 0.000000 0.000000
0.280460 0.000000 0.000000
0.464052 0.000000 0.000000
0.654096 0.000000 0.000000
0.817365 0.000000 0.000000
0.932103 0.000000 0.000000
0.991928 0.000000 0.000000
1.000000 0.000000 0.000000
1.000000 0.000000 0.000000
1.000000 0.000000 0.000000
1.000000 0.000000 0.000000
1.000000 0.000000 0.000000
1.000000 0.000000 0.000000
1.000000 0.000000 0.000000
0.000000 0.026599 0.000000
0.000000 0.022944 0.000000
0.018219 0.018219 0.000000
0.081636 0.015127 0.000000
0.203645 0.011205 0.000000
0.374742 0.007570 0.000000
0.568548 0.004533 0.000000
0.749540 0.002183 0.000000
0.888618 0.000594 0.000000
0.973374 0.000000 0.000000
1.000000 0.000000 0.000000
1.000000 0.000000 0.000000
1.000000 0.000000 0.000000
1.000000 0.000000 0.000000
1.000000 0.000000 0.000000
1.000000 0.000000 0.000000
1.000000 0.000000 0.000000
0.000000 0.082641 0.000000
0.000000 0.074989 0.000000
0.008674 0.065213 0.000000
0.058375 0.058375 0.000000
0.146912 0.053615 0.000000
0.288364 0.047652 0.000000
0.471957 0.040852 0.000000
0.664266 0.034047 0.000000
0.828285 0.027636 0.000000
0.940717 0.021787 0.000000
0.995498 0.016571 0.000000
1.000000 0.012016 0.000000
1.000000 0.008135 0.000000
1.000000 0.004995 0.000000
1.000000 0.002577 0.000000
1.000000 0.000860 0.000000
1.000000 0.000010 0.000000
0.000000 0.167562 0.000000
0.000000 0.156056 0.000000
0.001492 0.142244 0.000000
0.042065 0.129141 0.000000
0.120412 0.120412 0.000000
0.235218 0.113749 0.000000
0.393919 0.106105 0.000000
0.579648 0.096954 0.000000
0.757016 0.087126 0.000000
0.894277 0.077238 0.000000
0.976462 0.067643 0.000000
1.000000 0.058529 0.000000
1.000000 0.049997 0.000000
1.000000 0.042217 0.000000
1.000000 0.035461 0.000000
1.000000 0.029234 0.000000
1.000000 0.023546 0.000000
0.000000 0.278711 0.000000
0.000000 0.264244 0.000000
0.000000 0.248071 0.000000
0.025288 0.229789 0.000000
0.097422 0.214454 0.000000
0.203820 0.203820 0.000000
0.341441 0.195277 0.000000
0.508872 0.186191 0.000000
0.685595 0.175303 0.000000
0.838885 0.163126 0.000000
0.945274 0.150339 0.000000
0.996633 0.137429 0.000000
1.000000 0.124711 0.000000
1.000000 0.112380 0.000000
1.000000 0.101750 0.000000
1.000000 0.091585 0.000000
1.000000 0.081870 0.000000
0.000000 0.409638 0.000000
0.000000 0.393321 0.000000
0.000000 0.376079 0.000000
0.011532 0.355103 0.000000
0.072701 0.334690 0.000000
0.174568 0.318042 0.000000
0.305964 0.305964 0.000000
0.459230 0.295851 0.000000
0.624988 0.285594 0.000000
0.782697 0.273590 0.000000
0.906122 0.259883 0.000000
0.980426 0.245045 0.000000
1.000000 0.229601 0.000000
1.000000 0.213945 0.000000
1.000000 0.199834 0.000000
1.000000 0.186504 0.000000
1.000000 0.173463 0.000000
0.000000 0.549194 0.000000
0.000000 0.532537 0.000000
0.000000 0.515498 0.000000
0.002613 0.494527 0.000000
0.049186 0.471995 0.000000
0.142822 0.451259 0.000000
0.271574 0.434314 0.000000
0.421503 0.421503 0.000000
0.580298 0.410428 0.000000
0.733767 0.399428 0.000000
0.865121 0.386997 0.000000
0.956303 0.372698 0.000000
0.998645 0.356890 0.000000
1.000000 0.340033 0.000000
1.000000 0.323759 0.000000
1.000000 0.308644 0.000000
1.000000 0.293604 0.000000
0.000000 0.684012 0.000000
0.000000 0.668613 0.000000
0.000000 0.652972 0.000000
0.000000 0.634299 0.000000
0.029265 0.612747 0.000000
0.110614 0.591120 0.000000
0.234151 0.571585 0.000000
0.383918 0.555413 0.000000
0.542733 0.542733 0.000000
0.695686 0.531495 0.000000
0.828122 0.520369 0.000000
0.929195 0.508238 0.000000
0.988277 0.494317 0.000000
1.000000 0.478713 0.000000
1.000000 0.462352 0.000000
1.000000 0.447170 0.000000
1.000000 0.431858 0.000000
0.000000 0.801936 0.000000
0.000000 0.789077 0.000000
0.000000 0.775865 0.000000
0.000000 0.760875 0.000000
0.014036 0.742666 0.000000
0.080611 0.723157 0.000000
0.194740 0.704128 0.000000
0.342878 0.686981 0.000000
0.504514 0.672538 0.000000
0.660844 0.660844 0.000000
0.797582 0.650262 0.000000
0.903418 0.639731 0.000000
0.973354 0.628588 0.000000
1.000000 0.615909 0.000000
1.000000 0.601621 0.000000
1.000000 0.587919 0.000000
1.000000 0.573953 0.000000
0.000000 0.894748 0.000000
0.000000 0.885155 0.000000
0.000000 0.875154 0.000000
0.000000 0.864202 0.000000
0.003984 0.850562 0.000000
0.054487 0.835147 0.000000
0.155870 0.819153 0.000000
0.298525 0.803700 0.000000
0.462529 0.789691 0.000000
0.624707 0.777663 0.000000
0.767642 0.767642 0.000000
0.880681 0.758405 0.000000
0.957590 0.749126 0.000000
0.997062 0.739522 0.000000
1.000000 0.728723 0.000000
1.000000 0.717355 0.000000
1.000000 0.705794 0.000000
0.000000 0.958904 0.000000
0.000000 0.952784 0.000000
0.000000 0.946251 0.000000
0.000000 0.939176 0.000000
0.000000 0.930299 0.000000
0.033078 0.919752 0.000000
0.119595 0.908180 0.000000
0.252920 0.896288 0.000000
0.416204 0.884768 0.000000
0.584653 0.874197 0.000000
0.735924 0.864930 0.000000
0.857002 0.857002 0.000000
0.942390 0.849566 0.000000
0.990309 0.842009 0.000000
1.000000 0.834291 0.000000
1.000000 0.825858 0.000000
1.000000 0.817079 0.000000
0.000000 0.994050 0.000000
0.000000 0.991390 0.000000
0.000000 0.988307 0.000000
0.000000 0.984801 0.000000
0.000000 0.980307 0.000000
0.016731 0.974563 0.000000
0.087259 0.967786 0.000000
0.208175 0.960302 0.000000
0.366938 0.952513 0.000000
0.539640 0.944840 0.000000
0.700347 0.937652 0.000000
0.831283 0.931191 0.000000
0.925508 0.925508 0.000000
0.982219 0.920078 0.000000
1.000000 0.914482 0.000000
1.000000 0.908740 0.000000
1.000000 0.902619 0.000000
0.000000 1.000000 0.000000
0.000000 1.000000 0.000000
0.000000 1.000000 0.000000
0.000000 1.000000 0.000000
0.000000 1.000000 0.000000
0.005602 0.999360 0.000000
0.059625 0.997570 0.000000
0.165990 0.994853 0.000000
0.316574 0.991415 0.000000
0.490356 0.987512 0.000000
0.659652 0.983418 0.000000
0.801972 0.979385 0.000000
0.906526 0.975599 0.000000
0.972135 0.972135 0.000000
0.999801 0.968731 0.000000
1.000000 0.965143 0.000000
1.000000 0.961368 0.000000
0.000000 1.000000 0.000000
0.000000 1.000000 0.000000
0.000000 1.000000 0.000000
0.000000 1.000000 0.000000
0.000000 1.000000 0.000000
0.000155 1.000000 0.000000
0.037050 1.000000 0.000000
0.127582 1.000000 0.000000
0.266886 1.000000 0.000000
0.438132 1.000000 0.000000
0.613910 1.000000 0.000000
0.767810 0.999934 0.000000
0.884366 0.999207 0.000000
0.959981 0.998130 0.000000
0.996918 0.996918 0.000000
1.000000 0.995568 0.000000
1.000000 0.994015 0.000000
0.000000 1.000000 0.000000
0.000000 1.000000 0.000000
0.000000 1.000000 0.000000
0.000000 1.000000 0.000000
0.000000 1.000000 0.000000
0.000000 1.000000 0.000000
0.019799 1.000000 0.000000
0.094083 1.000000 0.000000
0.219756 1.000000 0.000000
0.384620 1.000000 0.000000
0.563841 1.000000 0.000000
0.728431 1.000000 0.000000
0.857925 1.000000 0.000000
0.945104 1.000000 0.000000
0.991603 1.000000 0.000000
1.000000 1.000000 0.000000
1.000000 1.000000 0.000000
0.000000 1.000000 0.000000
0.000000 1.000000 0.000000
0.000000 1.000000 0.000000
0.000000 1.000000 0.000000
0.000000 1.000000 0.000000
0.000000 1.000000 0.000000
0.007838 1.000000 0.000000
0.066536 1.000000 0.000000
0.178593 1.000000 0.000000
0.335574 1.000000 0.000000
0.515065 1.000000 0.000000
0.687344 1.000000 0.000000
0.828381 1.000000 0.000000
0.927255 1.000000 0.000000
0.983903 1.000000 0.000000
1.000000 1.000000 0.000000
1.000000 1.000000 0.000000
0.000000 0.000000 0.047545
0.002864 0.000000 0.043359
0.039361 0.000000 0.039361
0.121337 0.000000 0.037989
0.269865 0.000000 0.037893
0.463493 0.000000 0.035000
0.663449 0.000000 0.030590
0.830878 0.000000 0.025654
0.943384 0.000000 0.020725
0.996483 0.000000 0.016084
1.000000 0.000000 0.011882
1.000000 0.000000 0.008207
1.000000 0.000000 0.005120
1.000000 0.000000 0.002686
1.000000 0.000000 0.000939
1.000000 0.000000 0.000029
1.000000 0.000000 0.000000
0.000000 0.000640 0.034208
0.000132 0.000132 0.030651
0.027281 0.000000 0.027281
0.104727 0.000000 0.026210
0.245155 0.000000 0.023214
0.428998 0.000000 0.018915
0.624741 0.000000 0.014568
0.796704 0.000000 0.010582
0.920308 0.000000 0.007113
0.987675 0.000000 0.004236
1.000000 0.000000 0.002008
1.000000 0.000000 0.000513
1.000000 0.000000 0.000000
1.000000 0.000000 0.000000
1.000000 0.000000 0.000000
1.000000 0.000000 0.000000
1.000000 0.000000 0.000000
0.000000 0.022983 0.022983
0.000000 0.020052 0.020052
0.017307 0.017307 0.017307
0.090207 0.012825 0.012825
0.217552 0.008956 0.008956
0.389749 0.005713 0.005713
0.581430 0.003118 0.003118
0.758607 0.001215 0.001215
0.893802 0.000118 0.000118
0.975116 0.000000 0.000000
1.000000 0.000000 0.000000
1.000000 0.000000 0.000000
1.000000 0.000000 0.000000
1.000000 0.000000 0.000000
1.000000 0.000000 0.000000
1.000000 0.000000 0.000000
1.000000 0.000000 0.000000
0.000000 0.075098 0.013230
0.000000 0.069373 0.010332
0.006422 0.064724 0.006422
0.056779 0.056779 0.007527
0.150201 0.051370 0.003552
0.302306 0.044170 0.000711
0.490923 0.036991 0.000000
0.681376 0.030332 0.000000
0.839751 0.024295 0.000000
0.946361 0.018900 0.000000
0.996809 0.014146 0.000000
1.000000 0.010032 0.000000
1.000000 0.006564 0.000000
1.000000 0.003782 0.000000
1.000000 0.001701 0.000000
1.000000 0.000357 0.000000
1.000000 0.000000 0.000000
0.000000 0.158737 0.004252
0.000000 0.148751 0.002454
0.000522 0.141192 0.000522
0.039240 0.127724 0.000774
0.118127 0.118127 0.001480
0.234099 0.111349 0.000229
0.398192 0.102751 0.000000
0.587274 0.092888 0.000000
0.764150 0.082804 0.000000
0.898731 0.072989 0.000000
0.978182 0.063655 0.000000
1.000000 0.054897 0.000000
1.000000 0.046756 0.000000
1.000000 0.039344 0.000000
1.000000 0.032925 0.000000
1.000000 0.027046 0.000000
1.000000 0.021710 0.000000
0.000000 0.270251 0.000000
0.000000 0.256846 0.000000
0.000000 0.245340 0.000000
0.022313 0.228153 0.000000
0.094623 0.211795 0.000000
0.200889 0.200889 0.000000
0.338409 0.192373 0.000000
0.507780 0.182768 0.000000
0.685827 0.171311 0.000000
0.839138 0.158831 0.000000
0.945075 0.146006 0.000000
0.996403 0.133250 0.000000
1.000000 0.120806 0.000000
1.000000 0.108767 0.000000
1.000000 0.098249 0.000000
1.000000 0.088235 0.000000
1.000000 0.078676 0.000000
0.000000 0.402137 0.000000
0.000000 0.386429 0.000000
0.000000 0.371698 0.000000
0.009625 0.352248 0.000000
0.069563 0.331494 0.000000
0.171476 0.314548 0.000000
0.302511 0.302511 0.000000
0.455490 0.292436 0.000000
0.621577 0.281926 0.000000
0.779542 0.269602 0.000000
0.903687 0.255663 0.000000
0.979218 0.240635 0.000000
1.000000 0.225078 0.000000
1.000000 0.209375 0.000000
1.000000 0.195276 0.000000
1.000000 0.182041 0.000000
1.000000 0.169105 0.000000
0.000000 0.542800 0.000000
0.000000 0.526393 0.000000
0.000000 0.510157 0.000000
0.001849 0.490201 0.000000
0.046761 0.467717 0.000000
0.139720 0.447038 0.000000
0.268095 0.430356 0.000000
0.417736 0.417736 0.000000
0.576529 0.406679 0.000000
0.730371 0.395512 0.000000
0.862463 0.382765 0.000000
0.954681 0.368153 0.000000
0.998262 0.352081 0.000000
1.000000 0.335023 0.000000
1.000000 0.318619 0.000000
1.000000 0.303527 0.000000
1.000000 0.288518 0.000000
0.000000 0.678684 0.000000
0.000000 0.663285 0.000000
0.000000 0.647634 0.000000
0.000000 0.629095 0.000000
0.027648 0.607796 0.000000
0.107796 0.586508 0.000000
0.230585 0.567340 0.000000
0.380074 0.551473 0.000000
0.538919 0.538919 0.000000
0.692226 0.527674 0.000000
0.825342 0.516424 0.000000
0.927297 0.504001 0.000000
0.987417 0.489754 0.000000
1.000000 0.473844 0.000000
1.000000 0.457212 0.000000
1.000000 0.441984 0.000000
1.000000 0.426632 0.000000
0.000000 0.797609 0.000000
0.000000 0.784629 0.000000
0.000000 0.771300 0.000000
0.000000 0.756309 0.000000
0.012857 0.738190 0.000000
0.078058 0.718847 0.000000
0.191187 0.700042 0.000000
0.338872 0.683137 0.000000
0.500561 0.668890 0.000000
0.657261 0.657261 0.000000
0.794642 0.646647 0.000000
0.901327 0.636019 0.000000
0.972188 0.624624 0.000000
1.000000 0.611637 0.000000
1.000000 0.596999 0.000000
1.000000 0.583205 0.000000
1.000000 0.569151 0.000000
0.000000 0.891536 0.000000
0.000000 0.881804 0.000000
0.000000 0.871665 0.000000
0.000000 0.860626 0.000000
0.003305 0.846962 0.000000
0.052299 0.831572 0.000000
0.152469 0.815658 0.000000
0.294419 0.800325 0.000000
0.458343 0.786450 0.000000
0.620928 0.774527 0.000000
0.764522 0.764522 0.000000
0.878385 0.755234 0.000000
0.956198 0.745873 0.000000
0.996619 0.736064 0.000000
1.000000 0.724996 0.000000
1.000000 0.713463 0.000000
1.000000 0.701798 0.000000
0.000000 0.956872 0.000000
0.000000 0.950611 0.000000
0.000000 0.943938 0.000000
0.000000 0.936739 0.000000
0.000000 0.927775 0.000000
0.031318 0.917162 0.000000
0.116467 0.905559 0.000000
0.248832 0.893674 0.000000
0.411809 0.882193 0.000000
0.580583 0.871674 0.000000
0.732567 0.862444 0.000000
0.854497 0.854497 0.000000
0.940783 0.847000 0.000000
0.989604 0.839370 0.000000
1.000000 0.831492 0.000000
1.000000 0.822909 0.000000
1.000000 0.814032 0.000000
0.000000 0.993195 0.000000
0.000000 0.990390 0.000000
0.000000 0.987166 0.000000
0.000000 0.983522 0.000000
0.000000 0.978905 0.000000
0.015436 0.973042 0.000000
0.084495 0.966162 0.000000
0.204233 0.958603 0.000000
0.362419 0.950768 0.000000
0.535269 0.943074 0.000000
0.696666 0.935879 0.000000
0.828526 0.929408 0.000000
0.923686 0.923686 0.000000
0.981297 0.918191 0.000000
1.000000 0.912527 0.000000
1.000000 0.906688 0.000000
1.000000 0.900487 0.000000
0.000000 1.000000 0.000000
0.000000 1.000000 0.000000
0.000000 1.000000 0.000000
0.000000 1.000000 0.000000
0.000000 0.999969 0.000000
0.004808 0.999017 0.000000
0.057284 0.997025 0.000000
0.162307 0.994149 0.000000
0.312046 0.990587 0.000000
0.485732 0.986590 0.000000
0.655612 0.982428 0.000000
0.798886 0.978346 0.000000
0.904456 0.974516 0.000000
0.971000 0.971000 0.000000
0.999643 0.967533 0.000000
1.000000 0.963882 0.000000
1.000000 0.960042 0.000000
0.000000 1.000000 0.000000
0.000000 1.000000 0.000000
0.000000 1.000000 0.000000
0.000000 1.000000 0.000000
0.000000 1.000000 0.000000
0.000016 1.000000 0.000000
0.035168 1.000000 0.000000
0.124247 1.000000 0.000000
0.262468 1.000000 0.000000
0.433339 1.000000 0.000000
0.609521 1.000000 0.000000
0.764346 0.999809 0.000000
0.881988 0.998938 0.000000
0.958615 0.997769 0.000000
0.996483 0.996483 0.000000
1.000000 0.995063 0.000000
1.000000 0.993443 0.000000
0.000000 1.000000 0.000000
0.000000 1.000000 0.000000
0.000000 1.000000 0.000000
0.000000 1.000000 0.000000
0.000000 1.000000 0.000000
0.000000 1.000000 0.000000
0.018374 1.000000 0.000000
0.091107 1.000000 0.000000
0.215464 1.000000 0.000000
0.379651 1.000000 0.000000
0.559149 1.000000 0.000000
0.724570 1.000000 0.000000
0.855185 1.000000 0.000000
0.943463 1.000000 0.000000
0.990934 1.000000 0.000000
1.000000 1.000000 0.000000
1.000000 1.000000 0.000000
0.000000 1.000000 0.000000
0.000000 1.000000 0.000000
0.000000 1.000000 0.000000
0.000000 1.000000 0.000000
0.000000 1.000000 0.000000
0.000000 1.000000 0.000000
0.006902 1.000000 0.000000
0.063999 1.000000 0.000000
0.174616 1.000000 0.000000
0.330676 1.000000 0.000000
0.510085 1.000000 0.000000
0.683074 1.000000 0.000000
0.825250 1.000000 0.000000
0.925306 1.000000 0.000000
0.982993 1.000000 0.000000
1.000000 1.000000 0.000000
1.000000 1.000000 0.000000
0.000000 0.000000 0.131610
0.002467 0.000000 0.124644
0.038046 0.000000 0.117862
0.111266 0.000000 0.111266
0.225762 0.000000 0.106917
0.399292 0.000000 0.108598
0.600448 0.000000 0.107596
0.783698 0.000000 0.103349
0.916383 0.000000 0.096915
0.987749 0.000000 0.089227
1.000000 0.000000 0.080932
1.000000 0.000000 0.072451
1.000000 0.000000 0.064049
1.000000 0.000000 0.055929
1.000000 0.000000 0.048296
1.000000 0.000000 0.041164
1.000000 0.000000 0.034542
0.000000 0.000434 0.108911
0.000036 0.000036 0.102569
0.026178 0.000000 0.096414
