assets/presets/luts/three-strip/lut.cube
TITLE "Three Strip"
LUT_3D_SIZE 9
0.000000 0.000000 0.000000
0.069460 0.000000 0.000000
0.349139 0.000000 0.000000
0.722545 0.000000 0.000000
0.961978 0.000000 0.000000
1.000000 0.000000 0.000000
1.000000 0.000000 0.000000
1.000000 0.000000 0.000000
1.000000 0.000000 0.000000
0.000000 0.029315 0.000000
0.019151 0.019151 0.000000
0.202227 0.012609 0.000000
0.570216 0.005552 0.000000
0.892016 0.001027 0.000000
1.000000 0.000000 0.000000
1.000000 0.000000 0.000000
1.000000 0.000000 0.000000
1.000000 0.000000 0.000000
0.000000 0.171621 0.000000
0.001964 0.145577 0.000000
0.122719 0.122719 0.000000
0.398094 0.108688 0.000000
0.761116 0.090016 0.000000
0.977906 0.070465 0.000000
1.000000 0.052562 0.000000
1.000000 0.037697 0.000000
1.000000 0.025416 0.000000
0.000000 0.415208 0.000000
0.000000 0.381399 0.000000
0.074931 0.338939 0.000000
0.309431 0.309431 0.000000
0.628838 0.289241 0.000000
0.908520 0.264117 0.000000
1.000000 0.234149 0.000000
1.000000 0.204422 0.000000
1.000000 0.177858 0.000000
0.000000 0.689186 0.000000
0.000000 0.658289 0.000000
0.030921 0.617671 0.000000
0.237735 0.575818 0.000000
0.546543 0.546543 0.000000
0.830879 0.524309 0.000000
0.989108 0.498870 0.000000
1.000000 0.467475 0.000000
1.000000 0.437072 0.000000
0.000000 0.897912 0.000000
0.000000 0.878596 0.000000
0.004715 0.854115 0.000000
0.159301 0.822612 0.000000
0.466714 0.792908 0.000000
0.770745 0.770745 0.000000
0.958959 0.752360 0.000000
1.000000 0.732426 0.000000
1.000000 0.709754 0.000000
0.000000 0.994855 0.000000
0.000000 0.989401 0.000000
0.000000 0.981663 0.000000
0.090062 0.969369 0.000000
0.371465 0.954226 0.000000
0.704009 0.939399 0.000000
0.927310 0.927310 0.000000
1.000000 0.916415 0.000000
1.000000 0.904724 0.000000
0.000000 1.000000 0.000000
0.000000 1.000000 0.000000
0.000000 1.000000 0.000000
0.038977 1.000000 0.000000
0.271326 1.000000 0.000000
0.618282 1.000000 0.000000
0.886720 0.999443 0.000000
0.997329 0.997329 0.000000
1.000000 0.994565 0.000000
0.000000 1.000000 0.000000
0.000000 1.000000 0.000000
0.000000 1.000000 0.000000
0.008825 1.000000 0.000000
0.182605 1.000000 0.000000
0.520032 1.000000 0.000000
0.831479 1.000000 0.000000
0.984788 1.000000 0.000000
1.000000 1.000000 0.000000
0.000000 0.000000 0.047545
0.039361 0.000000 0.039361
0.269865 0.000000 0.037893
0.663449 0.000000 0.030590
0.943384 0.000000 0.020725
1.000000 0.000000 0.011882
1.000000 0.000000 0.005120
1.000000 0.000000 0.000939
1.000000 0.000000 0.000000
0.000000 0.022983 0.022983
0.017307 0.017307 0.017307
0.217552 0.008956 0.008956
0.581430 0.003118 0.003118
0.893802 0.000118 0.000118
1.000000 0.000000 0.000000
1.000000 0.000000 0.000000
1.000000 0.000000 0.000000
1.000000 0.000000 0.000000
0.000000 0.158737 0.004252
0.000522 0.141192 0.000522
0.118127 0.118127 0.001480
0.398192 0.102751 0.000000
0.764150 0.082804 0.000000
0.978182 0.063655 0.000000
1.000000 0.046756 0.000000
1.000000 0.032925 0.000000
1.000000 0.021710 0.000000
0.000000 0.402137 0.000000
0.000000 0.371698 0.000000
0.069563 0.331494 0.000000
0.302511 0.302511 0.000000
0.621577 0.281926 0.000000
0.903687 0.255663 0.000000
1.000000 0.225078 0.000000
1.000000 0.195276 0.000000
1.000000 0.169105 0.000000
0.000000 0.678684 0.000000
0.000000 0.647634 0.000000
0.027648 0.607796 0.000000
0.230585 0.567340 0.000000
0.538919 0.538919 0.000000
0.825342 0.516424 0.000000
0.987417 0.489754 0.000000
1.000000 0.457212 0.000000
1.000000 0.426632 0.000000
0.000000 0.891536 0.000000
0.000000 0.871665 0.000000
0.003305 0.846962 0.000000
0.152469 0.815658 0.000000
0.458343 0.786450 0.000000
0.764522 0.764522 0.000000
0.956198 0.745873 0.000000
1.000000 0.724996 0.000000
1.000000 0.701798 0.000000
0.000000 0.993195 0.000000
0.000000 0.987166 0.000000
0.000000 0.978905 0.000000
0.084495 0.966162 0.000000
0.362419 0.950768 0.000000
0.696666 0.935879 0.000000
0.923686 0.923686 0.000000
1.000000 0.912527 0.000000
1.000000 0.900487 0.000000
0.000000 1.000000 0.000000
0.000000 1.000000 0.000000
0.000000 1.000000 0.000000
0.035168 1.000000 0.000000
0.262468 1.000000 0.000000
0.609521 1.000000 0.000000
0.881988 0.998938 0.000000
0.996483 0.996483 0.000000
1.000000 0.993443 0.000000
0.000000 1.000000 0.000000
0.000000 1.000000 0.000000
0.000000 1.000000 0.000000
0.006902 1.000000 0.000000
0.174616 1.000000 0.000000
0.510085 1.000000 0.000000
0.825250 1.000000 0.000000
0.982993 1.000000 0.000000
1.000000 1.000000 0.000000
0.000000 0.000000 0.255187
0.036752 0.000000 0.236434
0.218282 0.000000 0.218282
0.541984 0.000000 0.212001
0.879628 0.000000 0.211560
1.000000 0.000000 0.198213
1.000000 0.000000 0.177508
1.000000 0.000000 0.152923
1.000000 0.000000 0.129647
0.000000 0.020972 0.194541
0.015550 0.015550 0.177918
0.161981 0.010876 0.161981
0.484851 0.004793 0.156881
0.842215 0.000415 0.142495
0.998064 0.000000 0.121558
1.000000 0.000000 0.099941
1.000000 0.000000 0.080002
1.000000 0.000000 0.062254
0.000000 0.141381 0.141381
0.002890 0.127134 0.127134
0.113622 0.113622 0.113622
0.431337 0.091114 0.091114
0.792575 0.071059 0.071059
0.985615 0.053465 0.053465
1.000000 0.038323 0.038323
1.000000 0.025619 0.025619
1.000000 0.015343 0.015343
0.000000 0.372137 0.093177
0.000000 0.348783 0.078277
0.057401 0.329447 0.057401
0.295646 0.295646 0.063423
0.631093 0.272097 0.040965
0.919751 0.240089 0.021591
1.000000 0.207409 0.009938
1.000000 0.177264 0.003268
1.000000 0.150797 0.000243
0.000000 0.655039 0.045117
0.000000 0.626917 0.034147
0.019896 0.604645 0.019896
0.217731 0.562807 0.022125
0.531283 0.531283 0.027559
0.823374 0.508148 0.016830
0.989147 0.477763 0.003888
1.000000 0.442009 0.000000
1.000000 0.409931 0.000000
0.000000 0.880164 0.012076
0.000000 0.860700 0.006234
0.001209 0.842519 0.001209
0.138138 0.812674 0.001055
0.447966 0.781098 0.004346
0.758230 0.758230 0.005938
0.953801 0.739319 0.002302
1.000000 0.716844 0.000000
1.000000 0.692517 0.000000
0.000000 0.990638 0.000000
0.000000 0.984099 0.000000
0.000000 0.976492 0.000000
0.074583 0.964191 0.000000
0.349566 0.948076 0.000000
0.688816 0.932476 0.000000
0.919974 0.919974 0.000000
1.000000 0.908557 0.000000
1.000000 0.896119 0.000000
0.000000 1.000000 0.000000
0.000000 1.000000 0.000000
0.000000 1.000000 0.000000
0.030142 1.000000 0.000000
0.251692 1.000000 0.000000
0.600205 1.000000 0.000000
0.877154 0.998308 0.000000
0.995541 0.995541 0.000000
1.000000 0.992230 0.000000
0.000000 1.000000 0.000000
0.000000 1.000000 0.000000
0.000000 1.000000 0.000000
0.005186 1.000000 0.000000
0.166767 1.000000 0.000000
0.500088 1.000000 0.000000
0.818887 1.000000 0.000000
0.981102 1.000000 0.000000
1.000000 1.000000 0.000000
0.000000 0.000000 0.575165
0.034229 0.000000 0.552845
0.212259 0.000000 0.530392
0.507861 0.000000 0.507861
0.808256 0.000000 0.492632
0.989573 0.000000 0.498555
1.000000 0.000000 0.494655
1.000000 0.000000 0.466816
1.000000 0.000000 0.438347
0.000000 0.019047 0.499650
0.013878 0.013878 0.477106
0.156728 0.009460 0.454620
0.432250 0.005808 0.432250
0.755136 0.002236 0.420680
0.974895 0.000000 0.417592
1.000000 0.000000 0.401050
1.000000 0.000000 0.371674
1.000000 0.000000 0.340809
0.000000 0.136461 0.424146
0.002116 0.122462 0.402024
0.109202 0.109202 0.380149
0.358573 0.096688 0.358573
0.711905 0.077539 0.351535
0.962727 0.056533 0.331307
1.000000 0.039425 0.300783
1.000000 0.026545 0.268002
1.000000 0.016688 0.236375
0.000000 0.350802 0.350802
0.000000 0.329717 0.329717
0.070098 0.309046 0.309046
0.288836 0.288836 0.288836
0.663001 0.253645 0.253645
0.936336 0.220308 0.220308
1.000000 0.189012 0.189012
1.000000 0.159903 0.159903
1.000000 0.133097 0.133097
0.000000 0.624172 0.280722
0.000000 0.600012 0.258765
0.027247 0.581059 0.232555
0.196214 0.560619 0.196214
0.523638 0.523638 0.207000
0.830443 0.496872 0.165167
0.994441 0.459050 0.123912
1.000000 0.418852 0.094456
1.000000 0.382680 0.075475
0.000000 0.860255 0.201324
0.000000 0.841878 0.179665
0.002865 0.827352 0.151388
0.119914 0.810577 0.119914
0.431561 0.777750 0.125154
0.751869 0.751869 0.137383
0.953133 0.732236 0.112435
1.000000 0.705606 0.074152
1.000000 0.677632 0.056974
0.000000 0.984904 0.125595
0.000000 0.977731 0.107019
0.000000 0.970807 0.084836
0.061920 0.962877 0.061920
0.325066 0.947445 0.061013
0.678534 0.929758 0.075895
0.916176 0.916176 0.081544
1.000000 0.904492 0.067494
1.000000 0.891087 0.050145
0.000000 1.000000 0.064739
0.000000 1.000000 0.050986
0.000000 1.000000 0.036979
0.022652 1.000000 0.022652
0.226324 1.000000 0.020357
0.581876 0.999973 0.027488
0.871413 0.997691 0.038137
0.994505 0.994505 0.040026
1.000000 0.990928 0.032527
0.000000 1.000000 0.023980
0.000000 1.000000 0.015504
0.000000 1.000000 0.008613
0.002113 1.000000 0.002113
0.144467 1.000000 0.001249
0.476901 1.000000 0.003506
0.809206 1.000000 0.008709
0.979015 1.000000 0.013813
1.000000 1.000000 0.012768
0.000000 0.000000 0.858165
0.031792 0.000000 0.843171
0.206310 0.000000 0.827467
0.500202 0.000000 0.811071
0.794002 0.000000 0.794002
0.969400 0.000000 0.778280
1.000000 0.000000 0.781516
1.000000 0.000000 0.763800
1.000000 0.000000 0.745045
0.000000 0.017208 0.804933
0.012293 0.012293 0.787625
0.151557 0.008133 0.769679
0.424690 0.004746 0.751123
0.731988 0.002168 0.731988
0.943369 0.000363 0.716389
1.000000 0.000000 0.717220
1.000000 0.000000 0.699802
1.000000 0.000000 0.676420
0.000000 0.131624 0.744222
0.001445 0.117876 0.724885
0.104868 0.104868 0.705020
0.351323 0.092609 0.684664
0.663862 0.081103 0.663862
0.914292 0.067189 0.652880
1.000000 0.048254 0.649924
1.000000 0.034370 0.628864
1.000000 0.024694 0.599664
0.000000 0.343598 0.677140
0.000000 0.322648 0.656186
0.066624 0.302129 0.634848
0.282085 0.282085 0.613175
0.591218 0.262557 0.591218
0.886866 0.231317 0.583927
1.000000 0.194636 0.562608
1.000000 0.163605 0.529185
1.000000 0.138868 0.492821
0.000000 0.605211 0.605211
0.000000 0.583165 0.583165
0.036909 0.560908 0.560908
0.218653 0.538496 0.538496
0.515987 0.515987 0.515987
0.853498 0.475280 0.475280
0.998475 0.434778 0.434778
1.000000 0.394816 0.394816
1.000000 0.355714 0.355714
0.000000 0.839745 0.531494
0.000000 0.822727 0.507077
0.009503 0.806940 0.481375
0.136697 0.792283 0.449891
0.404193 0.775986 0.404193
0.745442 0.745442 0.418029
0.956797 0.722466 0.362936
1.000000 0.688718 0.304284
1.000000 0.655079 0.268945
0.000000 0.976740 0.442553
0.000000 0.969114 0.415543
0.000000 0.961721 0.384889
0.069990 0.955204 0.343878
0.298326 0.946312 0.298326
0.663212 0.927808 0.306124
0.912291 0.912291 0.323978
1.000000 0.900015 0.287031
1.000000 0.884491 0.245707
0.000000 1.000000 0.342832
0.000000 1.000000 0.315280
0.000000 1.000000 0.285369
0.025992 1.000000 0.243435
0.204333 1.000000 0.204333
0.555918 0.999941 0.202717
0.864357 0.997076 0.228547
0.993378 0.993378 0.238003
1.000000 0.989538 0.219454
0.000000 1.000000 0.249000
0.000000 1.000000 0.223045
0.000000 1.000000 0.198021
0.003310 1.000000 0.158876
0.126372 1.000000 0.126372
0.444593 1.000000 0.123133
0.795160 1.000000 0.141994
0.976608 1.000000 0.163579
1.000000 1.000000 0.163306
0.000000 0.000000 0.993016
0.029441 0.000000 0.989096
0.200435 0.000000 0.984417
0.492543 0.000000 0.978990
0.788057 0.000000 0.972818
0.965902 0.000000 0.965902
1.000000 0.000000 0.958343
1.000000 0.000000 0.950255
1.000000 0.000000 0.941484
0.000000 0.015455 0.976829
0.010795 0.010795 0.970386
0.146469 0.006895 0.963199
0.417151 0.003777 0.955264
0.725365 0.001490 0.946579
0.937142 0.000159 0.937142
1.000000 0.000000 0.927446
1.000000 0.000000 0.918718
1.000000 0.000000 0.907559
0.000000 0.126873 0.952189
0.000883 0.113375 0.943231
0.100621 0.100621 0.933519
0.344115 0.088617 0.923053
0.656703 0.077367 0.911832
0.899857 0.066872 0.899857
0.999573 0.056076 0.889803
1.000000 0.043657 0.883397
1.000000 0.034687 0.869389
0.000000 0.336438 0.919055
0.000000 0.315629 0.907560
0.063238 0.295267 0.895311
0.275394 0.275394 0.882315
0.583707 0.256049 0.868577
0.854106 0.237270 0.854106
0.992795 0.213611 0.846294
1.000000 0.182657 0.840956
1.000000 0.161664 0.822018
0.000000 0.597751 0.877399
0.000000 0.575627 0.863392
0.034381 0.553311 0.848658
0.212626 0.530860 0.833208
0.508330 0.508330 0.817059
0.800230 0.485779 0.800230
0.982889 0.448375 0.794537
1.000000 0.402389 0.777509
1.000000 0.368328 0.749556
0.000000 0.827408 0.827408
0.000000 0.811009 0.811009
0.013978 0.793938 0.793938
0.157047 0.776219 0.776219
0.432714 0.757879 0.757879
0.738949 0.738949 0.738949
0.968192 0.703387 0.703387
1.000000 0.666241 0.666241
1.000000 0.627771 0.627771
0.000000 0.968407 0.771391
0.000000 0.960608 0.751788
0.000380 0.952427 0.731383
0.092736 0.944332 0.708823
0.322989 0.936171 0.680312
0.636966 0.926776 0.636966
0.908319 0.908319 0.650343
1.000000 0.893751 0.595706
1.000000 0.873600 0.547207
0.000000 1.000000 0.699613
0.000000 1.000000 0.675782
0.000000 1.000000 0.650378
0.039280 1.000000 0.617921
0.218468 1.000000 0.575922
0.526632 0.999865 0.526632
0.853647 0.996607 0.535278
0.992160 0.992160 0.554746
1.000000 0.988018 0.525877
0.000000 1.000000 0.613199
0.000000 1.000000 0.585770
0.000000 1.000000 0.557614
0.009581 1.000000 0.516500
0.136418 1.000000 0.465667
0.414630 1.000000 0.414630
0.773979 1.000000 0.416378
0.973571 1.000000 0.450248
1.000000 1.000000 0.456525
0.000000 0.000000 1.000000
0.027176 0.000000 1.000000
0.194636 0.000000 1.000000
0.484886 0.000000 1.000000
0.782037 0.000000 1.000000
0.963383 0.000000 1.000000
1.000000 0.000000 1.000000
1.000000 0.000000 1.000000
1.000000 0.000000 1.000000
0.000000 0.013788 1.000000
0.009385 0.009385 1.000000
0.141464 0.005747 1.000000
0.409636 0.002903 1.000000
0.718680 0.000920 1.000000
0.933766 0.000000 1.000000
1.000000 0.000000 1.000000
1.000000 0.000000 1.000000
1.000000 0.000000 1.000000
0.000000 0.122206 1.000000
0.000438 0.108960 1.000000
0.096460 0.096460 1.000000
0.336952 0.084712 1.000000
0.649501 0.073718 1.000000
0.895620 0.063479 0.999885
0.998624 0.053994 0.998624
1.000000 0.045262 0.996393
1.000000 0.037280 0.993326
0.000000 0.329324 1.000000
0.000000 0.308662 1.000000
0.059939 0.288461 0.999556
0.268763 0.268763 0.997914
0.576171 0.249607 0.995369
0.849027 0.231028 0.992012
0.987882 0.213057 0.987882
1.000000 0.195275 0.983248
1.000000 0.178129 0.977819
0.000000 0.590263 0.997086
0.000000 0.568067 0.994239
0.031939 0.545699 0.990597
0.206672 0.523215 0.986190
0.500671 0.500671 0.981032
0.794364 0.478126 0.975128
0.968480 0.455636 0.968480
1.000000 0.426394 0.964728
1.000000 0.400961 0.956804
0.000000 0.821916 0.984399
0.000000 0.805286 0.978969
0.012388 0.787992 0.972794
0.151872 0.770059 0.965875
0.425152 0.751515 0.958210
0.732392 0.732392 0.949796
0.940630 0.712726 0.940630
1.000000 0.678913 0.937444
1.000000 0.645590 0.925571
0.000000 0.963171 0.963171
0.000000 0.955233 0.955233
0.001483 0.946546 0.946546
0.105131 0.937106 0.937106
0.351766 0.926912 0.926912
0.664299 0.915963 0.915963
0.904260 0.904260 0.904260
1.000000 0.881228 0.881228
1.000000 0.855783 0.855783
0.000000 1.000000 0.934673
0.000000 1.000000 0.923828
0.000000 1.000000 0.912160
0.056228 1.000000 0.899472
0.256253 0.999682 0.884835
0.553679 0.998444 0.865585
0.834761 0.996349 0.834761
0.990853 0.990853 0.844472
1.000000 0.985921 0.812900
0.000000 1.000000 0.894526
0.000000 1.000000 0.880246
0.000000 1.000000 0.864883
0.020740 1.000000 0.846375
0.168544 1.000000 0.822965
0.436976 1.000000 0.790169
0.747966 1.000000 0.747966
0.968714 1.000000 0.758269
1.000000 1.000000 0.771227
0.000000 0.000000 1.000000
0.024997 0.000000 1.000000
0.188914 0.000000 1.000000
0.477233 0.000000 1.000000
0.775946 0.000000 1.000000
0.960779 0.000000 1.000000
1.000000 0.000000 1.000000
1.000000 0.000000 1.000000
1.000000 0.000000 1.000000
0.000000 0.012208 1.000000
0.008062 0.008062 1.000000
0.136542 0.004690 1.000000
0.402148 0.002128 1.000000
0.711936 0.000466 1.000000
0.930303 0.000000 1.000000
1.000000 0.000000 1.000000
1.000000 0.000000 1.000000
1.000000 0.000000 1.000000
0.000000 0.117624 1.000000
0.000128 0.104631 1.000000
0.092386 0.092386 1.000000
0.329834 0.080894 1.000000
0.642255 0.070156 1.000000
0.891296 0.060173 1.000000
0.997966 0.050945 1.000000
1.000000 0.042468 1.000000
1.000000 0.034740 1.000000
0.000000 0.322258 1.000000
0.000000 0.301748 1.000000
0.056726 0.281713 1.000000
0.262195 0.262195 1.000000
0.568612 0.243231 1.000000
0.843865 0.224855 1.000000
0.986307 0.207098 1.000000
1.000000 0.189988 1.000000
1.000000 0.173548 1.000000
0.000000 0.582748 1.000000
0.000000 0.560487 1.000000
0.029582 0.538073 1.000000
0.200793 0.515562 1.000000
0.493012 0.493012 1.000000
0.788423 0.470479 1.000000
0.966053 0.448021 1.000000
1.000000 0.425696 1.000000
1.000000 0.403559 1.000000
0.000000 0.816344 1.000000
0.000000 0.799486 1.000000
0.010884 0.781972 1.000000
0.146778 0.763828 1.000000
0.417612 0.745084 1.000000
0.725772 0.725772 1.000000
0.937346 0.705930 1.000000
1.000000 0.685595 1.000000
1.000000 0.664812 1.000000
0.000000 0.960559 1.000000
0.000000 0.952367 1.000000
0.000914 0.943425 1.000000
0.100879 0.933729 1.000000
0.344555 0.923279 1.000000
0.657143 0.912073 1.000000
0.900114 0.900114 1.000000
0.999204 0.887405 0.999204
1.000000 0.870769 0.997819
0.000000 1.000000 1.000000
0.000000 1.000000 1.000000
0.000000 1.000000 1.000000
0.063443 0.999883 0.999883
0.275802 0.998618 0.998618
0.584167 0.996383 0.996383
0.854414 0.993313 0.993313
0.989458 0.989458 0.989458
1.000000 0.980581 0.980581
0.000000 1.000000 0.999589
0.000000 1.000000 0.997972
0.000000 1.000000 0.995431
0.031208 1.000000 0.992060
0.201209 1.000000 0.987789
0.486270 1.000000 0.982305
0.774243 1.000000 0.974246
0.958998 1.000000 0.958998
1.000000 1.000000 0.963838
0.000000 0.000000 1.000000
0.022903 0.000000 1.000000
0.183269 0.000000 1.000000
0.469587 0.000000 1.000000
0.769782 0.000000 1.000000
0.958088 0.000000 1.000000
1.000000 0.000000 1.000000
1.000000 0.000000 1.000000
1.000000 0.000000 1.000000
0.000000 0.010715 1.000000
0.006829 0.006829 1.000000
0.131704 0.003726 1.000000
0.394688 0.001456 1.000000
0.705133 0.000145 1.000000
0.926752 0.000000 1.000000
1.000000 0.000000 1.000000
1.000000 0.000000 1.000000
1.000000 0.000000 1.000000
0.000000 0.113128 1.000000
0.000000 0.100388 1.000000
0.088399 0.088399 1.000000
0.322765 0.077162 1.000000
0.634969 0.066681 1.000000
0.886886 0.056955 1.000000
0.997204 0.047982 1.000000
1.000000 0.039759 1.000000
1.000000 0.032285 1.000000
0.000000 0.315242 1.000000
0.000000 0.294888 1.000000
0.053601 0.275025 1.000000
0.255691 0.255691 1.000000
0.561034 0.236923 1.000000
0.838622 0.218754 1.000000
0.984645 0.201214 1.000000
1.000000 0.184328 1.000000
1.000000 0.168121 1.000000
0.000000 0.575209 1.000000
0.000000 0.552890 1.000000
0.027312 0.530437 1.000000
0.194989 0.507906 1.000000
0.485355 0.485355 1.000000
0.782408 0.462841 1.000000
0.963540 0.440422 1.000000
1.000000 0.418154 1.000000
1.000000 0.396094 1.000000
0.000000 0.810694 1.000000
0.000000 0.793611 1.000000
0.009468 0.775880 1.000000
0.141768 0.757528 1.000000
0.410096 0.738588 1.000000
0.719091 0.719091 1.000000
0.933975 0.699077 1.000000
1.000000 0.678585 1.000000
1.000000 0.657660 1.000000
0.000000 0.957861 1.000000
0.000000 0.949415 1.000000
0.000462 0.940217 1.000000
0.096713 0.930265 1.000000
0.337389 0.919558 1.000000
0.649943 0.908096 1.000000
0.895882 0.895882 1.000000
0.998661 0.882919 1.000000
1.000000 0.869214 1.000000
0.000000 1.000000 1.000000
0.000000 1.000000 1.000000
0.000000 1.000000 1.000000
0.060138 0.999580 1.000000
0.269167 0.997958 1.000000
0.576633 0.995431 1.000000
0.849340 0.992090 1.000000
0.987976 0.987976 1.000000
1.000000 0.983106 1.000000
0.000000 1.000000 1.000000
0.000000 1.000000 1.000000
0.000000 1.000000 1.000000
0.032086 1.000000 1.000000
0.207034 1.000000 1.000000
0.501140 1.000000 1.000000
0.794725 1.000000 1.000000
0.968626 1.000000 1.000000
1.000000 1.000000 1.000000
