assets/presets/luts/three-strip/lut.cube
TITLE "Three Strip"
LUT_3D_SIZE 5
0.000000 0.000000 0.000000
0.349139 0.000000 0.000000
0.961978 0.000000 0.000000
1.000000 0.000000 0.000000
1.000000 0.000000 0.000000
0.000000 0.171621 0.000000
0.122719 0.122719 0.000000
0.761116 0.090016 0.000000
1.000000 0.052562 0.000000
1.000000 0.025416 0.000000
0.000000 0.689186 0.000000
0.030921 0.617671 0.000000
0.546543 0.546543 0.000000
0.989108 0.498870 0.000000
1.000000 0.437072 0.000000
0.000000 0.994855 0.000000
0.000000 0.981663 0.000000
0.371465 0.954226 0.000000
0.927310 0.927310 0.000000
1.000000 0.904724 0.000000
0.000000 1.000000 0.000000
0.000000 1.000000 0.000000
0.182605 1.000000 0.000000
0.831479 1.000000 0.000000
1.000000 1.000000 0.000000
0.000000 0.000000 0.255187
0.218282 0.000000 0.218282
0.879628 0.000000 0.211560
1.000000 0.000000 0.177508
1.000000 0.000000 0.129647
0.000000 0.141381 0.141381
0.113622 0.113622 0.113622
0.792575 0.071059 0.071059
1.000000 0.038323 0.038323
1.000000 0.015343 0.015343
0.000000 0.655039 0.045117
0.019896 0.604645 0.019896
0.531283 0.531283 0.027559
0.989147 0.477763 0.003888
1.000000 0.409931 0.000000
0.000000 0.990638 0.000000
0.000000 0.976492 0.000000
0.349566 0.948076 0.000000
0.919974 0.919974 0.000000
1.000000 0.896119 0.000000
0.000000 1.000000 0.000000
0.000000 1.000000 0.000000
0.166767 1.000000 0.000000
0.818887 1.000000 0.000000
1.000000 1.000000 0.000000
0.000000 0.000000 0.858165
0.206310 0.000000 0.827467
0.794002 0.000000 0.794002
1.000000 0.000000 0.781516
1.000000 0.000000 0.745045
0.000000 0.131624 0.744222
0.104868 0.104868 0.705020
0.663862 0.081103 0.663862
1.000000 0.048254 0.649924
1.000000 0.024694 0.599664
0.000000 0.605211 0.605211
0.036909 0.560908 0.560908
0.515987 0.515987 0.515987
0.998475 0.434778 0.434778
1.000000 0.355714 0.355714
0.000000 0.976740 0.442553
0.000000 0.961721 0.384889
0.298326 0.946312 0.298326
0.912291 0.912291 0.323978
1.000000 0.884491 0.245707
0.000000 1.000000 0.249000
0.000000 1.000000 0.198021
0.126372 1.000000 0.126372
0.795160 1.000000 0.141994
1.000000 1.000000 0.163306
0.000000 0.000000 1.000000
0.194636 0.000000 1.000000
0.782037 0.000000 1.000000
1.000000 0.000000 1.000000
1.000000 0.000000 1.000000
0.000000 0.122206 1.000000
0.096460 0.096460 1.000000
0.649501 0.073718 1.000000
0.998624 0.053994 0.998624
1.000000 0.037280 0.993326
0.000000 0.590263 0.997086
0.031939 0.545699 0.990597
0.500671 0.500671 0.981032
0.968480 0.455636 0.968480
1.000000 0.400961 0.956804
0.000000 0.963171 0.963171
0.001483 0.946546 0.946546
0.351766 0.926912 0.926912
0.904260 0.904260 0.904260
1.000000 0.855783 0.855783
0.000000 1.000000 0.894526
0.000000 1.000000 0.864883
0.168544 1.000000 0.822965
0.747966 1.000000 0.747966
1.000000 1.000000 0.771227
0.000000 0.000000 1.000000
0.183269 0.000000 1.000000
0.769782 0.000000 1.000000
1.000000 0.000000 1.000000
1.000000 0.000000 1.000000
0.000000 0.113128 1.000000
0.088399 0.088399 1.000000
0.634969 0.066681 1.000000
0.997204 0.047982 1.000000
1.000000 0.032285 1.000000
0.000000 0.575209 1.000000
0.027312 0.530437 1.000000
0.485355 0.485355 1.000000
0.963540 0.440422 1.000000
1.000000 0.396094 1.000000
0.000000 0.957861 1.000000
0.000462 0.940217 1.000000
0.337389 0.919558 1.000000
0.895882 0.895882 1.000000
1.000000 0.869214 1.000000
0.000000 1.000000 1.000000
0.000000 1.000000 1.000000
0.207034 1.000000 1.000000
0.794725 1.000000 1.000000
1.000000 1.000000 1.000000
