assets/presets/luts/matte-pastel/lut.cube
TITLE "Matte Pastel"
LUT_3D_SIZE 17
0.190061 0.189092 0.190061
0.229804 0.190212 0.191180
0.269548 0.191332 0.192300
0.309292 0.192451 0.193420
0.349035 0.193571 0.194539
0.388779 0.194691 0.195659
0.428523 0.195811 0.196779
0.468266 0.196930 0.197899
0.508010 0.198050 0.199018
0.547754 0.199170 0.200138
0.587497 0.200290 0.201258
0.627241 0.201409 0.202378
0.666985 0.202529 0.203497
0.706728 0.203649 0.204617
0.746472 0.204768 0.205737
0.786216 0.205888 0.206857
0.825959 0.207008 0.207976
0.193832 0.231537 0.193832
0.233576 0.232657 0.194952
0.273320 0.233777 0.196072
0.313063 0.234897 0.197191
0.352807 0.236016 0.198311
0.392551 0.237136 0.199431
0.432294 0.238256 0.200551
0.472038 0.239376 0.201670
0.511782 0.240495 0.202790
0.551525 0.241615 0.203910
0.591269 0.242735 0.205030
0.631013 0.243855 0.206149
0.670756 0.244974 0.207269
0.710500 0.246094 0.208389
0.750244 0.247214 0.209509
0.789987 0.248333 0.210628
0.829731 0.249453 0.211748
0.197604 0.273983 0.197604
0.237348 0.275102 0.198724
0.277091 0.276222 0.199843
0.316835 0.277342 0.200963
0.356579 0.278462 0.202083
0.396322 0.279581 0.203203
0.436066 0.280701 0.204322
0.475810 0.281821 0.205442
0.515553 0.282941 0.206562
0.555297 0.284060 0.207682
0.595041 0.285180 0.208801
0.634784 0.286300 0.209921
0.674528 0.287420 0.211041
0.714272 0.288539 0.212161
0.754015 0.289659 0.213280
0.793759 0.290779 0.214400
0.833503 0.291899 0.215520
0.201376 0.316428 0.201376
0.241119 0.317548 0.202495
0.280863 0.318667 0.203615
0.320607 0.319787 0.204735
0.360350 0.320907 0.205855
0.400094 0.322027 0.206974
0.439838 0.323146 0.208094
0.479581 0.324266 0.209214
0.519325 0.325386 0.210334
0.559069 0.326506 0.211453
0.598812 0.327625 0.212573
0.638556 0.328745 0.213693
0.678300 0.329865 0.214813
0.718043 0.330985 0.215932
0.757787 0.332104 0.217052
0.797531 0.333224 0.218172
0.837274 0.334344 0.219292
0.205147 0.358873 0.205147
0.244891 0.359993 0.206267
0.284635 0.361113 0.207387
0.324378 0.362232 0.208507
0.364122 0.363352 0.209626
0.403866 0.364472 0.210746
0.443609 0.365592 0.211866
0.483353 0.366711 0.212986
0.523097 0.367831 0.214105
0.562840 0.368951 0.215225
0.602584 0.370071 0.216345
0.642328 0.371190 0.217465
0.682071 0.372310 0.218584
0.721815 0.373430 0.219704
0.761559 0.374550 0.220824
0.801302 0.375669 0.221944
0.841046 0.376789 0.223063
0.208919 0.401318 0.208919
0.248663 0.402438 0.210039
0.288406 0.403558 0.211159
0.328150 0.404678 0.212278
0.367894 0.405797 0.213398
0.407638 0.406917 0.214518
0.447381 0.408037 0.215638
0.487125 0.409157 0.216757
0.526869 0.410276 0.217877
0.566612 0.411396 0.218997
0.606356 0.412516 0.220117
0.646100 0.413636 0.221236
0.685843 0.414755 0.222356
0.725587 0.415875 0.223476
0.765331 0.416995 0.224596
0.805074 0.418115 0.225715
0.844818 0.419234 0.226835
0.212691 0.443764 0.212691
0.252435 0.444883 0.213811
0.292178 0.446003 0.214930
0.331922 0.447123 0.216050
0.371666 0.448243 0.217170
0.411409 0.449362 0.218290
0.451153 0.450482 0.219409
0.490897 0.451602 0.220529
0.530640 0.452722 0.221649
0.570384 0.453841 0.222769
0.610128 0.454961 0.223888
0.649871 0.456081 0.225008
0.689615 0.457201 0.226128
0.729359 0.458320 0.227248
0.769102 0.459440 0.228367
0.808846 0.460560 0.229487
0.848590 0.461680 0.230607
0.216463 0.486209 0.216463
0.256206 0.487329 0.217582
0.295950 0.488449 0.218702
0.335694 0.489568 0.219822
0.375437 0.490688 0.220942
0.415181 0.491808 0.222061
0.454925 0.492927 0.223181
0.494668 0.494047 0.224301
0.534412 0.495167 0.225421
0.574156 0.496287 0.226540
0.613899 0.497406 0.227660
0.653643 0.498526 0.228780
0.693387 0.499646 0.229900
0.733130 0.500766 0.231019
0.772874 0.501885 0.232139
0.812618 0.503005 0.233259
0.852361 0.504125 0.234378
0.220234 0.528654 0.220234
0.259978 0.529774 0.221354
0.299722 0.530894 0.222474
0.339465 0.532014 0.223594
0.379209 0.533133 0.224713
0.418953 0.534253 0.225833
0.458696 0.535373 0.226953
0.498440 0.536493 0.228073
0.538184 0.537612 0.229192
0.577927 0.538732 0.230312
0.617671 0.539852 0.231432
0.657415 0.540971 0.232552
0.697158 0.542091 0.233671
0.736902 0.543211 0.234791
0.776646 0.544331 0.235911
0.816389 0.545450 0.237030
0.856133 0.546570 0.238150
0.224006 0.571100 0.224006
0.263750 0.572219 0.225126
0.303493 0.573339 0.226246
0.343237 0.574459 0.227365
0.382981 0.575579 0.228485
0.422724 0.576698 0.229605
0.462468 0.577818 0.230725
0.502212 0.578938 0.231844
0.541955 0.580058 0.232964
0.581699 0.581177 0.234084
0.621443 0.582297 0.235203
0.661186 0.583417 0.236323
0.700930 0.584536 0.237443
0.740674 0.585656 0.238563
0.780417 0.586776 0.239682
0.820161 0.587896 0.240802
0.859905 0.589015 0.241922
0.227778 0.613545 0.227778
0.267521 0.614665 0.228898
0.307265 0.615784 0.230017
0.347009 0.616904 0.231137
0.386752 0.618024 0.232257
0.426496 0.619144 0.233376
0.466240 0.620263 0.234496
0.505983 0.621383 0.235616
0.545727 0.622503 0.236736
0.585471 0.623623 0.237855
0.625214 0.624742 0.238975
0.664958 0.625862 0.240095
0.704702 0.626982 0.241215
0.744446 0.628102 0.242334
0.784189 0.629221 0.243454
0.823933 0.630341 0.244574
0.863676 0.631461 0.245694
0.231550 0.655990 0.231550
0.271293 0.657110 0.232669
0.311037 0.658230 0.233789
0.350781 0.659349 0.234909
0.390524 0.660469 0.236028
0.430268 0.661589 0.237148
0.470012 0.662709 0.238268
0.509755 0.663828 0.239388
0.549499 0.664948 0.240507
0.589243 0.666068 0.241627
0.628986 0.667188 0.242747
0.668730 0.668307 0.243867
0.708474 0.669427 0.244986
0.748217 0.670547 0.246106
0.787961 0.671667 0.247226
0.827705 0.672786 0.248346
0.867448 0.673906 0.249465
0.235321 0.698435 0.235321
0.275065 0.699555 0.236441
0.314809 0.700675 0.237561
0.354552 0.701795 0.238680
0.394296 0.702914 0.239800
0.434040 0.704034 0.240920
0.473783 0.705154 0.242040
0.513527 0.706274 0.243159
0.553271 0.707393 0.244279
0.593014 0.708513 0.245399
0.632758 0.709633 0.246519
0.672502 0.710753 0.247638
0.712245 0.711872 0.248758
0.751989 0.712992 0.249878
0.791733 0.714112 0.250998
0.831476 0.715232 0.252117
0.871220 0.716351 0.253237
0.239093 0.740881 0.239093
0.278837 0.742000 0.240213
0.318580 0.743120 0.241332
0.358324 0.744240 0.242452
0.398068 0.745360 0.243572
0.437811 0.746479 0.244692
0.477555 0.747599 0.245811
0.517299 0.748719 0.246931
0.557042 0.749839 0.248051
0.596786 0.750958 0.249171
0.636530 0.752078 0.250290
0.676273 0.753198 0.251410
0.716017 0.754318 0.252530
0.755761 0.755437 0.253650
0.795504 0.756557 0.254769
0.835248 0.757677 0.255889
0.874992 0.758797 0.257009
0.242865 0.783326 0.242865
0.282608 0.784446 0.243984
0.322352 0.785565 0.245104
0.362096 0.786685 0.246224
0.401839 0.787805 0.247344
0.441583 0.788925 0.248463
0.481327 0.790044 0.249583
0.521070 0.791164 0.250703
0.560814 0.792284 0.251823
0.600558 0.793404 0.252942
0.640301 0.794523 0.254062
0.680045 0.795643 0.255182
0.719789 0.796763 0.256302
0.759532 0.797883 0.257421
0.799276 0.799002 0.258541
0.839020 0.800122 0.259661
0.878763 0.801242 0.260781
0.246636 0.825771 0.246636
0.286380 0.826891 0.247756
0.326124 0.828011 0.248876
0.365867 0.829130 0.249996
0.405611 0.830250 0.251115
0.445355 0.831370 0.252235
0.485098 0.832490 0.253355
0.524842 0.833609 0.254475
0.564586 0.834729 0.255594
0.604329 0.835849 0.256714
0.644073 0.836969 0.257834
0.683817 0.838088 0.258954
0.723560 0.839208 0.260073
0.763304 0.840328 0.261193
0.803048 0.841448 0.262313
0.842791 0.842567 0.263433
0.882535 0.843687 0.264552
0.250408 0.868217 0.250408
0.290152 0.869336 0.251528
0.329895 0.870456 0.252648
0.369639 0.871576 0.253767
0.409383 0.872696 0.254887
0.449126 0.873815 0.256007
0.488870 0.874935 0.257127
0.528614 0.876055 0.258246
0.568358 0.877174 0.259366
0.608101 0.878294 0.260486
0.647845 0.879414 0.261606
0.687589 0.880534 0.262725
0.727332 0.881653 0.263845
0.767076 0.882773 0.264965
0.806819 0.883893 0.266085
0.846563 0.885013 0.267204
0.886307 0.886132 0.268324
0.190441 0.189472 0.229065
0.230184 0.190592 0.230184
0.269928 0.191712 0.231304
0.309672 0.192832 0.232424
0.349415 0.193951 0.233544
0.389159 0.195071 0.234663
0.428903 0.196191 0.235783
0.468646 0.197311 0.236903
0.508390 0.198430 0.238023
0.548134 0.199550 0.239142
0.587878 0.200670 0.240262
0.627621 0.201790 0.241382
0.667365 0.202909 0.242502
0.707108 0.204029 0.243621
0.746852 0.205149 0.244741
0.786596 0.206268 0.245861
0.826340 0.207388 0.246981
0.194213 0.231918 0.232836
0.233956 0.233037 0.233956
0.273700 0.234157 0.235076
0.313444 0.235277 0.236196
0.353187 0.236397 0.237315
0.392931 0.237516 0.238435
0.432675 0.238636 0.239555
0.472418 0.239756 0.240675
0.512162 0.240876 0.241794
0.551906 0.241995 0.242914
0.591649 0.243115 0.244034
0.631393 0.244235 0.245154
0.671137 0.245355 0.246273
0.710880 0.246474 0.247393
0.750624 0.247594 0.248513
0.790368 0.248714 0.249633
0.830111 0.249834 0.250752
0.197984 0.274363 0.236608
0.237728 0.275483 0.237728
0.277472 0.276602 0.238848
0.317215 0.277722 0.239967
0.356959 0.278842 0.241087
0.396703 0.279962 0.242207
0.436446 0.281081 0.243327
0.476190 0.282201 0.244446
0.515934 0.283321 0.245566
0.555677 0.284441 0.246686
0.595421 0.285560 0.247806
0.635165 0.286680 0.248925
0.674908 0.287800 0.250045
0.714652 0.288920 0.251165
0.754396 0.290039 0.252285
0.794139 0.291159 0.253404
0.833883 0.292279 0.254524
0.201756 0.316808 0.240380
0.241500 0.317928 0.241500
0.281243 0.319048 0.242619
0.320987 0.320167 0.243739
0.360731 0.321287 0.244859
0.400474 0.322407 0.245979
0.440218 0.323527 0.247098
0.479962 0.324646 0.248218
0.519705 0.325766 0.249338
0.559449 0.326886 0.250458
0.599193 0.328006 0.251577
0.638936 0.329125 0.252697
0.678680 0.330245 0.253817
0.718424 0.331365 0.254937
0.758167 0.332485 0.256056
0.797911 0.333604 0.257176
0.837655 0.334724 0.258296
0.205528 0.359253 0.244152
0.245271 0.360373 0.245271
0.285015 0.361493 0.246391
0.324759 0.362613 0.247511
0.364502 0.363732 0.248631
0.404246 0.364852 0.249750
0.443990 0.365972 0.250870
0.483733 0.367092 0.251990
0.523477 0.368211 0.253110
0.563221 0.369331 0.254229
0.602964 0.370451 0.255349
0.642708 0.371571 0.256469
0.682452 0.372690 0.257589
0.722195 0.373810 0.258708
0.761939 0.374930 0.259828
0.801683 0.376050 0.260948
0.841426 0.377169 0.262067
0.209299 0.401699 0.247923
0.249043 0.402818 0.249043
0.288787 0.403938 0.250163
0.328530 0.405058 0.251283
0.368274 0.406178 0.252402
0.408018 0.407297 0.253522
0.447761 0.408417 0.254642
0.487505 0.409537 0.255762
0.527249 0.410657 0.256881
0.566992 0.411776 0.258001
0.606736 0.412896 0.259121
0.646480 0.414016 0.260241
0.686223 0.415136 0.261360
0.725967 0.416255 0.262480
0.765711 0.417375 0.263600
0.805454 0.418495 0.264719
0.845198 0.419615 0.265839
0.213071 0.444144 0.251695
0.252815 0.445264 0.252815
0.292558 0.446384 0.253935
0.332302 0.447503 0.255054
0.372046 0.448623 0.256174
0.411790 0.449743 0.257294
0.451533 0.450862 0.258414
0.491277 0.451982 0.259533
0.531021 0.453102 0.260653
0.570764 0.454222 0.261773
0.610508 0.455341 0.262892
0.650252 0.456461 0.264012
0.689995 0.457581 0.265132
0.729739 0.458701 0.266252
0.769483 0.459820 0.267371
0.809226 0.460940 0.268491
0.848970 0.462060 0.269611
0.216843 0.486589 0.255467
0.256587 0.487709 0.256587
0.296330 0.488829 0.257706
0.336074 0.489949 0.258826
0.375818 0.491068 0.259946
0.415561 0.492188 0.261066
0.455305 0.493308 0.262185
0.495049 0.494428 0.263305
0.534792 0.495547 0.264425
0.574536 0.496667 0.265544
0.614280 0.497787 0.266664
0.654023 0.498906 0.267784
0.693767 0.500026 0.268904
0.733511 0.501146 0.270023
0.773254 0.502266 0.271143
0.812998 0.503385 0.272263
0.852742 0.504505 0.273383
0.220615 0.529035 0.259239
0.260358 0.530154 0.260358
0.300102 0.531274 0.261478
0.339846 0.532394 0.262598
0.379589 0.533514 0.263718
0.419333 0.534633 0.264837
0.459077 0.535753 0.265957
0.498820 0.536873 0.267077
0.538564 0.537993 0.268196
0.578308 0.539112 0.269316
0.618051 0.540232 0.270436
0.657795 0.541352 0.271556
0.697539 0.542471 0.272675
0.737282 0.543591 0.273795
0.777026 0.544711 0.274915
0.816770 0.545831 0.276035
0.856513 0.546950 0.277154
0.224386 0.571480 0.263010
0.264130 0.572600 0.264130
0.303874 0.573719 0.265250
0.343617 0.574839 0.266369
0.383361 0.575959 0.267489
0.423105 0.577079 0.268609
0.462848 0.578198 0.269729
0.502592 0.579318 0.270848
0.542336 0.580438 0.271968
0.582079 0.581558 0.273088
0.621823 0.582677 0.274208
0.661567 0.583797 0.275327
0.701310 0.584917 0.276447
0.741054 0.586037 0.277567
0.780798 0.587156 0.278687
0.820541 0.588276 0.279806
0.860285 0.589396 0.280926
0.228158 0.613925 0.266782
0.267902 0.615045 0.267902
0.307645 0.616165 0.269021
0.347389 0.617284 0.270141
0.387133 0.618404 0.271261
0.426876 0.619524 0.272381
0.466620 0.620644 0.273500
0.506364 0.621763 0.274620
0.546107 0.622883 0.275740
0.585851 0.624003 0.276860
0.625595 0.625123 0.277979
0.665338 0.626242 0.279099
0.705082 0.627362 0.280219
0.744826 0.628482 0.281339
0.784569 0.629602 0.282458
0.824313 0.630721 0.283578
0.864057 0.631841 0.284698
0.231930 0.656370 0.270554
0.271673 0.657490 0.271673
0.311417 0.658610 0.272793
0.351161 0.659730 0.273913
0.390904 0.660849 0.275033
0.430648 0.661969 0.276152
0.470392 0.663089 0.277272
0.510135 0.664209 0.278392
0.549879 0.665328 0.279512
0.589623 0.666448 0.280631
0.629366 0.667568 0.281751
0.669110 0.668688 0.282871
0.708854 0.669807 0.283991
0.748598 0.670927 0.285110
0.788341 0.672047 0.286230
0.828085 0.673167 0.287350
0.867828 0.674286 0.288470
0.235702 0.698816 0.274325
0.275445 0.699935 0.275445
0.315189 0.701055 0.276565
0.354933 0.702175 0.277685
0.394676 0.703295 0.278804
0.434420 0.704414 0.279924
0.474164 0.705534 0.281044
0.513907 0.706654 0.282164
0.553651 0.707774 0.283283
0.593395 0.708893 0.284403
0.633138 0.710013 0.285523
0.672882 0.711133 0.286643
0.712626 0.712253 0.287762
0.752369 0.713372 0.288882
0.792113 0.714492 0.290002
0.831857 0.715612 0.291122
0.871600 0.716732 0.292241
0.239473 0.741261 0.278097
0.279217 0.742381 0.279217
0.318961 0.743500 0.280337
0.358704 0.744620 0.281456
0.398448 0.745740 0.282576
0.438192 0.746860 0.283696
0.477935 0.747979 0.284816
0.517679 0.749099 0.285935
0.557423 0.750219 0.287055
0.597166 0.751339 0.288175
0.636910 0.752458 0.289295
0.676654 0.753578 0.290414
0.716397 0.754698 0.291534
0.756141 0.755818 0.292654
0.795885 0.756937 0.293774
0.835628 0.758057 0.294893
0.875372 0.759177 0.296013
0.243245 0.783706 0.281869
0.282989 0.784826 0.282989
0.322732 0.785946 0.284108
0.362476 0.787065 0.285228
0.402220 0.788185 0.286348
0.441963 0.789305 0.287468
0.481707 0.790425 0.288587
0.521451 0.791544 0.289707
0.561194 0.792664 0.290827
0.600938 0.793784 0.291947
0.640682 0.794904 0.293066
0.680425 0.796023 0.294186
0.720169 0.797143 0.295306
0.759913 0.798263 0.296426
0.799656 0.799383 0.297545
0.839400 0.800502 0.298665
0.879144 0.801622 0.299785
0.247017 0.826151 0.285641
0.286760 0.827271 0.286760
0.326504 0.828391 0.287880
0.366248 0.829511 0.289000
0.405991 0.830630 0.290120
0.445735 0.831750 0.291239
0.485479 0.832870 0.292359
0.525222 0.833990 0.293479
0.564966 0.835109 0.294599
0.604710 0.836229 0.295718
0.644453 0.837349 0.296838
0.684197 0.838469 0.297958
0.723941 0.839588 0.299078
0.763684 0.840708 0.300197
0.803428 0.841828 0.301317
0.843172 0.842948 0.302437
0.882915 0.844067 0.303557
0.250788 0.868597 0.289412
0.290532 0.869717 0.290532
0.330276 0.870836 0.291652
0.370019 0.871956 0.292772
0.409763 0.873076 0.293891
0.449507 0.874196 0.295011
0.489250 0.875315 0.296131
0.528994 0.876435 0.297251
0.568738 0.877555 0.298370
0.608481 0.878675 0.299490
0.648225 0.879794 0.300610
0.687969 0.880914 0.301730
0.727712 0.882034 0.302849
0.767456 0.883153 0.303969
0.807200 0.884273 0.305089
0.846943 0.885393 0.306208
0.886687 0.886513 0.307328
0.190821 0.189853 0.268069
0.230565 0.190972 0.269189
0.270308 0.192092 0.270308
0.310052 0.193212 0.271428
0.349796 0.194332 0.272548
0.389539 0.195451 0.273668
0.429283 0.196571 0.274787
0.469027 0.197691 0.275907
0.508770 0.198811 0.277027
0.548514 0.199930 0.278147
0.588258 0.201050 0.279266
0.628001 0.202170 0.280386
0.667745 0.203290 0.281506
0.707489 0.204409 0.282626
0.747232 0.205529 0.283745
0.786976 0.206649 0.284865
0.826720 0.207768 0.285985
0.194593 0.232298 0.271841
0.234336 0.233418 0.272960
0.274080 0.234537 0.274080
0.313824 0.235657 0.275200
0.353567 0.236777 0.276320
0.393311 0.237897 0.277439
0.433055 0.239016 0.278559
0.472798 0.240136 0.279679
0.512542 0.241256 0.280799
0.552286 0.242376 0.281918
0.592030 0.243495 0.283038
0.631773 0.244615 0.284158
0.671517 0.245735 0.285278
0.711260 0.246855 0.286397
0.751004 0.247974 0.287517
0.790748 0.249094 0.288637
0.830492 0.250214 0.289757
0.198365 0.274743 0.275612
0.238108 0.275863 0.276732
0.277852 0.276983 0.277852
0.317596 0.278102 0.278972
0.357339 0.279222 0.280091
0.397083 0.280342 0.281211
0.436827 0.281462 0.282331
0.476570 0.282581 0.283451
0.516314 0.283701 0.284570
0.556058 0.284821 0.285690
0.595801 0.285941 0.286810
0.635545 0.287060 0.287930
0.675289 0.288180 0.289049
0.715032 0.289300 0.290169
0.754776 0.290420 0.291289
0.794520 0.291539 0.292408
0.834263 0.292659 0.293528
0.202136 0.317188 0.279384
0.241880 0.318308 0.280504
0.281624 0.319428 0.281624
0.321367 0.320548 0.282743
0.361111 0.321667 0.283863
0.400855 0.322787 0.284983
0.440598 0.323907 0.286103
0.480342 0.325027 0.287222
0.520086 0.326146 0.288342
0.559829 0.327266 0.289462
0.599573 0.328386 0.290582
0.639317 0.329506 0.291701
0.679060 0.330625 0.292821
0.718804 0.331745 0.293941
0.758548 0.332865 0.295060
0.798291 0.333985 0.296180
0.838035 0.335104 0.297300
0.205908 0.359634 0.283156
0.245652 0.360753 0.284276
0.285395 0.361873 0.285395
0.325139 0.362993 0.286515
0.364883 0.364113 0.287635
0.404626 0.365232 0.288755
0.444370 0.366352 0.289874
0.484114 0.367472 0.290994
0.523857 0.368592 0.292114
0.563601 0.369711 0.293234
0.603345 0.370831 0.294353
0.643088 0.371951 0.295473
0.682832 0.373071 0.296593
0.722576 0.374190 0.297712
0.762319 0.375310 0.298832
0.802063 0.376430 0.299952
0.841807 0.377550 0.301072
0.209680 0.402079 0.286928
0.249423 0.403199 0.288047
0.289167 0.404318 0.289167
0.328911 0.405438 0.290287
0.368654 0.406558 0.291407
0.408398 0.407678 0.292526
0.448142 0.408797 0.293646
0.487885 0.409917 0.294766
0.527629 0.411037 0.295885
0.567373 0.412157 0.297005
0.607116 0.413276 0.298125
0.646860 0.414396 0.299245
0.686604 0.415516 0.300364
0.726347 0.416636 0.301484
0.766091 0.417755 0.302604
0.805835 0.418875 0.303724
0.845578 0.419995 0.304843
0.213451 0.444524 0.290699
0.253195 0.445644 0.291819
0.292939 0.446764 0.292939
0.332682 0.447884 0.294059
0.372426 0.449003 0.295178
0.412170 0.450123 0.296298
0.451913 0.451243 0.297418
0.491657 0.452362 0.298537
0.531401 0.453482 0.299657
0.571144 0.454602 0.300777
0.610888 0.455722 0.301897
0.650632 0.456841 0.303016
0.690375 0.457961 0.304136
0.730119 0.459081 0.305256
0.769863 0.460201 0.306376
0.809606 0.461320 0.307495
0.849350 0.462440 0.308615
0.217223 0.486970 0.294471
0.256967 0.488089 0.295591
0.296710 0.489209 0.296710
0.336454 0.490329 0.297830
0.376198 0.491449 0.298950
0.415942 0.492568 0.300070
0.455685 0.493688 0.301189
0.495429 0.494808 0.302309
0.535173 0.495928 0.303429
0.574916 0.497047 0.304549
0.614660 0.498167 0.305668
0.654404 0.499287 0.306788
0.694147 0.500407 0.307908
0.733891 0.501526 0.309028
0.773635 0.502646 0.310147
0.813378 0.503766 0.311267
0.853122 0.504885 0.312387
0.220995 0.529415 0.298243
0.260739 0.530535 0.299362
0.300482 0.531654 0.300482
0.340226 0.532774 0.301602
0.379970 0.533894 0.302722
0.419713 0.535014 0.303841
0.459457 0.536133 0.304961
0.499201 0.537253 0.306081
0.538944 0.538373 0.307201
0.578688 0.539493 0.308320
0.618432 0.540612 0.309440
0.658175 0.541732 0.310560
0.697919 0.542852 0.311680
0.737663 0.543971 0.312799
0.777406 0.545091 0.313919
0.817150 0.546211 0.315039
0.856894 0.547331 0.316159
0.224767 0.571860 0.302014
0.264510 0.572980 0.303134
0.304254 0.574100 0.304254
0.343998 0.575219 0.305374
0.383741 0.576339 0.306493
0.423485 0.577459 0.307613
0.463229 0.578579 0.308733
0.502972 0.579698 0.309853
0.542716 0.580818 0.310972
0.582460 0.581938 0.312092
0.622203 0.583058 0.313212
0.661947 0.584177 0.314332
0.701691 0.585297 0.315451
0.741434 0.586417 0.316571
0.781178 0.587537 0.317691
0.820922 0.588656 0.318811
0.860665 0.589776 0.319930
0.228538 0.614305 0.305786
0.268282 0.615425 0.306906
0.308026 0.616545 0.308026
0.347769 0.617665 0.309145
0.387513 0.618784 0.310265
0.427257 0.619904 0.311385
0.467000 0.621024 0.312505
0.506744 0.622144 0.313624
0.546488 0.623263 0.314744
0.586231 0.624383 0.315864
0.625975 0.625503 0.316984
0.665719 0.626623 0.318103
0.705462 0.627742 0.319223
0.745206 0.628862 0.320343
0.784950 0.629982 0.321463
0.824693 0.631102 0.322582
0.864437 0.632221 0.323702
0.232310 0.656751 0.309558
0.272054 0.657870 0.310678
0.311797 0.658990 0.311797
0.351541 0.660110 0.312917
0.391285 0.661230 0.314037
0.431028 0.662349 0.315157
0.470772 0.663469 0.316276
0.510516 0.664589 0.317396
0.550259 0.665709 0.318516
0.590003 0.666828 0.319636
0.629747 0.667948 0.320755
0.669490 0.669068 0.321875
0.709234 0.670188 0.322995
0.748978 0.671307 0.324115
0.788721 0.672427 0.325234
0.828465 0.673547 0.326354
0.868209 0.674667 0.327474
0.236082 0.699196 0.313330
0.275825 0.700316 0.314449
0.315569 0.701435 0.315569
0.355313 0.702555 0.316689
0.395056 0.703675 0.317809
0.434800 0.704795 0.318928
0.474544 0.705914 0.320048
0.514287 0.707034 0.321168
0.554031 0.708154 0.322288
0.593775 0.709274 0.323407
0.633518 0.710393 0.324527
0.673262 0.711513 0.325647
0.713006 0.712633 0.326767
0.752750 0.713753 0.327886
0.792493 0.714872 0.329006
0.832237 0.715992 0.330126
0.871980 0.717112 0.331246
0.239854 0.741641 0.317101
0.279597 0.742761 0.318221
0.319341 0.743881 0.319341
0.359085 0.745000 0.320461
0.398828 0.746120 0.321580
0.438572 0.747240 0.322700
0.478316 0.748360 0.323820
0.518059 0.749479 0.324940
0.557803 0.750599 0.326059
0.597547 0.751719 0.327179
0.637290 0.752839 0.328299
0.677034 0.753958 0.329419
0.716778 0.755078 0.330538
0.756521 0.756198 0.331658
0.796265 0.757318 0.332778
0.836009 0.758437 0.333898
0.875752 0.759557 0.335017
0.243625 0.784087 0.320873
0.283369 0.785206 0.321993
0.323113 0.786326 0.323113
0.362856 0.787446 0.324232
0.402600 0.788565 0.325352
0.442344 0.789685 0.326472
0.482087 0.790805 0.327592
0.521831 0.791925 0.328711
0.561575 0.793044 0.329831
0.601318 0.794164 0.330951
0.641062 0.795284 0.332070
0.680806 0.796404 0.333190
0.720549 0.797523 0.334310
0.760293 0.798643 0.335430
0.800037 0.799763 0.336549
0.839780 0.800883 0.337669
0.879524 0.802002 0.338789
0.247397 0.826532 0.324645
0.287141 0.827652 0.325765
0.326884 0.828771 0.326884
0.366628 0.829891 0.328004
0.406372 0.831011 0.329124
0.446115 0.832130 0.330244
0.485859 0.833250 0.331363
0.525603 0.834370 0.332483
0.565346 0.835490 0.333603
0.605090 0.836609 0.334722
0.644834 0.837729 0.335842
0.684577 0.838849 0.336962
0.724321 0.839969 0.338082
0.764065 0.841088 0.339201
0.803808 0.842208 0.340321
0.843552 0.843328 0.341441
0.883296 0.844448 0.342561
0.251169 0.868977 0.328417
0.290912 0.870097 0.329536
0.330656 0.871217 0.330656
0.370400 0.872336 0.331776
0.410143 0.873456 0.332895
0.449887 0.874576 0.334015
0.489631 0.875696 0.335135
0.529374 0.876815 0.336255
0.569118 0.877935 0.337374
0.608862 0.879055 0.338494
0.648605 0.880175 0.339614
0.688349 0.881294 0.340734
0.728093 0.882414 0.341853
0.767836 0.883534 0.342973
0.807580 0.884653 0.344093
0.847324 0.885773 0.345213
0.887067 0.886893 0.346332
0.191201 0.190233 0.307073
0.230945 0.191353 0.308193
0.270689 0.192472 0.309313
0.310432 0.193592 0.310432
0.350176 0.194712 0.311552
0.389920 0.195832 0.312672
0.429663 0.196951 0.313792
0.469407 0.198071 0.314911
0.509151 0.199191 0.316031
0.548894 0.200311 0.317151
0.588638 0.201430 0.318271
0.628382 0.202550 0.319390
0.668125 0.203670 0.320510
0.707869 0.204790 0.321630
0.747613 0.205909 0.322749
0.787356 0.207029 0.323869
0.827100 0.208149 0.324989
0.194973 0.232678 0.310845
0.234717 0.233798 0.311965
0.274460 0.234918 0.313084
