assets/presets/luts/matte-pastel/lut.cube
TITLE "Matte Pastel"
LUT_3D_SIZE 9
0.190061 0.189092 0.190061
0.269548 0.191332 0.192300
0.349035 0.193571 0.194539
0.428523 0.195811 0.196779
0.508010 0.198050 0.199018
0.587497 0.200290 0.201258
0.666985 0.202529 0.203497
0.746472 0.204768 0.205737
0.825959 0.207008 0.207976
0.197604 0.273983 0.197604
0.277091 0.276222 0.199843
0.356579 0.278462 0.202083
0.436066 0.280701 0.204322
0.515553 0.282941 0.206562
0.595041 0.285180 0.208801
0.674528 0.287420 0.211041
0.754015 0.289659 0.213280
0.833503 0.291899 0.215520
0.205147 0.358873 0.205147
0.284635 0.361113 0.207387
0.364122 0.363352 0.209626
0.443609 0.365592 0.211866
0.523097 0.367831 0.214105
0.602584 0.370071 0.216345
0.682071 0.372310 0.218584
0.761559 0.374550 0.220824
0.841046 0.376789 0.223063
0.212691 0.443764 0.212691
0.292178 0.446003 0.214930
0.371666 0.448243 0.217170
0.451153 0.450482 0.219409
0.530640 0.452722 0.221649
0.610128 0.454961 0.223888
0.689615 0.457201 0.226128
0.769102 0.459440 0.228367
0.848590 0.461680 0.230607
0.220234 0.528654 0.220234
0.299722 0.530894 0.222474
0.379209 0.533133 0.224713
0.458696 0.535373 0.226953
0.538184 0.537612 0.229192
0.617671 0.539852 0.231432
0.697158 0.542091 0.233671
0.776646 0.544331 0.235911
0.856133 0.546570 0.238150
0.227778 0.613545 0.227778
0.307265 0.615784 0.230017
0.386752 0.618024 0.232257
0.466240 0.620263 0.234496
0.545727 0.622503 0.236736
0.625214 0.624742 0.238975
0.704702 0.626982 0.241215
0.784189 0.629221 0.243454
0.863676 0.631461 0.245694
0.235321 0.698435 0.235321
0.314809 0.700675 0.237561
0.394296 0.702914 0.239800
0.473783 0.705154 0.242040
0.553271 0.707393 0.244279
0.632758 0.709633 0.246519
0.712245 0.711872 0.248758
0.791733 0.714112 0.250998
0.871220 0.716351 0.253237
0.242865 0.783326 0.242865
0.322352 0.785565 0.245104
0.401839 0.787805 0.247344
0.481327 0.790044 0.249583
0.560814 0.792284 0.251823
0.640301 0.794523 0.254062
0.719789 0.796763 0.256302
0.799276 0.799002 0.258541
0.878763 0.801242 0.260781
0.250408 0.868217 0.250408
0.329895 0.870456 0.252648
0.409383 0.872696 0.254887
0.488870 0.874935 0.257127
0.568358 0.877174 0.259366
0.647845 0.879414 0.261606
0.727332 0.881653 0.263845
0.806819 0.883893 0.266085
0.886307 0.886132 0.268324
0.190821 0.189853 0.268069
0.270308 0.192092 0.270308
0.349796 0.194332 0.272548
0.429283 0.196571 0.274787
0.508770 0.198811 0.277027
0.588258 0.201050 0.279266
0.667745 0.203290 0.281506
0.747232 0.205529 0.283745
0.826720 0.207768 0.285985
0.198365 0.274743 0.275612
0.277852 0.276983 0.277852
0.357339 0.279222 0.280091
0.436827 0.281462 0.282331
0.516314 0.283701 0.284570
0.595801 0.285941 0.286810
0.675289 0.288180 0.289049
0.754776 0.290420 0.291289
0.834263 0.292659 0.293528
0.205908 0.359634 0.283156
0.285395 0.361873 0.285395
0.364883 0.364113 0.287635
0.444370 0.366352 0.289874
0.523857 0.368592 0.292114
0.603345 0.370831 0.294353
0.682832 0.373071 0.296593
0.762319 0.375310 0.298832
0.841807 0.377550 0.301072
0.213451 0.444524 0.290699
0.292939 0.446764 0.292939
0.372426 0.449003 0.295178
0.451913 0.451243 0.297418
0.531401 0.453482 0.299657
0.610888 0.455722 0.301897
0.690375 0.457961 0.304136
0.769863 0.460201 0.306376
0.849350 0.462440 0.308615
0.220995 0.529415 0.298243
0.300482 0.531654 0.300482
0.379970 0.533894 0.302722
0.459457 0.536133 0.304961
0.538944 0.538373 0.307201
0.618432 0.540612 0.309440
0.697919 0.542852 0.311680
0.777406 0.545091 0.313919
0.856894 0.547331 0.316159
0.228538 0.614305 0.305786
0.308026 0.616545 0.308026
0.387513 0.618784 0.310265
0.467000 0.621024 0.312505
0.546488 0.623263 0.314744
0.625975 0.625503 0.316984
0.705462 0.627742 0.319223
0.784950 0.629982 0.321463
0.864437 0.632221 0.323702
0.236082 0.699196 0.313330
0.315569 0.701435 0.315569
0.395056 0.703675 0.317809
0.474544 0.705914 0.320048
0.554031 0.708154 0.322288
0.633518 0.710393 0.324527
0.713006 0.712633 0.326767
0.792493 0.714872 0.329006
0.871980 0.717112 0.331246
0.243625 0.784087 0.320873
0.323113 0.786326 0.323113
0.402600 0.788565 0.325352
0.482087 0.790805 0.327592
0.561575 0.793044 0.329831
0.641062 0.795284 0.332070
0.720549 0.797523 0.334310
0.800037 0.799763 0.336549
0.879524 0.802002 0.338789
0.251169 0.868977 0.328417
0.330656 0.871217 0.330656
0.410143 0.873456 0.332895
0.489631 0.875696 0.335135
0.569118 0.877935 0.337374
0.648605 0.880175 0.339614
0.728093 0.882414 0.341853
0.807580 0.884653 0.344093
0.887067 0.886893 0.346332
0.191582 0.190613 0.346077
0.271069 0.192853 0.348317
0.350556 0.195092 0.350556
0.430044 0.197332 0.352796
0.509531 0.199571 0.355035
0.589018 0.201811 0.357275
0.668506 0.204050 0.359514
0.747993 0.206290 0.361754
0.827480 0.208529 0.363993
0.199125 0.275504 0.353621
0.278612 0.277743 0.355860
0.358100 0.279983 0.358100
0.437587 0.282222 0.360339
0.517074 0.284462 0.362579
0.596562 0.286701 0.364818
0.676049 0.288941 0.367058
0.755536 0.291180 0.369297
0.835024 0.293420 0.371537
0.206668 0.360394 0.361164
0.286156 0.362634 0.363404
0.365643 0.364873 0.365643
0.445131 0.367113 0.367883
0.524618 0.369352 0.370122
0.604105 0.371592 0.372362
0.683593 0.373831 0.374601
0.763080 0.376071 0.376841
0.842567 0.378310 0.379080
0.214212 0.445285 0.368708
0.293699 0.447524 0.370947
0.373187 0.449764 0.373187
0.452674 0.452003 0.375426
0.532161 0.454243 0.377666
0.611649 0.456482 0.379905
0.691136 0.458722 0.382145
0.770623 0.460961 0.384384
0.850111 0.463201 0.386624
0.221755 0.530175 0.376251
0.301243 0.532415 0.378491
0.380730 0.534654 0.380730
0.460217 0.536894 0.382970
0.539705 0.539133 0.385209
0.619192 0.541373 0.387449
0.698679 0.543612 0.389688
0.778167 0.545852 0.391928
0.857654 0.548091 0.394167
0.229299 0.615066 0.383795
0.308786 0.617305 0.386034
0.388274 0.619545 0.388274
0.467761 0.621784 0.390513
0.547248 0.624024 0.392752
0.626736 0.626263 0.394992
0.706223 0.628503 0.397231
0.785710 0.630742 0.399471
0.865198 0.632982 0.401710
0.236842 0.699956 0.391338
0.316330 0.702196 0.393578
0.395817 0.704435 0.395817
0.475304 0.706675 0.398056
0.554792 0.708914 0.400296
0.634279 0.711154 0.402535
0.713766 0.713393 0.404775
0.793254 0.715633 0.407014
0.872741 0.717872 0.409254
0.244386 0.784847 0.398881
0.323873 0.787087 0.401121
0.403360 0.789326 0.403360
0.482848 0.791565 0.405600
0.562335 0.793805 0.407839
0.641822 0.796044 0.410079
0.721310 0.798284 0.412318
0.800797 0.800523 0.414558
0.880284 0.802763 0.416797
0.251929 0.869738 0.406425
0.331417 0.871977 0.408664
0.410904 0.874217 0.410904
0.490391 0.876456 0.413143
0.569879 0.878696 0.415383
0.649366 0.880935 0.417622
0.728853 0.883175 0.419862
0.808341 0.885414 0.422101
0.887828 0.887653 0.424341
0.192342 0.191374 0.424086
0.271829 0.193613 0.426325
0.351317 0.195853 0.428565
0.430804 0.198092 0.430804
0.510292 0.200332 0.433044
0.589779 0.202571 0.435283
0.669266 0.204811 0.437523
0.748754 0.207050 0.439762
0.828241 0.209290 0.442002
0.199886 0.276264 0.431629
0.279373 0.278504 0.433869
0.358860 0.280743 0.436108
0.438348 0.282983 0.438348
0.517835 0.285222 0.440587
0.597322 0.287462 0.442827
0.676810 0.289701 0.445066
0.756297 0.291941 0.447306
0.835784 0.294180 0.449545
0.207429 0.361155 0.439173
0.286916 0.363394 0.441412
0.366404 0.365634 0.443652
0.445891 0.367873 0.445891
0.525378 0.370113 0.448131
0.604866 0.372352 0.450370
0.684353 0.374592 0.452610
0.763840 0.376831 0.454849
0.843328 0.379071 0.457089
0.214972 0.446045 0.446716
0.294460 0.448285 0.448956
0.373947 0.450524 0.451195
0.453435 0.452764 0.453435
0.532922 0.455003 0.455674
0.612409 0.457243 0.457913
0.691897 0.459482 0.460153
0.771384 0.461722 0.462392
0.850871 0.463961 0.464632
0.222516 0.530936 0.454260
0.302003 0.533175 0.456499
0.381491 0.535415 0.458738
0.460978 0.537654 0.460978
0.540465 0.539894 0.463217
0.619953 0.542133 0.465457
0.699440 0.544373 0.467696
0.778927 0.546612 0.469936
0.858415 0.548852 0.472175
0.230059 0.615826 0.461803
0.309547 0.618066 0.464042
0.389034 0.620305 0.466282
0.468521 0.622545 0.468521
0.548009 0.624784 0.470761
0.627496 0.627024 0.473000
0.706983 0.629263 0.475240
0.786471 0.631503 0.477479
0.865958 0.633742 0.479719
0.237603 0.700717 0.469346
0.317090 0.702956 0.471586
0.396578 0.705196 0.473825
0.476065 0.707435 0.476065
0.555552 0.709675 0.478304
0.635040 0.711914 0.480544
0.714527 0.714154 0.482783
0.794014 0.716393 0.485023
0.873502 0.718633 0.487262
0.245146 0.785608 0.476890
0.324634 0.787847 0.479129
0.404121 0.790087 0.481369
0.483608 0.792326 0.483608
0.563096 0.794566 0.485848
0.642583 0.796805 0.488087
0.722070 0.799044 0.490327
0.801558 0.801284 0.492566
0.881045 0.803523 0.494806
0.252690 0.870498 0.484433
0.332177 0.872738 0.486673
0.411664 0.874977 0.488912
0.491152 0.877217 0.491152
0.570639 0.879456 0.493391
0.650126 0.881696 0.495631
0.729614 0.883935 0.497870
0.809101 0.886175 0.500110
0.888588 0.888414 0.502349
0.193103 0.192134 0.502094
0.272590 0.194374 0.504334
0.352077 0.196613 0.506573
0.431565 0.198853 0.508813
0.511052 0.201092 0.511052
0.590539 0.203332 0.513292
0.670027 0.205571 0.515531
0.749514 0.207811 0.517771
0.829001 0.210050 0.520010
0.200646 0.277025 0.509638
0.280133 0.279264 0.511877
0.359621 0.281504 0.514117
0.439108 0.283743 0.516356
0.518596 0.285983 0.518596
0.598083 0.288222 0.520835
0.677570 0.290462 0.523074
0.757058 0.292701 0.525314
0.836545 0.294941 0.527553
0.208190 0.361915 0.517181
0.287677 0.364155 0.519421
0.367164 0.366394 0.521660
0.446652 0.368634 0.523899
0.526139 0.370873 0.526139
0.605626 0.373113 0.528378
0.685114 0.375352 0.530618
0.764601 0.377592 0.532857
0.844088 0.379831 0.535097
0.215733 0.446806 0.524724
0.295220 0.449045 0.526964
0.374708 0.451285 0.529203
0.454195 0.453524 0.531443
0.533682 0.455764 0.533682
0.613170 0.458003 0.535922
0.692657 0.460243 0.538161
0.772144 0.462482 0.540401
0.851632 0.464722 0.542640
0.223276 0.531696 0.532268
0.302764 0.533936 0.534507
0.382251 0.536175 0.536747
0.461738 0.538415 0.538986
0.541226 0.540654 0.541226
0.620713 0.542894 0.543465
0.700201 0.545133 0.545705
0.779688 0.547373 0.547944
0.859175 0.549612 0.550184
0.230820 0.616587 0.539811
0.310307 0.618827 0.542051
0.389795 0.621066 0.544290
0.469282 0.623305 0.546530
0.548769 0.625545 0.548769
0.628257 0.627784 0.551009
0.707744 0.630024 0.553248
0.787231 0.632263 0.555488
0.866719 0.634503 0.557727
0.238363 0.701478 0.547355
0.317851 0.703717 0.549594
0.397338 0.705957 0.551834
0.476825 0.708196 0.554073
0.556313 0.710436 0.556313
0.635800 0.712675 0.558552
0.715287 0.714915 0.560792
0.794775 0.717154 0.563031
0.874262 0.719393 0.565271
0.245907 0.786368 0.554898
0.325394 0.788608 0.557138
0.404882 0.790847 0.559377
0.484369 0.793087 0.561617
0.563856 0.795326 0.563856
0.643344 0.797566 0.566096
0.722831 0.799805 0.568335
0.802318 0.802045 0.570575
0.881806 0.804284 0.572814
0.253450 0.871259 0.562442
0.332938 0.873498 0.564681
0.412425 0.875738 0.566921
0.491912 0.877977 0.569160
0.571400 0.880217 0.571400
0.650887 0.882456 0.573639
0.730374 0.884696 0.575879
0.809862 0.886935 0.578118
0.889349 0.889175 0.580358
0.193863 0.192895 0.580103
0.273351 0.195134 0.582342
0.352838 0.197374 0.584581
0.432325 0.199613 0.586821
0.511813 0.201853 0.589060
0.591300 0.204092 0.591300
0.670787 0.206332 0.593539
0.750275 0.208571 0.595779
0.829762 0.210811 0.598018
0.201407 0.277785 0.587646
0.280894 0.280025 0.589885
0.360381 0.282264 0.592125
0.439869 0.284504 0.594364
0.519356 0.286743 0.596604
0.598843 0.288983 0.598843
0.678331 0.291222 0.601083
0.757818 0.293462 0.603322
0.837305 0.295701 0.605562
0.208950 0.362676 0.595189
0.288437 0.364915 0.597429
0.367925 0.367155 0.599668
0.447412 0.369394 0.601908
0.526900 0.371634 0.604147
0.606387 0.373873 0.606387
0.685874 0.376113 0.608626
0.765361 0.378352 0.610866
0.844849 0.380592 0.613105
0.216494 0.447566 0.602733
0.295981 0.449806 0.604972
0.375468 0.452045 0.607212
0.454956 0.454285 0.609451
0.534443 0.456524 0.611691
0.613930 0.458764 0.613930
0.693418 0.461003 0.616170
0.772905 0.463243 0.618409
0.852392 0.465482 0.620649
0.224037 0.532457 0.610276
0.303524 0.534696 0.612516
0.383012 0.536936 0.614755
0.462499 0.539175 0.616995
0.541986 0.541415 0.619234
0.621474 0.543654 0.621474
0.700961 0.545894 0.623713
0.780448 0.548133 0.625953
0.859936 0.550373 0.628192
0.231580 0.617348 0.617820
0.311068 0.619587 0.620059
0.390555 0.621827 0.622299
0.470042 0.624066 0.624538
0.549530 0.626306 0.626778
0.629017 0.628545 0.629017
0.708504 0.630784 0.631257
0.787992 0.633024 0.633496
0.867479 0.635263 0.635736
0.239124 0.702238 0.625363
0.318611 0.704478 0.627603
0.398099 0.706717 0.629842
0.477586 0.708957 0.632082
0.557073 0.711196 0.634321
0.636561 0.713436 0.636561
0.716048 0.715675 0.638800
0.795535 0.717915 0.641040
0.875023 0.720154 0.643279
0.246667 0.787129 0.632907
0.326155 0.789368 0.635146
0.405642 0.791608 0.637386
0.485129 0.793847 0.639625
0.564617 0.796087 0.641865
0.644104 0.798326 0.644104
0.723591 0.800566 0.646344
0.803079 0.802805 0.648583
0.882566 0.805045 0.650823
0.254211 0.872019 0.640450
0.333698 0.874259 0.642690
0.413186 0.876498 0.644929
0.492673 0.878738 0.647169
0.572160 0.880977 0.649408
0.651648 0.883217 0.651648
0.731135 0.885456 0.653887
0.810622 0.887696 0.656126
0.890110 0.889935 0.658366
0.194624 0.193655 0.658111
0.274111 0.195895 0.660350
0.353598 0.198134 0.662590
0.433086 0.200374 0.664829
0.512573 0.202613 0.667069
0.592060 0.204853 0.669308
0.671548 0.207092 0.671548
0.751035 0.209332 0.673787
0.830522 0.211571 0.676027
0.202167 0.278546 0.665654
0.281655 0.280785 0.667894
0.361142 0.283025 0.670133
0.440629 0.285264 0.672373
0.520117 0.287504 0.674612
0.599604 0.289743 0.676852
0.679091 0.291983 0.679091
0.758579 0.294222 0.681331
0.838066 0.296462 0.683570
0.209711 0.363436 0.673198
0.289198 0.365676 0.675437
0.368685 0.367915 0.677677
0.448173 0.370155 0.679916
0.527660 0.372394 0.682156
0.607147 0.374634 0.684395
0.686635 0.376873 0.686635
0.766122 0.379113 0.688874
0.845609 0.381352 0.691114
0.217254 0.448327 0.680741
0.296741 0.450566 0.682981
0.376229 0.452806 0.685220
0.455716 0.455045 0.687460
0.535203 0.457285 0.689699
0.614691 0.459524 0.691939
0.694178 0.461764 0.694178
0.773665 0.464003 0.696418
0.853153 0.466243 0.698657
0.224798 0.533218 0.688285
0.304285 0.535457 0.690524
0.383772 0.537697 0.692764
0.463260 0.539936 0.695003
0.542747 0.542175 0.697243
0.622234 0.544415 0.699482
0.701722 0.546654 0.701722
0.781209 0.548894 0.703961
0.860696 0.551133 0.706201
0.232341 0.618108 0.695828
0.311828 0.620348 0.698068
0.391316 0.622587 0.700307
0.470803 0.624827 0.702547
0.550290 0.627066 0.704786
0.629778 0.629306 0.707026
0.709265 0.631545 0.709265
0.788752 0.633784 0.711505
0.868240 0.636024 0.713744
0.239884 0.702999 0.703372
0.319372 0.705238 0.705611
0.398859 0.707478 0.707851
0.478346 0.709717 0.710090
0.557834 0.711957 0.712330
0.637321 0.714196 0.714569
0.716808 0.716436 0.716808
0.796296 0.718675 0.719048
0.875783 0.720915 0.721287
0.247428 0.787889 0.710915
0.326915 0.790129 0.713155
0.406403 0.792368 0.715394
0.485890 0.794608 0.717633
0.565377 0.796847 0.719873
0.644865 0.799087 0.722112
0.724352 0.801326 0.724352
0.803839 0.803566 0.726591
0.883327 0.805805 0.728831
0.254971 0.872780 0.718459
0.334459 0.875019 0.720698
0.413946 0.877259 0.722937
0.493433 0.879498 0.725177
0.572921 0.881738 0.727416
0.652408 0.883977 0.729656
0.731895 0.886217 0.731895
0.811383 0.888456 0.734135
0.890870 0.890696 0.736374
0.195384 0.194416 0.736119
0.274872 0.196655 0.738359
0.354359 0.198895 0.740598
0.433846 0.201134 0.742838
0.513334 0.203374 0.745077
0.592821 0.205613 0.747317
0.672308 0.207853 0.749556
0.751796 0.210092 0.751796
0.831283 0.212332 0.754035
0.202928 0.279306 0.743663
0.282415 0.281546 0.745902
0.361902 0.283785 0.748142
0.441390 0.286025 0.750381
0.520877 0.288264 0.752621
0.600364 0.290504 0.754860
0.679852 0.292743 0.757100
0.759339 0.294983 0.759339
0.838826 0.297222 0.761579
0.210471 0.364197 0.751206
0.289959 0.366436 0.753446
0.369446 0.368676 0.755685
0.448933 0.370915 0.757925
0.528421 0.373155 0.760164
0.607908 0.375394 0.762404
0.687395 0.377634 0.764643
0.766883 0.379873 0.766883
0.846370 0.382113 0.769122
0.218015 0.449088 0.758750
0.297502 0.451327 0.760989
0.376989 0.453566 0.763229
0.456477 0.455806 0.765468
0.535964 0.458045 0.767708
0.615451 0.460285 0.769947
0.694939 0.462524 0.772187
0.774426 0.464764 0.774426
0.853913 0.467003 0.776666
0.225558 0.533978 0.766293
0.305045 0.536218 0.768533
0.384533 0.538457 0.770772
0.464020 0.540697 0.773012
0.543507 0.542936 0.775251
0.622995 0.545175 0.777490
0.702482 0.547415 0.779730
0.781969 0.549654 0.781969
0.861457 0.551894 0.784209
0.233102 0.618869 0.773837
0.312589 0.621108 0.776076
0.392076 0.623348 0.778316
0.471564 0.625587 0.780555
0.551051 0.627827 0.782794
0.630538 0.630066 0.785034
0.710026 0.632306 0.787273
0.789513 0.634545 0.789513
0.869000 0.636784 0.791752
0.240645 0.703759 0.781380
0.320132 0.705999 0.783619
0.399620 0.708238 0.785859
0.479107 0.710478 0.788098
0.558594 0.712717 0.790338
0.638082 0.714957 0.792577
0.717569 0.717196 0.794817
0.797056 0.719436 0.797056
0.876544 0.721675 0.799296
0.248188 0.788650 0.788923
0.327676 0.790889 0.791163
0.407163 0.793129 0.793402
0.486650 0.795368 0.795642
0.566138 0.797608 0.797881
0.645625 0.799847 0.800121
0.725112 0.802087 0.802360
0.804600 0.804326 0.804600
0.884087 0.806566 0.806839
0.255732 0.873540 0.796467
0.335219 0.875780 0.798706
0.414707 0.878019 0.800946
0.494194 0.880259 0.803185
0.573681 0.882498 0.805425
0.653169 0.884738 0.807664
0.732656 0.886977 0.809904
0.812143 0.889217 0.812143
0.891631 0.891456 0.814383
0.196145 0.195176 0.814128
0.275632 0.197416 0.816367
0.355120 0.199655 0.818607
0.434607 0.201895 0.820846
0.514094 0.204134 0.823086
0.593582 0.206374 0.825325
0.673069 0.208613 0.827565
0.752556 0.210853 0.829804
0.832044 0.213092 0.832044
0.203688 0.280067 0.821671
0.283176 0.282306 0.823911
0.362663 0.284546 0.826150
0.442150 0.286785 0.828390
0.521638 0.289025 0.830629
0.601125 0.291264 0.832869
0.680612 0.293504 0.835108
0.760100 0.295743 0.837348
0.839587 0.297983 0.839587
0.211232 0.364958 0.829215
0.290719 0.367197 0.831454
0.370206 0.369436 0.833694
0.449694 0.371676 0.835933
0.529181 0.373915 0.838173
0.608668 0.376155 0.840412
0.688156 0.378394 0.842651
0.767643 0.380634 0.844891
0.847130 0.382873 0.847130
0.218775 0.449848 0.836758
0.298263 0.452088 0.838998
0.377750 0.454327 0.841237
0.457237 0.456567 0.843476
0.536725 0.458806 0.845716
0.616212 0.461046 0.847955
0.695699 0.463285 0.850195
0.775187 0.465524 0.852434
0.854674 0.467764 0.854674
0.226319 0.534739 0.844302
0.305806 0.536978 0.846541
0.385293 0.539218 0.848780
0.464781 0.541457 0.851020
0.544268 0.543697 0.853259
0.623755 0.545936 0.855499
0.703243 0.548176 0.857738
0.782730 0.550415 0.859978
0.862217 0.552655 0.862217
0.233862 0.619629 0.851845
0.313349 0.621869 0.854084
0.392837 0.624108 0.856324
0.472324 0.626348 0.858563
0.551811 0.628587 0.860803
0.631299 0.630827 0.863042
0.710786 0.633066 0.865282
0.790273 0.635306 0.867521
0.869761 0.637545 0.869761
0.241406 0.704520 0.859388
0.320893 0.706759 0.861628
0.400380 0.708999 0.863867
0.479868 0.711238 0.866107
0.559355 0.713478 0.868346
0.638842 0.715717 0.870586
0.718330 0.717957 0.872825
0.797817 0.720196 0.875065
0.877304 0.722436 0.877304
0.248949 0.789410 0.866932
0.328436 0.791650 0.869171
0.407924 0.793889 0.871411
0.487411 0.796129 0.873650
0.566898 0.798368 0.875890
0.646386 0.800608 0.878129
0.725873 0.802847 0.880369
0.805360 0.805087 0.882608
0.884848 0.807326 0.884848
0.256492 0.874301 0.874475
0.335980 0.876540 0.876715
0.415467 0.878780 0.878954
0.494954 0.881019 0.881194
0.574442 0.883259 0.883433
0.653929 0.885498 0.885673
0.733416 0.887738 0.887912
0.812904 0.889977 0.890152
0.892391 0.892217 0.892391
