assets/presets/luts/matte-pastel/lut.cube
TITLE "Matte Pastel"
LUT_3D_SIZE 5
0.190061 0.189092 0.190061
0.349035 0.193571 0.194539
0.508010 0.198050 0.199018
0.666985 0.202529 0.203497
0.825959 0.207008 0.207976
0.205147 0.358873 0.205147
0.364122 0.363352 0.209626
0.523097 0.367831 0.214105
0.682071 0.372310 0.218584
0.841046 0.376789 0.223063
0.220234 0.528654 0.220234
0.379209 0.533133 0.224713
0.538184 0.537612 0.229192
0.697158 0.542091 0.233671
0.856133 0.546570 0.238150
0.235321 0.698435 0.235321
0.394296 0.702914 0.239800
0.553271 0.707393 0.244279
0.712245 0.711872 0.248758
0.871220 0.716351 0.253237
0.250408 0.868217 0.250408
0.409383 0.872696 0.254887
0.568358 0.877174 0.259366
0.727332 0.881653 0.263845
0.886307 0.886132 0.268324
0.191582 0.190613 0.346077
0.350556 0.195092 0.350556
0.509531 0.199571 0.355035
0.668506 0.204050 0.359514
0.827480 0.208529 0.363993
0.206668 0.360394 0.361164
0.365643 0.364873 0.365643
0.524618 0.369352 0.370122
0.683593 0.373831 0.374601
0.842567 0.378310 0.379080
0.221755 0.530175 0.376251
0.380730 0.534654 0.380730
0.539705 0.539133 0.385209
0.698679 0.543612 0.389688
0.857654 0.548091 0.394167
0.236842 0.699956 0.391338
0.395817 0.704435 0.395817
0.554792 0.708914 0.400296
0.713766 0.713393 0.404775
0.872741 0.717872 0.409254
0.251929 0.869738 0.406425
0.410904 0.874217 0.410904
0.569879 0.878696 0.415383
0.728853 0.883175 0.419862
0.887828 0.887653 0.424341
0.193103 0.192134 0.502094
0.352077 0.196613 0.506573
0.511052 0.201092 0.511052
0.670027 0.205571 0.515531
0.829001 0.210050 0.520010
0.208190 0.361915 0.517181
0.367164 0.366394 0.521660
0.526139 0.370873 0.526139
0.685114 0.375352 0.530618
0.844088 0.379831 0.535097
0.223276 0.531696 0.532268
0.382251 0.536175 0.536747
0.541226 0.540654 0.541226
0.700201 0.545133 0.545705
0.859175 0.549612 0.550184
0.238363 0.701478 0.547355
0.397338 0.705957 0.551834
0.556313 0.710436 0.556313
0.715287 0.714915 0.560792
0.874262 0.719393 0.565271
0.253450 0.871259 0.562442
0.412425 0.875738 0.566921
0.571400 0.880217 0.571400
0.730374 0.884696 0.575879
0.889349 0.889175 0.580358
0.194624 0.193655 0.658111
0.353598 0.198134 0.662590
0.512573 0.202613 0.667069
0.671548 0.207092 0.671548
0.830522 0.211571 0.676027
0.209711 0.363436 0.673198
0.368685 0.367915 0.677677
0.527660 0.372394 0.682156
0.686635 0.376873 0.686635
0.845609 0.381352 0.691114
0.224798 0.533218 0.688285
0.383772 0.537697 0.692764
0.542747 0.542175 0.697243
0.701722 0.546654 0.701722
0.860696 0.551133 0.706201
0.239884 0.702999 0.703372
0.398859 0.707478 0.707851
0.557834 0.711957 0.712330
0.716808 0.716436 0.716808
0.875783 0.720915 0.721287
0.254971 0.872780 0.718459
0.413946 0.877259 0.722937
0.572921 0.881738 0.727416
0.731895 0.886217 0.731895
0.890870 0.890696 0.736374
0.196145 0.195176 0.814128
0.355120 0.199655 0.818607
0.514094 0.204134 0.823086
0.673069 0.208613 0.827565
0.832044 0.213092 0.832044
0.211232 0.364958 0.829215
0.370206 0.369436 0.833694
0.529181 0.373915 0.838173
0.688156 0.378394 0.842651
0.847130 0.382873 0.847130
0.226319 0.534739 0.844302
0.385293 0.539218 0.848780
0.544268 0.543697 0.853259
0.703243 0.548176 0.857738
0.862217 0.552655 0.862217
0.241406 0.704520 0.859388
0.400380 0.708999 0.863867
0.559355 0.713478 0.868346
0.718330 0.717957 0.872825
0.877304 0.722436 0.877304
0.256492 0.874301 0.874475
0.415467 0.878780 0.878954
0.574442 0.883259 0.883433
0.733416 0.887738 0.887912
0.892391 0.892217 0.892391
