assets/presets/luts/tape-transfer/lut.cube
TITLE "Tape Transfer"
LUT_3D_SIZE 9
0.117547 0.110072 0.117547
0.224439 0.108925 0.117854
0.329175 0.108500 0.117371
0.433890 0.108076 0.116927
0.538599 0.107654 0.116494
0.643307 0.107231 0.116064
0.748013 0.106809 0.115638
0.852719 0.106386 0.115212
0.957424 0.105964 0.114787
0.127950 0.210149 0.127950
0.219740 0.213227 0.130886
0.317404 0.215243 0.127035
0.419888 0.215701 0.124435
0.523614 0.215688 0.122837
0.627788 0.215496 0.121697
0.732165 0.215219 0.120793
0.836649 0.214897 0.120026
0.941196 0.214547 0.119346
0.138386 0.310214 0.138386
0.230156 0.313283 0.141455
0.321932 0.316357 0.144473
0.416750 0.319154 0.141269
0.516159 0.320683 0.137113
0.617838 0.321435 0.133966
0.720650 0.321772 0.131586
0.824083 0.321874 0.129716
0.927885 0.321832 0.128188
0.148821 0.410278 0.148821
0.240591 0.413348 0.151891
0.332361 0.416418 0.154961
0.424134 0.419490 0.158006
0.517784 0.422538 0.155754
0.615121 0.424717 0.151255
0.714935 0.426115 0.147202
0.816261 0.426993 0.143843
0.918534 0.427531 0.141070
0.159256 0.510343 0.159256
0.251027 0.513413 0.162326
0.342797 0.516482 0.165396
0.434567 0.519552 0.168466
0.526338 0.522623 0.171524
0.619396 0.525767 0.170070
0.715381 0.528331 0.165741
0.813726 0.530206 0.161288
0.913717 0.531545 0.157293
0.169692 0.610407 0.169692
0.261462 0.613477 0.172761
0.353232 0.616547 0.175831
0.445002 0.619617 0.178901
0.536773 0.622687 0.181971
0.628543 0.625757 0.185036
0.721258 0.628939 0.184214
0.816331 0.631738 0.180246
0.913547 0.633957 0.175701
0.180127 0.710472 0.180127
0.271897 0.713542 0.183197
0.363667 0.716611 0.186267
0.455438 0.719681 0.189337
0.547208 0.722751 0.192406
0.638978 0.725821 0.195476
0.730749 0.728891 0.198544
0.823245 0.732087 0.198225
0.917677 0.735034 0.194674
0.190562 0.810536 0.190562
0.282333 0.813606 0.193632
0.374103 0.816676 0.196702
0.465873 0.819746 0.199772
0.557643 0.822816 0.202842
0.649414 0.825886 0.205912
0.741184 0.828955 0.208981
0.832954 0.832025 0.212051
0.925303 0.835224 0.212138
0.200998 0.910601 0.200998
0.292768 0.913671 0.204067
0.384538 0.916741 0.207137
0.476308 0.919810 0.210207
0.568079 0.922880 0.213277
0.659849 0.925950 0.216347
0.751619 0.929020 0.219417
0.843389 0.932090 0.222487
0.935160 0.935160 0.225556
0.118555 0.111111 0.207426
0.223060 0.109127 0.223060
0.336728 0.105714 0.225865
0.444546 0.104510 0.224013
0.550635 0.103798 0.222382
0.656110 0.103234 0.221097
0.761302 0.102730 0.220049
0.866342 0.102255 0.219156
0.971290 0.101797 0.218368
0.128993 0.211192 0.217693
0.220785 0.214253 0.220785
0.327417 0.213194 0.220994
0.432145 0.212769 0.220525
0.536858 0.212346 0.220085
0.641566 0.211923 0.219654
0.746272 0.211501 0.219227
0.850978 0.211078 0.218801
0.955683 0.210656 0.218376
0.139428 0.311256 0.228129
0.231198 0.314326 0.231198
0.322982 0.317402 0.234168
0.420508 0.319456 0.230352
0.522933 0.319935 0.227710
0.626633 0.319933 0.226088
0.730792 0.319747 0.224931
0.835159 0.319474 0.224016
0.939638 0.319154 0.223242
0.149863 0.411321 0.238564
0.241634 0.414391 0.241634
0.333404 0.417460 0.244704
0.425178 0.420533 0.247737
0.519921 0.423345 0.244607
0.619270 0.424893 0.240433
0.720912 0.425658 0.237264
0.823699 0.426005 0.234865
0.927116 0.426113 0.232981
0.160299 0.511385 0.248999
0.252069 0.514455 0.252069
0.343839 0.517525 0.255139
0.435610 0.520595 0.258209
0.527381 0.523666 0.261263
0.620984 0.526720 0.259087
0.718271 0.528914 0.254590
0.818049 0.530324 0.250523
0.919348 0.531212 0.247149
0.170734 0.611450 0.259435
0.262504 0.614520 0.262504
0.354275 0.617589 0.265574
0.446045 0.620659 0.268644
0.537815 0.623729 0.271714
0.629586 0.626800 0.274777
0.722611 0.629946 0.273395
0.818556 0.632520 0.269079
0.916867 0.634406 0.264620
0.181169 0.711514 0.269870
0.272940 0.714584 0.272940
0.364710 0.717654 0.276010
0.456480 0.720724 0.279079
0.548250 0.723794 0.282149
0.640021 0.726864 0.285219
0.731791 0.729934 0.288287
0.824482 0.733116 0.287532
0.919522 0.735922 0.283582
0.191605 0.811579 0.280305
0.283375 0.814649 0.283375
0.375145 0.817719 0.286445
0.466916 0.820788 0.289515
0.558686 0.823858 0.292585
0.650456 0.826928 0.295655
0.742226 0.829998 0.298724
0.833997 0.833068 0.301794
0.926475 0.836263 0.301536
0.202040 0.911643 0.290741
0.293810 0.914713 0.293810
0.385581 0.917783 0.296880
0.477351 0.920853 0.299950
0.569121 0.923923 0.303020
0.660891 0.926993 0.306090
0.752662 0.930063 0.309160
0.844432 0.933132 0.312230
0.936202 0.936202 0.315299
0.119596 0.112162 0.297091
0.215693 0.112897 0.310542
0.327620 0.108561 0.327620
0.443502 0.104183 0.333468
0.554641 0.101863 0.332896
0.662993 0.100499 0.331058
0.769948 0.099556 0.329174
0.876166 0.098812 0.327479
0.981953 0.098175 0.325989
0.130035 0.212234 0.307436
0.221803 0.215292 0.310637
0.326185 0.213353 0.326185
0.439815 0.209956 0.328948
0.547591 0.208765 0.327094
0.653659 0.208058 0.325472
0.759121 0.207496 0.324197
0.864304 0.206994 0.323157
0.969337 0.206521 0.322270
0.140471 0.312299 0.317871
0.232241 0.315369 0.320941
0.324025 0.318433 0.324025
0.430392 0.317462 0.324138
0.535114 0.317038 0.323680
0.639825 0.316615 0.323245
0.744532 0.316193 0.322816
0.849238 0.315770 0.322390
0.953943 0.315348 0.321965
0.150906 0.412363 0.328307
0.242676 0.415433 0.331377
0.334447 0.418503 0.334447
0.426225 0.421577 0.337446
0.523613 0.423669 0.333669
0.625979 0.424169 0.330987
0.729652 0.424177 0.329339
0.833796 0.423997 0.328166
0.938155 0.423728 0.327240
0.161341 0.512428 0.338742
0.253112 0.515498 0.341812
0.344882 0.518567 0.344882
0.436652 0.521637 0.347952
0.528425 0.524709 0.350998
0.623093 0.527535 0.347945
0.722382 0.529103 0.343754
0.823986 0.529882 0.340562
0.926750 0.530238 0.338145
0.171777 0.612492 0.349177
0.263547 0.615562 0.352247
0.355317 0.618632 0.355317
0.447087 0.621702 0.358387
0.538858 0.624772 0.361457
0.630629 0.627842 0.364518
0.724185 0.630903 0.362421
0.821423 0.633111 0.357925
0.921163 0.634534 0.353845
0.182212 0.712557 0.359613
0.273982 0.715627 0.362683
0.365753 0.718697 0.365753
0.457523 0.721766 0.368822
0.549293 0.724836 0.371892
0.641063 0.727906 0.374962
0.732834 0.730976 0.378029
0.825827 0.734125 0.376721
0.921732 0.736710 0.372416
0.192647 0.812621 0.370048
0.284418 0.815691 0.373118
0.376188 0.818761 0.376188
0.467958 0.821831 0.379258
0.559728 0.824901 0.382328
0.651499 0.827971 0.385397
0.743269 0.831041 0.388467
0.835039 0.834110 0.391537
0.927706 0.837293 0.390849
0.203083 0.912686 0.380484
0.294853 0.915756 0.383553
0.386623 0.918826 0.386623
0.478393 0.921895 0.389693
0.570164 0.924965 0.392763
0.661934 0.928035 0.395833
0.753704 0.931105 0.398903
0.845474 0.934175 0.401973
0.937245 0.937245 0.405042
0.120639 0.113207 0.386805
0.214356 0.114886 0.397920
0.317578 0.113064 0.415724
0.432181 0.107995 0.432181
0.548985 0.103163 0.439816
0.662113 0.100074 0.441002
0.772547 0.098015 0.439925
0.881141 0.096576 0.438120
0.988599 0.095487 0.436188
0.131078 0.213277 0.397179
0.222845 0.216340 0.400318
0.318861 0.217111 0.413662
0.430745 0.212787 0.430745
0.546614 0.208416 0.436570
0.657725 0.206106 0.435979
0.766053 0.204749 0.434137
0.872991 0.203810 0.432255
0.979197 0.203070 0.430565
0.141513 0.313341 0.407614
0.233283 0.316411 0.410684
0.325051 0.319472 0.413852
0.429310 0.317579 0.429310
0.542900 0.314197 0.432032
0.650636 0.313019 0.430175
0.756682 0.312318 0.428563
0.862131 0.311759 0.427297
0.967306 0.311258 0.426265
0.151949 0.413406 0.418050
0.243719 0.416476 0.421120
0.335489 0.419545 0.424189
0.427267 0.422612 0.427267
0.533366 0.421731 0.427285
0.638083 0.421307 0.426837
0.742791 0.420885 0.426406
0.847497 0.420462 0.425979
0.952202 0.420040 0.425554
0.162384 0.513470 0.428485
0.254154 0.516540 0.431555
0.345924 0.519610 0.434625
0.437695 0.522680 0.437695
0.529470 0.525753 0.440719
0.626720 0.527880 0.436987
0.729026 0.528403 0.434264
0.832672 0.528422 0.432591
0.936801 0.528248 0.431402
0.172819 0.613535 0.438920
0.264589 0.616605 0.441990
0.356360 0.619675 0.445060
0.448130 0.622744 0.448130
0.539900 0.625814 0.451200
0.631672 0.628885 0.454256
0.726266 0.631726 0.451283
0.825495 0.633313 0.447075
0.927061 0.634105 0.443861
0.183255 0.713599 0.449356
0.275025 0.716669 0.452426
0.366795 0.719739 0.455495
0.458565 0.722809 0.458565
0.550336 0.725879 0.461635
0.642106 0.728949 0.464705
0.733876 0.732019 0.467771
0.827386 0.735085 0.465754
0.924575 0.737308 0.461260
0.193690 0.813664 0.459791
0.285460 0.816734 0.462861
0.377230 0.819804 0.465931
0.469001 0.822873 0.469001
0.560771 0.825943 0.472071
0.652541 0.829013 0.475140
0.744311 0.832083 0.478210
0.836082 0.835153 0.481279
0.929043 0.838303 0.480046
0.204125 0.913728 0.470226
0.295895 0.916798 0.473296
0.387666 0.919868 0.476366
0.479436 0.922938 0.479436
0.571206 0.926008 0.482506
0.662977 0.929078 0.485576
0.754747 0.932148 0.488646
0.846517 0.935217 0.491715
0.938287 0.938287 0.494785
0.121682 0.114251 0.476533
0.214481 0.116360 0.486093
0.313237 0.116002 0.502542
0.420892 0.112818 0.520793
0.536742 0.107430 0.536742
0.654038 0.102336 0.545516
0.768393 0.098726 0.548245
0.880343 0.096110 0.548218
0.990452 0.094166 0.546953
0.132120 0.214319 0.486922
0.223888 0.217385 0.490039
0.317559 0.219088 0.501053
0.420721 0.217285 0.518843
0.535306 0.212221 0.535306
0.652103 0.207392 0.542926
0.765215 0.204310 0.544095
0.875631 0.202257 0.543007
0.984208 0.200824 0.541199
0.142556 0.314384 0.497357
0.234326 0.317454 0.500427
0.326094 0.320519 0.503548
0.422030 0.321325 0.516781
0.533871 0.317013 0.533871
0.649725 0.312648 0.539671
0.760809 0.310348 0.539061
0.869113 0.308999 0.537215
0.976034 0.308065 0.535336
0.152991 0.414448 0.507793
0.244761 0.417518 0.510863
0.336532 0.420588 0.513932
0.428299 0.423652 0.517071
0.532435 0.421805 0.532435
0.645986 0.418439 0.535115
0.753680 0.417273 0.533256
0.859704 0.416578 0.531653
0.965141 0.416022 0.530398
0.163426 0.514513 0.518228
0.255197 0.517583 0.521298
0.346967 0.520653 0.524368
0.438737 0.523722 0.527438
0.530512 0.526791 0.530512
0.636338 0.526000 0.530436
0.741050 0.525577 0.529997
0.845756 0.525154 0.529569
0.950462 0.524732 0.529144
0.173862 0.614577 0.528663
0.265632 0.617647 0.531733
0.357402 0.620717 0.534803
0.449173 0.623787 0.537873
0.540943 0.626857 0.540943
0.632716 0.629928 0.543987
0.729830 0.632091 0.540307
0.832075 0.632636 0.537543
0.935692 0.632666 0.535844
0.184297 0.714642 0.539099
0.276067 0.717712 0.542169
0.367838 0.720782 0.545238
0.459608 0.723851 0.548308
0.551378 0.726921 0.551378
0.643148 0.729991 0.554448
0.734919 0.733061 0.557512
0.829441 0.735915 0.554620
0.928609 0.737522 0.550397
0.194732 0.814706 0.549534
0.286503 0.817776 0.552604
0.378273 0.820846 0.555674
0.470043 0.823916 0.558744
0.561813 0.826986 0.561813
0.653584 0.830056 0.564883
0.745354 0.833126 0.567953
0.837124 0.836196 0.571022
0.930589 0.839267 0.569087
0.205168 0.914771 0.559969
0.296938 0.917841 0.563039
0.388708 0.920911 0.566109
0.480479 0.923981 0.569179
0.572249 0.927050 0.572249
0.664019 0.930120 0.575319
0.755789 0.933190 0.578389
0.847560 0.936260 0.581458
0.939330 0.939330 0.584528
0.122725 0.115294 0.566267
0.215089 0.117640 0.574757
0.311443 0.118146 0.589731
0.414416 0.116381 0.607710
0.524752 0.112423 0.625720
0.641302 0.106864 0.641302
0.758902 0.101601 0.650860
0.874074 0.097621 0.654854
0.987121 0.094572 0.655884
0.133163 0.215362 0.576665
0.224931 0.218429 0.579771
0.317702 0.220555 0.589241
0.416407 0.220216 0.605662
0.524026 0.217041 0.623914
0.639867 0.211656 0.639867
0.757159 0.206564 0.648631
0.871504 0.202959 0.651345
0.983440 0.200348 0.651307
0.143598 0.315426 0.587100
0.235369 0.318496 0.590170
0.327137 0.321563 0.593275
0.420763 0.323290 0.604186
0.523865 0.321506 0.621962
0.638431 0.316447 0.638431
0.755222 0.311622 0.646037
0.868317 0.308546 0.647188
0.978714 0.306500 0.646090
0.154034 0.415491 0.597536
0.245804 0.418561 0.600605
0.337574 0.421631 0.603675
0.429342 0.424697 0.606781
0.525199 0.425538 0.619901
0.636996 0.421239 0.636996
0.752836 0.416881 0.642772
0.863893 0.414591 0.642144
0.972173 0.413249 0.640294
0.164469 0.515555 0.607971
0.256239 0.518625 0.611041
0.348009 0.521695 0.614111
0.439780 0.524765 0.617181
0.531548 0.527831 0.620295
0.635560 0.526031 0.635560
0.749070 0.522682 0.638198
0.856724 0.521528 0.636337
0.962727 0.520838 0.634744
0.174904 0.615620 0.618406
0.266675 0.618690 0.621476
0.358445 0.621760 0.624546
0.450215 0.624829 0.627616
0.541985 0.627899 0.630686
0.633757 0.630969 0.633757
0.739307 0.630269 0.633590
0.844016 0.629846 0.633158
0.948721 0.629424 0.632733
0.185340 0.715684 0.628842
0.277110 0.718754 0.631912
0.368880 0.721824 0.634981
0.460650 0.724894 0.638051
0.552421 0.727964 0.641121
0.644191 0.731034 0.644191
0.735962 0.734104 0.647249
0.832941 0.736302 0.643627
0.935125 0.736869 0.640823
0.195775 0.815749 0.639277
0.287545 0.818819 0.642347
0.379315 0.821889 0.645417
0.471086 0.824959 0.648487
0.562856 0.828028 0.651556
0.654626 0.831098 0.654626
0.746397 0.834168 0.657696
0.838167 0.837238 0.660765
0.932616 0.840105 0.657958
0.206210 0.915814 0.649712
0.297981 0.918883 0.652782
0.389751 0.921953 0.655852
0.481521 0.925023 0.658922
0.573291 0.928093 0.661992
0.665062 0.931163 0.665062
0.756832 0.934233 0.668131
0.848602 0.937303 0.671201
0.940372 0.940372 0.674271
0.123768 0.116337 0.656004
0.215898 0.118831 0.663720
0.310844 0.119885 0.677408
0.410786 0.119106 0.694543
0.516804 0.116397 0.712900
0.628872 0.111962 0.730550
0.745863 0.106298 0.745863
0.863666 0.100917 0.755991
0.979416 0.096662 0.761014
0.134205 0.216404 0.666408
0.225974 0.219472 0.669506
0.318320 0.221831 0.677917
0.414633 0.222352 0.692858
0.517569 0.220599 0.710828
0.627883 0.216648 0.728842
0.744428 0.211090 0.744428
0.862024 0.205828 0.753978
0.977190 0.201852 0.757960
0.144641 0.316469 0.676843
0.236411 0.319539 0.679913
0.328180 0.322606 0.683009
0.420923 0.324750 0.692389
0.519577 0.324429 0.708782
0.627161 0.321265 0.727035
0.742992 0.315882 0.742992
0.860281 0.310792 0.751747
0.974615 0.307192 0.754446
0.155076 0.416533 0.687279
0.246846 0.419603 0.690348
0.338617 0.422673 0.693418
0.430385 0.425741 0.696512
0.523967 0.427491 0.707320
0.627008 0.425728 0.725081
0.741556 0.420673 0.741556
0.858340 0.415851 0.749147
0.971420 0.412782 0.750280
0.165511 0.516598 0.697714
0.257282 0.519668 0.700784
0.349052 0.522738 0.703854
0.440822 0.525807 0.706923
0.532591 0.528875 0.710017
0.628368 0.529751 0.723021
0.740121 0.525465 0.740121
0.855947 0.521113 0.745872
0.966976 0.518833 0.745227
0.175947 0.616662 0.708149
0.267717 0.619732 0.711219
0.359487 0.622802 0.714289
0.451258 0.625872 0.717359
0.543028 0.628942 0.720429
0.634797 0.632010 0.723524
0.738685 0.630256 0.738685
0.852154 0.626924 0.741281
0.959767 0.625783 0.739418
0.186382 0.716727 0.718585
0.278152 0.719797 0.721654
0.369923 0.722867 0.724724
0.461693 0.725937 0.727794
0.553463 0.729006 0.730864
0.645233 0.732076 0.733934
0.737004 0.735146 0.737004
0.842275 0.734538 0.736748
0.946981 0.734116 0.736322
0.196818 0.816792 0.729020
0.288588 0.819861 0.732090
0.380358 0.822931 0.735160
0.472128 0.826001 0.738230
0.563899 0.829071 0.741299
0.655669 0.832141 0.744369
0.747439 0.835211 0.747439
0.839210 0.838281 0.750506
0.936054 0.840511 0.746948
0.207253 0.916856 0.739455
0.299023 0.919926 0.742525
0.390793 0.922996 0.745595
0.482564 0.926066 0.748665
0.574334 0.929136 0.751735
0.666104 0.932205 0.754805
0.757874 0.935275 0.757874
0.849645 0.938345 0.760944
0.941415 0.941415 0.764014
0.124811 0.117380 0.745742
0.216803 0.119974 0.752876
0.310865 0.121399 0.765486
0.408785 0.121318 0.781663
0.511657 0.119578 0.799685
0.619874 0.116218 0.818017
0.733131 0.111465 0.835315
0.850424 0.105733 0.850424
0.968373 0.100264 0.860984
0.135248 0.217447 0.756151
0.227017 0.220515 0.759245
0.319135 0.223019 0.766891
0.414049 0.224086 0.780542
0.513957 0.223319 0.797663
0.619947 0.220618 0.816019
0.732001 0.216187 0.833673
0.848988 0.210524 0.848988
0.966790 0.205144 0.859111
0.145683 0.317511 0.766586
0.237454 0.320581 0.769656
0.329222 0.323649 0.772747
0.421551 0.326022 0.781078
0.517824 0.326559 0.795984
0.620723 0.324817 0.813946
0.731014 0.320872 0.831964
0.847553 0.315316 0.847553
0.965147 0.310056 0.857096
0.156119 0.417576 0.777021
0.247889 0.420646 0.780091
0.339659 0.423716 0.783161
0.431428 0.426784 0.786249
0.524145 0.428945 0.795538
0.622748 0.428641 0.811902
0.730296 0.425489 0.830155
0.846117 0.420107 0.846117
0.963402 0.415020 0.854862
0.166554 0.517640 0.787457
0.258324 0.520710 0.790527
0.350095 0.523780 0.793597
0.441865 0.526850 0.796666
0.533634 0.529919 0.799752
0.627172 0.531693 0.810454
0.730152 0.529949 0.828200
0.844682 0.524899 0.844682
0.961458 0.520081 0.852257
0.176989 0.617705 0.797892
0.268760 0.620775 0.800962
0.360530 0.623845 0.804032
0.452300 0.626915 0.807102
0.544070 0.629984 0.810172
0.635840 0.633053 0.813255
0.731539 0.633964 0.826141
0.843246 0.629691 0.843246
0.959058 0.625346 0.848973
0.187425 0.717770 0.808327
0.279195 0.720839 0.811397
0.370965 0.723909 0.814467
0.462735 0.726979 0.817537
0.554506 0.730049 0.820607
0.646276 0.733119 0.823677
0.738046 0.736188 0.826758
0.841810 0.734482 0.841810
0.955238 0.731167 0.844363
0.197860 0.817834 0.818763
0.289630 0.820904 0.821833
0.381401 0.823974 0.824903
0.473171 0.827044 0.827972
0.564941 0.830113 0.831042
0.656711 0.833183 0.834112
0.748482 0.836253 0.837182
0.840252 0.839323 0.840252
0.945240 0.838808 0.839911
0.208295 0.917899 0.829198
0.300066 0.920968 0.832268
0.391836 0.924038 0.835338
0.483606 0.927108 0.838408
0.575376 0.930178 0.841478
0.667147 0.933248 0.844548
0.758917 0.936318 0.847617
0.850687 0.939388 0.850687
0.942457 0.942457 0.853757
0.125854 0.118423 0.835482
0.217760 0.121088 0.842161
0.311235 0.122779 0.853874
0.407757 0.123206 0.869125
0.508337 0.122209 0.886544
0.613515 0.119751 0.904892
0.723361 0.115924 0.923051
0.837474 0.110948 0.940036
0.954984 0.105167 0.954984
0.136291 0.218489 0.845894
0.228059 0.221558 0.848984
0.320043 0.224160 0.856055
0.414080 0.225597 0.868629
0.511970 0.225526 0.884787
0.614815 0.223795 0.902803
0.723013 0.220441 0.921137
0.836259 0.215690 0.938439
0.953549 0.209958 0.953549
0.146726 0.318554 0.856329
0.238496 0.321624 0.859399
0.330265 0.324692 0.862487
0.422371 0.327207 0.870062
0.517254 0.328288 0.883676
0.617128 0.327532 0.900783
0.723091 0.324839 0.919138
0.835129 0.320412 0.936796
0.952113 0.314750 0.952113
0.157161 0.418618 0.866764
0.248931 0.421688 0.869834
0.340702 0.424758 0.872904
0.432471 0.427827 0.875989
0.524782 0.430213 0.884240
0.621015 0.430765 0.899110
0.723876 0.429035 0.917065
0.834145 0.425097 0.935086
0.950678 0.419542 0.950678
0.167597 0.518683 0.877200
0.259367 0.521753 0.880270
0.351137 0.524823 0.883339
0.442907 0.527893 0.886409
0.534677 0.530961 0.889491
0.627367 0.533139 0.898687
0.725918 0.532854 0.915022
0.833430 0.529712 0.933276
0.949242 0.524333 0.949242
0.178032 0.618748 0.887635
0.269802 0.621817 0.890705
0.361572 0.624887 0.893775
0.453343 0.627957 0.896845
0.545113 0.631027 0.899915
0.636883 0.634096 0.902993
0.730377 0.635894 0.913588
0.833296 0.634170 0.931319
0.947807 0.629125 0.947807
0.188467 0.718812 0.898070
0.280237 0.721882 0.901140
0.372008 0.724952 0.904210
0.463778 0.728022 0.907280
0.555548 0.731091 0.910350
0.647319 0.734161 0.913420
0.739088 0.737231 0.916496
0.834709 0.738177 0.929261
0.946371 0.733917 0.946371
0.198903 0.818877 0.908506
0.290673 0.821946 0.911576
0.382443 0.825016 0.914645
0.474213 0.828086 0.917715
0.565984 0.831156 0.920785
0.657754 0.834226 0.923855
0.749524 0.837296 0.926925
0.841294 0.840365 0.929998
0.944936 0.838708 0.944936
0.209338 0.918941 0.918941
0.301108 0.922011 0.922011
0.392878 0.925081 0.925081
0.484649 0.928151 0.928151
0.576419 0.931221 0.931221
0.668189 0.934290 0.934290
0.759959 0.937360 0.937360
0.851730 0.940430 0.940430
0.943500 0.943500 0.943500
