assets/presets/luts/tape-transfer/lut.cube
TITLE "Tape Transfer"
LUT_3D_SIZE 17
0.117547 0.110072 0.117547
0.170214 0.109664 0.118353
0.224439 0.108925 0.117854
0.276812 0.108712 0.117603
0.329175 0.108500 0.117371
0.381534 0.108288 0.117147
0.433890 0.108076 0.116927
0.486245 0.107865 0.116709
0.538599 0.107654 0.116494
0.590953 0.107442 0.116279
0.643307 0.107231 0.116064
0.695660 0.107020 0.115851
0.748013 0.106809 0.115638
0.800366 0.106597 0.115425
0.852719 0.106386 0.115212
0.905071 0.106175 0.114999
0.957424 0.105964 0.114787
0.122733 0.160117 0.122733
0.168658 0.161658 0.124088
0.218075 0.162506 0.122024
0.269537 0.162653 0.120885
0.321499 0.162607 0.120184
0.373640 0.162489 0.119674
0.425861 0.162337 0.119264
0.478125 0.162167 0.118910
0.530414 0.161985 0.118593
0.582719 0.161796 0.118299
0.635035 0.161602 0.118022
0.687358 0.161405 0.117756
0.739687 0.161206 0.117500
0.792019 0.161004 0.117251
0.844355 0.160801 0.117008
0.896693 0.160597 0.116769
0.949033 0.160392 0.116533
0.127950 0.210149 0.127950
0.173835 0.211684 0.129485
0.219740 0.213227 0.130886
0.267464 0.214557 0.129035
0.317404 0.215243 0.127035
0.368389 0.215567 0.125552
0.419888 0.215701 0.124435
0.471668 0.215727 0.123557
0.523614 0.215688 0.122837
0.575666 0.215606 0.122228
0.627788 0.215496 0.121697
0.679958 0.215365 0.121223
0.732165 0.215219 0.120793
0.784397 0.215062 0.120396
0.836649 0.214897 0.120026
0.888916 0.214725 0.119677
0.941196 0.214547 0.119346
0.133168 0.260181 0.133168
0.179053 0.261716 0.134703
0.224938 0.263251 0.136238
0.270833 0.264791 0.137693
0.317856 0.266285 0.136287
0.366722 0.267315 0.134042
0.416776 0.267965 0.132072
0.467546 0.268366 0.130453
0.518761 0.268606 0.129121
0.570266 0.268738 0.128008
0.621967 0.268794 0.127059
0.673807 0.268797 0.126236
0.725747 0.268761 0.125510
0.777762 0.268694 0.124861
0.829833 0.268604 0.124273
0.881949 0.268496 0.123734
0.934099 0.268374 0.123236
0.138386 0.310214 0.138386
0.184271 0.311749 0.139921
0.230156 0.313283 0.141455
0.276041 0.314818 0.142990
0.321932 0.316357 0.144473
0.368598 0.317915 0.143475
0.416750 0.319154 0.141269
0.466057 0.320049 0.139068
0.516159 0.320683 0.137113
0.566807 0.321127 0.135424
0.617838 0.321435 0.133966
0.669143 0.321641 0.132698
0.720650 0.321772 0.131586
0.772308 0.321846 0.130600
0.824083 0.321874 0.129716
0.875948 0.321867 0.128917
0.927885 0.321832 0.128188
0.143603 0.360246 0.143603
0.189488 0.361781 0.145138
0.235373 0.363316 0.146673
0.281259 0.364851 0.148208
0.327144 0.366386 0.149743
0.373032 0.367923 0.151243
0.419491 0.369510 0.150578
0.467157 0.370877 0.148526
0.515885 0.371951 0.146254
0.565418 0.372774 0.144102
0.615546 0.373399 0.142157
0.666117 0.373871 0.140425
0.717020 0.374225 0.138884
0.768176 0.374486 0.137511
0.819529 0.374675 0.136279
0.871037 0.374806 0.135167
0.922668 0.374890 0.134157
0.148821 0.410278 0.148821
0.194706 0.411813 0.150356
0.240591 0.413348 0.151891
0.286476 0.414883 0.153426
0.332361 0.416418 0.154961
0.378247 0.417953 0.156496
0.424134 0.419490 0.158006
0.470460 0.421088 0.157612
0.517784 0.422538 0.155754
0.566063 0.423743 0.153505
0.615121 0.424717 0.151255
0.664790 0.425495 0.149141
0.714935 0.426115 0.147202
0.765452 0.426606 0.145441
0.816261 0.426993 0.143843
0.867304 0.427296 0.142392
0.918534 0.427531 0.141070
0.154039 0.460310 0.154039
0.199924 0.461845 0.155574
0.245809 0.463380 0.157108
0.291694 0.464915 0.158643
0.337579 0.466450 0.160178
0.383464 0.467985 0.161713
0.429349 0.469520 0.163248
0.475236 0.471056 0.164766
0.521473 0.472659 0.164593
0.568546 0.474163 0.162935
0.616473 0.475465 0.160763
0.665137 0.476559 0.158484
0.714408 0.477466 0.156267
0.764169 0.478215 0.154182
0.814326 0.478830 0.152248
0.864803 0.479335 0.150465
0.915541 0.479748 0.148826
0.159256 0.510343 0.159256
0.205141 0.511878 0.160791
0.251027 0.513413 0.162326
0.296912 0.514947 0.163861
0.342797 0.516482 0.165396
0.388682 0.518017 0.166931
0.434567 0.519552 0.168466
0.480452 0.521087 0.170001
0.526338 0.522623 0.171524
0.572512 0.524226 0.171534
0.619396 0.525767 0.170070
0.667044 0.527141 0.168003
0.715381 0.528331 0.165741
0.764307 0.529346 0.163473
0.813726 0.530206 0.161288
0.863552 0.530932 0.159224
0.913717 0.531545 0.157293
0.164474 0.560375 0.164474
0.210359 0.561910 0.166009
0.256244 0.563445 0.167544
0.302129 0.564980 0.169079
0.348014 0.566515 0.170614
0.393900 0.568050 0.172149
0.439785 0.569584 0.173683
0.485670 0.571119 0.175218
0.531555 0.572654 0.176753
0.577441 0.574190 0.178280
0.623567 0.575792 0.178443
0.670306 0.577357 0.177161
0.717729 0.578786 0.175215
0.765793 0.580052 0.173000
0.814421 0.581157 0.170717
0.863536 0.582114 0.168472
0.913062 0.582939 0.166314
0.169692 0.610407 0.169692
0.215577 0.611942 0.171227
0.261462 0.613477 0.172761
0.307347 0.615012 0.174296
0.353232 0.616547 0.175831
0.399117 0.618082 0.177366
0.445002 0.619617 0.178901
0.490887 0.621152 0.180436
0.536773 0.622687 0.181971
0.582658 0.624222 0.183506
0.628543 0.625757 0.185036
0.674633 0.627356 0.185328
0.721258 0.628939 0.184214
0.768497 0.630410 0.182394
0.816331 0.631738 0.180246
0.864702 0.632917 0.177977
0.913547 0.633957 0.175701
0.174909 0.660439 0.174909
0.220794 0.661974 0.176444
0.266680 0.663509 0.177979
0.312565 0.665044 0.179514
0.358450 0.666579 0.181049
0.404335 0.668114 0.182584
0.450220 0.669649 0.184119
0.496105 0.671184 0.185654
0.541990 0.672719 0.187189
0.587875 0.674254 0.188724
0.633761 0.675789 0.190259
0.679646 0.677324 0.191790
0.725708 0.678921 0.192194
0.772240 0.680515 0.191234
0.819328 0.682018 0.189540
0.866966 0.683396 0.187472
0.915114 0.684639 0.185236
0.180127 0.710472 0.180127
0.226012 0.712007 0.181662
0.271897 0.713542 0.183197
0.317782 0.715077 0.184732
0.363667 0.716611 0.186267
0.409553 0.718146 0.187802
0.455438 0.719681 0.189337
0.501323 0.721216 0.190871
0.547208 0.722751 0.192406
0.593093 0.724286 0.193941
0.638978 0.725821 0.195476
0.684863 0.727356 0.197011
0.730749 0.728891 0.198544
0.776788 0.730485 0.199045
0.823245 0.732087 0.198225
0.870206 0.733616 0.196656
0.917677 0.735034 0.194674
0.185345 0.760504 0.185345
0.231230 0.762039 0.186880
0.277115 0.763574 0.188414
0.323000 0.765109 0.189949
0.368885 0.766644 0.191484
0.414770 0.768179 0.193019
0.460655 0.769714 0.194554
0.506541 0.771249 0.196089
0.552426 0.772783 0.197624
0.598311 0.774318 0.199159
0.644196 0.775853 0.200694
0.690081 0.777388 0.202229
0.735966 0.778923 0.203764
0.781851 0.780458 0.205298
0.827872 0.782049 0.205883
0.874268 0.783656 0.205192
0.921122 0.785205 0.203743
0.190562 0.810536 0.190562
0.236447 0.812071 0.192097
0.282333 0.813606 0.193632
0.328218 0.815141 0.195167
0.374103 0.816676 0.196702
0.419988 0.818211 0.198237
0.465873 0.819746 0.199772
0.511758 0.821281 0.201307
0.557643 0.822816 0.202842
0.603528 0.824351 0.204377
0.649414 0.825886 0.205912
0.695299 0.827420 0.207447
0.741184 0.828955 0.208981
0.787069 0.830490 0.210516
0.832954 0.832025 0.212051
0.878960 0.833613 0.212710
0.925303 0.835224 0.212138
0.195780 0.860569 0.195780
0.241665 0.862103 0.197315
0.287550 0.863638 0.198850
0.333435 0.865173 0.200385
0.379320 0.866708 0.201920
0.425206 0.868243 0.203455
0.471091 0.869778 0.204990
0.516976 0.871313 0.206524
0.562861 0.872848 0.208059
0.608746 0.874383 0.209594
0.654631 0.875918 0.211129
0.700516 0.877453 0.212664
0.746401 0.878988 0.214199
0.792287 0.880523 0.215734
0.838172 0.882058 0.217269
0.884057 0.883592 0.218804
0.930050 0.885177 0.219530
0.200998 0.910601 0.200998
0.246883 0.912136 0.202533
0.292768 0.913671 0.204067
0.338653 0.915206 0.205602
0.384538 0.916741 0.207137
0.430423 0.918275 0.208672
0.476308 0.919810 0.210207
0.522194 0.921345 0.211742
0.568079 0.922880 0.213277
0.613964 0.924415 0.214812
0.659849 0.925950 0.216347
0.705734 0.927485 0.217882
0.751619 0.929020 0.219417
0.797504 0.930555 0.220952
0.843389 0.932090 0.222487
0.889275 0.933625 0.224022
0.935160 0.935160 0.225556
0.118047 0.110579 0.162622
0.169728 0.109828 0.169728
0.227760 0.107643 0.172344
0.281831 0.106991 0.171437
0.334965 0.106613 0.170586
0.387756 0.106318 0.169906
0.440387 0.106059 0.169349
0.492932 0.105817 0.168875
0.545424 0.105585 0.168459
0.597883 0.105358 0.168084
0.650319 0.105136 0.167739
0.702739 0.104916 0.167417
0.755147 0.104698 0.167112
0.807545 0.104481 0.166820
0.859937 0.104265 0.166539
0.912323 0.104050 0.166268
0.964704 0.103835 0.166003
0.123254 0.160638 0.167604
0.169165 0.162162 0.169165
0.221694 0.161800 0.169931
0.275928 0.161059 0.169424
0.328299 0.160846 0.169177
0.380660 0.160634 0.168948
0.433018 0.160423 0.168725
0.485374 0.160211 0.168506
0.537729 0.160000 0.168289
0.590083 0.159788 0.168074
0.642436 0.159577 0.167859
0.694790 0.159366 0.167646
0.747143 0.159155 0.167432
0.799496 0.158943 0.167219
0.851848 0.158732 0.167006
0.904201 0.158521 0.166794
0.956554 0.158310 0.166582
0.128472 0.210670 0.172822
0.174357 0.212205 0.174357
0.220276 0.213746 0.175732
0.269619 0.214616 0.173677
0.321055 0.214772 0.172519
0.373005 0.214731 0.171805
0.425139 0.214616 0.171288
0.477357 0.214465 0.170873
0.529618 0.214296 0.170516
0.581906 0.214115 0.170196
0.634209 0.213927 0.169900
0.686524 0.213733 0.169621
0.738846 0.213537 0.169354
0.791174 0.213337 0.169097
0.843506 0.213136 0.168847
0.895841 0.212933 0.168603
0.948179 0.212729 0.168363
0.133689 0.260703 0.178039
0.179574 0.262237 0.179574
0.225459 0.263772 0.181109
0.271361 0.265314 0.182527
0.319044 0.266654 0.180704
0.368956 0.267350 0.178693
0.419923 0.267680 0.177198
0.471411 0.267818 0.176072
0.523183 0.267847 0.175187
0.575123 0.267810 0.174463
0.627171 0.267730 0.173849
0.679290 0.267621 0.173314
0.731458 0.267491 0.172837
0.783662 0.267347 0.172404
0.835893 0.267190 0.172006
0.888143 0.267026 0.171634
0.940410 0.266854 0.171284
0.138907 0.310735 0.183257
0.184792 0.312270 0.184792
0.230677 0.313805 0.186327
0.276562 0.315340 0.187862
0.322455 0.316879 0.189328
0.369453 0.318377 0.187955
0.418294 0.319415 0.185708
0.468330 0.320070 0.183731
0.519087 0.320476 0.182105
0.570292 0.320720 0.180766
0.621790 0.320855 0.179647
0.673486 0.320913 0.178693
0.725321 0.320918 0.177866
0.777257 0.320883 0.177136
0.829269 0.320817 0.176484
0.881338 0.320729 0.175894
0.933451 0.320622 0.175352
0.144125 0.360767 0.188475
0.190010 0.362302 0.190010
0.235895 0.363837 0.191545
0.281780 0.365372 0.193080
0.327665 0.366907 0.194614
0.373555 0.368445 0.196105
0.420203 0.370005 0.195139
0.468336 0.371249 0.192938
0.517626 0.372150 0.190733
0.567714 0.372788 0.188773
0.618352 0.373236 0.187078
0.669375 0.373547 0.185615
0.720673 0.373756 0.184342
0.772175 0.373889 0.183226
0.823828 0.373964 0.182235
0.875599 0.373994 0.181348
0.927461 0.373988 0.180546
0.149342 0.410799 0.193692
0.195227 0.412334 0.195227
0.241112 0.413869 0.196762
0.286998 0.415404 0.198297
0.332883 0.416939 0.199832
0.378768 0.418474 0.201367
0.424656 0.420011 0.202873
0.471101 0.421598 0.202239
0.518751 0.422970 0.200195
0.567464 0.424049 0.197922
0.616984 0.424876 0.195767
0.667102 0.425504 0.193817
0.717664 0.425979 0.192080
0.768560 0.426335 0.190536
0.819711 0.426599 0.189158
0.871059 0.426790 0.187922
0.922562 0.426922 0.186807
0.154560 0.460832 0.198910
0.200445 0.462367 0.200445
0.246330 0.463902 0.201980
0.292215 0.465436 0.203515
0.338100 0.466971 0.205050
0.383985 0.468506 0.206585
0.429871 0.470041 0.208120
0.475758 0.471578 0.209635
0.522074 0.473176 0.209269
0.569384 0.474629 0.207421
0.617649 0.475838 0.205174
0.666696 0.476816 0.202922
0.716355 0.477597 0.200805
0.766492 0.478220 0.198863
0.817001 0.478713 0.197097
0.867805 0.479103 0.195496
0.918842 0.479408 0.194042
0.159778 0.510864 0.204128
0.205663 0.512399 0.205663
0.251548 0.513934 0.207198
0.297433 0.515469 0.208733
0.343318 0.517004 0.210267
0.389203 0.518539 0.211802
0.435088 0.520073 0.213337
0.480973 0.521608 0.214872
0.526860 0.523144 0.216394
0.573089 0.524747 0.216247
0.620150 0.526253 0.214600
0.668065 0.527559 0.212432
0.716720 0.528656 0.210152
0.765981 0.529566 0.207934
0.815734 0.530317 0.205846
0.865883 0.530935 0.203908
0.916354 0.531442 0.202123
0.164995 0.560896 0.209345
0.210880 0.562431 0.210880
0.256765 0.563966 0.212415
0.302651 0.565501 0.213950
0.348536 0.567036 0.215485
0.394421 0.568571 0.217020
0.440306 0.570106 0.218555
0.486191 0.571641 0.220090
0.532076 0.573176 0.221625
0.577962 0.574711 0.223151
0.624129 0.576314 0.223185
0.671004 0.577856 0.221732
0.718641 0.579233 0.219671
0.766969 0.580426 0.217410
0.815886 0.581443 0.215141
0.865296 0.582306 0.212954
0.915116 0.583035 0.210888
0.170213 0.610928 0.214563
0.216098 0.612463 0.216098
0.261983 0.613998 0.217633
0.307868 0.615533 0.219168
0.353753 0.617068 0.220703
0.399639 0.618603 0.222238
0.445524 0.620138 0.223773
0.491409 0.621673 0.225308
0.537294 0.623208 0.226843
0.583179 0.624743 0.228377
0.629065 0.626278 0.229906
0.675185 0.627879 0.230092
0.721916 0.629446 0.228822
0.769330 0.630877 0.226881
0.817385 0.632146 0.224668
0.866005 0.633253 0.222386
0.915112 0.634212 0.220140
0.175431 0.660961 0.219781
0.221316 0.662496 0.221316
0.267201 0.664031 0.222851
0.313086 0.665566 0.224386
0.358971 0.667100 0.225920
0.404856 0.668635 0.227455
0.450741 0.670170 0.228990
0.496626 0.671705 0.230525
0.542512 0.673240 0.232060
0.588397 0.674775 0.233595
0.634282 0.676310 0.235130
0.680167 0.677845 0.236661
0.726252 0.679444 0.236975
0.772870 0.681027 0.235873
0.820101 0.682500 0.234059
0.867926 0.683830 0.231914
0.916290 0.685012 0.229646
0.180648 0.710993 0.224998
0.226533 0.712528 0.226533
0.272418 0.714063 0.228068
0.318304 0.715598 0.229603
0.364189 0.717133 0.231138
0.410074 0.718668 0.232673
0.455959 0.720203 0.234208
0.501844 0.721738 0.235743
0.547729 0.723272 0.237278
0.593614 0.724807 0.238813
0.639499 0.726342 0.240348
0.685385 0.727877 0.241883
0.731270 0.729412 0.243415
0.777328 0.731008 0.243839
0.823854 0.732603 0.242891
0.870934 0.734108 0.241204
0.918565 0.735488 0.239139
0.185866 0.761025 0.230216
0.231751 0.762560 0.231751
0.277636 0.764095 0.233286
0.323521 0.765630 0.234821
0.369406 0.767165 0.236356
0.415292 0.768700 0.237891
0.461177 0.770235 0.239426
0.507062 0.771770 0.240961
0.552947 0.773305 0.242496
0.598832 0.774840 0.244030
0.644717 0.776375 0.245565
0.690602 0.777910 0.247100
0.736487 0.779444 0.248635
0.782373 0.780979 0.250169
0.828408 0.782572 0.250688
0.874860 0.784175 0.249881
0.921815 0.785705 0.248318
0.191084 0.811058 0.235434
0.236969 0.812592 0.236969
0.282854 0.814127 0.238504
0.328739 0.815662 0.240039
0.374624 0.817197 0.241573
0.420509 0.818732 0.243108
0.466394 0.820267 0.244643
0.512279 0.821802 0.246178
0.558165 0.823337 0.247713
0.604050 0.824872 0.249248
0.649935 0.826407 0.250783
0.695820 0.827942 0.252318
0.741705 0.829477 0.253853
0.787590 0.831012 0.255388
0.833475 0.832547 0.256922
0.879493 0.834136 0.257525
0.925883 0.835744 0.256846
0.196301 0.861090 0.240651
0.242186 0.862625 0.242186
0.288071 0.864160 0.243721
0.333957 0.865695 0.245256
0.379842 0.867230 0.246791
0.425727 0.868764 0.248326
0.471612 0.870299 0.249861
0.517497 0.871834 0.251396
0.563382 0.873369 0.252931
0.609267 0.874904 0.254466
0.655152 0.876439 0.256001
0.701038 0.877974 0.257536
0.746923 0.879509 0.259071
0.792808 0.881044 0.260605
0.838693 0.882579 0.262140
0.884578 0.884114 0.263675
0.930581 0.885700 0.264352
0.201519 0.911122 0.245869
0.247404 0.912657 0.247404
0.293289 0.914192 0.248939
0.339174 0.915727 0.250474
0.385059 0.917262 0.252009
0.430945 0.918797 0.253544
0.476830 0.920332 0.255079
0.522715 0.921867 0.256614
0.568600 0.923402 0.258149
0.614485 0.924936 0.259683
0.660370 0.926471 0.261218
0.706255 0.928006 0.262753
0.752140 0.929541 0.264288
0.798026 0.931076 0.265823
0.843911 0.932611 0.267358
0.889796 0.934146 0.268893
0.935681 0.935681 0.270428
0.118555 0.111111 0.207426
0.166931 0.111342 0.214544
0.223060 0.109127 0.223060
0.281054 0.106913 0.226077
0.336728 0.105714 0.225865
0.391000 0.105002 0.224965
0.444546 0.104510 0.224013
0.497704 0.104126 0.223148
0.550635 0.103798 0.222382
0.603421 0.103505 0.221704
0.656110 0.103234 0.221097
0.708731 0.102977 0.220549
0.761302 0.102730 0.220049
0.813836 0.102490 0.219586
0.866342 0.102255 0.219156
0.918824 0.102025 0.218751
0.971290 0.101797 0.218368
0.123775 0.161159 0.212476
0.169668 0.162671 0.214219
0.221248 0.161958 0.221248
0.279305 0.159764 0.223887
0.333356 0.159118 0.222976
0.386478 0.158742 0.222130
0.439263 0.158449 0.221454
0.491890 0.158191 0.220901
0.544431 0.157950 0.220431
0.596921 0.157718 0.220018
0.649378 0.157492 0.219645
0.701813 0.157269 0.219302
0.754231 0.157050 0.218982
0.806638 0.156831 0.218678
0.859036 0.156615 0.218387
0.911427 0.156399 0.218108
0.963812 0.156184 0.217837
0.128993 0.211192 0.217693
0.174878 0.212727 0.219228
0.220785 0.214253 0.220785
0.273174 0.213936 0.221510
0.327417 0.213194 0.220994
0.379785 0.212981 0.220752
0.432145 0.212769 0.220525
0.484502 0.212557 0.220303
0.536858 0.212346 0.220085
0.589212 0.212134 0.219869
0.641566 0.211923 0.219654
0.693919 0.211712 0.219440
0.746272 0.211501 0.219227
0.798625 0.211289 0.219014
0.850978 0.211078 0.218801
0.903331 0.210867 0.218589
0.955683 0.210656 0.218376
0.134210 0.261224 0.222911
0.180096 0.262759 0.224446
0.225981 0.264294 0.225981
0.271894 0.265834 0.227375
0.321164 0.266725 0.225331
0.372573 0.266891 0.224152
0.424511 0.266855 0.223427
0.476639 0.266742 0.222903
0.528852 0.266593 0.222483
0.581111 0.266425 0.222122
0.633397 0.266245 0.221799
0.685699 0.266057 0.221501
0.738013 0.265865 0.221220
0.790334 0.265668 0.220952
0.842661 0.265469 0.220694
0.894993 0.265268 0.220443
0.947328 0.265066 0.220198
0.139428 0.311256 0.228129
0.185313 0.312791 0.229663
0.231198 0.314326 0.231198
0.277084 0.315861 0.232733
0.322982 0.317402 0.234168
0.370626 0.318750 0.232372
0.420508 0.319456 0.230352
0.471457 0.319793 0.228845
0.522933 0.319935 0.227710
0.574697 0.319968 0.226818
0.626633 0.319933 0.226088
0.678676 0.319854 0.225469
0.730792 0.319747 0.224931
0.782957 0.319618 0.224451
0.835159 0.319474 0.224016
0.887388 0.319318 0.223615
0.939638 0.319154 0.223242
0.144646 0.361288 0.233346
0.190531 0.362823 0.234881
0.236416 0.364358 0.236416
0.282301 0.365893 0.237951
0.328186 0.367428 0.239486
0.374078 0.368967 0.240963
0.421050 0.370469 0.239623
0.469867 0.371514 0.237375
0.519885 0.372176 0.235390
0.570628 0.372587 0.233756
0.621823 0.372834 0.232411
0.673314 0.372971 0.231286
0.725004 0.373032 0.230327
0.776835 0.373039 0.229496
0.828768 0.373005 0.228763
0.880776 0.372941 0.228107
0.932843 0.372853 0.227514
0.149863 0.411321 0.238564
0.195749 0.412856 0.240099
0.241634 0.414391 0.241634
0.287519 0.415925 0.243169
0.333404 0.417460 0.244704
0.379289 0.418995 0.246238
0.425178 0.420533 0.247737
0.471808 0.422095 0.246804
0.519921 0.423345 0.244607
0.569194 0.424251 0.242399
0.619270 0.424893 0.240433
0.669897 0.425345 0.238733
0.720912 0.425658 0.237264
0.772203 0.425870 0.235987
0.823699 0.426005 0.234865
0.875349 0.426082 0.233871
0.927116 0.426113 0.232981
0.155081 0.461353 0.243782
0.200966 0.462888 0.245316
0.246851 0.464423 0.246851
0.292737 0.465958 0.248386
0.338622 0.467493 0.249921
0.384507 0.469028 0.251456
0.430392 0.470562 0.252991
0.476279 0.472099 0.254502
0.522712 0.473687 0.253899
0.570346 0.475063 0.251863
0.619043 0.476146 0.249590
0.668551 0.476977 0.247432
0.718659 0.477609 0.245478
0.769212 0.478087 0.243736
0.820101 0.478446 0.242187
0.871245 0.478712 0.240805
0.922588 0.478905 0.239566
0.160299 0.511385 0.248999
0.206184 0.512920 0.250534
0.252069 0.514455 0.252069
0.297954 0.515990 0.253604
0.343839 0.517525 0.255139
0.389724 0.519060 0.256674
0.435610 0.520595 0.258209
0.481495 0.522130 0.259744
0.527381 0.523666 0.261263
0.573687 0.525265 0.260926
0.620984 0.526720 0.259087
0.669236 0.527933 0.256843
0.718271 0.528914 0.254590
0.767921 0.529699 0.252469
0.818049 0.530324 0.250523
0.868551 0.530820 0.248754
0.919348 0.531212 0.247149
0.165516 0.561417 0.254217
0.211402 0.562952 0.255752
0.257287 0.564487 0.257287
0.303172 0.566022 0.258822
0.349057 0.567557 0.260357
0.394942 0.569092 0.261892
0.440827 0.570627 0.263426
0.486712 0.572162 0.264961
0.532597 0.573697 0.266496
0.578484 0.575233 0.268021
0.624704 0.576835 0.267901
0.671755 0.578343 0.266265
0.719658 0.579652 0.264100
0.768302 0.580752 0.261821
0.817554 0.581665 0.259601
0.867298 0.582419 0.257510
0.917440 0.583039 0.255569
0.170734 0.611450 0.259435
0.216619 0.612985 0.260969
0.262504 0.614520 0.262504
0.308390 0.616055 0.264039
0.354275 0.617589 0.265574
0.400160 0.619124 0.267109
0.446045 0.620659 0.268644
0.491930 0.622194 0.270179
0.537815 0.623729 0.271714
0.583700 0.625264 0.273249
0.629586 0.626800 0.274777
0.675746 0.628402 0.274836
0.722611 0.629946 0.273395
0.770238 0.631325 0.271339
0.818556 0.632520 0.269079
0.867465 0.633541 0.266809
0.916867 0.634406 0.264620
0.175952 0.661482 0.264652
0.221837 0.663017 0.266187
0.267722 0.664552 0.267722
0.313607 0.666087 0.269257
0.359492 0.667622 0.270792
0.405377 0.669157 0.272327
0.451263 0.670692 0.273862
0.497148 0.672226 0.275397
0.543033 0.673761 0.276932
0.588918 0.675296 0.278467
0.634803 0.676831 0.280001
0.680689 0.678367 0.281532
0.726803 0.679967 0.281741
0.773526 0.681535 0.280482
0.820931 0.682969 0.278548
0.868977 0.684239 0.276337
0.917589 0.685349 0.274055
0.181169 0.711514 0.269870
0.227055 0.713049 0.271405
0.272940 0.714584 0.272940
0.318825 0.716119 0.274475
0.364710 0.717654 0.276010
0.410595 0.719189 0.277545
0.456480 0.720724 0.279079
0.502365 0.722259 0.280614
0.548250 0.723794 0.282149
0.594136 0.725329 0.283684
0.640021 0.726864 0.285219
0.685906 0.728399 0.286754
0.731791 0.729934 0.288287
0.777872 0.731532 0.288622
0.824482 0.733116 0.287532
0.871705 0.734591 0.285724
0.919522 0.735922 0.283582
0.186387 0.761547 0.275088
0.232272 0.763081 0.276622
0.278157 0.764616 0.278157
0.324043 0.766151 0.279692
0.369928 0.767686 0.281227
0.415813 0.769221 0.282762
0.461698 0.770756 0.284297
0.507583 0.772291 0.285832
0.553468 0.773826 0.287367
0.599353 0.775361 0.288902
0.645238 0.776896 0.290437
0.691124 0.778431 0.291972
0.737009 0.779966 0.293507
0.782894 0.781501 0.295040
0.828947 0.783096 0.295485
0.875467 0.784691 0.294548
0.922540 0.786198 0.292868
0.191605 0.811579 0.280305
0.237490 0.813114 0.281840
0.283375 0.814649 0.283375
0.329260 0.816184 0.284910
0.375145 0.817719 0.286445
0.421030 0.819253 0.287980
0.466916 0.820788 0.289515
0.512801 0.822323 0.291050
0.558686 0.823858 0.292585
0.604571 0.825393 0.294120
0.650456 0.826928 0.295655
0.696341 0.828463 0.297189
0.742226 0.829998 0.298724
0.788112 0.831533 0.300259
0.833997 0.833068 0.301794
0.880029 0.834660 0.302332
0.926475 0.836263 0.301536
0.196822 0.861611 0.285523
0.242708 0.863146 0.287058
0.288593 0.864681 0.288593
0.334478 0.866216 0.290128
0.380363 0.867751 0.291663
0.426248 0.869286 0.293198
0.472133 0.870821 0.294732
0.518018 0.872356 0.296267
0.563904 0.873891 0.297802
0.609789 0.875425 0.299337
0.655674 0.876960 0.300872
0.701559 0.878495 0.302407
0.747444 0.880030 0.303942
0.793329 0.881565 0.305477
0.839214 0.883100 0.307012
0.885099 0.884635 0.308547
0.931114 0.886224 0.309167
0.202040 0.911643 0.290741
0.247925 0.913178 0.292275
0.293810 0.914713 0.293810
0.339696 0.916248 0.295345
0.385581 0.917783 0.296880
0.431466 0.919318 0.298415
0.477351 0.920853 0.299950
0.523236 0.922388 0.301485
0.569121 0.923923 0.303020
0.615006 0.925458 0.304555
0.660891 0.926993 0.306090
0.706777 0.928528 0.307625
0.752662 0.930063 0.309160
0.798547 0.931597 0.310695
0.844432 0.933132 0.312230
0.890317 0.934667 0.313764
0.936202 0.936202 0.315299
0.119075 0.111638 0.252247
0.166124 0.112382 0.258183
0.217969 0.111397 0.267136
0.275340 0.108844 0.275340
0.333768 0.106414 0.279215
0.390395 0.104844 0.279878
0.445686 0.103788 0.279381
0.500051 0.103047 0.278494
0.553833 0.102487 0.277528
0.607248 0.102033 0.276593
0.660419 0.101645 0.275722
0.713419 0.101301 0.274921
0.766295 0.100987 0.274184
0.819081 0.100694 0.273507
0.871796 0.100417 0.272879
0.924456 0.100151 0.272296
0.977074 0.099895 0.271752
0.124296 0.161681 0.257347
0.170179 0.163201 0.259031
0.218514 0.163449 0.266103
