assets/presets/luts/tape-transfer/lut.cube
TITLE "Tape Transfer"
LUT_3D_SIZE 5
0.117547 0.110072 0.117547
0.329175 0.108500 0.117371
0.538599 0.107654 0.116494
0.748013 0.106809 0.115638
0.957424 0.105964 0.114787
0.138386 0.310214 0.138386
0.321932 0.316357 0.144473
0.516159 0.320683 0.137113
0.720650 0.321772 0.131586
0.927885 0.321832 0.128188
0.159256 0.510343 0.159256
0.342797 0.516482 0.165396
0.526338 0.522623 0.171524
0.715381 0.528331 0.165741
0.913717 0.531545 0.157293
0.180127 0.710472 0.180127
0.363667 0.716611 0.186267
0.547208 0.722751 0.192406
0.730749 0.728891 0.198544
0.917677 0.735034 0.194674
0.200998 0.910601 0.200998
0.384538 0.916741 0.207137
0.568079 0.922880 0.213277
0.751619 0.929020 0.219417
0.935160 0.935160 0.225556
0.119596 0.112162 0.297091
0.327620 0.108561 0.327620
0.554641 0.101863 0.332896
0.769948 0.099556 0.329174
0.981953 0.098175 0.325989
0.140471 0.312299 0.317871
0.324025 0.318433 0.324025
0.535114 0.317038 0.323680
0.744532 0.316193 0.322816
0.953943 0.315348 0.321965
0.161341 0.512428 0.338742
0.344882 0.518567 0.344882
0.528425 0.524709 0.350998
0.722382 0.529103 0.343754
0.926750 0.530238 0.338145
0.182212 0.712557 0.359613
0.365753 0.718697 0.365753
0.549293 0.724836 0.371892
0.732834 0.730976 0.378029
0.921732 0.736710 0.372416
0.203083 0.912686 0.380484
0.386623 0.918826 0.386623
0.570164 0.924965 0.392763
0.753704 0.931105 0.398903
0.937245 0.937245 0.405042
0.121682 0.114251 0.476533
0.313237 0.116002 0.502542
0.536742 0.107430 0.536742
0.768393 0.098726 0.548245
0.990452 0.094166 0.546953
0.142556 0.314384 0.497357
0.326094 0.320519 0.503548
0.533871 0.317013 0.533871
0.760809 0.310348 0.539061
0.976034 0.308065 0.535336
0.163426 0.514513 0.518228
0.346967 0.520653 0.524368
0.530512 0.526791 0.530512
0.741050 0.525577 0.529997
0.950462 0.524732 0.529144
0.184297 0.714642 0.539099
0.367838 0.720782 0.545238
0.551378 0.726921 0.551378
0.734919 0.733061 0.557512
0.928609 0.737522 0.550397
0.205168 0.914771 0.559969
0.388708 0.920911 0.566109
0.572249 0.927050 0.572249
0.755789 0.933190 0.578389
0.939330 0.939330 0.584528
0.123768 0.116337 0.656004
0.310844 0.119885 0.677408
0.516804 0.116397 0.712900
0.745863 0.106298 0.745863
0.979416 0.096662 0.761014
0.144641 0.316469 0.676843
0.328180 0.322606 0.683009
0.519577 0.324429 0.708782
0.742992 0.315882 0.742992
0.974615 0.307192 0.754446
0.165511 0.516598 0.697714
0.349052 0.522738 0.703854
0.532591 0.528875 0.710017
0.740121 0.525465 0.740121
0.966976 0.518833 0.745227
0.186382 0.716727 0.718585
0.369923 0.722867 0.724724
0.553463 0.729006 0.730864
0.737004 0.735146 0.737004
0.946981 0.734116 0.736322
0.207253 0.916856 0.739455
0.390793 0.922996 0.745595
0.574334 0.929136 0.751735
0.757874 0.935275 0.757874
0.941415 0.941415 0.764014
0.125854 0.118423 0.835482
0.311235 0.122779 0.853874
0.508337 0.122209 0.886544
0.723361 0.115924 0.923051
0.954984 0.105167 0.954984
0.146726 0.318554 0.856329
0.330265 0.324692 0.862487
0.517254 0.328288 0.883676
0.723091 0.324839 0.919138
0.952113 0.314750 0.952113
0.167597 0.518683 0.877200
0.351137 0.524823 0.883339
0.534677 0.530961 0.889491
0.725918 0.532854 0.915022
0.949242 0.524333 0.949242
0.188467 0.718812 0.898070
0.372008 0.724952 0.904210
0.555548 0.731091 0.910350
0.739088 0.737231 0.916496
0.946371 0.733917 0.946371
0.209338 0.918941 0.918941
0.392878 0.925081 0.925081
0.576419 0.931221 0.931221
0.759959 0.937360 0.937360
0.943500 0.943500 0.943500
