assets/presets/luts/hlg-rec709/lut.cube
TITLE "HLG to Rec.709"
LUT_3D_SIZE 17
0.000000 0.000000 0.000000
0.002481 0.000000 0.000000
0.018041 0.000000 0.000000
0.056658 0.000000 0.000000
0.109400 0.000000 0.000000
0.172095 0.000000 0.000000
0.242686 0.000000 0.000000
0.319203 0.000000 0.000000
0.399625 0.000000 0.000000
0.491671 0.000000 0.000000
0.604440 0.000000 0.000000
0.733994 0.000000 0.000000
0.868154 0.000000 0.000000
0.981987 0.000000 0.000000
1.000000 0.000000 0.000000
1.000000 0.000000 0.000000
1.000000 0.000000 0.000000
0.000000 0.002457 0.000000
0.002446 0.002446 0.000000
0.018006 0.002381 0.000000
0.056623 0.002220 0.000000
0.109365 0.001999 0.000000
0.172060 0.001736 0.000000
0.242651 0.001441 0.000000
0.319168 0.001121 0.000000
0.399590 0.000784 0.000000
0.491636 0.000399 0.000000
0.604405 0.000000 0.000000
0.733960 0.000000 0.000000
0.868119 0.000000 0.000000
0.981952 0.000000 0.000000
1.000000 0.000000 0.000000
1.000000 0.000000 0.000000
1.000000 0.000000 0.000000
0.000000 0.017863 0.000000
0.002227 0.017852 0.000000
0.017787 0.017787 0.000000
0.056404 0.017625 0.000000
0.109146 0.017405 0.000000
0.171841 0.017142 0.000000
0.242432 0.016847 0.000000
0.318949 0.016526 0.000000
0.399371 0.016190 0.000000
0.491417 0.015804 0.000000
0.604186 0.015332 0.000000
0.733740 0.014790 0.000000
0.867900 0.014228 0.000000
0.981733 0.013752 0.000000
1.000000 0.013611 0.000000
1.000000 0.013611 0.000000
1.000000 0.013611 0.000000
0.000000 0.056097 0.000000
0.001683 0.056086 0.000000
0.017243 0.056021 0.000000
0.055860 0.055860 0.000000
0.108602 0.055639 0.000000
0.171297 0.055376 0.000000
0.241888 0.055081 0.000000
0.318405 0.054761 0.000000
0.398827 0.054424 0.000000
0.490873 0.054039 0.000000
0.603642 0.053567 0.000000
0.733197 0.053024 0.000000
0.867356 0.052463 0.000000
0.981189 0.051986 0.000000
1.000000 0.051845 0.000000
1.000000 0.051845 0.000000
1.000000 0.051845 0.000000
0.000000 0.108317 0.000000
0.000941 0.108307 0.000000
0.016500 0.108242 0.000000
0.055117 0.108080 0.000000
0.107859 0.107859 0.000000
0.170554 0.107597 0.000000
0.241145 0.107301 0.000000
0.317663 0.106981 0.000000
0.398084 0.106644 0.000000
0.490130 0.106259 0.000000
0.602899 0.105787 0.000000
0.732454 0.105245 0.000000
0.866613 0.104683 0.000000
0.980446 0.104207 0.000000
1.000000 0.104065 0.000000
1.000000 0.104065 0.000000
1.000000 0.104065 0.000000
0.000000 0.170392 0.000000
0.000058 0.170382 0.000000
0.015618 0.170316 0.000000
0.054234 0.170155 0.000000
0.106977 0.169934 0.000000
0.169672 0.169672 0.000000
0.240262 0.169376 0.000000
0.316780 0.169056 0.000000
0.397201 0.168719 0.000000
0.489247 0.168334 0.000000
0.602017 0.167862 0.000000
0.731571 0.167319 0.000000
0.865730 0.166758 0.000000
0.979563 0.166281 0.000000
1.000000 0.166140 0.000000
1.000000 0.166140 0.000000
1.000000 0.166140 0.000000
0.000000 0.240284 0.000000
0.000000 0.240274 0.000000
0.014624 0.240209 0.000000
0.053240 0.240047 0.000000
0.105982 0.239826 0.000000
0.168677 0.239564 0.000000
0.239268 0.239268 0.000000
0.315786 0.238948 0.000000
0.396207 0.238611 0.000000
0.488253 0.238226 0.000000
0.601023 0.237754 0.000000
0.730577 0.237212 0.000000
0.864736 0.236650 0.000000
0.978569 0.236173 0.000000
1.000000 0.236032 0.000000
1.000000 0.236032 0.000000
1.000000 0.236032 0.000000
0.000000 0.316044 0.000000
0.000000 0.316034 0.000000
0.013546 0.315969 0.000000
0.052162 0.315807 0.000000
0.104905 0.315586 0.000000
0.167600 0.315324 0.000000
0.238191 0.315028 0.000000
0.314708 0.314708 0.000000
0.395130 0.314371 0.000000
0.487175 0.313986 0.000000
0.599945 0.313514 0.000000
0.729499 0.312972 0.000000
0.863658 0.312410 0.000000
0.977492 0.311934 0.000000
1.000000 0.311792 0.000000
1.000000 0.311792 0.000000
1.000000 0.311792 0.000000
0.000000 0.395670 0.000000
0.000000 0.395659 0.000000
0.012413 0.395594 0.000000
0.051030 0.395433 0.000000
0.103772 0.395212 0.000000
0.166467 0.394949 0.000000
0.237058 0.394654 0.000000
0.313576 0.394334 0.000000
0.393997 0.393997 0.000000
0.486043 0.393612 0.000000
0.598813 0.393140 0.000000
0.728367 0.392597 0.000000
0.862526 0.392036 0.000000
0.976359 0.391559 0.000000
1.000000 0.391418 0.000000
1.000000 0.391418 0.000000
1.000000 0.391418 0.000000
0.000000 0.486805 0.000000
0.000000 0.486795 0.000000
0.011117 0.486729 0.000000
0.049734 0.486568 0.000000
0.102476 0.486347 0.000000
0.165171 0.486085 0.000000
0.235762 0.485789 0.000000
0.312279 0.485469 0.000000
0.392701 0.485132 0.000000
0.484747 0.484747 0.000000
0.597516 0.484275 0.000000
0.727071 0.483732 0.000000
0.861230 0.483171 0.000000
0.975063 0.482694 0.000000
1.000000 0.482553 0.000000
1.000000 0.482553 0.000000
1.000000 0.482553 0.000000
0.000000 0.598458 0.000000
0.000000 0.598448 0.000000
0.009529 0.598383 0.000000
0.048146 0.598221 0.000000
0.100888 0.598001 0.000000
0.163583 0.597738 0.000000
0.234174 0.597443 0.000000
0.310691 0.597122 0.000000
0.391113 0.596786 0.000000
0.483159 0.596400 0.000000
0.595928 0.595928 0.000000
0.725483 0.595386 0.000000
0.859642 0.594824 0.000000
0.973475 0.594348 0.000000
1.000000 0.594207 0.000000
1.000000 0.594207 0.000000
1.000000 0.594207 0.000000
0.000000 0.726731 0.000000
0.000000 0.726720 0.000000
0.007705 0.726655 0.000000
0.046321 0.726494 0.000000
0.099064 0.726273 0.000000
0.161759 0.726010 0.000000
0.232350 0.725715 0.000000
0.308867 0.725395 0.000000
0.389288 0.725058 0.000000
0.481334 0.724673 0.000000
0.594104 0.724201 0.000000
0.723658 0.723658 0.000000
0.857817 0.723097 0.000000
0.971650 0.722620 0.000000
1.000000 0.722479 0.000000
1.000000 0.722479 0.000000
1.000000 0.722479 0.000000
0.000000 0.859562 0.000000
0.000000 0.859552 0.000000
0.005816 0.859487 0.000000
0.044432 0.859325 0.000000
0.097174 0.859104 0.000000
0.159869 0.858842 0.000000
0.230460 0.858546 0.000000
0.306978 0.858226 0.000000
0.387399 0.857889 0.000000
0.479445 0.857504 0.000000
0.592215 0.857032 0.000000
0.721769 0.856490 0.000000
0.855928 0.855928 0.000000
0.969761 0.855452 0.000000
1.000000 0.855310 0.000000
1.000000 0.855310 0.000000
1.000000 0.855310 0.000000
0.000000 0.972269 0.000000
0.000000 0.972259 0.000000
0.004212 0.972193 0.000000
0.042829 0.972032 0.000000
0.095571 0.971811 0.000000
0.158266 0.971548 0.000000
0.228857 0.971253 0.000000
0.305375 0.970933 0.000000
0.385796 0.970596 0.000000
0.477842 0.970211 0.000000
0.590612 0.969739 0.000000
0.720166 0.969196 0.000000
0.854325 0.968635 0.000000
0.968158 0.968158 0.000000
1.000000 0.968017 0.000000
1.000000 0.968017 0.000000
1.000000 0.968017 0.000000
0.000000 1.000000 0.000000
0.000000 1.000000 0.000000
0.003737 1.000000 0.000000
0.042354 1.000000 0.000000
0.095096 1.000000 0.000000
0.157791 1.000000 0.000000
0.228382 1.000000 0.000000
0.304899 1.000000 0.000000
0.385321 1.000000 0.000000
0.477367 1.000000 0.000000
0.590136 1.000000 0.000000
0.719691 1.000000 0.000000
0.853850 1.000000 0.000000
0.967683 1.000000 0.000000
1.000000 1.000000 0.000000
1.000000 1.000000 0.000000
1.000000 1.000000 0.000000
0.000000 1.000000 0.000000
0.000000 1.000000 0.000000
0.003737 1.000000 0.000000
0.042354 1.000000 0.000000
0.095096 1.000000 0.000000
0.157791 1.000000 0.000000
0.228382 1.000000 0.000000
0.304899 1.000000 0.000000
0.385321 1.000000 0.000000
0.477367 1.000000 0.000000
0.590136 1.000000 0.000000
0.719691 1.000000 0.000000
0.853850 1.000000 0.000000
0.967683 1.000000 0.000000
1.000000 1.000000 0.000000
1.000000 1.000000 0.000000
1.000000 1.000000 0.000000
0.000000 1.000000 0.000000
0.000000 1.000000 0.000000
0.003737 1.000000 0.000000
0.042354 1.000000 0.000000
0.095096 1.000000 0.000000
0.157791 1.000000 0.000000
0.228382 1.000000 0.000000
0.304899 1.000000 0.000000
0.385321 1.000000 0.000000
0.477367 1.000000 0.000000
0.590136 1.000000 0.000000
0.719691 1.000000 0.000000
0.853850 1.000000 0.000000
0.967683 1.000000 0.000000
1.000000 1.000000 0.000000
1.000000 1.000000 0.000000
1.000000 1.000000 0.000000
0.000000 0.000000 0.002488
0.002478 0.000000 0.002478
0.018038 0.000000 0.002413
0.056654 0.000000 0.002251
0.109396 0.000000 0.002030
0.172092 0.000000 0.001768
0.242682 0.000000 0.001472
0.319200 0.000000 0.001152
0.399621 0.000000 0.000815
0.491667 0.000000 0.000430
0.604437 0.000000 0.000000
0.733991 0.000000 0.000000
0.868150 0.000000 0.000000
0.981983 0.000000 0.000000
1.000000 0.000000 0.000000
1.000000 0.000000 0.000000
1.000000 0.000000 0.000000
0.000000 0.002453 0.002453
0.002443 0.002443 0.002443
0.018003 0.002378 0.002378
0.056619 0.002216 0.002216
0.109362 0.001995 0.001995
0.172057 0.001733 0.001733
0.242647 0.001437 0.001437
0.319165 0.001117 0.001117
0.399586 0.000780 0.000780
0.491632 0.000395 0.000395
0.604402 0.000000 0.000000
0.733956 0.000000 0.000000
0.868115 0.000000 0.000000
0.981948 0.000000 0.000000
1.000000 0.000000 0.000000
1.000000 0.000000 0.000000
1.000000 0.000000 0.000000
0.000000 0.017859 0.002234
0.002224 0.017849 0.002224
0.017783 0.017783 0.002159
0.056400 0.017622 0.001997
0.109142 0.017401 0.001776
0.171837 0.017139 0.001514
0.242428 0.016843 0.001218
0.318946 0.016523 0.000898
0.399367 0.016186 0.000561
0.491413 0.015801 0.000176
0.604183 0.015329 0.000000
0.733737 0.014786 0.000000
0.867896 0.014225 0.000000
0.981729 0.013748 0.000000
1.000000 0.013607 0.000000
1.000000 0.013607 0.000000
1.000000 0.013607 0.000000
0.000000 0.056093 0.001690
0.001680 0.056083 0.001680
0.017240 0.056018 0.001615
0.055856 0.055856 0.001453
0.108599 0.055635 0.001232
0.171294 0.055373 0.000970
0.241884 0.055077 0.000674
0.318402 0.054757 0.000354
0.398823 0.054420 0.000017
0.490869 0.054035 0.000000
0.603639 0.053563 0.000000
0.733193 0.053021 0.000000
0.867352 0.052459 0.000000
0.981185 0.051983 0.000000
1.000000 0.051841 0.000000
1.000000 0.051841 0.000000
1.000000 0.051841 0.000000
0.000000 0.108314 0.000948
0.000937 0.108303 0.000937
0.016497 0.108238 0.000872
0.055113 0.108077 0.000710
0.107856 0.107856 0.000490
0.170551 0.107593 0.000227
0.241142 0.107298 0.000000
0.317659 0.106978 0.000000
0.398080 0.106641 0.000000
0.490126 0.106256 0.000000
0.602896 0.105784 0.000000
0.732450 0.105241 0.000000
0.866609 0.104680 0.000000
0.980443 0.104203 0.000000
1.000000 0.104062 0.000000
1.000000 0.104062 0.000000
1.000000 0.104062 0.000000
0.000000 0.170388 0.000065
0.000054 0.170378 0.000054
0.015614 0.170313 0.000000
0.054231 0.170151 0.000000
0.106973 0.169930 0.000000
0.169668 0.169668 0.000000
0.240259 0.169373 0.000000
0.316776 0.169052 0.000000
0.397198 0.168716 0.000000
0.489244 0.168330 0.000000
0.602013 0.167858 0.000000
0.731567 0.167316 0.000000
0.865727 0.166754 0.000000
0.979560 0.166278 0.000000
1.000000 0.166136 0.000000
1.000000 0.166136 0.000000
1.000000 0.166136 0.000000
0.000000 0.240281 0.000000
0.000000 0.240270 0.000000
0.014620 0.240205 0.000000
0.053236 0.240043 0.000000
0.105979 0.239823 0.000000
0.168674 0.239560 0.000000
0.239265 0.239265 0.000000
0.315782 0.238944 0.000000
0.396204 0.238608 0.000000
0.488249 0.238222 0.000000
0.601019 0.237750 0.000000
0.730573 0.237208 0.000000
0.864733 0.236646 0.000000
0.978566 0.236170 0.000000
1.000000 0.236029 0.000000
1.000000 0.236029 0.000000
1.000000 0.236029 0.000000
0.000000 0.316041 0.000000
0.000000 0.316030 0.000000
0.013542 0.315965 0.000000
0.052159 0.315804 0.000000
0.104901 0.315583 0.000000
0.167596 0.315320 0.000000
0.238187 0.315025 0.000000
0.314705 0.314705 0.000000
0.395126 0.314368 0.000000
0.487172 0.313983 0.000000
0.599941 0.313510 0.000000
0.729496 0.312968 0.000000
0.863655 0.312407 0.000000
0.977488 0.311930 0.000000
1.000000 0.311789 0.000000
1.000000 0.311789 0.000000
1.000000 0.311789 0.000000
0.000000 0.395666 0.000000
0.000000 0.395656 0.000000
0.012410 0.395591 0.000000
0.051026 0.395429 0.000000
0.103769 0.395208 0.000000
0.166464 0.394946 0.000000
0.237055 0.394650 0.000000
0.313572 0.394330 0.000000
0.393993 0.393993 0.000000
0.486039 0.393608 0.000000
0.598809 0.393136 0.000000
0.728363 0.392594 0.000000
0.862522 0.392032 0.000000
0.976356 0.391556 0.000000
1.000000 0.391414 0.000000
1.000000 0.391414 0.000000
1.000000 0.391414 0.000000
0.000000 0.486801 0.000000
0.000000 0.486791 0.000000
0.011114 0.486726 0.000000
0.049730 0.486564 0.000000
0.102473 0.486343 0.000000
0.165168 0.486081 0.000000
0.235758 0.485786 0.000000
0.312276 0.485465 0.000000
0.392697 0.485129 0.000000
0.484743 0.484743 0.000000
0.597513 0.484271 0.000000
0.727067 0.483729 0.000000
0.861226 0.483167 0.000000
0.975059 0.482691 0.000000
1.000000 0.482549 0.000000
1.000000 0.482549 0.000000
1.000000 0.482549 0.000000
0.000000 0.598455 0.000000
0.000000 0.598445 0.000000
0.009526 0.598379 0.000000
0.048142 0.598218 0.000000
0.100885 0.597997 0.000000
0.163580 0.597735 0.000000
0.234170 0.597439 0.000000
0.310688 0.597119 0.000000
0.391109 0.596782 0.000000
0.483155 0.596397 0.000000
0.595925 0.595925 0.000000
0.725479 0.595382 0.000000
0.859638 0.594821 0.000000
0.973471 0.594344 0.000000
1.000000 0.594203 0.000000
1.000000 0.594203 0.000000
1.000000 0.594203 0.000000
0.000000 0.726727 0.000000
0.000000 0.726717 0.000000
0.007701 0.726652 0.000000
0.046318 0.726490 0.000000
0.099060 0.726269 0.000000
0.161755 0.726007 0.000000
0.232346 0.725711 0.000000
0.308863 0.725391 0.000000
0.389285 0.725054 0.000000
0.481331 0.724669 0.000000
0.594100 0.724197 0.000000
0.723655 0.723655 0.000000
0.857814 0.723093 0.000000
0.971647 0.722617 0.000000
1.000000 0.722475 0.000000
1.000000 0.722475 0.000000
1.000000 0.722475 0.000000
0.000000 0.859559 0.000000
0.000000 0.859548 0.000000
0.005812 0.859483 0.000000
0.044428 0.859322 0.000000
0.097171 0.859101 0.000000
0.159866 0.858838 0.000000
0.230457 0.858543 0.000000
0.306974 0.858222 0.000000
0.387396 0.857886 0.000000
0.479442 0.857500 0.000000
0.592211 0.857028 0.000000
0.721765 0.856486 0.000000
0.855925 0.855925 0.000000
0.969758 0.855448 0.000000
1.000000 0.855307 0.000000
1.000000 0.855307 0.000000
1.000000 0.855307 0.000000
0.000000 0.972265 0.000000
0.000000 0.972255 0.000000
0.004209 0.972190 0.000000
0.042825 0.972028 0.000000
0.095568 0.971807 0.000000
0.158263 0.971545 0.000000
0.228854 0.971249 0.000000
0.305371 0.970929 0.000000
0.385793 0.970592 0.000000
0.477838 0.970207 0.000000
0.590608 0.969735 0.000000
0.720162 0.969193 0.000000
0.854321 0.968631 0.000000
0.968155 0.968155 0.000000
1.000000 0.968013 0.000000
1.000000 0.968013 0.000000
1.000000 0.968013 0.000000
0.000000 1.000000 0.000000
0.000000 1.000000 0.000000
0.003734 1.000000 0.000000
0.042350 1.000000 0.000000
0.095092 1.000000 0.000000
0.157788 1.000000 0.000000
0.228378 1.000000 0.000000
0.304896 1.000000 0.000000
0.385317 1.000000 0.000000
0.477363 1.000000 0.000000
0.590133 1.000000 0.000000
0.719687 1.000000 0.000000
0.853846 1.000000 0.000000
0.967679 1.000000 0.000000
1.000000 1.000000 0.000000
1.000000 1.000000 0.000000
1.000000 1.000000 0.000000
0.000000 1.000000 0.000000
0.000000 1.000000 0.000000
0.003734 1.000000 0.000000
0.042350 1.000000 0.000000
0.095092 1.000000 0.000000
0.157788 1.000000 0.000000
0.228378 1.000000 0.000000
0.304896 1.000000 0.000000
0.385317 1.000000 0.000000
0.477363 1.000000 0.000000
0.590133 1.000000 0.000000
0.719687 1.000000 0.000000
0.853846 1.000000 0.000000
0.967679 1.000000 0.000000
1.000000 1.000000 0.000000
1.000000 1.000000 0.000000
1.000000 1.000000 0.000000
0.000000 1.000000 0.000000
0.000000 1.000000 0.000000
0.003734 1.000000 0.000000
0.042350 1.000000 0.000000
0.095092 1.000000 0.000000
0.157788 1.000000 0.000000
0.228378 1.000000 0.000000
0.304896 1.000000 0.000000
0.385317 1.000000 0.000000
0.477363 1.000000 0.000000
0.590133 1.000000 0.000000
0.719687 1.000000 0.000000
0.853846 1.000000 0.000000
0.967679 1.000000 0.000000
1.000000 1.000000 0.000000
1.000000 1.000000 0.000000
1.000000 1.000000 0.000000
0.000000 0.000000 0.018091
0.002456 0.000000 0.018081
0.018015 0.000000 0.018015
0.056632 0.000000 0.017854
0.109374 0.000000 0.017633
0.172069 0.000000 0.017371
0.242660 0.000000 0.017075
0.319177 0.000000 0.016755
0.399599 0.000000 0.016418
0.491645 0.000000 0.016033
0.604414 0.000000 0.015561
0.733969 0.000000 0.015018
0.868128 0.000000 0.014457
0.981961 0.000000 0.013980
1.000000 0.000000 0.013839
1.000000 0.000000 0.013839
1.000000 0.000000 0.013839
0.000000 0.002431 0.018056
0.002421 0.002421 0.018046
0.017980 0.002356 0.017980
0.056597 0.002194 0.017819
0.109339 0.001973 0.017598
0.172034 0.001711 0.017336
0.242625 0.001415 0.017040
0.319143 0.001095 0.016720
0.399564 0.000758 0.016383
0.491610 0.000373 0.015998
0.604380 0.000000 0.015526
0.733934 0.000000 0.014983
0.868093 0.000000 0.014422
0.981926 0.000000 0.013945
1.000000 0.000000 0.013804
1.000000 0.000000 0.013804
1.000000 0.000000 0.013804
0.000000 0.017837 0.017837
0.002202 0.017826 0.017826
0.017761 0.017761 0.017761
0.056378 0.017600 0.017600
0.109120 0.017379 0.017379
0.171815 0.017116 0.017116
0.242406 0.016821 0.016821
0.318923 0.016501 0.016501
0.399345 0.016164 0.016164
0.491391 0.015779 0.015779
0.604160 0.015307 0.015307
0.733715 0.014764 0.014764
0.867874 0.014203 0.014203
0.981707 0.013726 0.013726
1.000000 0.013585 0.013585
1.000000 0.013585 0.013585
1.000000 0.013585 0.013585
0.000000 0.056071 0.017293
0.001658 0.056061 0.017283
0.017218 0.055996 0.017218
0.055834 0.055834 0.017056
0.108576 0.055613 0.016835
0.171272 0.055351 0.016573
0.241862 0.055055 0.016277
0.318380 0.054735 0.015957
0.398801 0.054398 0.015620
0.490847 0.054013 0.015235
0.603617 0.053541 0.014763
0.733171 0.052999 0.014221
0.867330 0.052437 0.013659
0.981163 0.051961 0.013182
1.000000 0.051819 0.013041
1.000000 0.051819 0.013041
1.000000 0.051819 0.013041
0.000000 0.108292 0.016550
0.000915 0.108281 0.016540
0.016475 0.108216 0.016475
0.055091 0.108055 0.016313
0.107834 0.107834 0.016092
0.170529 0.107571 0.015830
0.241120 0.107276 0.015534
0.317637 0.106955 0.015214
0.398058 0.106619 0.014877
0.490104 0.106234 0.014492
0.602874 0.105761 0.014020
0.732428 0.105219 0.013478
0.866587 0.104658 0.012916
0.980421 0.104181 0.012440
1.000000 0.104040 0.012298
1.000000 0.104040 0.012298
1.000000 0.104040 0.012298
0.000000 0.170366 0.015667
0.000032 0.170356 0.015657
0.015592 0.170291 0.015592
0.054208 0.170129 0.015430
0.106951 0.169908 0.015209
0.169646 0.169646 0.014947
0.240237 0.169350 0.014652
0.316754 0.169030 0.014331
0.397175 0.168693 0.013995
0.489221 0.168308 0.013609
0.601991 0.167836 0.013137
0.731545 0.167294 0.012595
0.865704 0.166732 0.012033
0.979538 0.166256 0.011557
1.000000 0.166114 0.011415
1.000000 0.166114 0.011415
1.000000 0.166114 0.011415
0.000000 0.240258 0.014673
0.000000 0.240248 0.014663
0.014598 0.240183 0.014598
0.053214 0.240021 0.014436
0.105957 0.239801 0.014215
0.168652 0.239538 0.013953
0.239243 0.239243 0.013657
0.315760 0.238922 0.013337
0.396181 0.238586 0.013001
0.488227 0.238200 0.012615
0.600997 0.237728 0.012143
0.730551 0.237186 0.011601
0.864710 0.236624 0.011039
0.978544 0.236148 0.010563
1.000000 0.236006 0.010421
1.000000 0.236006 0.010421
1.000000 0.236006 0.010421
0.000000 0.316019 0.013596
0.000000 0.316008 0.013585
0.013520 0.315943 0.013520
0.052137 0.315781 0.013359
0.104879 0.315561 0.013138
0.167574 0.315298 0.012875
0.238165 0.315003 0.012580
0.314682 0.314682 0.012260
0.395104 0.314346 0.011923
0.487150 0.313960 0.011538
0.599919 0.313488 0.011066
0.729474 0.312946 0.010523
0.863633 0.312384 0.009962
0.977466 0.311908 0.009485
1.000000 0.311767 0.009344
1.000000 0.311767 0.009344
1.000000 0.311767 0.009344
0.000000 0.395644 0.012463
0.000000 0.395634 0.012453
0.012388 0.395569 0.012388
0.051004 0.395407 0.012226
0.103747 0.395186 0.012005
0.166442 0.394924 0.011743
0.237033 0.394628 0.011447
0.313550 0.394308 0.011127
0.393971 0.393971 0.010790
0.486017 0.393586 0.010405
0.598787 0.393114 0.009933
0.728341 0.392572 0.009391
0.862500 0.392010 0.008829
0.976333 0.391534 0.008353
1.000000 0.391392 0.008211
1.000000 0.391392 0.008211
1.000000 0.391392 0.008211
0.000000 0.486779 0.011167
0.000000 0.486769 0.011157
0.011092 0.486704 0.011092
0.049708 0.486542 0.010930
0.102451 0.486321 0.010709
0.165146 0.486059 0.010447
0.235736 0.485763 0.010151
0.312254 0.485443 0.009831
0.392675 0.485106 0.009494
0.484721 0.484721 0.009109
0.597491 0.484249 0.008637
0.727045 0.483707 0.008095
0.861204 0.483145 0.007533
0.975037 0.482669 0.007056
1.000000 0.482527 0.006915
1.000000 0.482527 0.006915
1.000000 0.482527 0.006915
0.000000 0.598433 0.009579
0.000000 0.598422 0.009569
0.009504 0.598357 0.009504
0.048120 0.598196 0.009342
0.100862 0.597975 0.009121
0.163558 0.597712 0.008859
0.234148 0.597417 0.008563
0.310666 0.597097 0.008243
0.391087 0.596760 0.007906
0.483133 0.596375 0.007521
0.595903 0.595903 0.007049
0.725457 0.595360 0.006507
0.859616 0.594799 0.005945
0.973449 0.594322 0.005468
1.000000 0.594181 0.005327
1.000000 0.594181 0.005327
1.000000 0.594181 0.005327
0.000000 0.726705 0.007755
0.000000 0.726695 0.007744
0.007679 0.726630 0.007679
0.046296 0.726468 0.007517
0.099038 0.726247 0.007297
0.161733 0.725985 0.007034
0.232324 0.725689 0.006739
0.308841 0.725369 0.006418
0.389263 0.725032 0.006082
0.481309 0.724647 0.005696
0.594078 0.724175 0.005224
0.723633 0.723633 0.004682
0.857792 0.723071 0.004120
0.971625 0.722594 0.003644
1.000000 0.722453 0.003503
1.000000 0.722453 0.003503
1.000000 0.722453 0.003503
0.000000 0.859537 0.005865
0.000000 0.859526 0.005855
0.005790 0.859461 0.005790
0.044406 0.859299 0.005628
0.097149 0.859079 0.005407
0.159844 0.858816 0.005145
0.230435 0.858521 0.004849
0.306952 0.858200 0.004529
0.387373 0.857864 0.004193
0.479419 0.857478 0.003807
0.592189 0.857006 0.003335
0.721743 0.856464 0.002793
0.855902 0.855902 0.002231
0.969736 0.855426 0.001755
1.000000 0.855285 0.001613
1.000000 0.855285 0.001613
1.000000 0.855285 0.001613
0.000000 0.972243 0.004262
0.000000 0.972233 0.004252
0.004187 0.972168 0.004187
0.042803 0.972006 0.004025
0.095546 0.971785 0.003804
0.158241 0.971523 0.003542
0.228832 0.971227 0.003246
0.305349 0.970907 0.002926
0.385770 0.970570 0.002590
0.477816 0.970185 0.002204
0.590586 0.969713 0.001732
0.720140 0.969171 0.001190
0.854299 0.968609 0.000628
0.968133 0.968133 0.000152
1.000000 0.967991 0.000010
1.000000 0.967991 0.000010
1.000000 0.967991 0.000010
0.000000 1.000000 0.003787
0.000000 1.000000 0.003777
0.003711 1.000000 0.003711
0.042328 1.000000 0.003550
0.095070 1.000000 0.003329
0.157765 1.000000 0.003067
0.228356 1.000000 0.002771
0.304873 1.000000 0.002451
0.385295 1.000000 0.002114
0.477341 1.000000 0.001729
0.590110 1.000000 0.001257
0.719665 1.000000 0.000714
0.853824 1.000000 0.000153
0.967657 1.000000 0.000000
1.000000 1.000000 0.000000
1.000000 1.000000 0.000000
1.000000 1.000000 0.000000
0.000000 1.000000 0.003787
0.000000 1.000000 0.003777
0.003711 1.000000 0.003711
0.042328 1.000000 0.003550
0.095070 1.000000 0.003329
0.157765 1.000000 0.003067
0.228356 1.000000 0.002771
0.304873 1.000000 0.002451
0.385295 1.000000 0.002114
0.477341 1.000000 0.001729
0.590110 1.000000 0.001257
0.719665 1.000000 0.000714
0.853824 1.000000 0.000153
0.967657 1.000000 0.000000
1.000000 1.000000 0.000000
1.000000 1.000000 0.000000
1.000000 1.000000 0.000000
0.000000 1.000000 0.003787
0.000000 1.000000 0.003777
0.003711 1.000000 0.003711
0.042328 1.000000 0.003550
0.095070 1.000000 0.003329
0.157765 1.000000 0.003067
0.228356 1.000000 0.002771
0.304873 1.000000 0.002451
0.385295 1.000000 0.002114
0.477341 1.000000 0.001729
0.590110 1.000000 0.001257
0.719665 1.000000 0.000714
0.853824 1.000000 0.000153
0.967657 1.000000 0.000000
1.000000 1.000000 0.000000
1.000000 1.000000 0.000000
1.000000 1.000000 0.000000
0.000000 0.000000 0.056814
0.002401 0.000000 0.056804
0.017961 0.000000 0.056739
0.056577 0.000000 0.056577
0.109319 0.000000 0.056356
0.172014 0.000000 0.056094
0.242605 0.000000 0.055798
0.319123 0.000000 0.055478
0.399544 0.000000 0.055141
0.491590 0.000000 0.054756
0.604360 0.000000 0.054284
0.733914 0.000000 0.053742
0.868073 0.000000 0.053180
0.981906 0.000000 0.052704
1.000000 0.000000 0.052562
1.000000 0.000000 0.052562
1.000000 0.000000 0.052562
0.000000 0.002376 0.056779
0.002366 0.002366 0.056769
0.017926 0.002301 0.056704
