assets/presets/luts/hlg-rec709/lut.cube
TITLE "HLG to Rec.709"
LUT_3D_SIZE 5
0.000000 0.000000 0.000000
0.109400 0.000000 0.000000
0.399625 0.000000 0.000000
0.868154 0.000000 0.000000
1.000000 0.000000 0.000000
0.000000 0.108317 0.000000
0.107859 0.107859 0.000000
0.398084 0.106644 0.000000
0.866613 0.104683 0.000000
1.000000 0.104065 0.000000
0.000000 0.395670 0.000000
0.103772 0.395212 0.000000
0.393997 0.393997 0.000000
0.862526 0.392036 0.000000
1.000000 0.391418 0.000000
0.000000 0.859562 0.000000
0.097174 0.859104 0.000000
0.387399 0.857889 0.000000
0.855928 0.855928 0.000000
1.000000 0.855310 0.000000
0.000000 1.000000 0.000000
0.095096 1.000000 0.000000
0.385321 1.000000 0.000000
0.853850 1.000000 0.000000
1.000000 1.000000 0.000000
0.000000 0.000000 0.109702
0.109244 0.000000 0.109244
0.399469 0.000000 0.108030
0.867998 0.000000 0.106068
1.000000 0.000000 0.105450
0.000000 0.108162 0.108162
0.107704 0.107704 0.107704
0.397929 0.106489 0.106489
0.866457 0.104528 0.104528
1.000000 0.103910 0.103910
0.000000 0.395514 0.104075
0.103617 0.395056 0.103617
0.393841 0.393841 0.102402
0.862370 0.391880 0.100441
1.000000 0.391262 0.099823
0.000000 0.859407 0.097477
0.097019 0.858949 0.097019
0.387244 0.857734 0.095804
0.855773 0.855773 0.093843
1.000000 0.855155 0.093225
0.000000 1.000000 0.095398
0.094940 1.000000 0.094940
0.385165 1.000000 0.093726
0.853694 1.000000 0.091764
1.000000 1.000000 0.091146
0.000000 0.000000 0.400729
0.108832 0.000000 0.400271
0.399056 0.000000 0.399056
0.867585 0.000000 0.397095
1.000000 0.000000 0.396477
0.000000 0.107749 0.399189
0.107291 0.107291 0.398731
0.397516 0.106076 0.397516
0.866045 0.104115 0.395555
1.000000 0.103497 0.394937
0.000000 0.395102 0.395102
0.103204 0.394644 0.394644
0.393429 0.393429 0.393429
0.861958 0.391468 0.391468
1.000000 0.390850 0.390850
0.000000 0.858994 0.388504
0.096606 0.858536 0.388046
0.386831 0.857321 0.386831
0.855360 0.855360 0.384870
1.000000 0.854742 0.384252
0.000000 1.000000 0.386425
0.094528 1.000000 0.385967
0.384753 1.000000 0.384753
0.853281 1.000000 0.382791
1.000000 1.000000 0.382173
0.000000 0.000000 0.870554
0.108166 0.000000 0.870096
0.398390 0.000000 0.868881
0.866919 0.000000 0.866919
1.000000 0.000000 0.866302
0.000000 0.107083 0.869013
0.106625 0.106625 0.868555
0.396850 0.105410 0.867340
0.865379 0.103449 0.865379
1.000000 0.102831 0.864761
0.000000 0.394436 0.864926
0.102538 0.393978 0.864468
0.392763 0.392763 0.863253
0.861292 0.390802 0.861292
1.000000 0.390184 0.860674
0.000000 0.858328 0.858328
0.095940 0.857870 0.857870
0.386165 0.856655 0.856655
0.854694 0.854694 0.854694
1.000000 0.854076 0.854076
0.000000 1.000000 0.856250
0.093862 1.000000 0.855792
0.384086 1.000000 0.854577
0.852615 1.000000 0.852615
1.000000 1.000000 0.851998
0.000000 0.000000 1.000000
0.107956 0.000000 1.000000
0.398181 0.000000 1.000000
0.866710 0.000000 1.000000
1.000000 0.000000 1.000000
0.000000 0.106873 1.000000
0.106415 0.106415 1.000000
0.396640 0.105200 1.000000
0.865169 0.103239 1.000000
1.000000 0.102621 1.000000
0.000000 0.394226 1.000000
0.102328 0.393768 1.000000
0.392553 0.392553 1.000000
0.861082 0.390592 1.000000
1.000000 0.389974 1.000000
0.000000 0.858118 1.000000
0.095730 0.857660 1.000000
0.385955 0.856445 1.000000
0.854484 0.854484 1.000000
1.000000 0.853866 1.000000
0.000000 1.000000 1.000000
0.093652 1.000000 1.000000
0.383877 1.000000 1.000000
0.852406 1.000000 1.000000
1.000000 1.000000 1.000000
