assets/presets/luts/hlg-rec709/lut.cube
TITLE "HLG to Rec.709"
LUT_3D_SIZE 9
0.000000 0.000000 0.000000
0.018041 0.000000 0.000000
0.109400 0.000000 0.000000
0.242686 0.000000 0.000000
0.399625 0.000000 0.000000
0.604440 0.000000 0.000000
0.868154 0.000000 0.000000
1.000000 0.000000 0.000000
1.000000 0.000000 0.000000
0.000000 0.017863 0.000000
0.017787 0.017787 0.000000
0.109146 0.017405 0.000000
0.242432 0.016847 0.000000
0.399371 0.016190 0.000000
0.604186 0.015332 0.000000
0.867900 0.014228 0.000000
1.000000 0.013611 0.000000
1.000000 0.013611 0.000000
0.000000 0.108317 0.000000
0.016500 0.108242 0.000000
0.107859 0.107859 0.000000
0.241145 0.107301 0.000000
0.398084 0.106644 0.000000
0.602899 0.105787 0.000000
0.866613 0.104683 0.000000
1.000000 0.104065 0.000000
1.000000 0.104065 0.000000
0.000000 0.240284 0.000000
0.014624 0.240209 0.000000
0.105982 0.239826 0.000000
0.239268 0.239268 0.000000
0.396207 0.238611 0.000000
0.601023 0.237754 0.000000
0.864736 0.236650 0.000000
1.000000 0.236032 0.000000
1.000000 0.236032 0.000000
0.000000 0.395670 0.000000
0.012413 0.395594 0.000000
0.103772 0.395212 0.000000
0.237058 0.394654 0.000000
0.393997 0.393997 0.000000
0.598813 0.393140 0.000000
0.862526 0.392036 0.000000
1.000000 0.391418 0.000000
1.000000 0.391418 0.000000
0.000000 0.598458 0.000000
0.009529 0.598383 0.000000
0.100888 0.598001 0.000000
0.234174 0.597443 0.000000
0.391113 0.596786 0.000000
0.595928 0.595928 0.000000
0.859642 0.594824 0.000000
1.000000 0.594207 0.000000
1.000000 0.594207 0.000000
0.000000 0.859562 0.000000
0.005816 0.859487 0.000000
0.097174 0.859104 0.000000
0.230460 0.858546 0.000000
0.387399 0.857889 0.000000
0.592215 0.857032 0.000000
0.855928 0.855928 0.000000
1.000000 0.855310 0.000000
1.000000 0.855310 0.000000
0.000000 1.000000 0.000000
0.003737 1.000000 0.000000
0.095096 1.000000 0.000000
0.228382 1.000000 0.000000
0.385321 1.000000 0.000000
0.590136 1.000000 0.000000
0.853850 1.000000 0.000000
1.000000 1.000000 0.000000
1.000000 1.000000 0.000000
0.000000 1.000000 0.000000
0.003737 1.000000 0.000000
0.095096 1.000000 0.000000
0.228382 1.000000 0.000000
0.385321 1.000000 0.000000
0.590136 1.000000 0.000000
0.853850 1.000000 0.000000
1.000000 1.000000 0.000000
1.000000 1.000000 0.000000
0.000000 0.000000 0.018091
0.018015 0.000000 0.018015
0.109374 0.000000 0.017633
0.242660 0.000000 0.017075
0.399599 0.000000 0.016418
0.604414 0.000000 0.015561
0.868128 0.000000 0.014457
1.000000 0.000000 0.013839
1.000000 0.000000 0.013839
0.000000 0.017837 0.017837
0.017761 0.017761 0.017761
0.109120 0.017379 0.017379
0.242406 0.016821 0.016821
0.399345 0.016164 0.016164
0.604160 0.015307 0.015307
0.867874 0.014203 0.014203
1.000000 0.013585 0.013585
1.000000 0.013585 0.013585
0.000000 0.108292 0.016550
0.016475 0.108216 0.016475
0.107834 0.107834 0.016092
0.241120 0.107276 0.015534
0.398058 0.106619 0.014877
0.602874 0.105761 0.014020
0.866587 0.104658 0.012916
1.000000 0.104040 0.012298
1.000000 0.104040 0.012298
0.000000 0.240258 0.014673
0.014598 0.240183 0.014598
0.105957 0.239801 0.014215
0.239243 0.239243 0.013657
0.396181 0.238586 0.013001
0.600997 0.237728 0.012143
0.864710 0.236624 0.011039
1.000000 0.236006 0.010421
1.000000 0.236006 0.010421
0.000000 0.395644 0.012463
0.012388 0.395569 0.012388
0.103747 0.395186 0.012005
0.237033 0.394628 0.011447
0.393971 0.393971 0.010790
0.598787 0.393114 0.009933
0.862500 0.392010 0.008829
1.000000 0.391392 0.008211
1.000000 0.391392 0.008211
0.000000 0.598433 0.009579
0.009504 0.598357 0.009504
0.100862 0.597975 0.009121
0.234148 0.597417 0.008563
0.391087 0.596760 0.007906
0.595903 0.595903 0.007049
0.859616 0.594799 0.005945
1.000000 0.594181 0.005327
1.000000 0.594181 0.005327
0.000000 0.859537 0.005865
0.005790 0.859461 0.005790
0.097149 0.859079 0.005407
0.230435 0.858521 0.004849
0.387373 0.857864 0.004193
0.592189 0.857006 0.003335
0.855902 0.855902 0.002231
1.000000 0.855285 0.001613
1.000000 0.855285 0.001613
0.000000 1.000000 0.003787
0.003711 1.000000 0.003711
0.095070 1.000000 0.003329
0.228356 1.000000 0.002771
0.385295 1.000000 0.002114
0.590110 1.000000 0.001257
0.853824 1.000000 0.000153
1.000000 1.000000 0.000000
1.000000 1.000000 0.000000
0.000000 1.000000 0.003787
0.003711 1.000000 0.003711
0.095070 1.000000 0.003329
0.228356 1.000000 0.002771
0.385295 1.000000 0.002114
0.590110 1.000000 0.001257
0.853824 1.000000 0.000153
1.000000 1.000000 0.000000
1.000000 1.000000 0.000000
0.000000 0.000000 0.109702
0.017886 0.000000 0.109627
0.109244 0.000000 0.109244
0.242530 0.000000 0.108687
0.399469 0.000000 0.108030
0.604285 0.000000 0.107172
0.867998 0.000000 0.106068
1.000000 0.000000 0.105450
1.000000 0.000000 0.105450
0.000000 0.017707 0.109448
0.017631 0.017631 0.109373
0.108990 0.017249 0.108990
0.242276 0.016691 0.108432
0.399215 0.016034 0.107776
0.604031 0.015177 0.106918
0.867744 0.014073 0.105814
1.000000 0.013455 0.105196
1.000000 0.013455 0.105196
0.000000 0.108162 0.108162
0.016345 0.108086 0.108086
0.107704 0.107704 0.107704
0.240990 0.107146 0.107146
0.397929 0.106489 0.106489
0.602744 0.105632 0.105632
0.866457 0.104528 0.104528
1.000000 0.103910 0.103910
1.000000 0.103910 0.103910
0.000000 0.240129 0.106285
0.014468 0.240053 0.106209
0.105827 0.239671 0.105827
0.239113 0.239113 0.105269
0.396052 0.238456 0.104612
0.600867 0.237598 0.103755
0.864581 0.236494 0.102651
1.000000 0.235877 0.102033
1.000000 0.235877 0.102033
0.000000 0.395514 0.104075
0.012258 0.395439 0.103999
0.103617 0.395056 0.103617
0.236903 0.394498 0.103059
0.393841 0.393841 0.102402
0.598657 0.392984 0.101545
0.862370 0.391880 0.100441
1.000000 0.391262 0.099823
1.000000 0.391262 0.099823
0.000000 0.598303 0.101191
0.009374 0.598227 0.101115
0.100733 0.597845 0.100733
0.234018 0.597287 0.100175
0.390957 0.596630 0.099518
0.595773 0.595773 0.098660
0.859486 0.594669 0.097556
1.000000 0.594051 0.096939
1.000000 0.594051 0.096939
0.000000 0.859407 0.097477
0.005660 0.859331 0.097401
0.097019 0.858949 0.097019
0.230305 0.858391 0.096461
0.387244 0.857734 0.095804
0.592059 0.856876 0.094947
0.855773 0.855773 0.093843
1.000000 0.855155 0.093225
1.000000 0.855155 0.093225
0.000000 1.000000 0.095398
0.003582 1.000000 0.095323
0.094940 1.000000 0.094940
0.228226 1.000000 0.094383
0.385165 1.000000 0.093726
0.589981 1.000000 0.092868
0.853694 1.000000 0.091764
1.000000 1.000000 0.091146
1.000000 1.000000 0.091146
0.000000 1.000000 0.095398
0.003582 1.000000 0.095323
0.094940 1.000000 0.094940
0.228226 1.000000 0.094383
0.385165 1.000000 0.093726
0.589981 1.000000 0.092868
0.853694 1.000000 0.091764
1.000000 1.000000 0.091146
1.000000 1.000000 0.091146
0.000000 0.000000 0.243357
0.017696 0.000000 0.243281
0.109055 0.000000 0.242899
0.242341 0.000000 0.242341
0.399280 0.000000 0.241684
0.604095 0.000000 0.240826
0.867809 0.000000 0.239723
1.000000 0.000000 0.239105
1.000000 0.000000 0.239105
0.000000 0.017518 0.243103
0.017442 0.017442 0.243027
0.108801 0.017060 0.242645
0.242087 0.016502 0.242087
0.399026 0.015845 0.241430
0.603841 0.014987 0.240572
0.867555 0.013883 0.239468
1.000000 0.013266 0.238851
1.000000 0.013266 0.238851
0.000000 0.107972 0.241816
0.016155 0.107897 0.241741
0.107514 0.107514 0.241358
0.240800 0.106956 0.240800
0.397739 0.106299 0.240143
0.602555 0.105442 0.239286
0.866268 0.104338 0.238182
1.000000 0.103720 0.237564
1.000000 0.103720 0.237564
0.000000 0.239939 0.239939
0.014279 0.239864 0.239864
0.105637 0.239481 0.239481
0.238923 0.238923 0.238923
0.395862 0.238266 0.238266
0.600678 0.237409 0.237409
0.864391 0.236305 0.236305
1.000000 0.235687 0.235687
1.000000 0.235687 0.235687
0.000000 0.395325 0.237729
0.012068 0.395249 0.237654
0.103427 0.394867 0.237271
0.236713 0.394309 0.236713
0.393652 0.393652 0.236056
0.598468 0.392795 0.235199
0.862181 0.391691 0.234095
1.000000 0.391073 0.233477
1.000000 0.391073 0.233477
0.000000 0.598113 0.234845
0.009184 0.598038 0.234769
0.100543 0.597656 0.234387
0.233829 0.597098 0.233829
0.390768 0.596441 0.233172
0.595583 0.595583 0.232315
0.859297 0.594479 0.231211
1.000000 0.593861 0.230593
1.000000 0.593861 0.230593
0.000000 0.859217 0.231131
0.005471 0.859142 0.231056
0.096829 0.858759 0.230673
0.230115 0.858201 0.230115
0.387054 0.857544 0.229458
0.591870 0.856687 0.228601
0.855583 0.855583 0.227497
1.000000 0.854965 0.226879
1.000000 0.854965 0.226879
0.000000 1.000000 0.229053
0.003392 1.000000 0.228977
0.094751 1.000000 0.228595
0.228037 1.000000 0.228037
0.384976 1.000000 0.227380
0.589791 1.000000 0.226522
0.853505 1.000000 0.225419
1.000000 1.000000 0.224801
1.000000 1.000000 0.224801
0.000000 1.000000 0.229053
0.003392 1.000000 0.228977
0.094751 1.000000 0.228595
0.228037 1.000000 0.228037
0.384976 1.000000 0.227380
0.589791 1.000000 0.226522
0.853505 1.000000 0.225419
1.000000 1.000000 0.224801
1.000000 1.000000 0.224801
0.000000 0.000000 0.400729
0.017473 0.000000 0.400654
0.108832 0.000000 0.400271
0.242118 0.000000 0.399713
0.399056 0.000000 0.399056
0.603872 0.000000 0.398199
0.867585 0.000000 0.397095
1.000000 0.000000 0.396477
1.000000 0.000000 0.396477
0.000000 0.017294 0.400475
0.017219 0.017219 0.400400
0.108578 0.016836 0.400017
0.241864 0.016279 0.399459
0.398802 0.015622 0.398802
0.603618 0.014764 0.397945
0.867331 0.013660 0.396841
1.000000 0.013042 0.396223
1.000000 0.013042 0.396223
0.000000 0.107749 0.399189
0.015932 0.107674 0.399113
0.107291 0.107291 0.398731
0.240577 0.106733 0.398173
0.397516 0.106076 0.397516
0.602331 0.105219 0.396659
0.866045 0.104115 0.395555
1.000000 0.103497 0.394937
1.000000 0.103497 0.394937
0.000000 0.239716 0.397312
0.014055 0.239640 0.397236
0.105414 0.239258 0.396854
0.238700 0.238700 0.396296
0.395639 0.238043 0.395639
0.600454 0.237186 0.394782
0.864168 0.236082 0.393678
1.000000 0.235464 0.393060
1.000000 0.235464 0.393060
0.000000 0.395102 0.395102
0.011845 0.395026 0.395026
0.103204 0.394644 0.394644
0.236490 0.394086 0.394086
0.393429 0.393429 0.393429
0.598244 0.392572 0.392572
0.861958 0.391468 0.391468
1.000000 0.390850 0.390850
1.000000 0.390850 0.390850
0.000000 0.597890 0.392217
0.008961 0.597815 0.392142
0.100320 0.597432 0.391760
0.233606 0.596874 0.391202
0.390545 0.596218 0.390545
0.595360 0.595360 0.389687
0.859074 0.594256 0.388583
1.000000 0.593638 0.387966
1.000000 0.593638 0.387966
0.000000 0.858994 0.388504
0.005247 0.858919 0.388428
0.096606 0.858536 0.388046
0.229892 0.857978 0.387488
0.386831 0.857321 0.386831
0.591646 0.856464 0.385974
0.855360 0.855360 0.384870
1.000000 0.854742 0.384252
1.000000 0.854742 0.384252
0.000000 1.000000 0.386425
0.003169 1.000000 0.386350
0.094528 1.000000 0.385967
0.227814 1.000000 0.385409
0.384753 1.000000 0.384753
0.589568 1.000000 0.383895
0.853281 1.000000 0.382791
1.000000 1.000000 0.382173
1.000000 1.000000 0.382173
0.000000 1.000000 0.386425
0.003169 1.000000 0.386350
0.094528 1.000000 0.385967
0.227814 1.000000 0.385409
0.384753 1.000000 0.384753
0.589568 1.000000 0.383895
0.853281 1.000000 0.382791
1.000000 1.000000 0.382173
1.000000 1.000000 0.382173
0.000000 0.000000 0.606111
0.017182 0.000000 0.606036
0.108541 0.000000 0.605653
0.241827 0.000000 0.605095
0.398765 0.000000 0.604438
0.603581 0.000000 0.603581
0.867294 0.000000 0.602477
1.000000 0.000000 0.601859
1.000000 0.000000 0.601859
0.000000 0.017003 0.605857
0.016928 0.016928 0.605781
0.108287 0.016545 0.605399
0.241572 0.015987 0.604841
0.398511 0.015330 0.604184
0.603327 0.014473 0.603327
0.867040 0.013369 0.602223
1.000000 0.012751 0.601605
1.000000 0.012751 0.601605
0.000000 0.107458 0.604570
0.015641 0.107383 0.604495
0.107000 0.107000 0.604113
0.240286 0.106442 0.603555
0.397225 0.105785 0.602898
0.602040 0.104928 0.602040
0.865754 0.103824 0.600936
1.000000 0.103206 0.600318
1.000000 0.103206 0.600318
0.000000 0.239425 0.602693
0.013764 0.239349 0.602618
0.105123 0.238967 0.602236
0.238409 0.238409 0.601678
0.395348 0.237752 0.601021
0.600163 0.236895 0.600163
0.863877 0.235791 0.599059
1.000000 0.235173 0.598442
1.000000 0.235173 0.598442
0.000000 0.394811 0.600483
0.011554 0.394735 0.600408
0.102913 0.394353 0.600026
0.236199 0.393795 0.599468
0.393138 0.393138 0.598811
0.597953 0.392280 0.597953
0.861667 0.391176 0.596849
1.000000 0.390559 0.596231
1.000000 0.390559 0.596231
0.000000 0.597599 0.597599
0.008670 0.597524 0.597524
0.100029 0.597141 0.597141
0.233315 0.596583 0.596583
0.390253 0.595926 0.595926
0.595069 0.595069 0.595069
0.858782 0.593965 0.593965
1.000000 0.593347 0.593347
1.000000 0.593347 0.593347
0.000000 0.858703 0.593886
0.004956 0.858627 0.593810
0.096315 0.858245 0.593428
0.229601 0.857687 0.592870
0.386540 0.857030 0.592213
0.591355 0.856173 0.591355
0.855069 0.855069 0.590251
1.000000 0.854451 0.589634
1.000000 0.854451 0.589634
0.000000 1.000000 0.591807
0.002878 1.000000 0.591732
0.094237 1.000000 0.591349
0.227522 1.000000 0.590791
0.384461 1.000000 0.590134
0.589277 1.000000 0.589277
0.852990 1.000000 0.588173
1.000000 1.000000 0.587555
1.000000 1.000000 0.587555
0.000000 1.000000 0.591807
0.002878 1.000000 0.591732
0.094237 1.000000 0.591349
0.227522 1.000000 0.590791
0.384461 1.000000 0.590134
0.589277 1.000000 0.589277
0.852990 1.000000 0.588173
1.000000 1.000000 0.587555
1.000000 1.000000 0.587555
0.000000 0.000000 0.870554
0.016807 0.000000 0.870478
0.108166 0.000000 0.870096
0.241452 0.000000 0.869538
0.398390 0.000000 0.868881
0.603206 0.000000 0.868023
0.866919 0.000000 0.866919
1.000000 0.000000 0.866302
1.000000 0.000000 0.866302
0.000000 0.016628 0.870300
0.016553 0.016553 0.870224
0.107912 0.016170 0.869842
0.241198 0.015612 0.869284
0.398136 0.014955 0.868627
0.602952 0.014098 0.867769
0.866665 0.012994 0.866665
1.000000 0.012376 0.866048
1.000000 0.012376 0.866048
0.000000 0.107083 0.869013
0.015266 0.107008 0.868937
0.106625 0.106625 0.868555
0.239911 0.106067 0.867997
0.396850 0.105410 0.867340
0.601665 0.104553 0.866483
0.865379 0.103449 0.865379
1.000000 0.102831 0.864761
1.000000 0.102831 0.864761
0.000000 0.239050 0.867136
0.013389 0.238974 0.867060
0.104748 0.238592 0.866678
0.238034 0.238034 0.866120
0.394973 0.237377 0.865463
0.599788 0.236520 0.864606
0.863502 0.235416 0.863502
1.000000 0.234798 0.862884
1.000000 0.234798 0.862884
0.000000 0.394436 0.864926
0.011179 0.394360 0.864850
0.102538 0.393978 0.864468
0.235824 0.393420 0.863910
0.392763 0.392763 0.863253
0.597578 0.391905 0.862396
0.861292 0.390802 0.861292
1.000000 0.390184 0.860674
1.000000 0.390184 0.860674
0.000000 0.597224 0.862042
0.008295 0.597149 0.861966
0.099654 0.596766 0.861584
0.232940 0.596208 0.861026
0.389879 0.595551 0.860369
0.594694 0.594694 0.859511
0.858408 0.593590 0.858408
1.000000 0.592972 0.857790
1.000000 0.592972 0.857790
0.000000 0.858328 0.858328
0.004581 0.858253 0.858253
0.095940 0.857870 0.857870
0.229226 0.857312 0.857312
0.386165 0.856655 0.856655
0.590980 0.855798 0.855798
0.854694 0.854694 0.854694
1.000000 0.854076 0.854076
1.000000 0.854076 0.854076
0.000000 1.000000 0.856250
0.002503 1.000000 0.856174
0.093862 1.000000 0.855792
0.227148 1.000000 0.855234
0.384086 1.000000 0.854577
0.588902 1.000000 0.853719
0.852615 1.000000 0.852615
1.000000 1.000000 0.851998
1.000000 1.000000 0.851998
0.000000 1.000000 0.856250
0.002503 1.000000 0.856174
0.093862 1.000000 0.855792
0.227148 1.000000 0.855234
0.384086 1.000000 0.854577
0.588902 1.000000 0.853719
0.852615 1.000000 0.852615
1.000000 1.000000 0.851998
1.000000 1.000000 0.851998
0.000000 0.000000 1.000000
0.016597 0.000000 1.000000
0.107956 0.000000 1.000000
0.241242 0.000000 1.000000
0.398181 0.000000 1.000000
0.602996 0.000000 1.000000
0.866710 0.000000 1.000000
1.000000 0.000000 1.000000
1.000000 0.000000 1.000000
0.000000 0.016419 1.000000
0.016343 0.016343 1.000000
0.107702 0.015961 1.000000
0.240988 0.015403 1.000000
0.397927 0.014746 1.000000
0.602742 0.013888 1.000000
0.866456 0.012784 1.000000
1.000000 0.012167 1.000000
1.000000 0.012167 1.000000
0.000000 0.106873 1.000000
0.015056 0.106798 1.000000
0.106415 0.106415 1.000000
0.239701 0.105857 1.000000
0.396640 0.105200 1.000000
0.601456 0.104343 1.000000
0.865169 0.103239 1.000000
1.000000 0.102621 1.000000
1.000000 0.102621 1.000000
0.000000 0.238840 1.000000
0.013180 0.238765 1.000000
0.104538 0.238382 1.000000
0.237824 0.237824 1.000000
0.394763 0.237167 1.000000
0.599579 0.236310 1.000000
0.863292 0.235206 1.000000
1.000000 0.234588 1.000000
1.000000 0.234588 1.000000
0.000000 0.394226 1.000000
0.010969 0.394150 1.000000
0.102328 0.393768 1.000000
0.235614 0.393210 1.000000
0.392553 0.392553 1.000000
0.597369 0.391696 1.000000
0.861082 0.390592 1.000000
1.000000 0.389974 1.000000
1.000000 0.389974 1.000000
0.000000 0.597014 1.000000
0.008085 0.596939 1.000000
0.099444 0.596557 1.000000
0.232730 0.595999 1.000000
0.389669 0.595342 1.000000
0.594484 0.594484 1.000000
0.858198 0.593380 1.000000
1.000000 0.592762 1.000000
1.000000 0.592762 1.000000
0.000000 0.858118 1.000000
0.004372 0.858043 1.000000
0.095730 0.857660 1.000000
0.229016 0.857102 1.000000
0.385955 0.856445 1.000000
0.590771 0.855588 1.000000
0.854484 0.854484 1.000000
1.000000 0.853866 1.000000
1.000000 0.853866 1.000000
0.000000 1.000000 1.000000
0.002293 1.000000 1.000000
0.093652 1.000000 1.000000
0.226938 1.000000 1.000000
0.383877 1.000000 1.000000
0.588692 1.000000 1.000000
0.852406 1.000000 1.000000
1.000000 1.000000 1.000000
1.000000 1.000000 1.000000
0.000000 1.000000 1.000000
0.002293 1.000000 1.000000
0.093652 1.000000 1.000000
0.226938 1.000000 1.000000
0.383877 1.000000 1.000000
0.588692 1.000000 1.000000
0.852406 1.000000 1.000000
1.000000 1.000000 1.000000
1.000000 1.000000 1.000000
0.000000 0.000000 1.000000
0.016597 0.000000 1.000000
0.107956 0.000000 1.000000
0.241242 0.000000 1.000000
0.398181 0.000000 1.000000
0.602996 0.000000 1.000000
0.866710 0.000000 1.000000
1.000000 0.000000 1.000000
1.000000 0.000000 1.000000
0.000000 0.016419 1.000000
0.016343 0.016343 1.000000
0.107702 0.015961 1.000000
0.240988 0.015403 1.000000
0.397927 0.014746 1.000000
0.602742 0.013888 1.000000
0.866456 0.012784 1.000000
1.000000 0.012167 1.000000
1.000000 0.012167 1.000000
0.000000 0.106873 1.000000
0.015056 0.106798 1.000000
0.106415 0.106415 1.000000
0.239701 0.105857 1.000000
0.396640 0.105200 1.000000
0.601456 0.104343 1.000000
0.865169 0.103239 1.000000
1.000000 0.102621 1.000000
1.000000 0.102621 1.000000
0.000000 0.238840 1.000000
0.013180 0.238765 1.000000
0.104538 0.238382 1.000000
0.237824 0.237824 1.000000
0.394763 0.237167 1.000000
0.599579 0.236310 1.000000
0.863292 0.235206 1.000000
1.000000 0.234588 1.000000
1.000000 0.234588 1.000000
0.000000 0.394226 1.000000
0.010969 0.394150 1.000000
0.102328 0.393768 1.000000
0.235614 0.393210 1.000000
0.392553 0.392553 1.000000
0.597369 0.391696 1.000000
0.861082 0.390592 1.000000
1.000000 0.389974 1.000000
1.000000 0.389974 1.000000
0.000000 0.597014 1.000000
0.008085 0.596939 1.000000
0.099444 0.596557 1.000000
0.232730 0.595999 1.000000
0.389669 0.595342 1.000000
0.594484 0.594484 1.000000
0.858198 0.593380 1.000000
1.000000 0.592762 1.000000
1.000000 0.592762 1.000000
0.000000 0.858118 1.000000
0.004372 0.858043 1.000000
0.095730 0.857660 1.000000
0.229016 0.857102 1.000000
0.385955 0.856445 1.000000
0.590771 0.855588 1.000000
0.854484 0.854484 1.000000
1.000000 0.853866 1.000000
1.000000 0.853866 1.000000
0.000000 1.000000 1.000000
0.002293 1.000000 1.000000
0.093652 1.000000 1.000000
0.226938 1.000000 1.000000
0.383877 1.000000 1.000000
0.588692 1.000000 1.000000
0.852406 1.000000 1.000000
1.000000 1.000000 1.000000
1.000000 1.000000 1.000000
0.000000 1.000000 1.000000
0.002293 1.000000 1.000000
0.093652 1.000000 1.000000
0.226938 1.000000 1.000000
0.383877 1.000000 1.000000
0.588692 1.000000 1.000000
0.852406 1.000000 1.000000
1.000000 1.000000 1.000000
1.000000 1.000000 1.000000
