assets/presets/luts/terracotta/lut.cube
TITLE "Terracotta"
LUT_3D_SIZE 5
0.000000 0.000000 0.000000
0.238989 0.000000 0.000000
0.486398 0.000000 0.000000
0.733344 0.000000 0.000000
0.979942 0.000000 0.000000
0.002997 0.229320 0.000000
0.249495 0.234287 0.000000
0.495797 0.239304 0.000000
0.742014 0.244342 0.000000
0.988388 0.249402 0.001011
0.011499 0.489977 0.000000
0.258049 0.495058 0.003299
0.505139 0.500172 0.009312
0.752809 0.505275 0.014870
1.000000 0.510322 0.019900
0.022970 0.750921 0.016766
0.271497 0.755937 0.021586
0.520698 0.760837 0.025779
0.770347 0.765644 0.029540
1.000000 0.770443 0.033311
0.041075 1.000000 0.030909
0.290674 1.000000 0.034696
0.540145 1.000000 0.038554
0.789418 1.000000 0.042523
1.000000 1.000000 0.046643
0.000000 0.000000 0.202049
0.240273 0.000000 0.207092
0.487512 0.000000 0.212674
0.734328 0.000000 0.218682
0.980832 0.000000 0.225005
0.003943 0.231000 0.220954
0.250361 0.235987 0.227362
0.496621 0.241014 0.233930
0.742839 0.246054 0.240542
0.989375 0.251133 0.246947
0.012375 0.491696 0.242913
0.259104 0.496793 0.249188
0.506386 0.501908 0.255054
0.754263 0.506997 0.260441
1.000000 0.512015 0.265275
0.024502 0.752635 0.262269
0.273253 0.757616 0.266884
0.522679 0.762470 0.270861
0.772332 0.767275 0.274617
1.000000 0.772068 0.278403
0.043054 1.000000 0.275990
0.292618 1.000000 0.279796
0.542030 1.000000 0.283687
0.791218 1.000000 0.287703
1.000000 1.000000 0.291884
0.000000 0.000000 0.447494
0.241496 0.000000 0.452732
0.488578 0.000000 0.458472
0.735276 0.000000 0.464600
0.981700 0.000000 0.471003
0.004857 0.232687 0.466905
0.251209 0.237691 0.473380
0.497441 0.242726 0.479976
0.743710 0.247772 0.486555
0.990426 0.252868 0.492839
0.013310 0.493422 0.488885
0.260222 0.498530 0.495029
0.507702 0.503642 0.500741
0.755789 0.508712 0.505949
1.000000 0.513696 0.510578
0.026109 0.754338 0.507705
0.275089 0.759280 0.512106
0.524668 0.764102 0.515936
0.774312 0.768905 0.519698
1.000000 0.773690 0.523502
0.045024 1.000000 0.521076
0.294544 1.000000 0.524906
0.543888 1.000000 0.528835
0.792984 1.000000 0.532902
1.000000 1.000000 0.537148
0.000000 0.000000 0.693010
0.242661 0.000000 0.698431
0.489600 0.000000 0.704315
0.736192 0.000000 0.710549
0.982548 0.000000 0.717020
0.005744 0.234381 0.712883
0.252043 0.239399 0.719412
0.498259 0.244437 0.726024
0.744641 0.249498 0.732530
0.991539 0.254605 0.738684
0.014306 0.495154 0.734816
0.261406 0.500268 0.740821
0.509088 0.505370 0.746370
0.757391 0.510416 0.751389
1.000000 0.515361 0.755807
0.027792 0.756030 0.753071
0.277006 0.760927 0.757251
0.526657 0.765734 0.761011
0.776282 0.770533 0.764783
1.000000 0.775309 0.768612
0.046982 1.000000 0.766168
0.296450 1.000000 0.770027
0.545718 1.000000 0.773999
0.794713 1.000000 0.778122
1.000000 1.000000 0.782438
0.000000 0.000000 0.938592
0.243773 0.000000 0.944183
0.490581 0.000000 0.950199
0.737081 0.000000 0.956526
0.983383 0.000000 0.963051
0.006609 0.236081 0.958884
0.252867 0.241109 0.965454
0.499085 0.246149 0.972066
0.745632 0.251229 0.978464
0.992719 0.256343 0.984479
0.015364 0.496889 0.980702
0.262657 0.502004 0.986560
0.510545 0.507092 0.991938
0.759068 0.512109 0.996761
1.000000 0.517009 1.000000
0.029553 0.757709 0.998365
0.278989 0.762560 1.000000
0.528642 0.767365 1.000000
0.778241 0.772158 1.000000
1.000000 0.776923 1.000000
0.048925 1.000000 1.000000
0.298333 1.000000 1.000000
0.547517 1.000000 1.000000
0.796402 1.000000 1.000000
1.000000 1.000000 1.000000
