assets/presets/luts/terracotta/lut.cube
TITLE "Terracotta"
LUT_3D_SIZE 9
0.000000 0.000000 0.000000
0.115076 0.000000 0.000000
0.238989 0.000000 0.000000
0.362758 0.000000 0.000000
0.486398 0.000000 0.000000
0.609922 0.000000 0.000000
0.733344 0.000000 0.000000
0.856680 0.000000 0.000000
0.979942 0.000000 0.000000
0.000000 0.099257 0.000000
0.121302 0.101652 0.000000
0.244787 0.104076 0.000000
0.368176 0.106524 0.000000
0.491483 0.108992 0.000000
0.614722 0.111478 0.000000
0.737907 0.113978 0.000000
0.861051 0.116488 0.000000
0.984169 0.119005 0.000000
0.002997 0.229320 0.000000
0.126278 0.231796 0.000000
0.249495 0.234287 0.000000
0.372664 0.236791 0.000000
0.495797 0.239304 0.000000
0.618909 0.241822 0.000000
0.742014 0.244342 0.000000
0.865143 0.246864 0.000000
0.988388 0.249402 0.001011
0.007416 0.359605 0.000000
0.130540 0.362120 0.000000
0.253648 0.364640 0.000000
0.376754 0.367160 0.000000
0.499918 0.369686 0.000000
0.623209 0.372229 0.002161
0.746635 0.374782 0.005256
0.870198 0.377340 0.008249
0.993905 0.379898 0.011132
0.011499 0.489977 0.000000
0.134709 0.492511 0.000144
0.258049 0.495058 0.003299
0.381524 0.497613 0.006358
0.505139 0.500172 0.009312
0.628899 0.502727 0.012153
0.752809 0.505275 0.014870
0.876875 0.507808 0.017456
1.000000 0.510322 0.019900
0.016432 0.620445 0.007446
0.140099 0.623003 0.010360
0.263913 0.625556 0.013157
0.387879 0.628099 0.015827
0.512002 0.630626 0.018362
0.636287 0.633131 0.020753
0.760739 0.635610 0.022991
0.885363 0.638055 0.025065
1.000000 0.640466 0.026980
0.022970 0.750921 0.016766
0.147152 0.753441 0.019250
0.271497 0.755937 0.021586
0.396011 0.758404 0.023765
0.520698 0.760837 0.025779
0.645518 0.763241 0.027663
0.770347 0.765644 0.029540
0.895168 0.768045 0.031421
1.000000 0.770443 0.033311
0.031305 0.881194 0.024518
0.156056 0.883613 0.026469
0.280885 0.886016 0.028346
0.405712 0.888418 0.030224
0.530528 0.890818 0.032108
0.655326 0.893214 0.034003
0.780094 0.895604 0.035913
0.904826 0.897985 0.037845
1.000000 0.900356 0.039802
0.041075 1.000000 0.030909
0.165886 1.000000 0.032796
0.290674 1.000000 0.034696
0.415430 1.000000 0.036614
0.540145 1.000000 0.038554
0.664811 1.000000 0.040522
0.789418 1.000000 0.042523
0.913956 1.000000 0.044561
1.000000 1.000000 0.046643
0.000000 0.000000 0.079354
0.115777 0.000000 0.081747
0.239639 0.000000 0.084294
0.363363 0.000000 0.086981
0.486961 0.000000 0.089793
0.610450 0.000000 0.092716
0.733841 0.000000 0.095737
0.857150 0.000000 0.098841
0.980390 0.000000 0.102014
0.000000 0.100067 0.087991
0.121852 0.102472 0.090845
0.245303 0.104904 0.093805
0.368663 0.107360 0.096858
0.491945 0.109835 0.099989
0.615164 0.112326 0.103183
0.738333 0.114830 0.106428
0.861467 0.117342 0.109708
0.984579 0.119861 0.113009
0.003474 0.230159 0.097989
0.126732 0.232640 0.101145
0.249931 0.235136 0.104359
0.373086 0.237644 0.107619
0.496210 0.240159 0.110908
0.619318 0.242678 0.114214
0.742424 0.245198 0.117522
0.865585 0.247724 0.120795
0.988874 0.250267 0.123984
0.007834 0.360459 0.108813
0.130951 0.362976 0.112111
0.254057 0.365496 0.115419
0.377169 0.368016 0.118722
0.500376 0.370549 0.121966
0.623712 0.373095 0.125123
0.747184 0.375651 0.128184
0.870795 0.378209 0.131141
0.994552 0.380765 0.133985
0.011930 0.490836 0.119913
0.135183 0.493374 0.123126
0.258568 0.495925 0.126249
0.382090 0.498482 0.129273
0.505754 0.501040 0.132190
0.629565 0.503594 0.134990
0.753527 0.506137 0.137664
0.877646 0.508664 0.140202
1.000000 0.511170 0.142597
0.017016 0.621314 0.130348
0.140732 0.623871 0.133223
0.264598 0.626421 0.135978
0.388616 0.628959 0.138604
0.512794 0.631479 0.141091
0.637135 0.633976 0.143431
0.761645 0.636444 0.145614
0.886328 0.638878 0.147631
1.000000 0.641282 0.149517
0.023727 0.751779 0.139526
0.147963 0.754291 0.141960
0.272365 0.756778 0.144244
0.396937 0.759234 0.146368
0.521685 0.761654 0.148323
0.646513 0.764057 0.150201
0.771340 0.766459 0.152078
0.896157 0.768860 0.153962
1.000000 0.771256 0.155856
0.032254 0.882020 0.147100
0.157050 0.884429 0.149007
0.281879 0.886832 0.150884
0.406704 0.889234 0.152763
0.531515 0.891632 0.154650
0.656303 0.894027 0.156550
0.781060 0.896414 0.158467
0.905777 0.898792 0.160406
1.000000 0.901159 0.162373
0.042066 1.000000 0.153449
0.166870 1.000000 0.155340
0.291648 1.000000 0.157245
0.416391 1.000000 0.159170
0.541090 1.000000 0.161119
0.665737 1.000000 0.163098
0.790322 1.000000 0.165111
0.914836 1.000000 0.167163
1.000000 1.000000 0.169261
0.000000 0.000000 0.202049
0.116460 0.000000 0.204496
0.240273 0.000000 0.207092
0.363953 0.000000 0.209822
0.487512 0.000000 0.212674
0.610966 0.000000 0.215632
0.734328 0.000000 0.218682
0.857612 0.000000 0.221811
0.980832 0.000000 0.225005
0.000000 0.100881 0.210847
0.122390 0.103295 0.213739
0.245808 0.105736 0.216732
0.369140 0.108198 0.219813
0.492399 0.110679 0.222967
0.615600 0.113175 0.226180
0.738755 0.115682 0.229438
0.861880 0.118197 0.232727
0.984989 0.120716 0.236033
0.003943 0.231000 0.220954
0.127179 0.233486 0.224131
0.250361 0.235987 0.227362
0.373504 0.238497 0.230633
0.496621 0.241014 0.233930
0.619727 0.243534 0.237238
0.742839 0.246054 0.240542
0.866042 0.248586 0.243787
0.989375 0.251133 0.246947
0.008250 0.361313 0.231831
0.131361 0.363831 0.235134
0.254466 0.366351 0.238443
0.377598 0.368874 0.241733
0.500849 0.371412 0.244948
0.624230 0.373963 0.248074
0.747749 0.376520 0.251101
0.871409 0.379078 0.254020
0.995216 0.381631 0.256823
0.012375 0.491696 0.242913
0.135673 0.494240 0.246097
0.259104 0.496793 0.249188
0.382673 0.499351 0.252176
0.506386 0.501908 0.255054
0.630248 0.504459 0.257812
0.754263 0.506997 0.260441
0.878436 0.509518 0.262932
1.000000 0.512015 0.265275
0.017616 0.622182 0.253238
0.141383 0.624738 0.256073
0.265300 0.627285 0.258785
0.389372 0.629817 0.261364
0.513604 0.632330 0.263803
0.638002 0.634818 0.266090
0.762570 0.637275 0.268218
0.887313 0.639695 0.270177
1.000000 0.642098 0.272055
0.024502 0.752635 0.262269
0.148794 0.755139 0.264653
0.273253 0.757616 0.266884
0.397885 0.760060 0.268951
0.522679 0.762470 0.270861
0.647508 0.764873 0.272738
0.772332 0.767275 0.274617
0.897144 0.769674 0.276504
1.000000 0.772068 0.278403
0.033223 0.882841 0.269662
0.158045 0.885245 0.271544
0.282873 0.887648 0.273422
0.407694 0.890049 0.275303
0.532499 0.892446 0.277194
0.657278 0.894838 0.279098
0.782022 0.897222 0.281022
0.906723 0.899597 0.282971
1.000000 0.901960 0.284949
0.043054 1.000000 0.275990
0.167850 1.000000 0.277885
0.292618 1.000000 0.279796
0.417347 1.000000 0.281729
0.542030 1.000000 0.283687
0.666656 1.000000 0.285677
0.791218 1.000000 0.287703
0.915705 1.000000 0.289770
1.000000 1.000000 0.291884
0.000000 0.000000 0.324762
0.117125 0.000000 0.327261
0.240892 0.000000 0.329904
0.364529 0.000000 0.332678
0.488051 0.000000 0.335567
0.611472 0.000000 0.338558
0.734806 0.000000 0.341637
0.858067 0.000000 0.344789
0.981268 0.000000 0.348001
0.000000 0.101698 0.333717
0.122916 0.104122 0.336645
0.246304 0.106570 0.339670
0.369609 0.109039 0.342777
0.492847 0.111525 0.345952
0.616030 0.114025 0.349182
0.739174 0.116536 0.352453
0.862292 0.119052 0.355749
0.985398 0.121572 0.359057
0.004403 0.231842 0.343926
0.127620 0.234334 0.347123
0.250787 0.236838 0.350369
0.373920 0.239351 0.353650
0.497032 0.241870 0.356953
0.620137 0.244390 0.360262
0.743267 0.246912 0.363553
0.866514 0.249450 0.366770
0.989893 0.252000 0.369898
0.008663 0.362168 0.354851
0.131770 0.364687 0.358157
0.254876 0.367207 0.361465
0.378043 0.369734 0.364734
0.501337 0.372277 0.367920
0.624765 0.374831 0.371013
0.748331 0.377389 0.374005
0.872040 0.379946 0.376885
0.995898 0.382496 0.379646
0.012835 0.492558 0.365904
0.136177 0.495106 0.369057
0.259655 0.497662 0.372115
0.383273 0.500220 0.375067
0.507035 0.502775 0.377905
0.630949 0.505322 0.380620
0.755017 0.507856 0.383203
0.879245 0.510369 0.385645
1.000000 0.512857 0.387936
0.018234 0.623051 0.376114
0.142051 0.625604 0.378908
0.266020 0.628147 0.381576
0.390146 0.630673 0.384109
0.514434 0.633178 0.386497
0.638889 0.635656 0.388731
0.763516 0.638101 0.390803
0.888307 0.640511 0.392715
1.000000 0.642914 0.394592
0.025296 0.753488 0.384995
0.149644 0.755984 0.387329
0.274161 0.758450 0.389505
0.398852 0.760882 0.391515
0.523673 0.763286 0.393399
0.648502 0.765689 0.395276
0.773323 0.768090 0.397157
0.898128 0.770488 0.399047
1.000000 0.772880 0.400952
0.034211 0.883658 0.392205
0.159040 0.886061 0.394082
0.283867 0.888463 0.395960
0.408683 0.890863 0.397844
0.533480 0.893259 0.399739
0.658248 0.895649 0.401649
0.782978 0.898030 0.403581
0.907662 0.900401 0.405539
1.000000 0.902759 0.407528
0.044040 1.000000 0.398532
0.168828 1.000000 0.400432
0.293583 1.000000 0.402350
0.418298 1.000000 0.404291
0.542962 1.000000 0.406259
0.667568 1.000000 0.408261
0.792105 1.000000 0.410300
0.916566 1.000000 0.412383
1.000000 1.000000 0.414513
0.000000 0.000000 0.447494
0.117775 0.000000 0.450043
0.241496 0.000000 0.452732
0.365092 0.000000 0.455547
0.488578 0.000000 0.458472
0.611968 0.000000 0.461495
0.735276 0.000000 0.464600
0.858515 0.000000 0.467774
0.981700 0.000000 0.471003
0.000000 0.102518 0.456600
0.123431 0.104950 0.459562
0.246789 0.107406 0.462616
0.370070 0.109882 0.465748
0.493288 0.112373 0.468944
0.616457 0.114877 0.472189
0.739590 0.117390 0.475470
0.862702 0.119908 0.478772
0.985807 0.122428 0.482081
0.004857 0.232687 0.466905
0.128055 0.235183 0.470120
0.251209 0.237691 0.473380
0.374333 0.240206 0.476670
0.497441 0.242726 0.479976
0.620547 0.245245 0.483285
0.743710 0.247772 0.486555
0.867001 0.250315 0.489743
0.990426 0.252868 0.492839
0.009074 0.363023 0.477873
0.132179 0.365543 0.481181
0.255292 0.368063 0.484484
0.378501 0.370596 0.487726
0.501840 0.373143 0.490881
0.625315 0.375699 0.493941
0.748929 0.378257 0.496896
0.872688 0.380813 0.499737
0.996597 0.383360 0.502455
0.013310 0.493422 0.488885
0.136698 0.495973 0.492007
0.260222 0.498530 0.495029
0.383889 0.501088 0.497944
0.507702 0.503642 0.500741
0.631667 0.506185 0.503413
0.755789 0.508712 0.505949
0.880073 0.511217 0.508340
1.000000 0.513696 0.510578
0.018868 0.623919 0.498976
0.142736 0.626469 0.501729
0.266758 0.629007 0.504352
0.390938 0.631527 0.506836
0.515282 0.634023 0.509173
0.639795 0.636490 0.511353
0.764482 0.638923 0.513368
0.889302 0.641327 0.515253
1.000000 0.643730 0.517130
0.026109 0.754338 0.507705
0.150514 0.756825 0.509986
0.275089 0.759280 0.512106
0.399840 0.761699 0.514059
0.524668 0.764102 0.515936
0.649495 0.766505 0.517814
0.774312 0.768905 0.519698
0.899109 0.771301 0.521592
1.000000 0.773690 0.523502
0.035205 0.884474 0.514742
0.160034 0.886877 0.516619
0.284859 0.889279 0.518499
0.409669 0.891678 0.520386
0.534458 0.894071 0.522285
0.659214 0.896458 0.524203
0.783930 0.898836 0.526143
0.908595 0.901203 0.528111
1.000000 0.903557 0.530111
0.045024 1.000000 0.521076
0.169802 1.000000 0.522981
0.294544 1.000000 0.524906
0.419243 1.000000 0.526856
0.543888 1.000000 0.528835
0.668472 1.000000 0.530849
0.792984 1.000000 0.532902
0.917416 1.000000 0.535001
1.000000 1.000000 0.537148
0.000000 0.000000 0.570243
0.118408 0.000000 0.572842
0.242085 0.000000 0.575575
0.365643 0.000000 0.578428
0.489094 0.000000 0.581388
0.612455 0.000000 0.584441
0.735737 0.000000 0.587571
0.858956 0.000000 0.590765
0.982126 0.000000 0.594009
0.000519 0.103341 0.579494
0.123936 0.105782 0.582490
0.247266 0.108245 0.585572
0.370524 0.110726 0.588727
0.493724 0.113222 0.591941
0.616879 0.115730 0.595200
0.740003 0.118245 0.598489
0.863111 0.120764 0.601795
0.986217 0.123284 0.605104
0.005303 0.233533 0.589891
0.128485 0.236034 0.593123
0.251627 0.238544 0.596395
0.374744 0.241061 0.599692
0.497850 0.243581 0.603000
0.620962 0.246101 0.606304
0.744168 0.248634 0.609548
0.867504 0.251181 0.612705
0.990974 0.253736 0.615767
0.009484 0.363879 0.600896
0.132589 0.366399 0.604205
0.255723 0.368922 0.607494
0.378975 0.371460 0.610708
0.502360 0.374011 0.613832
0.625881 0.376568 0.616857
0.749544 0.379126 0.619774
0.873353 0.381679 0.622574
0.997315 0.384223 0.625249
0.013800 0.494288 0.611856
0.137234 0.496841 0.614945
0.260806 0.499399 0.617932
0.384522 0.501956 0.620807
0.508386 0.504507 0.623563
0.632404 0.507045 0.626189
0.756581 0.509565 0.628677
0.880921 0.512062 0.631018
1.000000 0.514530 0.633202
0.019519 0.624786 0.621825
0.143439 0.627332 0.624535
0.267514 0.629865 0.627112
0.391750 0.632377 0.629547
0.516151 0.634864 0.631832
0.640722 0.637321 0.633956
0.765468 0.639740 0.635913
0.890296 0.642143 0.637790
1.000000 0.644546 0.639668
0.026941 0.755186 0.630397
0.151403 0.757662 0.632624
0.276038 0.760106 0.634689
0.400834 0.762515 0.636596
0.525663 0.764918 0.638473
0.650487 0.767320 0.640353
0.775298 0.769719 0.642239
0.900087 0.772113 0.644139
1.000000 0.774500 0.646056
0.036200 0.885290 0.637280
0.161028 0.887693 0.639157
0.285849 0.890094 0.641038
0.410653 0.892491 0.642929
0.535432 0.894883 0.644834
0.660175 0.897267 0.646759
0.784875 0.899641 0.648708
0.909522 0.902004 0.650686
1.000000 0.904353 0.652699
0.046005 1.000000 0.643621
0.170771 1.000000 0.645532
0.295500 1.000000 0.647465
0.420182 1.000000 0.649424
0.544807 1.000000 0.651415
0.669367 1.000000 0.653442
0.793853 1.000000 0.655510
0.918256 1.000000 0.657624
1.000000 1.000000 0.659790
0.000000 0.000000 0.693010
0.119026 0.000000 0.695656
0.242661 0.000000 0.698431
0.366181 0.000000 0.701322
0.489600 0.000000 0.704315
0.612932 0.000000 0.707396
0.736192 0.000000 0.710549
0.859392 0.000000 0.713762
0.982548 0.000000 0.717020
0.001045 0.104167 0.702401
0.124431 0.106616 0.705427
0.247735 0.109086 0.708536
0.370971 0.111572 0.711713
0.494154 0.114073 0.714944
0.617297 0.116583 0.718214
0.740415 0.119100 0.721511
0.863521 0.121620 0.724819
0.986632 0.124140 0.728124
0.005744 0.234381 0.712883
0.128911 0.236886 0.716130
0.252043 0.239399 0.719412
0.375154 0.241917 0.722715
0.498259 0.244437 0.726024
0.621391 0.246960 0.729315
0.744641 0.249498 0.732530
0.868022 0.252048 0.735656
0.991539 0.254605 0.738684
0.009893 0.364735 0.723920
0.132999 0.367254 0.727228
0.256168 0.369782 0.730495
0.379464 0.372325 0.733679
0.502895 0.374879 0.736770
0.626463 0.377437 0.739760
0.750176 0.379994 0.742639
0.874036 0.382544 0.745397
0.998050 0.385083 0.748027
0.014306 0.495154 0.734816
0.137786 0.497710 0.737871
0.261406 0.500268 0.740821
0.385172 0.502823 0.743657
0.509088 0.505370 0.746370
0.633159 0.507903 0.748950
0.757391 0.510416 0.751389
0.881787 0.512904 0.753678
1.000000 0.515361 0.755807
0.020188 0.625652 0.744660
0.144160 0.628194 0.747325
0.268289 0.630720 0.749855
0.392580 0.633225 0.752240
0.517038 0.635702 0.754472
0.641669 0.638147 0.756540
0.766462 0.640556 0.758450
0.891291 0.642959 0.760327
1.000000 0.645361 0.762207
0.027792 0.756030 0.753071
0.152312 0.758496 0.755244
0.277006 0.760927 0.757251
0.401828 0.763331 0.759134
0.526657 0.765734 0.761011
0.651478 0.768135 0.762892
0.776282 0.770533 0.764783
0.901062 0.772925 0.766688
1.000000 0.775309 0.768612
0.037195 0.886106 0.759817
0.162022 0.888508 0.761695
0.286838 0.890908 0.763579
0.411634 0.893304 0.765474
0.536402 0.895694 0.767386
0.661131 0.898075 0.769318
0.785814 0.900445 0.771276
0.910441 0.902803 0.773266
1.000000 0.905147 0.775292
0.046982 1.000000 0.766168
0.171737 1.000000 0.768086
0.296450 1.000000 0.770027
0.421114 1.000000 0.771997
0.545718 1.000000 0.773999
0.670254 1.000000 0.776039
0.794713 1.000000 0.778122
0.919086 1.000000 0.780254
1.000000 1.000000 0.782438
0.000000 0.000000 0.815793
0.119629 0.000000 0.818484
0.243223 0.000000 0.821301
0.366707 0.000000 0.824228
0.490095 0.000000 0.827252
0.613401 0.000000 0.830359
0.736639 0.000000 0.833534
0.859823 0.000000 0.836764
0.982967 0.000000 0.840034
0.001559 0.104996 0.825319
0.124916 0.107453 0.828374
0.248196 0.109928 0.831508
0.371412 0.112420 0.834705
0.494580 0.114924 0.837951
0.617713 0.117437 0.841232
0.740825 0.119955 0.844534
0.863930 0.122476 0.847843
0.987060 0.124998 0.851135
0.006179 0.235230 0.835881
0.129332 0.237738 0.839142
0.252456 0.240254 0.842432
0.375564 0.242773 0.845739
0.498670 0.245293 0.849047
0.621835 0.247820 0.852316
0.745129 0.250363 0.855502
0.868556 0.252916 0.858596
0.992121 0.255474 0.861588
0.010302 0.365590 0.846943
0.133416 0.368111 0.850246
0.256627 0.370644 0.853486
0.379969 0.373191 0.856640
0.503446 0.375747 0.859698
0.627062 0.378305 0.862650
0.750825 0.380861 0.865489
0.874737 0.383408 0.868205
0.998804 0.385941 0.870789
0.014827 0.496021 0.857765
0.138354 0.498578 0.860785
0.262023 0.501136 0.863698
0.385839 0.503690 0.866493
0.509808 0.506232 0.869162
0.633933 0.508759 0.871695
0.758220 0.511264 0.874084
0.882674 0.513742 0.876319
1.000000 0.516187 0.878392
0.020875 0.626517 0.867480
0.144899 0.629054 0.870100
0.269083 0.631574 0.872582
0.393430 0.634070 0.874916
0.517946 0.636536 0.877093
0.642636 0.638968 0.879104
0.767457 0.641372 0.880988
0.892285 0.643775 0.882865
1.000000 0.646176 0.884746
0.028663 0.756871 0.875727
0.153241 0.759326 0.877845
0.277995 0.761744 0.879794
0.402823 0.764147 0.881671
0.527650 0.766550 0.883549
0.652467 0.768950 0.885433
0.777264 0.771346 0.887328
0.902032 0.773735 0.889239
1.000000 0.776116 0.891170
0.038189 0.886922 0.882355
0.163014 0.889324 0.884234
0.287824 0.891723 0.886121
0.412612 0.894116 0.888021
0.537367 0.896503 0.889939
0.662082 0.898881 0.891880
0.786747 0.901248 0.893848
0.911353 0.903601 0.895849
1.000000 0.905940 0.897889
0.047955 1.000000 0.888717
0.172697 1.000000 0.890643
0.297395 1.000000 0.892593
0.422039 1.000000 0.894573
0.546622 1.000000 0.896587
0.671132 1.000000 0.898641
0.795563 1.000000 0.900741
0.919904 1.000000 0.902889
1.000000 1.000000 0.905093
0.000000 0.000000 0.938592
0.120217 0.000000 0.941327
0.243773 0.000000 0.944183
0.367223 0.000000 0.947145
0.490581 0.000000 0.950199
0.613863 0.000000 0.953330
0.737081 0.000000 0.956526
0.860250 0.000000 0.959771
0.983383 0.000000 0.963051
0.002064 0.105828 0.948247
0.125393 0.108291 0.951331
0.248649 0.110773 0.954487
0.371848 0.113269 0.957702
0.495002 0.115777 0.960962
0.618126 0.118292 0.964252
0.741234 0.120811 0.967558
0.864340 0.123331 0.970866
0.987503 0.125858 0.974137
0.006609 0.236081 0.958884
0.129750 0.238592 0.962157
0.252867 0.241109 0.965454
0.375973 0.243629 0.968763
0.499085 0.246149 0.972066
0.622294 0.248682 0.975308
0.745632 0.251229 0.978464
0.869105 0.253785 0.981524
0.992719 0.256343 0.984479
0.010712 0.366446 0.969967
0.133847 0.368969 0.973256
0.257102 0.371508 0.976467
0.380489 0.374059 0.979589
0.504013 0.376616 0.982613
0.627678 0.379174 0.985528
0.751491 0.381727 0.988326
0.875455 0.384270 0.990998
0.999576 0.386797 0.993535
0.015364 0.496889 0.980702
0.138939 0.499447 0.983687
0.262657 0.502004 0.986560
0.386525 0.504555 0.989314
0.510545 0.507092 0.991938
0.634725 0.509612 0.994423
0.759068 0.512109 0.996761
0.883580 0.514576 0.998942
1.000000 0.517009 1.000000
0.021579 0.627380 0.990284
0.145657 0.629912 0.992859
0.269895 0.632424 0.995291
0.394299 0.634911 0.997573
0.518874 0.637367 0.999695
0.643623 0.639786 1.000000
0.768452 0.642188 1.000000
0.893279 0.644591 1.000000
1.000000 0.646991 1.000000
0.029553 0.757709 0.998365
0.154191 0.760152 1.000000
0.278989 0.762560 1.000000
0.403818 0.764963 1.000000
0.528642 0.767365 1.000000
0.653453 0.769764 1.000000
0.778241 0.772158 1.000000
0.902998 0.774545 1.000000
1.000000 0.776923 1.000000
0.039184 0.887738 1.000000
0.164004 0.890139 1.000000
0.288808 0.892536 1.000000
0.413585 0.894928 1.000000
0.538328 0.897312 1.000000
0.663027 0.899686 1.000000
0.787673 0.902048 1.000000
0.912257 0.904397 1.000000
1.000000 0.906730 1.000000
0.048925 1.000000 1.000000
0.173653 1.000000 1.000000
0.298333 1.000000 1.000000
0.422958 1.000000 1.000000
0.547517 1.000000 1.000000
0.672001 1.000000 1.000000
0.796402 1.000000 1.000000
0.920711 1.000000 1.000000
1.000000 1.000000 1.000000
