assets/presets/luts/terracotta/lut.cube
TITLE "Terracotta"
LUT_3D_SIZE 17
0.000000 0.000000 0.000000
0.053062 0.000000 0.000000
0.115076 0.000000 0.000000
0.177051 0.000000 0.000000
0.238989 0.000000 0.000000
0.300891 0.000000 0.000000
0.362758 0.000000 0.000000
0.424593 0.000000 0.000000
0.486398 0.000000 0.000000
0.548173 0.000000 0.000000
0.609922 0.000000 0.000000
0.671645 0.000000 0.000000
0.733344 0.000000 0.000000
0.795022 0.000000 0.000000
0.856680 0.000000 0.000000
0.918319 0.000000 0.000000
0.979942 0.000000 0.000000
0.000000 0.034351 0.000000
0.056489 0.035517 0.000000
0.118378 0.036691 0.000000
0.180234 0.037874 0.000000
0.242058 0.039065 0.000000
0.303851 0.040264 0.000000
0.365617 0.041470 0.000000
0.427356 0.042683 0.000000
0.489070 0.043902 0.000000
0.550762 0.045126 0.000000
0.612432 0.046356 0.000000
0.674083 0.047591 0.000000
0.735716 0.048831 0.000000
0.797333 0.050075 0.000000
0.858936 0.051322 0.000000
0.920526 0.052572 0.000000
0.982106 0.053825 0.000000
0.000000 0.099257 0.000000
0.059518 0.100451 0.000000
0.121302 0.101652 0.000000
0.183057 0.102861 0.000000
0.244787 0.104076 0.000000
0.306493 0.105297 0.000000
0.368176 0.106524 0.000000
0.429839 0.107756 0.000000
0.491483 0.108992 0.000000
0.553110 0.110233 0.000000
0.614722 0.111478 0.000000
0.676320 0.112727 0.000000
0.737907 0.113978 0.000000
0.799483 0.115232 0.000000
0.861051 0.116488 0.000000
0.922612 0.117746 0.000000
0.984169 0.119005 0.000000
0.000494 0.164252 0.000000
0.062215 0.165470 0.000000
0.123912 0.166693 0.000000
0.185588 0.167921 0.000000
0.247244 0.169155 0.000000
0.308882 0.170394 0.000000
0.370503 0.171636 0.000000
0.432110 0.172883 0.000000
0.493703 0.174132 0.000000
0.555286 0.175385 0.000000
0.616859 0.176639 0.000000
0.678424 0.177896 0.000000
0.739984 0.179154 0.000000
0.801539 0.180414 0.000000
0.863092 0.181674 0.000000
0.924644 0.182934 0.000000
0.986198 0.184193 0.000000
0.002997 0.229320 0.000000
0.064646 0.230556 0.000000
0.126278 0.231796 0.000000
0.187894 0.233040 0.000000
0.249495 0.234287 0.000000
0.311085 0.235538 0.000000
0.372664 0.236791 0.000000
0.434234 0.238047 0.000000
0.495797 0.239304 0.000000
0.557355 0.240563 0.000000
0.618909 0.241822 0.000000
0.680461 0.243082 0.000000
0.742014 0.244342 0.000000
0.803568 0.245602 0.000000
0.865143 0.246864 0.000000
0.926749 0.248131 0.000000
0.988388 0.249402 0.001011
0.005282 0.294443 0.000000
0.066879 0.295692 0.000000
0.128465 0.296944 0.000000
0.190040 0.298198 0.000000
0.251608 0.299454 0.000000
0.313169 0.300712 0.000000
0.374725 0.301971 0.000000
0.436278 0.303231 0.000000
0.497831 0.304491 0.000000
0.559384 0.305751 0.000000
0.620942 0.307011 0.000000
0.682528 0.308275 0.000000
0.744146 0.309544 0.000000
0.805796 0.310815 0.001587
0.867480 0.312090 0.003155
0.929197 0.313367 0.004700
0.990948 0.314645 0.006219
0.007416 0.359605 0.000000
0.068981 0.360862 0.000000
0.130540 0.362120 0.000000
0.192095 0.363380 0.000000
0.253648 0.364640 0.000000
0.315200 0.365900 0.000000
0.376754 0.367160 0.000000
0.438320 0.368421 0.000000
0.499918 0.369686 0.000000
0.561547 0.370956 0.000578
0.623209 0.372229 0.002161
0.684905 0.373505 0.003721
0.746635 0.374782 0.005256
0.808399 0.376061 0.006766
0.870198 0.377340 0.008249
0.932033 0.378619 0.009705
0.993905 0.379898 0.011132
0.009464 0.424788 0.000000
0.071017 0.426049 0.000000
0.132570 0.427309 0.000000
0.194125 0.428568 0.000000
0.255702 0.429831 0.000000
0.317311 0.431098 0.000000
0.378953 0.432369 0.001157
0.440627 0.433643 0.002731
0.502335 0.434920 0.004282
0.564077 0.436198 0.005809
0.625854 0.437477 0.007309
0.687666 0.438756 0.008783
0.749514 0.440035 0.010228
0.811399 0.441313 0.011645
0.873322 0.442588 0.013031
0.935282 0.443862 0.014385
0.997281 0.445132 0.015707
0.011499 0.489977 0.000000
0.073088 0.491242 0.000000
0.134709 0.492511 0.000144
0.196362 0.493783 0.001733
0.258049 0.495058 0.003299
0.319769 0.496335 0.004841
0.381524 0.497613 0.006358
0.443314 0.498893 0.007849
0.505139 0.500172 0.009312
0.567001 0.501450 0.010747
0.628899 0.502727 0.012153
0.690835 0.504002 0.013527
0.752809 0.505275 0.014870
0.814822 0.506543 0.016180
0.876875 0.507808 0.017456
0.938967 0.509068 0.018696
1.000000 0.510322 0.019900
0.013777 0.555197 0.002306
0.075475 0.556473 0.003863
0.137208 0.557750 0.005396
0.198975 0.559029 0.006904
0.260778 0.560308 0.008385
0.322617 0.561587 0.009838
0.384492 0.562865 0.011262
0.446404 0.564142 0.012657
0.508353 0.565416 0.014020
0.570342 0.566687 0.015351
0.632369 0.567954 0.016648
0.694436 0.569217 0.017911
0.756543 0.570475 0.019139
0.818691 0.571727 0.020329
0.880880 0.572972 0.021482
0.943112 0.574211 0.022595
1.000000 0.575441 0.023668
0.016432 0.620445 0.007446
0.078247 0.621724 0.008917
0.140099 0.623003 0.010360
0.201987 0.624280 0.011774
0.263913 0.625556 0.013157
0.325877 0.626829 0.014508
0.387879 0.628099 0.015827
0.449921 0.629365 0.017112
0.512002 0.630626 0.018362
0.574124 0.631882 0.019576
0.636287 0.633131 0.020753
0.698492 0.634374 0.021892
0.760739 0.635610 0.022991
0.823029 0.636837 0.024049
0.885363 0.638055 0.025065
0.947741 0.639264 0.026039
1.000000 0.640466 0.026980
0.019488 0.685695 0.012281
0.081428 0.686970 0.013653
0.143406 0.688242 0.014992
0.205422 0.689510 0.016299
0.267478 0.690774 0.017572
0.329574 0.692034 0.018809
0.391711 0.693287 0.020009
0.453889 0.694535 0.021172
0.516109 0.695775 0.022296
0.578372 0.697007 0.023381
0.640678 0.698232 0.024424
0.703027 0.699447 0.025425
0.765421 0.700652 0.026383
0.827835 0.701853 0.027322
0.890250 0.703055 0.028260
0.952664 0.704256 0.029198
1.000000 0.705457 0.030138
0.022970 0.750921 0.016766
0.085041 0.752183 0.018026
0.147152 0.753441 0.019250
0.209303 0.754692 0.020437
0.271497 0.755937 0.021586
0.333732 0.757175 0.022696
0.396011 0.758404 0.023765
0.458332 0.759625 0.024793
0.520698 0.760837 0.025779
0.583104 0.762039 0.026725
0.645518 0.763241 0.027663
0.707933 0.764442 0.028602
0.770347 0.765644 0.029540
0.832759 0.766845 0.030480
0.895168 0.768045 0.031421
0.957573 0.769244 0.032365
1.000000 0.770443 0.033311
0.026901 0.816096 0.020860
0.089110 0.817338 0.021995
0.151361 0.818573 0.023090
0.213655 0.819800 0.024144
0.275993 0.821017 0.025157
0.338375 0.822225 0.026126
0.400787 0.823427 0.027066
0.463201 0.824628 0.028005
0.525616 0.825830 0.028943
0.588029 0.827031 0.029882
0.650441 0.828232 0.030823
0.712849 0.829432 0.031765
0.775252 0.830631 0.032709
0.837650 0.831828 0.033657
0.900041 0.833025 0.034608
0.962425 0.834219 0.035564
1.000000 0.835412 0.036525
0.031305 0.881194 0.024518
0.093659 0.882408 0.025515
0.156056 0.883613 0.026469
0.218470 0.884814 0.027408
0.280885 0.886016 0.028346
0.343299 0.887217 0.029285
0.405712 0.888418 0.030224
0.468122 0.889619 0.031165
0.530528 0.890818 0.032108
0.592930 0.892017 0.033054
0.655326 0.893214 0.034003
0.717714 0.894410 0.034956
0.780094 0.895604 0.035913
0.842465 0.896796 0.036876
0.904826 0.897985 0.037845
0.967174 0.899172 0.038820
1.000000 0.900356 0.039802
0.036153 0.946202 0.027750
0.098568 0.947403 0.028688
0.160982 0.948604 0.029627
0.223394 0.949805 0.030567
0.285803 0.951005 0.031508
0.348207 0.952205 0.032452
0.410607 0.953403 0.033399
0.473000 0.954600 0.034349
0.535386 0.955795 0.035304
0.597763 0.956988 0.036263
0.660130 0.958179 0.037228
0.722486 0.959368 0.038199
0.784830 0.960553 0.039176
0.847162 0.961737 0.040161
0.909478 0.962916 0.041154
0.971780 0.964093 0.042156
1.000000 0.965266 0.043167
0.041075 1.000000 0.030909
0.103483 1.000000 0.031852
0.165886 1.000000 0.032796
0.228283 1.000000 0.033744
0.290674 1.000000 0.034696
0.353056 1.000000 0.035652
0.415430 1.000000 0.036614
0.477793 1.000000 0.037581
0.540145 1.000000 0.038554
0.602485 1.000000 0.039534
0.664811 1.000000 0.040522
0.727122 1.000000 0.041518
0.789418 1.000000 0.042523
0.851696 1.000000 0.043537
0.913956 1.000000 0.044561
0.976198 1.000000 0.045597
1.000000 1.000000 0.046643
0.000000 0.000000 0.018014
0.053428 0.000000 0.019177
0.115429 0.000000 0.020380
0.177391 0.000000 0.021622
0.239316 0.000000 0.022901
0.301206 0.000000 0.024216
0.363062 0.000000 0.025565
0.424887 0.000000 0.026946
0.486681 0.000000 0.028357
0.548447 0.000000 0.029796
0.610187 0.000000 0.031262
0.671902 0.000000 0.032753
0.733594 0.000000 0.034268
0.795265 0.000000 0.035803
0.856916 0.000000 0.037358
0.918549 0.000000 0.038932
0.980167 0.000000 0.040521
0.000000 0.034746 0.022084
0.056812 0.035915 0.023376
0.118690 0.037092 0.024704
0.180534 0.038278 0.026064
0.242347 0.039472 0.027456
0.304131 0.040673 0.028878
0.365888 0.041881 0.030327
0.427618 0.043096 0.031802
0.489325 0.044317 0.033302
0.551009 0.045543 0.034824
0.612672 0.046775 0.036367
0.674317 0.048012 0.037929
0.735944 0.049253 0.039508
0.797556 0.050498 0.041103
0.859155 0.051746 0.042711
0.920741 0.052998 0.044331
0.982318 0.054252 0.045962
0.000000 0.099662 0.026568
0.059804 0.100858 0.027970
0.121578 0.102062 0.029402
0.183325 0.103273 0.030861
0.245046 0.104490 0.032346
0.306744 0.105713 0.033854
0.368421 0.106941 0.035384
0.430077 0.108175 0.036934
0.491715 0.109413 0.038502
0.553337 0.110656 0.040087
0.614944 0.111902 0.041687
0.676538 0.113151 0.043300
0.738120 0.114404 0.044924
0.799694 0.115659 0.046558
0.861259 0.116915 0.048199
0.922819 0.118174 0.049846
0.984374 0.119433 0.051498
0.000759 0.164665 0.031399
0.062471 0.165884 0.032892
0.124161 0.167109 0.034408
0.185830 0.168340 0.035946
0.247480 0.169575 0.037503
0.309111 0.170815 0.039077
0.370728 0.172059 0.040668
0.432330 0.173307 0.042273
0.493919 0.174557 0.043890
0.555498 0.175810 0.045518
0.617069 0.177066 0.047154
0.678632 0.178323 0.048798
0.740190 0.179582 0.050447
0.801744 0.180841 0.052100
0.863297 0.182102 0.053754
0.924849 0.183362 0.055409
0.986404 0.184621 0.057062
0.003237 0.229739 0.036510
0.064880 0.230976 0.038074
0.126506 0.232218 0.039655
0.188116 0.233463 0.041251
0.249714 0.234711 0.042860
0.311299 0.235963 0.044481
0.372875 0.237217 0.046113
0.434443 0.238473 0.047752
0.496004 0.239731 0.049398
0.557560 0.240990 0.051049
0.619114 0.242250 0.052702
0.680666 0.243510 0.054357
0.742219 0.244770 0.056011
0.803777 0.246030 0.057661
0.865362 0.247294 0.059294
0.926979 0.248562 0.060907
0.988629 0.249834 0.062499
0.005504 0.294867 0.041835
0.067096 0.296117 0.043449
0.128678 0.297369 0.045074
0.190251 0.298624 0.046709
0.251816 0.299881 0.048351
0.313375 0.301140 0.049998
0.374930 0.302399 0.051650
0.436483 0.303659 0.053305
0.498035 0.304919 0.054959
0.559589 0.306179 0.056613
0.621155 0.307440 0.058258
0.682751 0.308705 0.059884
0.744380 0.309975 0.061489
0.806042 0.311248 0.063072
0.867736 0.312524 0.064633
0.929465 0.313801 0.066169
0.991228 0.315080 0.067679
0.007625 0.360032 0.047306
0.069188 0.361289 0.048950
0.130746 0.362548 0.050599
0.192300 0.363808 0.052252
0.253852 0.365068 0.053907
0.315405 0.366328 0.055561
0.376960 0.367587 0.057214
0.438536 0.368850 0.058852
0.500145 0.370117 0.060471
0.561785 0.371388 0.062068
0.623459 0.372662 0.063643
0.685166 0.373939 0.065195
0.746907 0.375217 0.066722
0.808683 0.376496 0.068223
0.870495 0.377775 0.069697
0.932342 0.379054 0.071143
0.994226 0.380331 0.072560
0.009669 0.425216 0.052855
0.071221 0.426476 0.054509
0.132775 0.427736 0.056163
0.194334 0.428997 0.057813
0.255922 0.430261 0.059444
0.317542 0.431530 0.061055
0.379195 0.432802 0.062644
0.440881 0.434077 0.064211
0.502600 0.435354 0.065753
0.564354 0.436632 0.067271
0.626143 0.437911 0.068763
0.687967 0.439190 0.070227
0.749828 0.440469 0.071663
0.811725 0.441746 0.073069
0.873661 0.443021 0.074444
0.935634 0.444294 0.075788
0.997646 0.445562 0.077098
0.011713 0.490406 0.058409
0.073313 0.491672 0.060033
0.134944 0.492942 0.061636
0.196609 0.494216 0.063217
0.258307 0.495491 0.064775
0.320039 0.496769 0.066309
0.381805 0.498048 0.067817
0.443607 0.499327 0.069299
0.505444 0.500606 0.070753
0.567318 0.501884 0.072178
0.629230 0.503161 0.073573
0.691179 0.504435 0.074937
0.753166 0.505706 0.076269
0.815192 0.506973 0.077567
0.877258 0.508236 0.078831
0.939364 0.509494 0.080059
1.000000 0.510746 0.081251
0.014027 0.555630 0.063787
0.075737 0.556906 0.065337
0.137482 0.558184 0.066861
0.199261 0.559464 0.068360
0.261076 0.560743 0.069831
0.322927 0.562021 0.071275
0.384814 0.563299 0.072689
0.446739 0.564575 0.074073
0.508702 0.565848 0.075426
0.570703 0.567118 0.076745
0.632744 0.568384 0.078031
0.694824 0.569645 0.079282
0.756945 0.570901 0.080497
0.819107 0.572151 0.081675
0.881311 0.573394 0.082814
0.943557 0.574630 0.083914
1.000000 0.575857 0.084973
0.016722 0.620879 0.068899
0.078549 0.622158 0.070360
0.140414 0.623437 0.071793
0.202315 0.624714 0.073197
0.264253 0.625989 0.074569
0.326230 0.627261 0.075910
0.388246 0.628529 0.077218
0.450301 0.629794 0.078491
0.512396 0.631053 0.079729
0.574532 0.632307 0.080930
0.636709 0.633554 0.082094
0.698928 0.634795 0.083219
0.761189 0.636027 0.084305
0.823494 0.637252 0.085349
0.885843 0.638467 0.086351
0.948236 0.639673 0.087310
1.000000 0.640874 0.088249
0.019820 0.686128 0.073700
0.081773 0.687402 0.075061
0.143763 0.688673 0.076390
0.205793 0.689940 0.077685
0.267863 0.691203 0.078946
0.329973 0.692460 0.080171
0.392124 0.693712 0.081359
0.454316 0.694957 0.082508
0.516550 0.696194 0.083619
0.578828 0.697424 0.084690
0.641148 0.698645 0.085719
0.703513 0.699857 0.086705
0.765918 0.701060 0.087652
0.828332 0.702261 0.088590
0.890747 0.703463 0.089529
0.953161 0.704664 0.090467
1.000000 0.705865 0.091407
0.023346 0.751350 0.078148
0.085430 0.752611 0.079396
0.147555 0.753866 0.080607
0.209721 0.755116 0.081782
0.271929 0.756358 0.082917
0.334179 0.757593 0.084014
0.396472 0.758820 0.085069
0.458808 0.760038 0.086083
0.521189 0.761246 0.087053
0.583601 0.762447 0.087993
0.646016 0.763649 0.088932
0.708430 0.764850 0.089870
0.770844 0.766051 0.090809
0.833255 0.767252 0.091750
0.895663 0.768452 0.092692
0.958067 0.769651 0.093636
1.000000 0.770849 0.094584
0.027324 0.816519 0.082200
0.089547 0.817759 0.083321
0.151812 0.818991 0.084403
0.214121 0.820214 0.085443
0.276474 0.821429 0.086441
0.338871 0.822633 0.087396
0.401284 0.823835 0.088335
0.463699 0.825036 0.089274
0.526113 0.826238 0.090212
0.588526 0.827439 0.091151
0.650936 0.828639 0.092092
0.713343 0.829839 0.093035
0.775744 0.831038 0.093981
0.838140 0.832235 0.094930
0.900529 0.833431 0.095882
0.962909 0.834625 0.096840
1.000000 0.835817 0.097802
0.031777 0.881607 0.085811
0.094146 0.882818 0.086794
0.156553 0.884021 0.087738
0.218967 0.885222 0.088677
0.281382 0.886424 0.089615
0.343796 0.887625 0.090554
0.406208 0.888826 0.091494
0.468617 0.890026 0.092435
0.531022 0.891225 0.093379
0.593422 0.892424 0.094326
0.655815 0.893620 0.095276
0.718201 0.894816 0.096230
0.780578 0.896009 0.097190
0.842945 0.897200 0.098154
0.905302 0.898389 0.099125
0.967647 0.899574 0.100102
1.000000 0.900758 0.101087
0.036651 0.946609 0.089018
0.099065 0.947811 0.089957
0.161478 0.949012 0.090896
0.223889 0.950213 0.091836
0.286297 0.951413 0.092779
0.348700 0.952612 0.093723
0.411098 0.953809 0.094671
0.473489 0.955006 0.095623
0.535871 0.956200 0.096579
0.598245 0.957393 0.097540
0.660609 0.958583 0.098507
0.722961 0.959771 0.099480
0.785301 0.960956 0.100460
0.847627 0.962138 0.101448
0.909939 0.963316 0.102443
0.972235 0.964491 0.103448
1.000000 0.965663 0.104462
0.041571 1.000000 0.092179
0.103977 1.000000 0.093122
0.166378 1.000000 0.094068
0.228773 1.000000 0.095017
0.291161 1.000000 0.095970
0.353541 1.000000 0.096928
0.415911 1.000000 0.097891
0.478271 1.000000 0.098860
0.540619 1.000000 0.099836
0.602954 1.000000 0.100819
0.665275 1.000000 0.101809
0.727581 1.000000 0.102808
0.789871 1.000000 0.103816
0.852143 1.000000 0.104834
0.914397 1.000000 0.105862
0.976631 1.000000 0.106901
1.000000 1.000000 0.107951
0.000000 0.000000 0.079354
0.053789 0.000000 0.080531
0.115777 0.000000 0.081747
0.177726 0.000000 0.083002
0.239639 0.000000 0.084294
0.301517 0.000000 0.085621
0.363363 0.000000 0.086981
0.425177 0.000000 0.088372
0.486961 0.000000 0.089793
0.548718 0.000000 0.091241
0.610450 0.000000 0.092716
0.672156 0.000000 0.094215
0.733841 0.000000 0.095737
0.795505 0.000000 0.097279
0.857150 0.000000 0.098841
0.918778 0.000000 0.100420
0.980390 0.000000 0.102014
0.000000 0.035142 0.083469
0.057131 0.036314 0.084773
0.118997 0.037494 0.086112
0.180831 0.038682 0.087484
0.242634 0.039879 0.088886
0.304408 0.041082 0.090317
0.366156 0.042293 0.091775
0.427878 0.043510 0.093259
0.489576 0.044733 0.094767
0.551253 0.045961 0.096296
0.612910 0.047195 0.097846
0.674549 0.048433 0.099414
0.736171 0.049675 0.100998
0.797778 0.050921 0.102598
0.859372 0.052171 0.104210
0.920955 0.053423 0.105834
0.982529 0.054678 0.107468
0.000000 0.100067 0.087991
0.060087 0.101266 0.089404
0.121852 0.102472 0.090845
0.183590 0.103685 0.092313
0.245303 0.104904 0.093805
0.306993 0.106129 0.095321
0.368663 0.107360 0.096858
0.430313 0.108595 0.098414
0.491945 0.109835 0.099989
0.553561 0.111079 0.101579
0.615164 0.112326 0.103183
0.676754 0.113577 0.104800
0.738333 0.114830 0.106428
0.799904 0.116085 0.108064
0.861467 0.117342 0.109708
0.923025 0.118601 0.111357
0.984579 0.119861 0.113009
0.001020 0.165078 0.092853
0.062725 0.166300 0.094355
0.124408 0.167527 0.095878
0.186070 0.168759 0.097422
0.247713 0.169996 0.098986
0.309339 0.171237 0.100566
0.370950 0.172482 0.102161
0.432548 0.173731 0.103771
0.494134 0.174982 0.105392
0.555710 0.176237 0.107023
0.617278 0.177493 0.108662
0.678839 0.178751 0.110308
0.740395 0.180010 0.111958
0.801949 0.181269 0.113612
0.863501 0.182529 0.115266
0.925054 0.183789 0.116921
0.986612 0.185049 0.118571
0.003474 0.230159 0.097989
0.065111 0.231397 0.099559
0.126732 0.232640 0.101145
0.188338 0.233887 0.102746
0.249931 0.235136 0.104359
0.311513 0.236389 0.105984
0.373086 0.237644 0.107619
0.434651 0.238901 0.109260
0.496210 0.240159 0.110908
0.557765 0.241418 0.112560
0.619318 0.242678 0.114214
0.680871 0.243938 0.115869
0.742424 0.245198 0.117522
0.803989 0.246459 0.119168
0.865585 0.247724 0.120795
0.927213 0.248994 0.122400
0.988874 0.250267 0.123984
0.005723 0.295291 0.103332
0.067312 0.296542 0.104950
0.128891 0.297795 0.106578
0.190460 0.299051 0.108215
0.252023 0.300308 0.109860
0.313581 0.301567 0.111509
0.375135 0.302827 0.113162
0.436687 0.304087 0.114817
0.498240 0.305347 0.116471
0.559795 0.306607 0.118123
0.621371 0.307869 0.119763
0.682978 0.309136 0.121382
0.744618 0.310407 0.122979
0.806291 0.311681 0.124555
0.867997 0.312957 0.126107
0.929737 0.314235 0.127635
0.991512 0.315514 0.129136
0.007834 0.360459 0.108813
0.069395 0.361717 0.110460
0.130951 0.362976 0.112111
0.192504 0.364236 0.113764
0.254057 0.365496 0.115419
0.315610 0.366756 0.117073
0.377169 0.368016 0.118722
0.438756 0.369280 0.120354
0.500376 0.370549 0.121966
0.562027 0.371821 0.123556
0.623712 0.373095 0.125123
0.685431 0.374372 0.126666
0.747184 0.375651 0.128184
0.808972 0.376930 0.129676
0.870795 0.378209 0.131141
0.932655 0.379488 0.132578
0.994552 0.380765 0.133985
0.009874 0.425644 0.114367
0.071426 0.426904 0.116021
0.132980 0.428164 0.117675
0.194547 0.429425 0.119319
0.256146 0.430691 0.120943
0.317777 0.431961 0.122547
0.379441 0.433234 0.124129
0.441138 0.434510 0.125687
0.502869 0.435788 0.127222
0.564635 0.437066 0.128731
0.626436 0.438346 0.130213
0.688272 0.439625 0.131668
0.750145 0.440903 0.133093
0.812056 0.442179 0.134489
0.874004 0.443454 0.135854
0.935990 0.444725 0.137187
0.998015 0.445992 0.138486
0.011930 0.490836 0.119913
0.073540 0.492103 0.121530
0.135183 0.493374 0.123126
0.196859 0.494649 0.124699
0.258568 0.495925 0.126249
0.320312 0.497203 0.127774
0.382090 0.498482 0.129273
0.443904 0.499761 0.130746
0.505754 0.501040 0.132190
0.567641 0.502318 0.133605
0.629565 0.503594 0.134990
0.691527 0.504867 0.136343
0.753527 0.506137 0.137664
0.815567 0.507403 0.138950
0.877646 0.508664 0.140202
0.939766 0.509920 0.141418
1.000000 0.511170 0.142597
0.014282 0.556063 0.125266
0.076003 0.557340 0.126807
0.137759 0.558619 0.128323
0.199551 0.559898 0.129813
0.261378 0.561177 0.131275
0.323241 0.562456 0.132709
0.385141 0.563733 0.134113
0.447079 0.565008 0.135486
0.509054 0.566280 0.136828
0.571069 0.567548 0.138136
0.633123 0.568813 0.139410
0.695217 0.570072 0.140649
0.757352 0.571326 0.141851
0.819528 0.572574 0.143016
0.881746 0.573814 0.144142
0.944007 0.575047 0.145229
1.000000 0.576272 0.146274
0.017016 0.621314 0.130348
0.078856 0.622593 0.131800
0.140732 0.623871 0.133223
0.202646 0.625147 0.134616
0.264598 0.626421 0.135978
0.326588 0.627692 0.137308
0.388616 0.628959 0.138604
0.450685 0.630222 0.139865
0.512794 0.631479 0.141091
0.574944 0.632731 0.142280
0.637135 0.633976 0.143431
0.699368 0.635214 0.144542
0.761645 0.636444 0.145614
0.823964 0.637666 0.146644
0.886328 0.638878 0.147631
0.948733 0.640081 0.148579
1.000000 0.641282 0.149517
0.020156 0.686561 0.135116
0.082122 0.687834 0.136466
0.144126 0.689104 0.137784
0.206169 0.690369 0.139067
0.268252 0.691630 0.140316
0.330376 0.692886 0.141528
0.392541 0.694135 0.142703
0.454747 0.695378 0.143840
0.516996 0.696613 0.144937
0.579288 0.697840 0.145994
0.641624 0.699058 0.147008
0.704003 0.700266 0.147980
0.766415 0.701468 0.148920
0.828830 0.702669 0.149859
0.891244 0.703871 0.150797
0.953658 0.705072 0.151736
1.000000 0.706273 0.152677
0.023727 0.751779 0.139526
0.085825 0.753038 0.140761
0.147963 0.754291 0.141960
0.210143 0.755538 0.143122
0.272365 0.756778 0.144244
0.334630 0.758011 0.145327
0.396937 0.759234 0.146368
0.459289 0.760449 0.147367
0.521685 0.761654 0.148323
0.584098 0.762855 0.149262
0.646513 0.764057 0.150201
0.708927 0.765258 0.151139
0.771340 0.766459 0.152078
0.833750 0.767660 0.153019
0.896157 0.768860 0.153962
0.958559 0.770058 0.154907
1.000000 0.771256 0.155856
0.027751 0.816941 0.143535
0.089989 0.818178 0.144643
0.152269 0.819407 0.145711
0.214593 0.820628 0.146737
0.276960 0.821839 0.147720
0.339367 0.823041 0.148665
0.401782 0.824243 0.149604
0.464196 0.825444 0.150542
0.526610 0.826646 0.151481
0.589022 0.827846 0.152421
0.651431 0.829047 0.153362
0.713836 0.830246 0.154306
0.776236 0.831444 0.155253
0.838630 0.832641 0.156203
0.901016 0.833836 0.157157
0.963393 0.835030 0.158116
1.000000 0.836221 0.159081
0.032254 0.882020 0.147100
0.094638 0.883227 0.148067
0.157050 0.884429 0.149007
0.219465 0.885630 0.149945
0.281879 0.886832 0.150884
0.344293 0.888033 0.151823
0.406704 0.889234 0.152763
0.469112 0.890433 0.153705
0.531515 0.891632 0.154650
0.593912 0.892830 0.155598
0.656303 0.894027 0.156550
0.718686 0.895221 0.157506
0.781060 0.896414 0.158467
0.843424 0.897604 0.159433
0.905777 0.898792 0.160406
0.968117 0.899977 0.161386
1.000000 0.901159 0.162373
0.037148 0.947018 0.150287
0.099562 0.948219 0.151226
0.161975 0.949420 0.152165
0.224385 0.950620 0.153106
0.286791 0.951820 0.154049
0.349193 0.953019 0.154995
0.411588 0.954216 0.155944
0.473976 0.955412 0.156897
0.536356 0.956605 0.157855
0.598726 0.957797 0.158818
0.661086 0.958987 0.159787
0.723435 0.960173 0.160762
0.785770 0.961357 0.161745
0.848091 0.962538 0.162735
0.910398 0.963716 0.163734
0.972688 0.964890 0.164741
1.000000 0.966060 0.165759
0.042066 1.000000 0.153449
0.104470 1.000000 0.154393
0.166870 1.000000 0.155340
0.229262 1.000000 0.156290
0.291648 1.000000 0.157245
0.354024 1.000000 0.158205
0.416391 1.000000 0.159170
0.478747 1.000000 0.160141
0.541090 1.000000 0.161119
0.603421 1.000000 0.162104
0.665737 1.000000 0.163098
0.728038 1.000000 0.164099
0.790322 1.000000 0.165111
0.852588 1.000000 0.166132
0.914836 1.000000 0.167163
0.977063 1.000000 0.168206
1.000000 1.000000 0.169261
0.000000 0.000000 0.140699
0.054146 0.000000 0.141889
0.116120 0.000000 0.143119
0.178057 0.000000 0.144387
0.239958 0.000000 0.145691
0.301825 0.000000 0.147029
0.363659 0.000000 0.148400
0.425463 0.000000 0.149801
0.487238 0.000000 0.151232
0.548986 0.000000 0.152689
0.610709 0.000000 0.154173
0.672408 0.000000 0.155680
0.734086 0.000000 0.157208
0.795743 0.000000 0.158758
0.857382 0.000000 0.160325
0.919004 0.000000 0.161909
0.980612 0.000000 0.163508
0.000000 0.035539 0.144858
0.057446 0.036713 0.146174
0.119301 0.037897 0.147524
