assets/presets/luts/moonlight/lut.cube
TITLE "Moonlight"
LUT_3D_SIZE 17
0.000000 0.000000 0.000000
0.000000 0.000000 0.000000
0.000000 0.000000 0.000000
0.034891 0.000000 0.000000
0.075477 0.000000 0.000000
0.116091 0.000000 0.000000
0.156731 0.000000 0.000000
0.197396 0.000000 0.000000
0.238085 0.000000 0.000000
0.278798 0.000000 0.000000
0.319533 0.000000 0.000000
0.360290 0.000000 0.000000
0.401068 0.000000 0.002130
0.441865 0.000000 0.004951
0.482681 0.000000 0.007754
0.523515 0.000000 0.010542
0.564366 0.000000 0.013314
0.000000 0.000000 0.000000
0.000000 0.000000 0.000000
0.002796 0.000000 0.000000
0.043428 0.000000 0.000000
0.084084 0.000000 0.000000
0.124766 0.000000 0.000000
0.165471 0.000000 0.000000
0.206198 0.000000 0.000000
0.246948 0.000814 0.000000
0.287719 0.004021 0.001172
0.328509 0.007237 0.003998
0.369319 0.010461 0.006807
0.410147 0.013693 0.009600
0.450992 0.016931 0.012378
0.491854 0.020177 0.015140
0.532730 0.023428 0.017889
0.573622 0.026686 0.020626
0.000000 0.026844 0.000000
0.000000 0.029068 0.000000
0.014319 0.032219 0.000000
0.055036 0.035404 0.000000
0.095776 0.038599 0.000000
0.136537 0.041802 0.000000
0.177318 0.045014 0.002681
0.218119 0.048234 0.005498
0.258939 0.051462 0.008298
0.299776 0.054698 0.011083
0.340630 0.057940 0.013852
0.381500 0.061189 0.016607
0.422384 0.064444 0.019349
0.463283 0.067705 0.022079
0.504194 0.070971 0.024797
0.545118 0.074243 0.027504
0.586053 0.077519 0.030200
0.000000 0.077407 0.000000
0.000000 0.079654 0.000000
0.026142 0.082837 0.001368
0.066934 0.086053 0.004193
0.107745 0.089278 0.007001
0.148574 0.092510 0.009793
0.189420 0.095749 0.012569
0.230283 0.098995 0.015331
0.271160 0.102247 0.018079
0.312053 0.105505 0.020814
0.352958 0.108769 0.023537
0.393877 0.112038 0.026249
0.434806 0.115312 0.028950
0.475747 0.118590 0.031642
0.516697 0.121873 0.034325
0.557656 0.125159 0.037001
0.598623 0.128448 0.039669
0.000000 0.128081 0.006558
0.000000 0.130348 0.008521
0.038214 0.133559 0.011283
0.079069 0.136802 0.014051
0.119940 0.140051 0.016806
0.160825 0.143307 0.019547
0.201725 0.146568 0.022275
0.242638 0.149835 0.024992
0.283562 0.153106 0.027698
0.324498 0.156383 0.030395
0.365444 0.159663 0.033082
0.406399 0.162948 0.035760
0.447362 0.166236 0.038432
0.488333 0.169527 0.041096
0.529311 0.172820 0.043755
0.570294 0.176116 0.046409
0.611281 0.179414 0.049059
0.000000 0.178851 0.016371
0.009920 0.181135 0.018298
0.050494 0.184368 0.021011
0.091401 0.187632 0.023733
0.132320 0.190902 0.026444
0.173251 0.194176 0.029145
0.214192 0.197454 0.031836
0.255143 0.200737 0.034519
0.296103 0.204024 0.037193
0.337070 0.207313 0.039861
0.378045 0.210606 0.042522
0.419025 0.213901 0.045179
0.460011 0.217198 0.047830
0.501001 0.220497 0.050478
0.541993 0.223797 0.053123
0.582989 0.227098 0.055766
0.623985 0.230400 0.058408
0.000000 0.229698 0.026016
0.022325 0.231995 0.027914
0.062943 0.235247 0.030589
0.103889 0.238528 0.033275
0.144845 0.241812 0.035953
0.185809 0.245100 0.038624
0.226780 0.248392 0.041288
0.267758 0.251686 0.043947
0.308742 0.254982 0.046600
0.349729 0.258280 0.049250
0.390721 0.261579 0.051896
0.431715 0.264880 0.054540
0.472711 0.268182 0.057182
0.513708 0.271483 0.059823
0.554705 0.274785 0.062465
0.595701 0.278087 0.065107
0.636694 0.281388 0.067755
0.006115 0.280606 0.035530
0.034868 0.282914 0.037407
0.075517 0.286178 0.040053
0.116492 0.289471 0.042714
0.157473 0.292766 0.045370
0.198459 0.296063 0.048021
0.239449 0.299362 0.050669
0.280442 0.302662 0.053314
0.321437 0.305964 0.055956
0.362434 0.309265 0.058598
0.403431 0.312567 0.061239
0.444427 0.315869 0.063881
0.485422 0.319170 0.066524
0.526413 0.322473 0.069183
0.567397 0.325781 0.071868
0.608375 0.329093 0.074579
0.649345 0.332407 0.077316
0.018740 0.331559 0.044950
0.047509 0.333873 0.046812
0.088178 0.337145 0.049441
0.129169 0.340445 0.052087
0.170164 0.343746 0.054730
0.211160 0.347047 0.057373
0.252157 0.350349 0.060014
0.293154 0.353651 0.062655
0.334149 0.356952 0.065298
0.375142 0.360254 0.067947
0.416130 0.363560 0.070619
0.457111 0.366870 0.073318
0.498084 0.370183 0.076043
0.539049 0.373499 0.078794
0.580005 0.376818 0.081572
0.620951 0.380138 0.084376
0.661886 0.383460 0.087207
0.031428 0.382538 0.054313
0.060205 0.384855 0.056168
0.100883 0.388131 0.058789
0.141880 0.391433 0.061430
0.182876 0.394734 0.064072
0.223871 0.398035 0.066715
0.264861 0.401339 0.069376
0.305845 0.404647 0.072063
0.346822 0.407959 0.074776
0.387791 0.411274 0.077515
0.428751 0.414592 0.080280
0.469702 0.417911 0.083072
0.510642 0.421232 0.085890
0.551571 0.424555 0.088735
0.592488 0.427877 0.091607
0.633392 0.431199 0.094505
0.674282 0.434521 0.097431
0.044140 0.433526 0.063654
0.072917 0.435844 0.065509
0.113591 0.439120 0.068138
0.154578 0.442426 0.070813
0.195558 0.445736 0.073514
0.236531 0.449049 0.076241
0.277496 0.452366 0.078994
0.318451 0.455685 0.081773
0.359396 0.459005 0.084579
0.400330 0.462327 0.087412
0.441253 0.465649 0.090271
0.482163 0.468972 0.093157
0.523059 0.472294 0.096070
0.563942 0.475614 0.099010
0.604809 0.478934 0.101978
0.645660 0.482250 0.104972
0.686495 0.485565 0.107994
0.056826 0.484526 0.073085
0.085588 0.486851 0.074993
0.126238 0.490141 0.077713
0.167197 0.493459 0.080480
0.208147 0.496778 0.083274
0.249087 0.500100 0.086094
0.290015 0.503422 0.088941
0.330931 0.506744 0.091815
0.371834 0.510066 0.094715
0.412723 0.513388 0.097643
0.453597 0.516708 0.100598
0.494456 0.520026 0.103579
0.535298 0.523341 0.106589
0.576123 0.526654 0.109625
0.616931 0.529962 0.112689
0.657719 0.533267 0.115781
0.698487 0.536567 0.118900
0.069420 0.535567 0.082831
0.098159 0.537898 0.084805
0.138774 0.541194 0.087617
0.179696 0.544516 0.090478
0.220605 0.547839 0.093366
0.261500 0.551161 0.096281
0.302382 0.554481 0.099223
0.343248 0.557800 0.102193
0.384098 0.561117 0.105189
0.424931 0.564431 0.108213
0.465747 0.567742 0.111264
0.506544 0.571048 0.114343
0.547322 0.574350 0.117450
0.588080 0.577647 0.120584
0.628816 0.580939 0.123747
0.669531 0.584224 0.126937
0.710223 0.587502 0.130155
0.081884 0.586627 0.092908
0.110594 0.588959 0.094948
0.151163 0.592255 0.097855
0.192036 0.595575 0.100812
0.232894 0.598892 0.103796
0.273735 0.602208 0.106807
0.314559 0.605520 0.109845
0.355365 0.608828 0.112911
0.396152 0.612133 0.116005
0.436919 0.615432 0.119127
0.477666 0.618726 0.122276
0.518391 0.622014 0.125453
0.559093 0.625296 0.128659
0.599773 0.628570 0.131892
0.640429 0.631837 0.135154
0.681060 0.635096 0.138445
0.721665 0.638345 0.141763
0.094181 0.637682 0.103322
0.122854 0.640010 0.105430
0.163367 0.643297 0.108432
0.204182 0.646608 0.111485
0.244978 0.649914 0.114566
0.285754 0.653216 0.117675
0.326510 0.656512 0.120811
0.367245 0.659803 0.123976
0.407959 0.663088 0.127168
0.448649 0.666366 0.130389
0.489316 0.669636 0.133637
0.529959 0.672899 0.136915
0.570576 0.676153 0.140220
0.611167 0.679398 0.143554
0.651731 0.682633 0.146917
0.692268 0.685858 0.150309
0.732776 0.689072 0.153730
0.106275 0.688705 0.114077
0.134902 0.691024 0.116253
0.175350 0.694297 0.119353
0.216095 0.697591 0.122504
0.256819 0.700879 0.125684
0.297520 0.704160 0.128891
0.338198 0.707434 0.132127
0.378852 0.710700 0.135391
0.419481 0.713958 0.138683
0.460085 0.717207 0.142004
0.500662 0.720447 0.145354
0.541211 0.723677 0.148732
0.581732 0.726896 0.152139
0.622225 0.730104 0.155575
0.662687 0.733301 0.159040
0.703132 0.736490 0.162523
0.743578 0.739681 0.166006
0.118128 0.739673 0.125179
0.146703 0.741978 0.127424
0.187075 0.745229 0.130622
0.227740 0.748499 0.133873
0.268381 0.751761 0.137152
0.308996 0.755014 0.140460
0.349586 0.758259 0.143796
0.390148 0.761493 0.147161
0.430683 0.764717 0.150555
0.471188 0.767931 0.153977
0.511665 0.771133 0.157429
0.552114 0.774324 0.160907
0.592559 0.777514 0.164390
0.633005 0.780705 0.167874
0.673450 0.783895 0.171358
0.713895 0.787085 0.174841
0.754340 0.790275 0.178322
0.000000 0.000000 0.001465
0.000000 0.000000 0.003624
0.000000 0.000000 0.006652
0.035840 0.000000 0.009679
0.076435 0.000000 0.012681
0.117056 0.000000 0.015658
0.157704 0.000000 0.018613
0.198376 0.000000 0.021545
0.239073 0.000000 0.024456
0.279792 0.000000 0.027345
0.320534 0.000000 0.030215
0.361297 0.000000 0.033066
0.402081 0.000000 0.035899
0.442884 0.000000 0.038714
0.483705 0.000000 0.041513
0.524544 0.000000 0.044296
0.565400 0.000000 0.047064
0.000000 0.000000 0.009581
0.000000 0.000000 0.011691
0.003759 0.000000 0.014653
0.044398 0.000000 0.017616
0.085062 0.000000 0.020555
0.125751 0.000000 0.023473
0.166463 0.000000 0.026370
0.207197 0.000000 0.029246
0.247953 0.001772 0.032104
0.288730 0.004982 0.034942
0.329526 0.008200 0.037763
0.370342 0.011426 0.040567
0.411175 0.014660 0.043356
0.452025 0.017901 0.046129
0.492891 0.021148 0.048887
0.533772 0.024402 0.051632
0.574668 0.027661 0.054364
0.000000 0.027790 0.020083
0.000000 0.030016 0.022136
0.015308 0.033170 0.025020
0.056032 0.036358 0.027905
0.096778 0.039555 0.030772
0.137545 0.042762 0.033619
0.178332 0.045976 0.036448
0.219139 0.049199 0.039260
0.259964 0.052429 0.042055
0.300806 0.055666 0.044835
0.341665 0.058911 0.047601
0.382539 0.062161 0.050352
0.423428 0.065418 0.053090
0.464331 0.068681 0.055816
0.505246 0.071949 0.058530
0.546173 0.075222 0.061234
0.587111 0.078499 0.063928
0.000000 0.078363 0.030320
0.000000 0.080612 0.032322
0.027153 0.083797 0.035138
0.067951 0.087016 0.037958
0.108767 0.090243 0.040761
0.149602 0.093477 0.043548
0.190453 0.096718 0.046319
0.231320 0.099966 0.049077
0.272202 0.103220 0.051821
0.313099 0.106480 0.054553
0.354008 0.109746 0.057272
0.394930 0.113016 0.059981
0.435863 0.116292 0.062680
0.476807 0.119571 0.065369
0.517760 0.122855 0.068049
0.558722 0.126142 0.070722
0.599691 0.129432 0.073389
0.000000 0.129046 0.040318
0.000000 0.131315 0.042278
0.039245 0.134528 0.045035
0.080104 0.137772 0.047799
0.120980 0.141024 0.050550
0.161870 0.144281 0.053287
0.202773 0.147544 0.056012
0.243690 0.150812 0.058726
0.284618 0.154085 0.061429
0.325556 0.157363 0.064122
0.366505 0.160645 0.066807
0.407463 0.163930 0.069483
0.448429 0.167219 0.072152
0.489402 0.170511 0.074815
0.530381 0.173805 0.077473
0.571365 0.177102 0.080125
0.612354 0.180401 0.082774
0.000000 0.179823 0.050116
0.010962 0.182108 0.052040
0.051541 0.185343 0.054749
0.092451 0.188609 0.057468
0.133374 0.191880 0.060176
0.174308 0.195156 0.062874
0.215252 0.198435 0.065562
0.256206 0.201719 0.068242
0.297168 0.205007 0.070915
0.338138 0.208297 0.073581
0.379114 0.211591 0.076240
0.420096 0.214886 0.078895
0.461083 0.218184 0.081545
0.502074 0.221483 0.084192
0.543068 0.224784 0.086837
0.584063 0.228085 0.089479
0.625060 0.231387 0.092121
0.000000 0.230676 0.059749
0.023381 0.232975 0.061644
0.064001 0.236227 0.064316
0.104951 0.239509 0.067000
0.145909 0.242795 0.069676
0.186875 0.246084 0.072345
0.227849 0.249376 0.075007
0.268828 0.252671 0.077664
0.309813 0.255967 0.080316
0.350802 0.259266 0.082965
0.391795 0.262566 0.085610
0.432790 0.265867 0.088253
0.473786 0.269169 0.090895
0.514783 0.272471 0.093536
0.555779 0.275772 0.096178
0.596775 0.279073 0.098821
0.637767 0.282376 0.101474
0.007179 0.281589 0.069253
0.035934 0.283897 0.071128
0.076585 0.287162 0.073773
0.117562 0.290456 0.076432
0.158544 0.293751 0.079086
0.199531 0.297049 0.081736
0.240522 0.300349 0.084383
0.281516 0.303649 0.087027
0.322512 0.306951 0.089670
0.363509 0.310252 0.092311
0.404506 0.313554 0.094952
0.445502 0.316856 0.097595
0.486496 0.320157 0.100240
0.527485 0.323462 0.102907
0.568467 0.326771 0.105599
0.609443 0.330083 0.108318
0.650410 0.333399 0.111063
0.019810 0.332544 0.078667
0.048581 0.334859 0.080528
0.089251 0.338132 0.083156
0.130243 0.341432 0.085801
0.171238 0.344733 0.088444
0.212235 0.348034 0.091086
0.253232 0.351336 0.093727
0.294228 0.354638 0.096369
0.335223 0.357939 0.099012
0.376215 0.361242 0.101666
0.417201 0.364549 0.104347
0.458180 0.367860 0.107053
0.499151 0.371174 0.109786
0.540113 0.374491 0.112545
0.581066 0.377810 0.115331
0.622009 0.381131 0.118143
0.662940 0.384453 0.120981
0.032503 0.383524 0.088026
0.061280 0.385842 0.089881
0.101958 0.389118 0.092502
0.142954 0.392420 0.095143
0.183950 0.395721 0.097785
0.224944 0.399023 0.100431
0.265933 0.402328 0.103100
0.306915 0.405637 0.105794
0.347889 0.408950 0.108515
0.388856 0.412266 0.111262
0.429814 0.415584 0.114035
0.470761 0.418904 0.116835
0.511698 0.422225 0.119661
0.552623 0.425548 0.122514
0.593536 0.428870 0.125394
0.634436 0.432192 0.128300
0.675322 0.435513 0.131234
0.045215 0.434513 0.097367
0.073991 0.436830 0.099223
0.114663 0.440108 0.101859
0.155648 0.443415 0.104541
0.196627 0.446726 0.107250
0.237597 0.450041 0.109984
0.278559 0.453358 0.112745
0.319511 0.456677 0.115533
0.360453 0.459998 0.118347
0.401384 0.463320 0.121187
0.442303 0.466643 0.124054
0.483209 0.469965 0.126949
0.524101 0.473286 0.129870
0.564979 0.476607 0.132818
0.605842 0.479925 0.135793
0.646688 0.483242 0.138796
0.687518 0.486555 0.141826
0.057894 0.485516 0.106820
0.086656 0.487842 0.108734
0.127302 0.491132 0.111461
0.168259 0.494451 0.114236
0.209206 0.497771 0.117038
0.250142 0.501093 0.119866
0.291067 0.504415 0.122721
0.331979 0.507737 0.125603
0.372878 0.511059 0.128511
0.413762 0.514380 0.131447
0.454632 0.517700 0.134410
0.495486 0.521017 0.137400
0.536323 0.524332 0.140417
0.577143 0.527643 0.143462
0.617945 0.530951 0.146534
0.658728 0.534254 0.149634
0.699490 0.537552 0.152762
0.070479 0.536560 0.116593
0.099217 0.538891 0.118573
0.139828 0.542187 0.121393
0.180746 0.545510 0.124262
0.221651 0.548832 0.127158
0.262542 0.552153 0.130081
0.303419 0.555474 0.133032
0.344280 0.558792 0.136009
0.385126 0.562108 0.139014
0.425954 0.565421 0.142046
0.466764 0.568731 0.145105
0.507555 0.572036 0.148192
0.548327 0.575336 0.151307
0.589079 0.578632 0.154450
0.629809 0.581921 0.157621
0.670517 0.585205 0.160819
0.711202 0.588481 0.164046
0.082930 0.587620 0.126699
0.111637 0.589952 0.128745
0.152202 0.593247 0.131660
0.193071 0.596567 0.134624
0.233924 0.599884 0.137616
0.274760 0.603198 0.140636
0.315579 0.606509 0.143682
0.356379 0.609817 0.146757
0.397160 0.613120 0.149859
0.437921 0.616417 0.152989
0.478661 0.619710 0.156146
0.519380 0.622996 0.159332
0.560076 0.626275 0.162546
0.600749 0.629548 0.165788
0.641397 0.632812 0.169058
0.682020 0.636068 0.172357
0.722618 0.639315 0.175685
0.095212 0.638673 0.137141
0.123881 0.641001 0.139255
0.164390 0.644287 0.142265
0.205198 0.647597 0.145327
0.245989 0.650902 0.148416
0.286759 0.654202 0.151533
0.327509 0.657497 0.154678
0.368238 0.660786 0.157850
0.408944 0.664069 0.161051
0.449628 0.667344 0.164280
0.490288 0.670612 0.167537
0.530923 0.673872 0.170823
0.571532 0.677124 0.174137
0.612116 0.680366 0.177480
0.652672 0.683598 0.180852
0.693200 0.686820 0.184252
0.733699 0.690031 0.187681
0.107287 0.689693 0.147926
0.135910 0.692011 0.150108
0.176352 0.695283 0.153215
0.217091 0.698574 0.156375
0.257808 0.701860 0.159563
0.298502 0.705139 0.162779
0.339173 0.708411 0.166023
0.379820 0.711675 0.169295
0.420441 0.714930 0.172596
0.461037 0.718177 0.175926
0.501606 0.721413 0.179284
0.542147 0.724640 0.182671
0.582659 0.727856 0.186087
0.623143 0.731061 0.189531
0.663597 0.734254 0.193005
0.704042 0.737444 0.196487
0.744487 0.740634 0.199971
0.119118 0.740655 0.159057
0.147688 0.742958 0.161308
0.188053 0.746208 0.164514
0.228711 0.749475 0.167774
0.269344 0.752735 0.171061
0.309952 0.755985 0.174377
0.350533 0.759227 0.177722
0.391088 0.762458 0.181096
0.431614 0.765679 0.184498
0.472111 0.768889 0.187930
0.512578 0.772088 0.191390
0.553024 0.775278 0.194871
0.593469 0.778468 0.198355
0.633914 0.781658 0.201839
0.674359 0.784849 0.205322
0.714805 0.788039 0.208805
0.755250 0.791228 0.212286
0.000000 0.000000 0.043718
0.000000 0.000000 0.045870
0.000000 0.000000 0.048889
0.037029 0.000000 0.051906
0.077633 0.000000 0.054899
0.118265 0.000000 0.057868
0.158922 0.000000 0.060814
0.199603 0.000000 0.063738
0.240309 0.000000 0.066640
0.281037 0.000000 0.069523
0.321786 0.000000 0.072385
0.362557 0.000000 0.075229
0.403348 0.000000 0.078055
0.444158 0.000000 0.080864
0.484986 0.000000 0.083657
0.525831 0.000000 0.086434
0.566693 0.000000 0.089197
0.000000 0.000000 0.051808
0.000000 0.000000 0.053912
0.004964 0.000000 0.056866
0.045613 0.000000 0.059819
0.086286 0.000000 0.062751
0.126984 0.000000 0.065660
0.167704 0.000000 0.068550
0.208447 0.000000 0.071419
0.249210 0.002969 0.074269
0.289995 0.006182 0.077101
0.330798 0.009403 0.079916
0.371620 0.012632 0.082714
0.412460 0.015869 0.085496
0.453316 0.019112 0.088264
0.494188 0.022362 0.091017
0.535075 0.025618 0.093757
0.575975 0.028879 0.096485
0.000000 0.028973 0.062280
0.000000 0.031201 0.064327
0.016545 0.034359 0.067203
0.057278 0.037550 0.070081
0.098032 0.040751 0.072940
0.138806 0.043960 0.075781
0.179601 0.047178 0.078603
0.220415 0.050403 0.081409
0.261246 0.053636 0.084199
0.302095 0.056876 0.086973
0.342959 0.060123 0.089733
0.383839 0.063376 0.092479
0.424733 0.066635 0.095213
0.465641 0.069900 0.097934
0.506561 0.073170 0.100645
0.547492 0.076444 0.103345
0.588434 0.079723 0.106035
0.000000 0.079558 0.072490
0.000000 0.081809 0.074487
0.028418 0.084998 0.077296
0.069223 0.088220 0.080110
0.110047 0.091449 0.082906
0.150887 0.094686 0.085688
0.191745 0.097930 0.088454
0.232618 0.101180 0.091207
0.273505 0.104436 0.093946
0.314407 0.107698 0.096673
0.355321 0.110966 0.099388
0.396247 0.114238 0.102093
0.437184 0.117515 0.104788
0.478131 0.120796 0.107474
0.519088 0.124081 0.110152
0.560052 0.127370 0.112822
0.601024 0.130661 0.115486
0.000000 0.130252 0.082465
0.000002 0.132522 0.084421
0.040533 0.135738 0.087173
0.081399 0.138985 0.089931
0.122280 0.142239 0.092677
0.163175 0.145498 0.095409
0.204084 0.148763 0.098130
0.245004 0.152033 0.100840
0.285937 0.155308 0.103539
0.326879 0.158587 0.106229
0.367831 0.161871 0.108910
0.408792 0.165157 0.111584
0.449761 0.168447 0.114251
0.490736 0.171740 0.116912
0.531717 0.175036 0.119567
0.572704 0.178333 0.122218
0.613694 0.181632 0.124865
0.000000 0.181038 0.092244
0.012265 0.183324 0.094164
0.052849 0.186561 0.096869
0.093764 0.189829 0.099584
0.134691 0.193102 0.102288
0.175629 0.196379 0.104982
0.216577 0.199661 0.107667
0.257534 0.202946 0.110345
0.298499 0.206234 0.113014
0.339471 0.209526 0.115678
0.380450 0.212820 0.118336
0.421434 0.216117 0.120989
0.462422 0.219415 0.123638
0.503414 0.222715 0.126283
0.544409 0.226016 0.128927
0.585405 0.229317 0.131569
0.626402 0.232619 0.134210
0.000000 0.231898 0.101861
0.024700 0.234197 0.103754
0.065324 0.237451 0.106423
0.106277 0.240735 0.109104
0.147239 0.244022 0.111777
0.188208 0.247312 0.114443
0.229184 0.250605 0.117103
0.270165 0.253901 0.119758
0.311152 0.257198 0.122409
0.352142 0.260498 0.125056
0.393136 0.263798 0.127701
0.434131 0.267099 0.130343
0.475128 0.270401 0.132985
0.516125 0.273703 0.135626
0.557121 0.277004 0.138268
0.598115 0.280305 0.140912
0.639105 0.283609 0.143575
0.008508 0.282816 0.111355
0.037265 0.285125 0.113228
0.077919 0.288391 0.115870
0.118898 0.291685 0.118527
0.159882 0.294982 0.121180
0.200871 0.298281 0.123828
0.241863 0.301580 0.126474
0.282857 0.304881 0.129117
0.323854 0.308183 0.131759
0.364851 0.311485 0.134401
0.405847 0.314787 0.137042
0.446843 0.318088 0.139685
0.487835 0.321390 0.142336
0.528822 0.324696 0.145012
0.569802 0.328007 0.147715
0.610774 0.331320 0.150443
0.651738 0.334637 0.153198
0.021148 0.333775 0.120761
0.049919 0.336090 0.122621
0.090591 0.339363 0.125247
0.131584 0.342664 0.127891
0.172580 0.345965 0.130534
0.213577 0.349267 0.133175
0.254573 0.352569 0.135817
0.295570 0.355870 0.138459
0.336564 0.359171 0.141103
0.377554 0.362475 0.143768
0.418537 0.365784 0.146458
0.459513 0.369096 0.149174
0.500481 0.372412 0.151917
0.541440 0.375730 0.154686
0.582389 0.379049 0.157481
0.623328 0.382371 0.160303
0.664255 0.385693 0.163152
0.033844 0.384757 0.130116
0.062622 0.387074 0.131970
0.103299 0.390350 0.134591
0.144296 0.393652 0.137233
0.185291 0.396953 0.139876
0.226284 0.400256 0.142528
0.267270 0.403562 0.145206
0.308249 0.406873 0.147911
0.349221 0.410187 0.150641
0.390184 0.413504 0.153398
0.431138 0.416823 0.156181
0.472082 0.420144 0.158991
0.513015 0.423465 0.161827
0.553936 0.426788 0.164690
0.594844 0.430110 0.167579
0.635738 0.433432 0.170496
0.676619 0.436752 0.173440
0.046556 0.435745 0.139458
0.075332 0.438063 0.141315
0.116002 0.441341 0.143961
0.156984 0.444650 0.146653
0.197960 0.447963 0.149371
0.238927 0.451278 0.152116
0.279885 0.454596 0.154886
0.320834 0.457916 0.157684
0.361772 0.461238 0.160508
0.402698 0.464560 0.163358
0.443612 0.467883 0.166235
0.484514 0.471205 0.169140
0.525401 0.474526 0.172071
0.566273 0.477846 0.175029
0.607129 0.481163 0.178015
0.647970 0.484478 0.181028
0.688792 0.487790 0.184068
0.059228 0.486753 0.148940
0.087987 0.489079 0.150860
0.128630 0.492371 0.153598
0.169583 0.495690 0.156383
0.210526 0.499011 0.159194
0.251458 0.502333 0.162032
0.292378 0.505655 0.164897
0.333286 0.508977 0.167789
0.374179 0.512299 0.170708
0.415059 0.515619 0.173653
0.455923 0.518938 0.176626
0.496770 0.522255 0.179626
0.537601 0.525568 0.182654
0.578415 0.528878 0.185709
0.619209 0.532184 0.188792
0.659984 0.535486 0.191902
0.700739 0.538782 0.195040
0.071800 0.537799 0.158748
0.100535 0.540131 0.160734
0.141142 0.543427 0.163565
0.182055 0.546750 0.166444
0.222955 0.550072 0.169350
0.263841 0.553393 0.172283
0.304712 0.556713 0.175244
0.345568 0.560030 0.178231
0.386406 0.563345 0.181246
0.427228 0.566657 0.184288
0.468031 0.569965 0.187358
0.508816 0.573268 0.190456
0.549580 0.576567 0.193581
0.590324 0.579860 0.196734
0.631046 0.583147 0.199915
0.671745 0.586428 0.203124
0.712422 0.589702 0.206362
0.084235 0.588860 0.168889
0.112939 0.591192 0.170942
0.153498 0.594486 0.173867
0.194361 0.597805 0.176842
0.235208 0.601121 0.179844
0.276038 0.604434 0.182873
0.316849 0.607744 0.185930
0.357643 0.611050 0.189015
0.398416 0.614351 0.192127
0.439170 0.617647 0.195268
0.479902 0.620937 0.198436
0.520612 0.624221 0.201632
0.561300 0.627498 0.204856
0.601963 0.630767 0.208109
0.642602 0.634028 0.211390
0.683216 0.637281 0.214700
0.723804 0.640525 0.218038
0.096497 0.639911 0.179367
0.125161 0.642237 0.181488
0.165663 0.645523 0.184509
0.206465 0.648831 0.187581
0.247248 0.652134 0.190680
0.288011 0.655432 0.193807
0.328753 0.658725 0.196963
0.369474 0.662012 0.200146
0.410172 0.665292 0.203357
0.450847 0.668565 0.206597
0.491497 0.671830 0.209864
0.532123 0.675087 0.213161
0.572723 0.678335 0.216485
0.613296 0.681573 0.219839
0.653842 0.684802 0.223221
0.694359 0.688019 0.226632
0.734848 0.691226 0.230072
0.108548 0.690926 0.190188
0.137166 0.693242 0.192377
0.177600 0.696512 0.195495
0.218331 0.699802 0.198665
0.259039 0.703085 0.201864
0.299725 0.706361 0.205090
0.340387 0.709630 0.208345
0.381024 0.712891 0.211628
0.421636 0.716143 0.214939
0.462222 0.719386 0.218280
0.502781 0.722619 0.221648
0.543311 0.725842 0.225046
0.583813 0.729054 0.228473
0.624286 0.732254 0.231929
0.664733 0.735445 0.235408
0.705178 0.738635 0.238891
0.745623 0.741825 0.242375
0.120351 0.741880 0.201356
0.148915 0.744181 0.203615
0.189271 0.747428 0.206831
0.229920 0.750693 0.210101
0.270544 0.753949 0.213399
0.311142 0.757196 0.216726
0.351713 0.760434 0.220082
0.392257 0.763662 0.223466
0.432772 0.766879 0.226879
0.473259 0.770084 0.230322
0.513715 0.773279 0.233793
0.554160 0.776469 0.237275
0.594605 0.779659 0.240759
0.635050 0.782849 0.244243
0.675495 0.786039 0.247726
0.715941 0.789229 0.251208
0.756386 0.792419 0.254689
0.000000 0.000000 0.085968
0.000000 0.000000 0.088112
0.000000 0.000000 0.091122
0.038221 0.000000 0.094130
0.078836 0.000000 0.097113
0.119477 0.000000 0.100074
0.160143 0.000000 0.103011
0.200834 0.000000 0.105927
0.241547 0.000000 0.108822
0.282284 0.000000 0.111697
0.323042 0.000000 0.114553
0.363820 0.000000 0.117390
0.404618 0.000000 0.120210
0.445435 0.000000 0.123012
0.486270 0.000000 0.125799
0.527121 0.000000 0.128571
0.567988 0.000000 0.131328
0.000000 0.000000 0.094032
0.000000 0.000000 0.096130
0.006173 0.000000 0.099075
