assets/presets/luts/moonlight/lut.cube
TITLE "Moonlight"
LUT_3D_SIZE 9
0.000000 0.000000 0.000000
0.000000 0.000000 0.000000
0.075477 0.000000 0.000000
0.156731 0.000000 0.000000
0.238085 0.000000 0.000000
0.319533 0.000000 0.000000
0.401068 0.000000 0.002130
0.482681 0.000000 0.007754
0.564366 0.000000 0.013314
0.000000 0.026844 0.000000
0.014319 0.032219 0.000000
0.095776 0.038599 0.000000
0.177318 0.045014 0.002681
0.258939 0.051462 0.008298
0.340630 0.057940 0.013852
0.422384 0.064444 0.019349
0.504194 0.070971 0.024797
0.586053 0.077519 0.030200
0.000000 0.128081 0.006558
0.038214 0.133559 0.011283
0.119940 0.140051 0.016806
0.201725 0.146568 0.022275
0.283562 0.153106 0.027698
0.365444 0.159663 0.033082
0.447362 0.166236 0.038432
0.529311 0.172820 0.043755
0.611281 0.179414 0.049059
0.000000 0.229698 0.026016
0.062943 0.235247 0.030589
0.144845 0.241812 0.035953
0.226780 0.248392 0.041288
0.308742 0.254982 0.046600
0.390721 0.261579 0.051896
0.472711 0.268182 0.057182
0.554705 0.274785 0.062465
0.636694 0.281388 0.067755
0.018740 0.331559 0.044950
0.088178 0.337145 0.049441
0.170164 0.343746 0.054730
0.252157 0.350349 0.060014
0.334149 0.356952 0.065298
0.416130 0.363560 0.070619
0.498084 0.370183 0.076043
0.580005 0.376818 0.081572
0.661886 0.383460 0.087207
0.044140 0.433526 0.063654
0.113591 0.439120 0.068138
0.195558 0.445736 0.073514
0.277496 0.452366 0.078994
0.359396 0.459005 0.084579
0.441253 0.465649 0.090271
0.523059 0.472294 0.096070
0.604809 0.478934 0.101978
0.686495 0.485565 0.107994
0.069420 0.535567 0.082831
0.138774 0.541194 0.087617
0.220605 0.547839 0.093366
0.302382 0.554481 0.099223
0.384098 0.561117 0.105189
0.465747 0.567742 0.111264
0.547322 0.574350 0.117450
0.628816 0.580939 0.123747
0.710223 0.587502 0.130155
0.094181 0.637682 0.103322
0.163367 0.643297 0.108432
0.244978 0.649914 0.114566
0.326510 0.656512 0.120811
0.407959 0.663088 0.127168
0.489316 0.669636 0.133637
0.570576 0.676153 0.140220
0.651731 0.682633 0.146917
0.732776 0.689072 0.153730
0.118128 0.739673 0.125179
0.187075 0.745229 0.130622
0.268381 0.751761 0.137152
0.349586 0.758259 0.143796
0.430683 0.764717 0.150555
0.511665 0.771133 0.157429
0.592559 0.777514 0.164390
0.673450 0.783895 0.171358
0.754340 0.790275 0.178322
0.000000 0.000000 0.043718
0.000000 0.000000 0.048889
0.077633 0.000000 0.054899
0.158922 0.000000 0.060814
0.240309 0.000000 0.066640
0.321786 0.000000 0.072385
0.403348 0.000000 0.078055
0.484986 0.000000 0.083657
0.566693 0.000000 0.089197
0.000000 0.028973 0.062280
0.016545 0.034359 0.067203
0.098032 0.040751 0.072940
0.179601 0.047178 0.078603
0.261246 0.053636 0.084199
0.342959 0.060123 0.089733
0.424733 0.066635 0.095213
0.506561 0.073170 0.100645
0.588434 0.079723 0.106035
0.000000 0.130252 0.082465
0.040533 0.135738 0.087173
0.122280 0.142239 0.092677
0.204084 0.148763 0.098130
0.285937 0.155308 0.103539
0.367831 0.161871 0.108910
0.449761 0.168447 0.114251
0.531717 0.175036 0.119567
0.613694 0.181632 0.124865
0.000000 0.231898 0.101861
0.065324 0.237451 0.106423
0.147239 0.244022 0.111777
0.229184 0.250605 0.117103
0.311152 0.257198 0.122409
0.393136 0.263798 0.127701
0.475128 0.270401 0.132985
0.557121 0.277004 0.138268
0.639105 0.283609 0.143575
0.021148 0.333775 0.120761
0.090591 0.339363 0.125247
0.172580 0.345965 0.130534
0.254573 0.352569 0.135817
0.336564 0.359171 0.141103
0.418537 0.365784 0.146458
0.500481 0.372412 0.151917
0.582389 0.379049 0.157481
0.664255 0.385693 0.163152
0.046556 0.435745 0.139458
0.116002 0.441341 0.143961
0.197960 0.447963 0.149371
0.279885 0.454596 0.154886
0.361772 0.461238 0.160508
0.443612 0.467883 0.166235
0.525401 0.474526 0.172071
0.607129 0.481163 0.178015
0.688792 0.487790 0.184068
0.071800 0.537799 0.158748
0.141142 0.543427 0.163565
0.222955 0.550072 0.169350
0.304712 0.556713 0.175244
0.386406 0.563345 0.181246
0.468031 0.569965 0.187358
0.549580 0.576567 0.193581
0.631046 0.583147 0.199915
0.712422 0.589702 0.206362
0.096497 0.639911 0.179367
0.165663 0.645523 0.184509
0.247248 0.652134 0.190680
0.328753 0.658725 0.196963
0.410172 0.665292 0.203357
0.491497 0.671830 0.209864
0.572723 0.678335 0.216485
0.653842 0.684802 0.223221
0.734848 0.691226 0.230072
0.120351 0.741880 0.201356
0.189271 0.747428 0.206831
0.270544 0.753949 0.213399
0.351713 0.760434 0.220082
0.432772 0.766879 0.226879
0.513715 0.773279 0.233793
0.594605 0.779659 0.240759
0.675495 0.786039 0.247726
0.756386 0.792419 0.254689
0.000000 0.000000 0.128214
0.000000 0.000000 0.133351
0.080042 0.000000 0.139325
0.161368 0.000000 0.145206
0.242790 0.000000 0.151002
0.324300 0.000000 0.156718
0.405891 0.000000 0.162362
0.487555 0.000000 0.167939
0.569286 0.000000 0.173458
0.000000 0.031342 0.146664
0.019029 0.036740 0.151561
0.100548 0.043146 0.157270
0.182146 0.049585 0.162907
0.263818 0.056054 0.168479
0.345554 0.062551 0.173992
0.427349 0.069072 0.179453
0.509194 0.075613 0.184869
0.591083 0.082173 0.190246
0.000000 0.132667 0.166753
0.043118 0.138161 0.171441
0.124887 0.144671 0.176926
0.206709 0.151204 0.182361
0.288579 0.157755 0.187756
0.370487 0.164324 0.193115
0.452428 0.170905 0.198445
0.534393 0.177497 0.203754
0.616374 0.184095 0.209048
0.000000 0.234343 0.186082
0.067974 0.239902 0.190632
0.149901 0.246478 0.195975
0.231856 0.253065 0.201293
0.313830 0.259661 0.206593
0.395818 0.266262 0.211881
0.477812 0.272866 0.217164
0.559803 0.279468 0.222449
0.641780 0.286079 0.227787
0.023825 0.336236 0.204946
0.093272 0.341827 0.209429
0.175263 0.348429 0.214713
0.257257 0.355033 0.219997
0.339243 0.361637 0.225297
0.421206 0.368256 0.230691
0.503137 0.374888 0.236189
0.585030 0.381529 0.241793
0.666879 0.388173 0.247503
0.049237 0.438209 0.223641
0.118675 0.443811 0.228176
0.200622 0.450437 0.233625
0.282534 0.457075 0.239180
0.364404 0.463718 0.244841
0.446226 0.470362 0.250609
0.527993 0.477004 0.256484
0.609698 0.483638 0.262469
0.691334 0.490260 0.268563
0.074438 0.540279 0.243069
0.143764 0.545907 0.247919
0.225557 0.552551 0.253745
0.307292 0.559189 0.259679
0.388961 0.565817 0.265722
0.470558 0.572431 0.271875
0.552077 0.579026 0.278140
0.633510 0.585597 0.284516
0.714851 0.592140 0.291005
0.099060 0.642385 0.263831
0.168204 0.647992 0.269007
0.249759 0.654596 0.275220
0.331233 0.661179 0.281544
0.412618 0.667736 0.287980
0.493906 0.674262 0.294530
0.575093 0.680753 0.301194
0.656170 0.687205 0.307973
0.737132 0.693612 0.314867
0.122807 0.744327 0.285966
0.191698 0.749866 0.291477
0.272933 0.756374 0.298088
0.354061 0.762844 0.304813
0.435078 0.769273 0.311654
0.515987 0.775660 0.318600
0.596877 0.782040 0.325567
0.677767 0.788420 0.332534
0.758658 0.794799 0.339493
0.000000 0.000000 0.212694
0.001203 0.000000 0.217800
0.082465 0.000000 0.223738
0.163827 0.000000 0.229587
0.245283 0.000000 0.235352
0.326824 0.000000 0.241040
0.408443 0.000000 0.246659
0.490133 0.000000 0.252213
0.571887 0.000000 0.257711
0.000000 0.033717 0.231037
0.021526 0.039127 0.235909
0.103075 0.045545 0.241590
0.184702 0.051996 0.247202
0.266398 0.058476 0.252751
0.348157 0.064982 0.258244
0.429972 0.071511 0.263687
0.511834 0.078060 0.269088
0.593737 0.084626 0.274452
0.000000 0.135085 0.251031
0.045711 0.140588 0.255702
0.127501 0.147107 0.261167
0.209342 0.153647 0.266587
0.291227 0.160205 0.271967
0.373148 0.166779 0.277315
0.455098 0.173364 0.282637
0.537070 0.179959 0.287939
0.619057 0.186559 0.293229
0.001246 0.236791 0.270298
0.070629 0.242355 0.274838
0.152567 0.248935 0.280171
0.234530 0.255526 0.285481
0.316511 0.262124 0.290776
0.398502 0.268727 0.296061
0.480495 0.275330 0.301344
0.562483 0.281933 0.306637
0.644451 0.288550 0.312013
0.026504 0.338699 0.289130
0.095954 0.344291 0.293610
0.177947 0.350894 0.298893
0.259939 0.357497 0.304177
0.341918 0.364106 0.309506
0.423870 0.370730 0.314938
0.505788 0.377366 0.320476
0.587665 0.384008 0.326119
0.669496 0.390653 0.331870
0.051916 0.440676 0.307838
0.121345 0.446283 0.312405
0.203280 0.452914 0.317894
0.285177 0.459553 0.323488
0.367030 0.466198 0.329189
0.448832 0.472842 0.334997
0.530576 0.479481 0.340913
0.612257 0.486111 0.346938
0.693866 0.492728 0.353074
0.077069 0.542759 0.327404
0.146379 0.548387 0.332289
0.228151 0.555029 0.338155
0.309862 0.561664 0.344129
0.391506 0.568288 0.350214
0.473074 0.574895 0.356408
0.554562 0.581481 0.362714
0.635961 0.588042 0.369132
0.717266 0.594574 0.375664
0.101612 0.644857 0.348309
0.170733 0.650459 0.353521
0.252259 0.657056 0.359775
0.333700 0.663629 0.366141
0.415050 0.670175 0.372619
0.496301 0.676689 0.379212
0.577448 0.683166 0.385918
0.658483 0.689601 0.392740
0.739405 0.695993 0.399674
0.125251 0.746770 0.370592
0.194110 0.752299 0.376139
0.275306 0.758793 0.382792
0.356394 0.765249 0.389561
0.437366 0.771660 0.396445
0.518259 0.778041 0.403408
0.599149 0.784422 0.410376
0.680039 0.790801 0.417340
0.760931 0.797179 0.424295
0.000000 0.000000 0.297160
0.003601 0.000000 0.302235
0.084902 0.000000 0.308139
0.166300 0.000000 0.313956
0.247788 0.000000 0.319691
0.329359 0.000000 0.325353
0.411006 0.000000 0.330947
0.492721 0.000000 0.336480
0.574496 0.000000 0.341958
0.000000 0.036097 0.315398
0.024034 0.041518 0.320245
0.105613 0.047949 0.325900
0.187267 0.054411 0.331488
0.268987 0.060901 0.337015
0.350768 0.067416 0.342489
0.432601 0.073953 0.347915
0.514480 0.080509 0.353302
0.596396 0.087080 0.358654
0.000000 0.137507 0.335302
0.048312 0.143018 0.339955
0.130122 0.149545 0.345403
0.211980 0.156093 0.350807
0.293880 0.162657 0.356175
0.375813 0.169235 0.361512
0.457772 0.175825 0.366825
0.539750 0.182422 0.372122
0.621740 0.189024 0.377409
0.003895 0.239241 0.354509
0.073289 0.244809 0.359039
0.155237 0.251394 0.364363
0.237207 0.257988 0.369666
0.319193 0.264588 0.374957
0.401185 0.271191 0.380241
0.483178 0.277795 0.385524
0.565160 0.284401 0.390839
0.647117 0.291023 0.396255
0.029184 0.341162 0.373312
0.098637 0.346755 0.377790
0.180631 0.353359 0.383073
0.262620 0.359962 0.388362
0.344590 0.366576 0.393729
0.426530 0.373206 0.399201
0.508433 0.379844 0.404778
0.590294 0.386488 0.410461
0.672105 0.393133 0.416251
0.054590 0.443145 0.392049
0.124011 0.448756 0.396649
0.205932 0.455391 0.402177
0.287814 0.462033 0.407811
0.369648 0.468678 0.413552
0.451430 0.475321 0.419400
0.533151 0.481957 0.425357
0.614806 0.488583 0.431423
0.696387 0.495193 0.437600
0.079693 0.545239 0.411755
0.148987 0.550867 0.416673
0.230737 0.557507 0.422580
0.312424 0.564138 0.428595
0.394040 0.570756 0.434720
0.475579 0.577356 0.440957
0.557034 0.583933 0.447304
0.638399 0.590484 0.453765
0.719667 0.597003 0.460338
0.104155 0.647327 0.432804
0.173252 0.652924 0.438050
0.254747 0.659512 0.444345
0.336155 0.666076 0.450753
0.417468 0.672610 0.457274
0.498681 0.679111 0.463909
0.579787 0.685573 0.470659
0.660779 0.691992 0.477524
0.741677 0.698374 0.484481
0.127680 0.749209 0.455234
0.196509 0.754727 0.460817
0.277665 0.761207 0.467513
0.358710 0.767647 0.474324
0.439640 0.774042 0.481250
0.520531 0.780422 0.488216
0.601421 0.786803 0.495183
0.682312 0.793182 0.502145
0.763204 0.799558 0.509096
0.000000 0.000000 0.381613
0.006014 0.000000 0.386657
0.087352 0.000000 0.392528
0.168785 0.000000 0.398313
0.250305 0.000000 0.404021
0.331905 0.000000 0.409656
0.413578 0.000000 0.415226
0.495316 0.000000 0.420738
0.577112 0.000346 0.426198
0.000000 0.038483 0.399749
0.026554 0.043915 0.404572
0.108161 0.050357 0.410201
0.189841 0.056830 0.415765
0.271585 0.063330 0.421272
0.353386 0.069853 0.426727
0.435237 0.076398 0.432138
0.517130 0.082959 0.437511
0.599059 0.089536 0.442852
0.000000 0.139933 0.419565
0.050921 0.145452 0.424202
0.132750 0.151987 0.429633
0.214624 0.158541 0.435022
0.296537 0.165111 0.440378
0.378481 0.171693 0.445705
0.460448 0.178286 0.451012
0.542431 0.184885 0.456304
0.624423 0.191488 0.461588
0.006549 0.241693 0.438715
0.075953 0.247266 0.443237
0.157910 0.253854 0.448552
0.239887 0.260451 0.453850
0.321875 0.267052 0.459137
0.403869 0.273656 0.464420
0.485860 0.280259 0.469706
0.567834 0.286871 0.475056
0.649779 0.293498 0.480510
0.031866 0.343626 0.457494
0.101321 0.349220 0.461969
0.183314 0.355823 0.467253
0.265298 0.362428 0.472561
0.347257 0.369049 0.477967
0.429185 0.375682 0.483478
0.511073 0.382324 0.489094
0.592916 0.388968 0.494817
0.674706 0.395612 0.500648
0.057261 0.445616 0.476274
0.126672 0.451231 0.480908
0.208579 0.457869 0.486475
0.290444 0.464513 0.492149
0.372259 0.471157 0.497930
0.454019 0.477798 0.503818
0.535716 0.484431 0.509816
0.617344 0.491052 0.515923
0.698896 0.497655 0.522141
0.082311 0.547719 0.496120
0.151587 0.553346 0.501073
0.233314 0.559983 0.507020
0.314975 0.566610 0.513076
0.396563 0.573221 0.519243
0.478072 0.579813 0.525521
0.559494 0.586381 0.531910
0.640824 0.592921 0.538413
0.722054 0.599427 0.545029
0.106688 0.649794 0.517313
0.175759 0.655385 0.522594
0.257222 0.661965 0.528932
0.338596 0.668518 0.535382
0.419873 0.675041 0.541945
0.501047 0.681527 0.548623
0.582111 0.687974 0.555415
0.663058 0.694376 0.562324
0.743948 0.700756 0.569290
0.130097 0.751643 0.539892
0.198892 0.757150 0.545510
0.280008 0.763616 0.552249
0.361010 0.770039 0.559104
0.441912 0.776423 0.566057
0.522803 0.782804 0.573025
0.603693 0.789184 0.579990
0.684584 0.795562 0.586949
0.765477 0.801937 0.593894
0.000000 0.000000 0.466051
0.008442 0.000000 0.471066
0.089816 0.000000 0.476904
0.171282 0.000000 0.482660
0.252833 0.000000 0.488340
0.334461 0.000000 0.493950
0.416159 0.000000 0.499498
0.497920 0.000000 0.504990
0.579735 0.002785 0.510432
0.000000 0.040873 0.484088
0.029085 0.046316 0.488889
0.110720 0.052770 0.494493
0.192424 0.059253 0.500035
0.274191 0.065762 0.505521
0.356011 0.072294 0.510959
0.437879 0.078845 0.516355
0.519786 0.085412 0.521716
0.601725 0.091993 0.527047
0.000000 0.142363 0.503820
0.053537 0.147888 0.508442
0.135384 0.154431 0.513857
0.217274 0.160991 0.519233
0.299199 0.167566 0.524577
0.381152 0.174153 0.529896
0.463126 0.180749 0.535196
0.545114 0.187350 0.540485
0.627107 0.193953 0.545768
0.009207 0.244147 0.522918
0.078620 0.249723 0.527431
0.160585 0.256315 0.532739
0.242568 0.262914 0.538032
0.324559 0.269517 0.543317
0.406552 0.276120 0.548600
0.488539 0.282724 0.553898
0.570503 0.289343 0.559287
0.652436 0.295974 0.564781
0.034549 0.346091 0.541674
0.104005 0.351684 0.546149
0.185996 0.358287 0.551434
0.267972 0.364898 0.556774
0.349920 0.371524 0.562219
0.431834 0.378160 0.567769
0.513706 0.384803 0.573426
0.595530 0.391448 0.579189
0.677299 0.398090 0.585060
0.059928 0.448089 0.560514
0.129328 0.453708 0.565181
0.211220 0.460348 0.570788
0.293067 0.466993 0.576502
0.374863 0.473637 0.582323
0.456600 0.480275 0.588252
0.538272 0.486904 0.594290
0.619873 0.493518 0.600439
0.701395 0.500114 0.606699
0.084920 0.550198 0.580501
0.154178 0.555824 0.585488
0.235882 0.562458 0.591475
0.317516 0.569079 0.597573
0.399076 0.575684 0.603781
0.480553 0.582268 0.610100
0.561941 0.588826 0.616532
0.643235 0.595353 0.623076
0.724426 0.601846 0.629735
0.109209 0.652260 0.601838
0.178255 0.657844 0.607154
0.259685 0.664414 0.613534
0.341024 0.670957 0.620026
0.422263 0.677466 0.626632
0.503397 0.683938 0.633352
0.584418 0.690369 0.640188
0.665330 0.696757 0.647131
0.746220 0.703137 0.654098
0.132499 0.754073 0.624565
0.201261 0.759568 0.630220
0.282335 0.766018 0.637002
0.363294 0.772424 0.643900
0.444184 0.778804 0.650865
0.525074 0.785185 0.657833
0.605965 0.791565 0.664796
0.686857 0.797942 0.671750
0.767750 0.804315 0.678689
0.000000 0.000000 0.550477
0.010883 0.000000 0.555463
0.092292 0.000000 0.561270
0.173791 0.000000 0.566996
0.255371 0.000000 0.572649
0.337027 0.000000 0.578235
0.418749 0.000000 0.583762
0.500531 0.000000 0.589234
0.582365 0.005228 0.594660
0.000000 0.043268 0.568417
0.031626 0.048721 0.573196
0.113288 0.055186 0.578776
0.195016 0.061680 0.584296
0.276804 0.068197 0.589764
0.358643 0.074736 0.595185
0.440526 0.081294 0.600567
0.522446 0.087867 0.605916
0.604395 0.094452 0.611239
0.000000 0.144795 0.588069
0.056161 0.150328 0.592676
0.138024 0.156877 0.598075
0.219928 0.163443 0.603438
0.301865 0.170023 0.608772
0.383827 0.176614 0.614084
0.465807 0.183212 0.619379
0.547797 0.189814 0.624664
0.629791 0.196418 0.629947
0.011870 0.246603 0.607116
0.081291 0.252183 0.611622
0.163263 0.258777 0.616924
0.245250 0.265378 0.622213
0.327243 0.271982 0.627496
0.409235 0.278585 0.632780
0.491215 0.285193 0.638105
0.573168 0.291816 0.643533
0.655088 0.298452 0.649066
0.037233 0.348555 0.625853
0.106688 0.354149 0.630328
0.188676 0.360752 0.635623
0.270643 0.367369 0.641002
0.352579 0.374000 0.646486
0.434477 0.380639 0.652076
0.516332 0.387283 0.657772
0.598137 0.393927 0.663575
0.679884 0.400567 0.669487
0.062590 0.450564 0.644769
0.131978 0.456185 0.649469
0.213855 0.462828 0.655116
0.295683 0.469473 0.660869
0.377458 0.476115 0.666731
0.459172 0.482751 0.672701
0.540818 0.489375 0.678780
0.622390 0.495982 0.684970
0.703881 0.502570 0.691271
0.087522 0.552677 0.664896
0.156761 0.558301 0.669917
0.238440 0.564931 0.675946
0.320047 0.571547 0.682085
0.401576 0.578144 0.688334
0.483021 0.584719 0.694695
0.564375 0.591266 0.701169
0.645631 0.597781 0.707756
0.726782 0.604259 0.714458
0.111720 0.654722 0.686378
0.180739 0.660299 0.691730
0.262136 0.666860 0.698151
0.343438 0.673390 0.704686
0.424639 0.679886 0.711334
0.505731 0.686343 0.718098
0.586709 0.692757 0.724977
0.667602 0.699138 0.731939
0.748492 0.705519 0.738906
0.134887 0.756497 0.709254
0.203615 0.761980 0.714945
0.284647 0.768415 0.721771
0.365566 0.774805 0.728707
0.446456 0.781186 0.735674
0.527346 0.787566 0.742640
0.608237 0.793945 0.749601
0.689130 0.800321 0.756550
0.770024 0.806693 0.763481
0.000000 0.000000 0.634890
0.013337 0.000000 0.639848
0.094781 0.000000 0.645624
0.176311 0.000000 0.651322
0.257920 0.000000 0.656949
0.339602 0.000000 0.662512
0.421347 0.000000 0.668018
0.503149 0.001128 0.673472
0.585001 0.007672 0.678882
0.000000 0.045668 0.652737
0.034178 0.051131 0.657494
0.115865 0.057607 0.663051
0.197617 0.064109 0.668551
0.279424 0.070636 0.674000
0.361281 0.077182 0.679406
0.443178 0.083746 0.684775
0.525110 0.090324 0.690113
0.607069 0.096912 0.695428
0.000000 0.147231 0.672310
0.058791 0.152770 0.676903
0.140670 0.159326 0.682288
0.222587 0.165898 0.687640
0.304534 0.172482 0.692965
0.386504 0.179076 0.698269
0.468488 0.185675 0.703560
0.550481 0.192279 0.708844
0.632474 0.198882 0.714128
0.014536 0.249060 0.691311
0.083964 0.254643 0.695810
0.165943 0.261240 0.701107
0.247933 0.267843 0.706393
0.329927 0.274446 0.711676
0.411916 0.281049 0.716964
0.493887 0.287663 0.722327
0.575828 0.294292 0.727794
0.657734 0.300930 0.733366
0.039917 0.351020 0.710033
0.109371 0.356613 0.714509
0.191353 0.363220 0.719826
0.273309 0.369842 0.725244
0.355232 0.376477 0.730768
0.437115 0.383119 0.736397
0.518952 0.389763 0.742133
0.600736 0.396406 0.747977
0.682460 0.403043 0.753929
0.065248 0.453040 0.729039
0.134623 0.458664 0.733772
0.216483 0.465308 0.739459
0.298292 0.471952 0.745252
0.380045 0.478593 0.751154
0.461734 0.485224 0.757165
0.543353 0.491843 0.763285
0.624896 0.498444 0.769517
0.706355 0.505022 0.775859
0.090116 0.555156 0.749307
0.159335 0.560777 0.754362
0.240988 0.567402 0.760432
0.322567 0.574011 0.766612
0.404066 0.580601 0.772903
0.485477 0.587166 0.779306
0.566795 0.593701 0.785822
0.648013 0.600203 0.792452
0.729123 0.606667 0.799196
0.114219 0.657181 0.770934
0.183211 0.662751 0.776321
0.264573 0.669301 0.782785
0.345838 0.675819 0.789362
0.426999 0.682301 0.796053
0.508049 0.688742 0.802859
0.588984 0.695139 0.809780
0.669874 0.701519 0.816747
0.750764 0.707900 0.823714
0.137260 0.758916 0.793959
0.205953 0.764387 0.799687
0.286941 0.770804 0.806556
0.367838 0.777187 0.813514
0.448728 0.783567 0.820482
0.529618 0.789947 0.827447
0.610510 0.796325 0.834404
0.691403 0.802700 0.841347
0.772298 0.809069 0.848271
