assets/presets/luts/moonlight/lut.cube
TITLE "Moonlight"
LUT_3D_SIZE 5
0.000000 0.000000 0.000000
0.075477 0.000000 0.000000
0.238085 0.000000 0.000000
0.401068 0.000000 0.002130
0.564366 0.000000 0.013314
0.000000 0.128081 0.006558
0.119940 0.140051 0.016806
0.283562 0.153106 0.027698
0.447362 0.166236 0.038432
0.611281 0.179414 0.049059
0.018740 0.331559 0.044950
0.170164 0.343746 0.054730
0.334149 0.356952 0.065298
0.498084 0.370183 0.076043
0.661886 0.383460 0.087207
0.069420 0.535567 0.082831
0.220605 0.547839 0.093366
0.384098 0.561117 0.105189
0.547322 0.574350 0.117450
0.710223 0.587502 0.130155
0.118128 0.739673 0.125179
0.268381 0.751761 0.137152
0.430683 0.764717 0.150555
0.592559 0.777514 0.164390
0.754340 0.790275 0.178322
0.000000 0.000000 0.128214
0.080042 0.000000 0.139325
0.242790 0.000000 0.151002
0.405891 0.000000 0.162362
0.569286 0.000000 0.173458
0.000000 0.132667 0.166753
0.124887 0.144671 0.176926
0.288579 0.157755 0.187756
0.452428 0.170905 0.198445
0.616374 0.184095 0.209048
0.023825 0.336236 0.204946
0.175263 0.348429 0.214713
0.339243 0.361637 0.225297
0.503137 0.374888 0.236189
0.666879 0.388173 0.247503
0.074438 0.540279 0.243069
0.225557 0.552551 0.253745
0.388961 0.565817 0.265722
0.552077 0.579026 0.278140
0.714851 0.592140 0.291005
0.122807 0.744327 0.285966
0.272933 0.756374 0.298088
0.435078 0.769273 0.311654
0.596877 0.782040 0.325567
0.758658 0.794799 0.339493
0.000000 0.000000 0.297160
0.084902 0.000000 0.308139
0.247788 0.000000 0.319691
0.411006 0.000000 0.330947
0.574496 0.000000 0.341958
0.000000 0.137507 0.335302
0.130122 0.149545 0.345403
0.293880 0.162657 0.356175
0.457772 0.175825 0.366825
0.621740 0.189024 0.377409
0.029184 0.341162 0.373312
0.180631 0.353359 0.383073
0.344590 0.366576 0.393729
0.508433 0.379844 0.404778
0.672105 0.393133 0.416251
0.079693 0.545239 0.411755
0.230737 0.557507 0.422580
0.394040 0.570756 0.434720
0.557034 0.583933 0.447304
0.719667 0.597003 0.460338
0.127680 0.749209 0.455234
0.277665 0.761207 0.467513
0.439640 0.774042 0.481250
0.601421 0.786803 0.495183
0.763204 0.799558 0.509096
0.000000 0.000000 0.466051
0.089816 0.000000 0.476904
0.252833 0.000000 0.488340
0.416159 0.000000 0.499498
0.579735 0.002785 0.510432
0.000000 0.142363 0.503820
0.135384 0.154431 0.513857
0.299199 0.167566 0.524577
0.463126 0.180749 0.535196
0.627107 0.193953 0.545768
0.034549 0.346091 0.541674
0.185996 0.358287 0.551434
0.349920 0.371524 0.562219
0.513706 0.384803 0.573426
0.677299 0.398090 0.585060
0.084920 0.550198 0.580501
0.235882 0.562458 0.591475
0.399076 0.575684 0.603781
0.561941 0.588826 0.616532
0.724426 0.601846 0.629735
0.132499 0.754073 0.624565
0.282335 0.766018 0.637002
0.444184 0.778804 0.650865
0.605965 0.791565 0.664796
0.767750 0.804315 0.678689
0.000000 0.000000 0.634890
0.094781 0.000000 0.645624
0.257920 0.000000 0.656949
0.421347 0.000000 0.668018
0.585001 0.007672 0.678882
0.000000 0.147231 0.672310
0.140670 0.159326 0.682288
0.304534 0.172482 0.692965
0.468488 0.185675 0.703560
0.632474 0.198882 0.714128
0.039917 0.351020 0.710033
0.191353 0.363220 0.719826
0.355232 0.376477 0.730768
0.518952 0.389763 0.742133
0.682460 0.403043 0.753929
0.090116 0.555156 0.749307
0.240988 0.567402 0.760432
0.404066 0.580601 0.772903
0.566795 0.593701 0.785822
0.729123 0.606667 0.799196
0.137260 0.758916 0.793959
0.286941 0.770804 0.806556
0.448728 0.783567 0.820482
0.610510 0.796325 0.834404
0.772298 0.809069 0.848271
