assets/presets/luts/dlog-rec709/lut.cube
TITLE "D-Log to Rec.709"
LUT_3D_SIZE 5
0.000000 0.000000 0.000000
0.098221 0.000000 0.000000
0.884600 0.000000 0.000000
1.000000 0.000000 0.000000
1.000000 0.000000 0.000000
0.000000 0.095392 0.000000
0.094196 0.094196 0.000000
0.880575 0.084617 0.000000
1.000000 0.082636 0.000000
1.000000 0.082636 0.000000
0.000000 0.859127 0.000000
0.061973 0.857931 0.000000
0.848352 0.848352 0.000000
1.000000 0.846371 0.000000
1.000000 0.846371 0.000000
0.000000 1.000000 0.000000
0.055309 1.000000 0.000000
0.841688 1.000000 0.000000
1.000000 1.000000 0.000000
1.000000 1.000000 0.000000
0.000000 1.000000 0.000000
0.055309 1.000000 0.000000
0.841688 1.000000 0.000000
1.000000 1.000000 0.000000
1.000000 1.000000 0.000000
0.000000 0.000000 0.099011
0.097814 0.000000 0.097814
0.884193 0.000000 0.088236
1.000000 0.000000 0.086255
1.000000 0.000000 0.086255
0.000000 0.094986 0.094986
0.093790 0.093790 0.093790
0.880169 0.084211 0.084211
1.000000 0.082230 0.082230
1.000000 0.082230 0.082230
0.000000 0.858721 0.062763
0.061567 0.857525 0.061567
0.847946 0.847946 0.051988
1.000000 0.845965 0.050007
1.000000 0.845965 0.050007
0.000000 1.000000 0.056099
0.054902 1.000000 0.054902
0.841281 1.000000 0.045324
1.000000 1.000000 0.043343
1.000000 1.000000 0.043343
0.000000 1.000000 0.056099
0.054902 1.000000 0.054902
0.841281 1.000000 0.045324
1.000000 1.000000 0.043343
1.000000 1.000000 0.043343
0.000000 0.000000 0.891715
0.094561 0.000000 0.890519
0.880940 0.000000 0.880940
1.000000 0.000000 0.878959
1.000000 0.000000 0.878959
0.000000 0.091733 0.887691
0.090537 0.090537 0.886494
0.876916 0.080958 0.876916
1.000000 0.078977 0.874935
1.000000 0.078977 0.874935
0.000000 0.855468 0.855468
0.058314 0.854272 0.854272
0.844693 0.844693 0.844693
1.000000 0.842712 0.842712
1.000000 0.842712 0.842712
0.000000 1.000000 0.848803
0.051649 1.000000 0.847607
0.838029 1.000000 0.838029
1.000000 1.000000 0.836047
1.000000 1.000000 0.836047
0.000000 1.000000 0.848803
0.051649 1.000000 0.847607
0.838029 1.000000 0.838029
1.000000 1.000000 0.836047
1.000000 1.000000 0.836047
0.000000 0.000000 1.000000
0.093889 0.000000 1.000000
0.880268 0.000000 1.000000
1.000000 0.000000 1.000000
1.000000 0.000000 1.000000
0.000000 0.091060 1.000000
0.089864 0.089864 1.000000
0.876243 0.080285 1.000000
1.000000 0.078304 1.000000
1.000000 0.078304 1.000000
0.000000 0.854795 1.000000
0.057641 0.853599 1.000000
0.844020 0.844020 1.000000
1.000000 0.842039 1.000000
1.000000 0.842039 1.000000
0.000000 1.000000 1.000000
0.050977 1.000000 1.000000
0.837356 1.000000 1.000000
1.000000 1.000000 1.000000
1.000000 1.000000 1.000000
0.000000 1.000000 1.000000
0.050977 1.000000 1.000000
0.837356 1.000000 1.000000
1.000000 1.000000 1.000000
1.000000 1.000000 1.000000
0.000000 0.000000 1.000000
0.093889 0.000000 1.000000
0.880268 0.000000 1.000000
1.000000 0.000000 1.000000
1.000000 0.000000 1.000000
0.000000 0.091060 1.000000
0.089864 0.089864 1.000000
0.876243 0.080285 1.000000
1.000000 0.078304 1.000000
1.000000 0.078304 1.000000
0.000000 0.854795 1.000000
0.057641 0.853599 1.000000
0.844020 0.844020 1.000000
1.000000 0.842039 1.000000
1.000000 0.842039 1.000000
0.000000 1.000000 1.000000
0.050977 1.000000 1.000000
0.837356 1.000000 1.000000
1.000000 1.000000 1.000000
1.000000 1.000000 1.000000
0.000000 1.000000 1.000000
0.050977 1.000000 1.000000
0.837356 1.000000 1.000000
1.000000 1.000000 1.000000
1.000000 1.000000 1.000000
