assets/presets/luts/dlog-rec709/lut.cube
TITLE "D-Log to Rec.709"
LUT_3D_SIZE 9
0.000000 0.000000 0.000000
0.005300 0.000000 0.000000
0.098221 0.000000 0.000000
0.374754 0.000000 0.000000
0.884600 0.000000 0.000000
1.000000 0.000000 0.000000
1.000000 0.000000 0.000000
1.000000 0.000000 0.000000
1.000000 0.000000 0.000000
0.000000 0.005147 0.000000
0.005083 0.005083 0.000000
0.098003 0.003951 0.000000
0.374537 0.000583 0.000000
0.884383 0.000000 0.000000
1.000000 0.000000 0.000000
1.000000 0.000000 0.000000
1.000000 0.000000 0.000000
1.000000 0.000000 0.000000
0.000000 0.095392 0.000000
0.001275 0.095328 0.000000
0.094196 0.094196 0.000000
0.370729 0.090828 0.000000
0.880575 0.084617 0.000000
1.000000 0.082636 0.000000
1.000000 0.082636 0.000000
1.000000 0.082636 0.000000
1.000000 0.082636 0.000000
0.000000 0.363963 0.000000
0.000000 0.363898 0.000000
0.082865 0.362767 0.000000
0.359398 0.359398 0.000000
0.869244 0.353188 0.000000
1.000000 0.351207 0.000000
1.000000 0.351207 0.000000
1.000000 0.351207 0.000000
1.000000 0.351207 0.000000
0.000000 0.859127 0.000000
0.000000 0.859063 0.000000
0.061973 0.857931 0.000000
0.338507 0.854562 0.000000
0.848352 0.848352 0.000000
1.000000 0.846371 0.000000
1.000000 0.846371 0.000000
1.000000 0.846371 0.000000
1.000000 0.846371 0.000000
0.000000 1.000000 0.000000
0.000000 1.000000 0.000000
0.055309 1.000000 0.000000
0.331842 1.000000 0.000000
0.841688 1.000000 0.000000
1.000000 1.000000 0.000000
1.000000 1.000000 0.000000
1.000000 1.000000 0.000000
1.000000 1.000000 0.000000
0.000000 1.000000 0.000000
0.000000 1.000000 0.000000
0.055309 1.000000 0.000000
0.331842 1.000000 0.000000
0.841688 1.000000 0.000000
1.000000 1.000000 0.000000
1.000000 1.000000 0.000000
1.000000 1.000000 0.000000
1.000000 1.000000 0.000000
0.000000 1.000000 0.000000
0.000000 1.000000 0.000000
0.055309 1.000000 0.000000
0.331842 1.000000 0.000000
0.841688 1.000000 0.000000
1.000000 1.000000 0.000000
1.000000 1.000000 0.000000
1.000000 1.000000 0.000000
1.000000 1.000000 0.000000
0.000000 1.000000 0.000000
0.000000 1.000000 0.000000
0.055309 1.000000 0.000000
0.331842 1.000000 0.000000
0.841688 1.000000 0.000000
1.000000 1.000000 0.000000
1.000000 1.000000 0.000000
1.000000 1.000000 0.000000
1.000000 1.000000 0.000000
0.000000 0.000000 0.005342
0.005278 0.000000 0.005278
0.098199 0.000000 0.004146
0.374732 0.000000 0.000778
0.884578 0.000000 0.000000
1.000000 0.000000 0.000000
1.000000 0.000000 0.000000
1.000000 0.000000 0.000000
1.000000 0.000000 0.000000
0.000000 0.005125 0.005125
0.005061 0.005061 0.005061
0.097981 0.003929 0.003929
0.374515 0.000561 0.000561
0.884361 0.000000 0.000000
1.000000 0.000000 0.000000
1.000000 0.000000 0.000000
1.000000 0.000000 0.000000
1.000000 0.000000 0.000000
0.000000 0.095370 0.001318
0.001253 0.095306 0.001253
0.094174 0.094174 0.000121
0.370708 0.090806 0.000000
0.880553 0.084595 0.000000
1.000000 0.082614 0.000000
1.000000 0.082614 0.000000
1.000000 0.082614 0.000000
1.000000 0.082614 0.000000
0.000000 0.363941 0.000000
0.000000 0.363876 0.000000
0.082843 0.362745 0.000000
0.359376 0.359376 0.000000
0.869222 0.353166 0.000000
1.000000 0.351185 0.000000
1.000000 0.351185 0.000000
1.000000 0.351185 0.000000
1.000000 0.351185 0.000000
0.000000 0.859105 0.000000
0.000000 0.859041 0.000000
0.061951 0.857909 0.000000
0.338485 0.854541 0.000000
0.848330 0.848330 0.000000
1.000000 0.846349 0.000000
1.000000 0.846349 0.000000
1.000000 0.846349 0.000000
1.000000 0.846349 0.000000
0.000000 1.000000 0.000000
0.000000 1.000000 0.000000
0.055287 1.000000 0.000000
0.331820 1.000000 0.000000
0.841666 1.000000 0.000000
1.000000 1.000000 0.000000
1.000000 1.000000 0.000000
1.000000 1.000000 0.000000
1.000000 1.000000 0.000000
0.000000 1.000000 0.000000
0.000000 1.000000 0.000000
0.055287 1.000000 0.000000
0.331820 1.000000 0.000000
0.841666 1.000000 0.000000
1.000000 1.000000 0.000000
1.000000 1.000000 0.000000
1.000000 1.000000 0.000000
1.000000 1.000000 0.000000
0.000000 1.000000 0.000000
0.000000 1.000000 0.000000
0.055287 1.000000 0.000000
0.331820 1.000000 0.000000
0.841666 1.000000 0.000000
1.000000 1.000000 0.000000
1.000000 1.000000 0.000000
1.000000 1.000000 0.000000
1.000000 1.000000 0.000000
0.000000 1.000000 0.000000
0.000000 1.000000 0.000000
0.055287 1.000000 0.000000
0.331820 1.000000 0.000000
0.841666 1.000000 0.000000
1.000000 1.000000 0.000000
1.000000 1.000000 0.000000
1.000000 1.000000 0.000000
1.000000 1.000000 0.000000
0.000000 0.000000 0.099011
0.004894 0.000000 0.098946
0.097814 0.000000 0.097814
0.374348 0.000000 0.094446
0.884193 0.000000 0.088236
1.000000 0.000000 0.086255
1.000000 0.000000 0.086255
1.000000 0.000000 0.086255
1.000000 0.000000 0.086255
0.000000 0.004741 0.098793
0.004676 0.004676 0.098729
0.097597 0.003545 0.097597
0.374131 0.000176 0.094229
0.883976 0.000000 0.088019
1.000000 0.000000 0.086037
1.000000 0.000000 0.086037
1.000000 0.000000 0.086037
1.000000 0.000000 0.086037
0.000000 0.094986 0.094986
0.000869 0.094921 0.094921
0.093790 0.093790 0.093790
0.370323 0.090421 0.090421
0.880169 0.084211 0.084211
1.000000 0.082230 0.082230
1.000000 0.082230 0.082230
1.000000 0.082230 0.082230
1.000000 0.082230 0.082230
0.000000 0.363557 0.083655
0.000000 0.363492 0.083590
0.082458 0.362360 0.082458
0.358992 0.358992 0.079090
0.868837 0.352782 0.072880
1.000000 0.350801 0.070899
1.000000 0.350801 0.070899
1.000000 0.350801 0.070899
1.000000 0.350801 0.070899
0.000000 0.858721 0.062763
0.000000 0.858656 0.062699
0.061567 0.857525 0.061567
0.338100 0.854156 0.058198
0.847946 0.847946 0.051988
1.000000 0.845965 0.050007
1.000000 0.845965 0.050007
1.000000 0.845965 0.050007
1.000000 0.845965 0.050007
0.000000 1.000000 0.056099
0.000000 1.000000 0.056034
0.054902 1.000000 0.054902
0.331436 1.000000 0.051534
0.841281 1.000000 0.045324
1.000000 1.000000 0.043343
1.000000 1.000000 0.043343
1.000000 1.000000 0.043343
1.000000 1.000000 0.043343
0.000000 1.000000 0.056099
0.000000 1.000000 0.056034
0.054902 1.000000 0.054902
0.331436 1.000000 0.051534
0.841281 1.000000 0.045324
1.000000 1.000000 0.043343
1.000000 1.000000 0.043343
1.000000 1.000000 0.043343
1.000000 1.000000 0.043343
0.000000 1.000000 0.056099
0.000000 1.000000 0.056034
0.054902 1.000000 0.054902
0.331436 1.000000 0.051534
0.841281 1.000000 0.045324
1.000000 1.000000 0.043343
1.000000 1.000000 0.043343
1.000000 1.000000 0.043343
1.000000 1.000000 0.043343
0.000000 1.000000 0.056099
0.000000 1.000000 0.056034
0.054902 1.000000 0.054902
0.331436 1.000000 0.051534
0.841281 1.000000 0.045324
1.000000 1.000000 0.043343
1.000000 1.000000 0.043343
1.000000 1.000000 0.043343
1.000000 1.000000 0.043343
0.000000 0.000000 0.377769
0.003750 0.000000 0.377704
0.096670 0.000000 0.376572
0.373204 0.000000 0.373204
0.883050 0.000000 0.366994
1.000000 0.000000 0.365013
1.000000 0.000000 0.365013
1.000000 0.000000 0.365013
1.000000 0.000000 0.365013
0.000000 0.003597 0.377551
0.003532 0.003532 0.377487
0.096453 0.002401 0.376355
0.372987 0.000000 0.372987
0.882832 0.000000 0.366777
1.000000 0.000000 0.364795
1.000000 0.000000 0.364795
1.000000 0.000000 0.364795
1.000000 0.000000 0.364795
0.000000 0.093842 0.373744
0.000000 0.093777 0.373679
0.092646 0.092646 0.372548
0.369179 0.089277 0.369179
0.879025 0.083067 0.362969
1.000000 0.081086 0.360988
1.000000 0.081086 0.360988
1.000000 0.081086 0.360988
1.000000 0.081086 0.360988
0.000000 0.362413 0.362413
0.000000 0.362348 0.362348
0.081314 0.361216 0.361216
0.357848 0.357848 0.357848
0.867694 0.351638 0.351638
1.000000 0.349657 0.349657
1.000000 0.349657 0.349657
1.000000 0.349657 0.349657
1.000000 0.349657 0.349657
0.000000 0.857577 0.341521
0.000000 0.857512 0.341457
0.060423 0.856381 0.340325
0.336956 0.853012 0.336956
0.846802 0.846802 0.330746
1.000000 0.844821 0.328765
1.000000 0.844821 0.328765
1.000000 0.844821 0.328765
1.000000 0.844821 0.328765
0.000000 1.000000 0.334857
0.000000 1.000000 0.334792
0.053758 1.000000 0.333660
0.330292 1.000000 0.330292
0.840138 1.000000 0.324082
1.000000 1.000000 0.322101
1.000000 1.000000 0.322101
1.000000 1.000000 0.322101
1.000000 1.000000 0.322101
0.000000 1.000000 0.334857
0.000000 1.000000 0.334792
0.053758 1.000000 0.333660
0.330292 1.000000 0.330292
0.840138 1.000000 0.324082
1.000000 1.000000 0.322101
1.000000 1.000000 0.322101
1.000000 1.000000 0.322101
1.000000 1.000000 0.322101
0.000000 1.000000 0.334857
0.000000 1.000000 0.334792
0.053758 1.000000 0.333660
0.330292 1.000000 0.330292
0.840138 1.000000 0.324082
1.000000 1.000000 0.322101
1.000000 1.000000 0.322101
1.000000 1.000000 0.322101
1.000000 1.000000 0.322101
0.000000 1.000000 0.334857
0.000000 1.000000 0.334792
0.053758 1.000000 0.333660
0.330292 1.000000 0.330292
0.840138 1.000000 0.324082
1.000000 1.000000 0.322101
1.000000 1.000000 0.322101
1.000000 1.000000 0.322101
1.000000 1.000000 0.322101
0.000000 0.000000 0.891715
0.001641 0.000000 0.891651
0.094561 0.000000 0.890519
0.371095 0.000000 0.887151
0.880940 0.000000 0.880940
1.000000 0.000000 0.878959
1.000000 0.000000 0.878959
1.000000 0.000000 0.878959
1.000000 0.000000 0.878959
0.000000 0.001488 0.891498
0.001423 0.001423 0.891434
0.094344 0.000292 0.890302
0.370878 0.000000 0.886934
0.880723 0.000000 0.880723
1.000000 0.000000 0.878742
1.000000 0.000000 0.878742
1.000000 0.000000 0.878742
1.000000 0.000000 0.878742
0.000000 0.091733 0.887691
0.000000 0.091668 0.887626
0.090537 0.090537 0.886494
0.367070 0.087168 0.883126
0.876916 0.080958 0.876916
1.000000 0.078977 0.874935
1.000000 0.078977 0.874935
1.000000 0.078977 0.874935
1.000000 0.078977 0.874935
0.000000 0.360304 0.876359
0.000000 0.360239 0.876295
0.079205 0.359107 0.875163
0.355739 0.355739 0.871795
0.865585 0.349529 0.865585
1.000000 0.347548 0.863603
1.000000 0.347548 0.863603
1.000000 0.347548 0.863603
1.000000 0.347548 0.863603
0.000000 0.855468 0.855468
0.000000 0.855403 0.855403
0.058314 0.854272 0.854272
0.334847 0.850903 0.850903
0.844693 0.844693 0.844693
1.000000 0.842712 0.842712
1.000000 0.842712 0.842712
1.000000 0.842712 0.842712
1.000000 0.842712 0.842712
0.000000 1.000000 0.848803
0.000000 1.000000 0.848739
0.051649 1.000000 0.847607
0.328183 1.000000 0.844239
0.838029 1.000000 0.838029
1.000000 1.000000 0.836047
1.000000 1.000000 0.836047
1.000000 1.000000 0.836047
1.000000 1.000000 0.836047
0.000000 1.000000 0.848803
0.000000 1.000000 0.848739
0.051649 1.000000 0.847607
0.328183 1.000000 0.844239
0.838029 1.000000 0.838029
1.000000 1.000000 0.836047
1.000000 1.000000 0.836047
1.000000 1.000000 0.836047
1.000000 1.000000 0.836047
0.000000 1.000000 0.848803
0.000000 1.000000 0.848739
0.051649 1.000000 0.847607
0.328183 1.000000 0.844239
0.838029 1.000000 0.838029
1.000000 1.000000 0.836047
1.000000 1.000000 0.836047
1.000000 1.000000 0.836047
1.000000 1.000000 0.836047
0.000000 1.000000 0.848803
0.000000 1.000000 0.848739
0.051649 1.000000 0.847607
0.328183 1.000000 0.844239
0.838029 1.000000 0.838029
1.000000 1.000000 0.836047
1.000000 1.000000 0.836047
1.000000 1.000000 0.836047
1.000000 1.000000 0.836047
0.000000 0.000000 1.000000
0.000968 0.000000 1.000000
0.093889 0.000000 1.000000
0.370422 0.000000 1.000000
0.880268 0.000000 1.000000
1.000000 0.000000 1.000000
1.000000 0.000000 1.000000
1.000000 0.000000 1.000000
1.000000 0.000000 1.000000
0.000000 0.000815 1.000000
0.000751 0.000751 1.000000
0.093671 0.000000 1.000000
0.370205 0.000000 1.000000
0.880051 0.000000 1.000000
1.000000 0.000000 1.000000
1.000000 0.000000 1.000000
1.000000 0.000000 1.000000
1.000000 0.000000 1.000000
0.000000 0.091060 1.000000
0.000000 0.090996 1.000000
0.089864 0.089864 1.000000
0.366397 0.086496 1.000000
0.876243 0.080285 1.000000
1.000000 0.078304 1.000000
1.000000 0.078304 1.000000
1.000000 0.078304 1.000000
1.000000 0.078304 1.000000
0.000000 0.359631 1.000000
0.000000 0.359566 1.000000
0.078533 0.358434 1.000000
0.355066 0.355066 1.000000
0.864912 0.348856 1.000000
1.000000 0.346875 1.000000
1.000000 0.346875 1.000000
1.000000 0.346875 1.000000
1.000000 0.346875 1.000000
0.000000 0.854795 1.000000
0.000000 0.854731 1.000000
0.057641 0.853599 1.000000
0.334175 0.850230 1.000000
0.844020 0.844020 1.000000
1.000000 0.842039 1.000000
1.000000 0.842039 1.000000
1.000000 0.842039 1.000000
1.000000 0.842039 1.000000
0.000000 1.000000 1.000000
0.000000 1.000000 1.000000
0.050977 1.000000 1.000000
0.327510 1.000000 1.000000
0.837356 1.000000 1.000000
1.000000 1.000000 1.000000
1.000000 1.000000 1.000000
1.000000 1.000000 1.000000
1.000000 1.000000 1.000000
0.000000 1.000000 1.000000
0.000000 1.000000 1.000000
0.050977 1.000000 1.000000
0.327510 1.000000 1.000000
0.837356 1.000000 1.000000
1.000000 1.000000 1.000000
1.000000 1.000000 1.000000
1.000000 1.000000 1.000000
1.000000 1.000000 1.000000
0.000000 1.000000 1.000000
0.000000 1.000000 1.000000
0.050977 1.000000 1.000000
0.327510 1.000000 1.000000
0.837356 1.000000 1.000000
1.000000 1.000000 1.000000
1.000000 1.000000 1.000000
1.000000 1.000000 1.000000
1.000000 1.000000 1.000000
0.000000 1.000000 1.000000
0.000000 1.000000 1.000000
0.050977 1.000000 1.000000
0.327510 1.000000 1.000000
0.837356 1.000000 1.000000
1.000000 1.000000 1.000000
1.000000 1.000000 1.000000
1.000000 1.000000 1.000000
1.000000 1.000000 1.000000
0.000000 0.000000 1.000000
0.000968 0.000000 1.000000
0.093889 0.000000 1.000000
0.370422 0.000000 1.000000
0.880268 0.000000 1.000000
1.000000 0.000000 1.000000
1.000000 0.000000 1.000000
1.000000 0.000000 1.000000
1.000000 0.000000 1.000000
0.000000 0.000815 1.000000
0.000751 0.000751 1.000000
0.093671 0.000000 1.000000
0.370205 0.000000 1.000000
0.880051 0.000000 1.000000
1.000000 0.000000 1.000000
1.000000 0.000000 1.000000
1.000000 0.000000 1.000000
1.000000 0.000000 1.000000
0.000000 0.091060 1.000000
0.000000 0.090996 1.000000
0.089864 0.089864 1.000000
0.366397 0.086496 1.000000
0.876243 0.080285 1.000000
1.000000 0.078304 1.000000
1.000000 0.078304 1.000000
1.000000 0.078304 1.000000
1.000000 0.078304 1.000000
0.000000 0.359631 1.000000
0.000000 0.359566 1.000000
0.078533 0.358434 1.000000
0.355066 0.355066 1.000000
0.864912 0.348856 1.000000
1.000000 0.346875 1.000000
1.000000 0.346875 1.000000
1.000000 0.346875 1.000000
1.000000 0.346875 1.000000
0.000000 0.854795 1.000000
0.000000 0.854731 1.000000
0.057641 0.853599 1.000000
0.334175 0.850230 1.000000
0.844020 0.844020 1.000000
1.000000 0.842039 1.000000
1.000000 0.842039 1.000000
1.000000 0.842039 1.000000
1.000000 0.842039 1.000000
0.000000 1.000000 1.000000
0.000000 1.000000 1.000000
0.050977 1.000000 1.000000
0.327510 1.000000 1.000000
0.837356 1.000000 1.000000
1.000000 1.000000 1.000000
1.000000 1.000000 1.000000
1.000000 1.000000 1.000000
1.000000 1.000000 1.000000
0.000000 1.000000 1.000000
0.000000 1.000000 1.000000
0.050977 1.000000 1.000000
0.327510 1.000000 1.000000
0.837356 1.000000 1.000000
1.000000 1.000000 1.000000
1.000000 1.000000 1.000000
1.000000 1.000000 1.000000
1.000000 1.000000 1.000000
0.000000 1.000000 1.000000
0.000000 1.000000 1.000000
0.050977 1.000000 1.000000
0.327510 1.000000 1.000000
0.837356 1.000000 1.000000
1.000000 1.000000 1.000000
1.000000 1.000000 1.000000
1.000000 1.000000 1.000000
1.000000 1.000000 1.000000
0.000000 1.000000 1.000000
0.000000 1.000000 1.000000
0.050977 1.000000 1.000000
0.327510 1.000000 1.000000
0.837356 1.000000 1.000000
1.000000 1.000000 1.000000
1.000000 1.000000 1.000000
1.000000 1.000000 1.000000
1.000000 1.000000 1.000000
0.000000 0.000000 1.000000
0.000968 0.000000 1.000000
0.093889 0.000000 1.000000
0.370422 0.000000 1.000000
0.880268 0.000000 1.000000
1.000000 0.000000 1.000000
1.000000 0.000000 1.000000
1.000000 0.000000 1.000000
1.000000 0.000000 1.000000
0.000000 0.000815 1.000000
0.000751 0.000751 1.000000
0.093671 0.000000 1.000000
0.370205 0.000000 1.000000
0.880051 0.000000 1.000000
1.000000 0.000000 1.000000
1.000000 0.000000 1.000000
1.000000 0.000000 1.000000
1.000000 0.000000 1.000000
0.000000 0.091060 1.000000
0.000000 0.090996 1.000000
0.089864 0.089864 1.000000
0.366397 0.086496 1.000000
0.876243 0.080285 1.000000
1.000000 0.078304 1.000000
1.000000 0.078304 1.000000
1.000000 0.078304 1.000000
1.000000 0.078304 1.000000
0.000000 0.359631 1.000000
0.000000 0.359566 1.000000
0.078533 0.358434 1.000000
0.355066 0.355066 1.000000
0.864912 0.348856 1.000000
1.000000 0.346875 1.000000
1.000000 0.346875 1.000000
1.000000 0.346875 1.000000
1.000000 0.346875 1.000000
0.000000 0.854795 1.000000
0.000000 0.854731 1.000000
0.057641 0.853599 1.000000
0.334175 0.850230 1.000000
0.844020 0.844020 1.000000
1.000000 0.842039 1.000000
1.000000 0.842039 1.000000
1.000000 0.842039 1.000000
1.000000 0.842039 1.000000
0.000000 1.000000 1.000000
0.000000 1.000000 1.000000
0.050977 1.000000 1.000000
0.327510 1.000000 1.000000
0.837356 1.000000 1.000000
1.000000 1.000000 1.000000
1.000000 1.000000 1.000000
1.000000 1.000000 1.000000
1.000000 1.000000 1.000000
0.000000 1.000000 1.000000
0.000000 1.000000 1.000000
0.050977 1.000000 1.000000
0.327510 1.000000 1.000000
0.837356 1.000000 1.000000
1.000000 1.000000 1.000000
1.000000 1.000000 1.000000
1.000000 1.000000 1.000000
1.000000 1.000000 1.000000
0.000000 1.000000 1.000000
0.000000 1.000000 1.000000
0.050977 1.000000 1.000000
0.327510 1.000000 1.000000
0.837356 1.000000 1.000000
1.000000 1.000000 1.000000
1.000000 1.000000 1.000000
1.000000 1.000000 1.000000
1.000000 1.000000 1.000000
0.000000 1.000000 1.000000
0.000000 1.000000 1.000000
0.050977 1.000000 1.000000
0.327510 1.000000 1.000000
0.837356 1.000000 1.000000
1.000000 1.000000 1.000000
1.000000 1.000000 1.000000
1.000000 1.000000 1.000000
1.000000 1.000000 1.000000
0.000000 0.000000 1.000000
0.000968 0.000000 1.000000
0.093889 0.000000 1.000000
0.370422 0.000000 1.000000
0.880268 0.000000 1.000000
1.000000 0.000000 1.000000
1.000000 0.000000 1.000000
1.000000 0.000000 1.000000
1.000000 0.000000 1.000000
0.000000 0.000815 1.000000
0.000751 0.000751 1.000000
0.093671 0.000000 1.000000
0.370205 0.000000 1.000000
0.880051 0.000000 1.000000
1.000000 0.000000 1.000000
1.000000 0.000000 1.000000
1.000000 0.000000 1.000000
1.000000 0.000000 1.000000
0.000000 0.091060 1.000000
0.000000 0.090996 1.000000
0.089864 0.089864 1.000000
0.366397 0.086496 1.000000
0.876243 0.080285 1.000000
1.000000 0.078304 1.000000
1.000000 0.078304 1.000000
1.000000 0.078304 1.000000
1.000000 0.078304 1.000000
0.000000 0.359631 1.000000
0.000000 0.359566 1.000000
0.078533 0.358434 1.000000
0.355066 0.355066 1.000000
0.864912 0.348856 1.000000
1.000000 0.346875 1.000000
1.000000 0.346875 1.000000
1.000000 0.346875 1.000000
1.000000 0.346875 1.000000
0.000000 0.854795 1.000000
0.000000 0.854731 1.000000
0.057641 0.853599 1.000000
0.334175 0.850230 1.000000
0.844020 0.844020 1.000000
1.000000 0.842039 1.000000
1.000000 0.842039 1.000000
1.000000 0.842039 1.000000
1.000000 0.842039 1.000000
0.000000 1.000000 1.000000
0.000000 1.000000 1.000000
0.050977 1.000000 1.000000
0.327510 1.000000 1.000000
0.837356 1.000000 1.000000
1.000000 1.000000 1.000000
1.000000 1.000000 1.000000
1.000000 1.000000 1.000000
1.000000 1.000000 1.000000
0.000000 1.000000 1.000000
0.000000 1.000000 1.000000
0.050977 1.000000 1.000000
0.327510 1.000000 1.000000
0.837356 1.000000 1.000000
1.000000 1.000000 1.000000
1.000000 1.000000 1.000000
1.000000 1.000000 1.000000
1.000000 1.000000 1.000000
0.000000 1.000000 1.000000
0.000000 1.000000 1.000000
0.050977 1.000000 1.000000
0.327510 1.000000 1.000000
0.837356 1.000000 1.000000
1.000000 1.000000 1.000000
1.000000 1.000000 1.000000
1.000000 1.000000 1.000000
1.000000 1.000000 1.000000
0.000000 1.000000 1.000000
0.000000 1.000000 1.000000
0.050977 1.000000 1.000000
0.327510 1.000000 1.000000
0.837356 1.000000 1.000000
1.000000 1.000000 1.000000
1.000000 1.000000 1.000000
1.000000 1.000000 1.000000
1.000000 1.000000 1.000000
