assets/presets/luts/dlog-rec709/lut.cube
TITLE "D-Log to Rec.709"
LUT_3D_SIZE 17
0.000000 0.000000 0.000000
0.000000 0.000000 0.000000
0.005300 0.000000 0.000000
0.035169 0.000000 0.000000
0.098221 0.000000 0.000000
0.204974 0.000000 0.000000
0.374754 0.000000 0.000000
0.615656 0.000000 0.000000
0.884600 0.000000 0.000000
1.000000 0.000000 0.000000
1.000000 0.000000 0.000000
1.000000 0.000000 0.000000
1.000000 0.000000 0.000000
1.000000 0.000000 0.000000
1.000000 0.000000 0.000000
1.000000 0.000000 0.000000
1.000000 0.000000 0.000000
0.000000 0.000000 0.000000
0.000000 0.000000 0.000000
0.005300 0.000000 0.000000
0.035169 0.000000 0.000000
0.098221 0.000000 0.000000
0.204974 0.000000 0.000000
0.374754 0.000000 0.000000
0.615656 0.000000 0.000000
0.884600 0.000000 0.000000
1.000000 0.000000 0.000000
1.000000 0.000000 0.000000
1.000000 0.000000 0.000000
1.000000 0.000000 0.000000
1.000000 0.000000 0.000000
1.000000 0.000000 0.000000
1.000000 0.000000 0.000000
1.000000 0.000000 0.000000
0.000000 0.005147 0.000000
0.000000 0.005147 0.000000
0.005083 0.005083 0.000000
0.034951 0.004719 0.000000
0.098003 0.003951 0.000000
0.204757 0.002651 0.000000
0.374537 0.000583 0.000000
0.615439 0.000000 0.000000
0.884383 0.000000 0.000000
1.000000 0.000000 0.000000
1.000000 0.000000 0.000000
1.000000 0.000000 0.000000
1.000000 0.000000 0.000000
1.000000 0.000000 0.000000
1.000000 0.000000 0.000000
1.000000 0.000000 0.000000
1.000000 0.000000 0.000000
0.000000 0.034156 0.000000
0.000000 0.034156 0.000000
0.003859 0.034091 0.000000
0.033728 0.033728 0.000000
0.096779 0.032960 0.000000
0.203533 0.031659 0.000000
0.373313 0.029591 0.000000
0.614215 0.026657 0.000000
0.883159 0.023381 0.000000
1.000000 0.021400 0.000000
1.000000 0.021400 0.000000
1.000000 0.021400 0.000000
1.000000 0.021400 0.000000
1.000000 0.021400 0.000000
1.000000 0.021400 0.000000
1.000000 0.021400 0.000000
1.000000 0.021400 0.000000
0.000000 0.095392 0.000000
0.000000 0.095392 0.000000
0.001275 0.095328 0.000000
0.031144 0.094964 0.000000
0.094196 0.094196 0.000000
0.200950 0.092896 0.000000
0.370729 0.090828 0.000000
0.611631 0.087893 0.000000
0.880575 0.084617 0.000000
1.000000 0.082636 0.000000
1.000000 0.082636 0.000000
1.000000 0.082636 0.000000
1.000000 0.082636 0.000000
1.000000 0.082636 0.000000
1.000000 0.082636 0.000000
1.000000 0.082636 0.000000
1.000000 0.082636 0.000000
0.000000 0.199072 0.000000
0.000000 0.199072 0.000000
0.000000 0.199007 0.000000
0.026770 0.198644 0.000000
0.089821 0.197876 0.000000
0.196575 0.196575 0.000000
0.366355 0.194507 0.000000
0.607257 0.191573 0.000000
0.876201 0.188297 0.000000
1.000000 0.186316 0.000000
1.000000 0.186316 0.000000
1.000000 0.186316 0.000000
1.000000 0.186316 0.000000
1.000000 0.186316 0.000000
1.000000 0.186316 0.000000
1.000000 0.186316 0.000000
1.000000 0.186316 0.000000
0.000000 0.363963 0.000000
0.000000 0.363963 0.000000
0.000000 0.363898 0.000000
0.019813 0.363535 0.000000
0.082865 0.362767 0.000000
0.189618 0.361466 0.000000
0.359398 0.359398 0.000000
0.600300 0.356464 0.000000
0.869244 0.353188 0.000000
1.000000 0.351207 0.000000
1.000000 0.351207 0.000000
1.000000 0.351207 0.000000
1.000000 0.351207 0.000000
1.000000 0.351207 0.000000
1.000000 0.351207 0.000000
1.000000 0.351207 0.000000
1.000000 0.351207 0.000000
0.000000 0.597928 0.000000
0.000000 0.597928 0.000000
0.000000 0.597863 0.000000
0.009941 0.597499 0.000000
0.072993 0.596731 0.000000
0.179747 0.595431 0.000000
0.349527 0.593363 0.000000
0.590429 0.590429 0.000000
0.859373 0.587153 0.000000
1.000000 0.585172 0.000000
1.000000 0.585172 0.000000
1.000000 0.585172 0.000000
1.000000 0.585172 0.000000
1.000000 0.585172 0.000000
1.000000 0.585172 0.000000
1.000000 0.585172 0.000000
1.000000 0.585172 0.000000
0.000000 0.859127 0.000000
0.000000 0.859127 0.000000
0.000000 0.859063 0.000000
0.000000 0.858699 0.000000
0.061973 0.857931 0.000000
0.168727 0.856630 0.000000
0.338507 0.854562 0.000000
0.579408 0.851628 0.000000
0.848352 0.848352 0.000000
1.000000 0.846371 0.000000
1.000000 0.846371 0.000000
1.000000 0.846371 0.000000
1.000000 0.846371 0.000000
1.000000 0.846371 0.000000
1.000000 0.846371 0.000000
1.000000 0.846371 0.000000
1.000000 0.846371 0.000000
0.000000 1.000000 0.000000
0.000000 1.000000 0.000000
0.000000 1.000000 0.000000
0.000000 1.000000 0.000000
0.055309 1.000000 0.000000
0.162062 1.000000 0.000000
0.331842 1.000000 0.000000
0.572744 1.000000 0.000000
0.841688 1.000000 0.000000
1.000000 1.000000 0.000000
1.000000 1.000000 0.000000
1.000000 1.000000 0.000000
1.000000 1.000000 0.000000
1.000000 1.000000 0.000000
1.000000 1.000000 0.000000
1.000000 1.000000 0.000000
1.000000 1.000000 0.000000
0.000000 1.000000 0.000000
0.000000 1.000000 0.000000
0.000000 1.000000 0.000000
0.000000 1.000000 0.000000
0.055309 1.000000 0.000000
0.162062 1.000000 0.000000
0.331842 1.000000 0.000000
0.572744 1.000000 0.000000
0.841688 1.000000 0.000000
1.000000 1.000000 0.000000
1.000000 1.000000 0.000000
1.000000 1.000000 0.000000
1.000000 1.000000 0.000000
1.000000 1.000000 0.000000
1.000000 1.000000 0.000000
1.000000 1.000000 0.000000
1.000000 1.000000 0.000000
0.000000 1.000000 0.000000
0.000000 1.000000 0.000000
0.000000 1.000000 0.000000
0.000000 1.000000 0.000000
0.055309 1.000000 0.000000
0.162062 1.000000 0.000000
0.331842 1.000000 0.000000
0.572744 1.000000 0.000000
0.841688 1.000000 0.000000
1.000000 1.000000 0.000000
1.000000 1.000000 0.000000
1.000000 1.000000 0.000000
1.000000 1.000000 0.000000
1.000000 1.000000 0.000000
1.000000 1.000000 0.000000
1.000000 1.000000 0.000000
1.000000 1.000000 0.000000
0.000000 1.000000 0.000000
0.000000 1.000000 0.000000
0.000000 1.000000 0.000000
0.000000 1.000000 0.000000
0.055309 1.000000 0.000000
0.162062 1.000000 0.000000
0.331842 1.000000 0.000000
0.572744 1.000000 0.000000
0.841688 1.000000 0.000000
1.000000 1.000000 0.000000
1.000000 1.000000 0.000000
1.000000 1.000000 0.000000
1.000000 1.000000 0.000000
1.000000 1.000000 0.000000
1.000000 1.000000 0.000000
1.000000 1.000000 0.000000
1.000000 1.000000 0.000000
0.000000 1.000000 0.000000
0.000000 1.000000 0.000000
0.000000 1.000000 0.000000
0.000000 1.000000 0.000000
0.055309 1.000000 0.000000
0.162062 1.000000 0.000000
0.331842 1.000000 0.000000
0.572744 1.000000 0.000000
0.841688 1.000000 0.000000
1.000000 1.000000 0.000000
1.000000 1.000000 0.000000
1.000000 1.000000 0.000000
1.000000 1.000000 0.000000
1.000000 1.000000 0.000000
1.000000 1.000000 0.000000
1.000000 1.000000 0.000000
1.000000 1.000000 0.000000
0.000000 1.000000 0.000000
0.000000 1.000000 0.000000
0.000000 1.000000 0.000000
0.000000 1.000000 0.000000
0.055309 1.000000 0.000000
0.162062 1.000000 0.000000
0.331842 1.000000 0.000000
0.572744 1.000000 0.000000
0.841688 1.000000 0.000000
1.000000 1.000000 0.000000
1.000000 1.000000 0.000000
1.000000 1.000000 0.000000
1.000000 1.000000 0.000000
1.000000 1.000000 0.000000
1.000000 1.000000 0.000000
1.000000 1.000000 0.000000
1.000000 1.000000 0.000000
0.000000 1.000000 0.000000
0.000000 1.000000 0.000000
0.000000 1.000000 0.000000
0.000000 1.000000 0.000000
0.055309 1.000000 0.000000
0.162062 1.000000 0.000000
0.331842 1.000000 0.000000
0.572744 1.000000 0.000000
0.841688 1.000000 0.000000
1.000000 1.000000 0.000000
1.000000 1.000000 0.000000
1.000000 1.000000 0.000000
1.000000 1.000000 0.000000
1.000000 1.000000 0.000000
1.000000 1.000000 0.000000
1.000000 1.000000 0.000000
1.000000 1.000000 0.000000
0.000000 1.000000 0.000000
0.000000 1.000000 0.000000
0.000000 1.000000 0.000000
0.000000 1.000000 0.000000
0.055309 1.000000 0.000000
0.162062 1.000000 0.000000
0.331842 1.000000 0.000000
0.572744 1.000000 0.000000
0.841688 1.000000 0.000000
1.000000 1.000000 0.000000
1.000000 1.000000 0.000000
1.000000 1.000000 0.000000
1.000000 1.000000 0.000000
1.000000 1.000000 0.000000
1.000000 1.000000 0.000000
1.000000 1.000000 0.000000
1.000000 1.000000 0.000000
0.000000 0.000000 0.000000
0.000000 0.000000 0.000000
0.005300 0.000000 0.000000
0.035169 0.000000 0.000000
0.098221 0.000000 0.000000
0.204974 0.000000 0.000000
0.374754 0.000000 0.000000
0.615656 0.000000 0.000000
0.884600 0.000000 0.000000
1.000000 0.000000 0.000000
1.000000 0.000000 0.000000
1.000000 0.000000 0.000000
1.000000 0.000000 0.000000
1.000000 0.000000 0.000000
1.000000 0.000000 0.000000
1.000000 0.000000 0.000000
1.000000 0.000000 0.000000
0.000000 0.000000 0.000000
0.000000 0.000000 0.000000
0.005300 0.000000 0.000000
0.035169 0.000000 0.000000
0.098221 0.000000 0.000000
0.204974 0.000000 0.000000
0.374754 0.000000 0.000000
0.615656 0.000000 0.000000
0.884600 0.000000 0.000000
1.000000 0.000000 0.000000
1.000000 0.000000 0.000000
1.000000 0.000000 0.000000
1.000000 0.000000 0.000000
1.000000 0.000000 0.000000
1.000000 0.000000 0.000000
1.000000 0.000000 0.000000
1.000000 0.000000 0.000000
0.000000 0.005147 0.000000
0.000000 0.005147 0.000000
0.005083 0.005083 0.000000
0.034951 0.004719 0.000000
0.098003 0.003951 0.000000
0.204757 0.002651 0.000000
0.374537 0.000583 0.000000
0.615439 0.000000 0.000000
0.884383 0.000000 0.000000
1.000000 0.000000 0.000000
1.000000 0.000000 0.000000
1.000000 0.000000 0.000000
1.000000 0.000000 0.000000
1.000000 0.000000 0.000000
1.000000 0.000000 0.000000
1.000000 0.000000 0.000000
1.000000 0.000000 0.000000
0.000000 0.034156 0.000000
0.000000 0.034156 0.000000
0.003859 0.034091 0.000000
0.033728 0.033728 0.000000
0.096779 0.032960 0.000000
0.203533 0.031659 0.000000
0.373313 0.029591 0.000000
0.614215 0.026657 0.000000
0.883159 0.023381 0.000000
1.000000 0.021400 0.000000
1.000000 0.021400 0.000000
1.000000 0.021400 0.000000
1.000000 0.021400 0.000000
1.000000 0.021400 0.000000
1.000000 0.021400 0.000000
1.000000 0.021400 0.000000
1.000000 0.021400 0.000000
0.000000 0.095392 0.000000
0.000000 0.095392 0.000000
0.001275 0.095328 0.000000
0.031144 0.094964 0.000000
0.094196 0.094196 0.000000
0.200950 0.092896 0.000000
0.370729 0.090828 0.000000
0.611631 0.087893 0.000000
0.880575 0.084617 0.000000
1.000000 0.082636 0.000000
1.000000 0.082636 0.000000
1.000000 0.082636 0.000000
1.000000 0.082636 0.000000
1.000000 0.082636 0.000000
1.000000 0.082636 0.000000
1.000000 0.082636 0.000000
1.000000 0.082636 0.000000
0.000000 0.199072 0.000000
0.000000 0.199072 0.000000
0.000000 0.199007 0.000000
0.026770 0.198644 0.000000
0.089821 0.197876 0.000000
0.196575 0.196575 0.000000
0.366355 0.194507 0.000000
0.607257 0.191573 0.000000
0.876201 0.188297 0.000000
1.000000 0.186316 0.000000
1.000000 0.186316 0.000000
1.000000 0.186316 0.000000
1.000000 0.186316 0.000000
1.000000 0.186316 0.000000
1.000000 0.186316 0.000000
1.000000 0.186316 0.000000
1.000000 0.186316 0.000000
0.000000 0.363963 0.000000
0.000000 0.363963 0.000000
0.000000 0.363898 0.000000
0.019813 0.363535 0.000000
0.082865 0.362767 0.000000
0.189618 0.361466 0.000000
0.359398 0.359398 0.000000
0.600300 0.356464 0.000000
0.869244 0.353188 0.000000
1.000000 0.351207 0.000000
1.000000 0.351207 0.000000
1.000000 0.351207 0.000000
1.000000 0.351207 0.000000
1.000000 0.351207 0.000000
1.000000 0.351207 0.000000
1.000000 0.351207 0.000000
1.000000 0.351207 0.000000
0.000000 0.597928 0.000000
0.000000 0.597928 0.000000
0.000000 0.597863 0.000000
0.009941 0.597499 0.000000
0.072993 0.596731 0.000000
0.179747 0.595431 0.000000
0.349527 0.593363 0.000000
0.590429 0.590429 0.000000
0.859373 0.587153 0.000000
1.000000 0.585172 0.000000
1.000000 0.585172 0.000000
1.000000 0.585172 0.000000
1.000000 0.585172 0.000000
1.000000 0.585172 0.000000
1.000000 0.585172 0.000000
1.000000 0.585172 0.000000
1.000000 0.585172 0.000000
0.000000 0.859127 0.000000
0.000000 0.859127 0.000000
0.000000 0.859063 0.000000
0.000000 0.858699 0.000000
0.061973 0.857931 0.000000
0.168727 0.856630 0.000000
0.338507 0.854562 0.000000
0.579408 0.851628 0.000000
0.848352 0.848352 0.000000
1.000000 0.846371 0.000000
1.000000 0.846371 0.000000
1.000000 0.846371 0.000000
1.000000 0.846371 0.000000
1.000000 0.846371 0.000000
1.000000 0.846371 0.000000
1.000000 0.846371 0.000000
1.000000 0.846371 0.000000
0.000000 1.000000 0.000000
0.000000 1.000000 0.000000
0.000000 1.000000 0.000000
0.000000 1.000000 0.000000
0.055309 1.000000 0.000000
0.162062 1.000000 0.000000
0.331842 1.000000 0.000000
0.572744 1.000000 0.000000
0.841688 1.000000 0.000000
1.000000 1.000000 0.000000
1.000000 1.000000 0.000000
1.000000 1.000000 0.000000
1.000000 1.000000 0.000000
1.000000 1.000000 0.000000
1.000000 1.000000 0.000000
1.000000 1.000000 0.000000
1.000000 1.000000 0.000000
0.000000 1.000000 0.000000
0.000000 1.000000 0.000000
0.000000 1.000000 0.000000
0.000000 1.000000 0.000000
0.055309 1.000000 0.000000
0.162062 1.000000 0.000000
0.331842 1.000000 0.000000
0.572744 1.000000 0.000000
0.841688 1.000000 0.000000
1.000000 1.000000 0.000000
1.000000 1.000000 0.000000
1.000000 1.000000 0.000000
1.000000 1.000000 0.000000
1.000000 1.000000 0.000000
1.000000 1.000000 0.000000
1.000000 1.000000 0.000000
1.000000 1.000000 0.000000
0.000000 1.000000 0.000000
0.000000 1.000000 0.000000
0.000000 1.000000 0.000000
0.000000 1.000000 0.000000
0.055309 1.000000 0.000000
0.162062 1.000000 0.000000
0.331842 1.000000 0.000000
0.572744 1.000000 0.000000
0.841688 1.000000 0.000000
1.000000 1.000000 0.000000
1.000000 1.000000 0.000000
1.000000 1.000000 0.000000
1.000000 1.000000 0.000000
1.000000 1.000000 0.000000
1.000000 1.000000 0.000000
1.000000 1.000000 0.000000
1.000000 1.000000 0.000000
0.000000 1.000000 0.000000
0.000000 1.000000 0.000000
0.000000 1.000000 0.000000
0.000000 1.000000 0.000000
0.055309 1.000000 0.000000
0.162062 1.000000 0.000000
0.331842 1.000000 0.000000
0.572744 1.000000 0.000000
0.841688 1.000000 0.000000
1.000000 1.000000 0.000000
1.000000 1.000000 0.000000
1.000000 1.000000 0.000000
1.000000 1.000000 0.000000
1.000000 1.000000 0.000000
1.000000 1.000000 0.000000
1.000000 1.000000 0.000000
1.000000 1.000000 0.000000
0.000000 1.000000 0.000000
0.000000 1.000000 0.000000
0.000000 1.000000 0.000000
0.000000 1.000000 0.000000
0.055309 1.000000 0.000000
0.162062 1.000000 0.000000
0.331842 1.000000 0.000000
0.572744 1.000000 0.000000
0.841688 1.000000 0.000000
1.000000 1.000000 0.000000
1.000000 1.000000 0.000000
1.000000 1.000000 0.000000
1.000000 1.000000 0.000000
1.000000 1.000000 0.000000
1.000000 1.000000 0.000000
1.000000 1.000000 0.000000
1.000000 1.000000 0.000000
0.000000 1.000000 0.000000
0.000000 1.000000 0.000000
0.000000 1.000000 0.000000
0.000000 1.000000 0.000000
0.055309 1.000000 0.000000
0.162062 1.000000 0.000000
0.331842 1.000000 0.000000
0.572744 1.000000 0.000000
0.841688 1.000000 0.000000
1.000000 1.000000 0.000000
1.000000 1.000000 0.000000
1.000000 1.000000 0.000000
1.000000 1.000000 0.000000
1.000000 1.000000 0.000000
1.000000 1.000000 0.000000
1.000000 1.000000 0.000000
1.000000 1.000000 0.000000
0.000000 1.000000 0.000000
0.000000 1.000000 0.000000
0.000000 1.000000 0.000000
0.000000 1.000000 0.000000
0.055309 1.000000 0.000000
0.162062 1.000000 0.000000
0.331842 1.000000 0.000000
0.572744 1.000000 0.000000
0.841688 1.000000 0.000000
1.000000 1.000000 0.000000
1.000000 1.000000 0.000000
1.000000 1.000000 0.000000
1.000000 1.000000 0.000000
1.000000 1.000000 0.000000
1.000000 1.000000 0.000000
1.000000 1.000000 0.000000
1.000000 1.000000 0.000000
0.000000 1.000000 0.000000
0.000000 1.000000 0.000000
0.000000 1.000000 0.000000
0.000000 1.000000 0.000000
0.055309 1.000000 0.000000
0.162062 1.000000 0.000000
0.331842 1.000000 0.000000
0.572744 1.000000 0.000000
0.841688 1.000000 0.000000
1.000000 1.000000 0.000000
1.000000 1.000000 0.000000
1.000000 1.000000 0.000000
1.000000 1.000000 0.000000
1.000000 1.000000 0.000000
1.000000 1.000000 0.000000
1.000000 1.000000 0.000000
1.000000 1.000000 0.000000
0.000000 0.000000 0.005342
0.000000 0.000000 0.005342
0.005278 0.000000 0.005278
0.035147 0.000000 0.004914
0.098199 0.000000 0.004146
0.204952 0.000000 0.002846
0.374732 0.000000 0.000778
0.615634 0.000000 0.000000
0.884578 0.000000 0.000000
1.000000 0.000000 0.000000
1.000000 0.000000 0.000000
1.000000 0.000000 0.000000
1.000000 0.000000 0.000000
1.000000 0.000000 0.000000
1.000000 0.000000 0.000000
1.000000 0.000000 0.000000
1.000000 0.000000 0.000000
0.000000 0.000000 0.005342
0.000000 0.000000 0.005342
0.005278 0.000000 0.005278
0.035147 0.000000 0.004914
0.098199 0.000000 0.004146
0.204952 0.000000 0.002846
0.374732 0.000000 0.000778
0.615634 0.000000 0.000000
0.884578 0.000000 0.000000
1.000000 0.000000 0.000000
1.000000 0.000000 0.000000
1.000000 0.000000 0.000000
1.000000 0.000000 0.000000
1.000000 0.000000 0.000000
1.000000 0.000000 0.000000
1.000000 0.000000 0.000000
1.000000 0.000000 0.000000
0.000000 0.005125 0.005125
0.000000 0.005125 0.005125
0.005061 0.005061 0.005061
0.034930 0.004697 0.004697
0.097981 0.003929 0.003929
0.204735 0.002629 0.002629
0.374515 0.000561 0.000561
0.615417 0.000000 0.000000
0.884361 0.000000 0.000000
1.000000 0.000000 0.000000
1.000000 0.000000 0.000000
1.000000 0.000000 0.000000
1.000000 0.000000 0.000000
1.000000 0.000000 0.000000
1.000000 0.000000 0.000000
1.000000 0.000000 0.000000
1.000000 0.000000 0.000000
0.000000 0.034134 0.003901
0.000000 0.034134 0.003901
0.003837 0.034069 0.003837
0.033706 0.033706 0.003473
0.096758 0.032938 0.002705
0.203511 0.031637 0.001405
0.373291 0.029569 0.000000
0.614193 0.026635 0.000000
0.883137 0.023359 0.000000
1.000000 0.021378 0.000000
1.000000 0.021378 0.000000
1.000000 0.021378 0.000000
1.000000 0.021378 0.000000
1.000000 0.021378 0.000000
1.000000 0.021378 0.000000
1.000000 0.021378 0.000000
1.000000 0.021378 0.000000
0.000000 0.095370 0.001318
0.000000 0.095370 0.001318
0.001253 0.095306 0.001253
0.031122 0.094942 0.000889
0.094174 0.094174 0.000121
0.200928 0.092874 0.000000
0.370708 0.090806 0.000000
0.611609 0.087871 0.000000
0.880553 0.084595 0.000000
1.000000 0.082614 0.000000
1.000000 0.082614 0.000000
1.000000 0.082614 0.000000
1.000000 0.082614 0.000000
1.000000 0.082614 0.000000
1.000000 0.082614 0.000000
1.000000 0.082614 0.000000
1.000000 0.082614 0.000000
0.000000 0.199050 0.000000
0.000000 0.199050 0.000000
0.000000 0.198986 0.000000
0.026748 0.198622 0.000000
0.089800 0.197854 0.000000
0.196553 0.196553 0.000000
0.366333 0.194485 0.000000
0.607235 0.191551 0.000000
0.876179 0.188275 0.000000
1.000000 0.186294 0.000000
1.000000 0.186294 0.000000
1.000000 0.186294 0.000000
1.000000 0.186294 0.000000
1.000000 0.186294 0.000000
1.000000 0.186294 0.000000
1.000000 0.186294 0.000000
1.000000 0.186294 0.000000
0.000000 0.363941 0.000000
0.000000 0.363941 0.000000
0.000000 0.363876 0.000000
0.019791 0.363513 0.000000
0.082843 0.362745 0.000000
0.189596 0.361444 0.000000
0.359376 0.359376 0.000000
0.600278 0.356442 0.000000
0.869222 0.353166 0.000000
1.000000 0.351185 0.000000
1.000000 0.351185 0.000000
1.000000 0.351185 0.000000
1.000000 0.351185 0.000000
1.000000 0.351185 0.000000
1.000000 0.351185 0.000000
1.000000 0.351185 0.000000
1.000000 0.351185 0.000000
0.000000 0.597906 0.000000
0.000000 0.597906 0.000000
0.000000 0.597841 0.000000
0.009920 0.597477 0.000000
0.072971 0.596709 0.000000
0.179725 0.595409 0.000000
0.349505 0.593341 0.000000
0.590407 0.590407 0.000000
0.859351 0.587131 0.000000
1.000000 0.585150 0.000000
1.000000 0.585150 0.000000
1.000000 0.585150 0.000000
1.000000 0.585150 0.000000
1.000000 0.585150 0.000000
1.000000 0.585150 0.000000
1.000000 0.585150 0.000000
1.000000 0.585150 0.000000
0.000000 0.859105 0.000000
0.000000 0.859105 0.000000
0.000000 0.859041 0.000000
0.000000 0.858677 0.000000
0.061951 0.857909 0.000000
0.168705 0.856609 0.000000
0.338485 0.854541 0.000000
0.579387 0.851606 0.000000
0.848330 0.848330 0.000000
1.000000 0.846349 0.000000
1.000000 0.846349 0.000000
1.000000 0.846349 0.000000
1.000000 0.846349 0.000000
1.000000 0.846349 0.000000
1.000000 0.846349 0.000000
1.000000 0.846349 0.000000
1.000000 0.846349 0.000000
0.000000 1.000000 0.000000
0.000000 1.000000 0.000000
0.000000 1.000000 0.000000
0.000000 1.000000 0.000000
0.055287 1.000000 0.000000
0.162040 1.000000 0.000000
0.331820 1.000000 0.000000
0.572722 1.000000 0.000000
0.841666 1.000000 0.000000
1.000000 1.000000 0.000000
1.000000 1.000000 0.000000
1.000000 1.000000 0.000000
1.000000 1.000000 0.000000
1.000000 1.000000 0.000000
1.000000 1.000000 0.000000
1.000000 1.000000 0.000000
1.000000 1.000000 0.000000
0.000000 1.000000 0.000000
0.000000 1.000000 0.000000
0.000000 1.000000 0.000000
0.000000 1.000000 0.000000
0.055287 1.000000 0.000000
0.162040 1.000000 0.000000
0.331820 1.000000 0.000000
0.572722 1.000000 0.000000
0.841666 1.000000 0.000000
1.000000 1.000000 0.000000
1.000000 1.000000 0.000000
1.000000 1.000000 0.000000
1.000000 1.000000 0.000000
1.000000 1.000000 0.000000
1.000000 1.000000 0.000000
1.000000 1.000000 0.000000
1.000000 1.000000 0.000000
0.000000 1.000000 0.000000
0.000000 1.000000 0.000000
0.000000 1.000000 0.000000
0.000000 1.000000 0.000000
0.055287 1.000000 0.000000
0.162040 1.000000 0.000000
0.331820 1.000000 0.000000
0.572722 1.000000 0.000000
0.841666 1.000000 0.000000
1.000000 1.000000 0.000000
1.000000 1.000000 0.000000
1.000000 1.000000 0.000000
1.000000 1.000000 0.000000
1.000000 1.000000 0.000000
1.000000 1.000000 0.000000
1.000000 1.000000 0.000000
1.000000 1.000000 0.000000
0.000000 1.000000 0.000000
0.000000 1.000000 0.000000
0.000000 1.000000 0.000000
0.000000 1.000000 0.000000
0.055287 1.000000 0.000000
0.162040 1.000000 0.000000
0.331820 1.000000 0.000000
0.572722 1.000000 0.000000
0.841666 1.000000 0.000000
1.000000 1.000000 0.000000
1.000000 1.000000 0.000000
1.000000 1.000000 0.000000
1.000000 1.000000 0.000000
1.000000 1.000000 0.000000
1.000000 1.000000 0.000000
1.000000 1.000000 0.000000
1.000000 1.000000 0.000000
0.000000 1.000000 0.000000
0.000000 1.000000 0.000000
0.000000 1.000000 0.000000
0.000000 1.000000 0.000000
0.055287 1.000000 0.000000
0.162040 1.000000 0.000000
0.331820 1.000000 0.000000
0.572722 1.000000 0.000000
0.841666 1.000000 0.000000
1.000000 1.000000 0.000000
1.000000 1.000000 0.000000
1.000000 1.000000 0.000000
1.000000 1.000000 0.000000
1.000000 1.000000 0.000000
1.000000 1.000000 0.000000
1.000000 1.000000 0.000000
1.000000 1.000000 0.000000
0.000000 1.000000 0.000000
0.000000 1.000000 0.000000
0.000000 1.000000 0.000000
0.000000 1.000000 0.000000
0.055287 1.000000 0.000000
0.162040 1.000000 0.000000
0.331820 1.000000 0.000000
0.572722 1.000000 0.000000
0.841666 1.000000 0.000000
1.000000 1.000000 0.000000
1.000000 1.000000 0.000000
1.000000 1.000000 0.000000
1.000000 1.000000 0.000000
1.000000 1.000000 0.000000
1.000000 1.000000 0.000000
1.000000 1.000000 0.000000
1.000000 1.000000 0.000000
0.000000 1.000000 0.000000
0.000000 1.000000 0.000000
0.000000 1.000000 0.000000
0.000000 1.000000 0.000000
0.055287 1.000000 0.000000
0.162040 1.000000 0.000000
0.331820 1.000000 0.000000
0.572722 1.000000 0.000000
0.841666 1.000000 0.000000
1.000000 1.000000 0.000000
1.000000 1.000000 0.000000
1.000000 1.000000 0.000000
1.000000 1.000000 0.000000
1.000000 1.000000 0.000000
1.000000 1.000000 0.000000
1.000000 1.000000 0.000000
1.000000 1.000000 0.000000
0.000000 1.000000 0.000000
0.000000 1.000000 0.000000
0.000000 1.000000 0.000000
0.000000 1.000000 0.000000
0.055287 1.000000 0.000000
0.162040 1.000000 0.000000
0.331820 1.000000 0.000000
0.572722 1.000000 0.000000
0.841666 1.000000 0.000000
1.000000 1.000000 0.000000
1.000000 1.000000 0.000000
1.000000 1.000000 0.000000
1.000000 1.000000 0.000000
1.000000 1.000000 0.000000
1.000000 1.000000 0.000000
1.000000 1.000000 0.000000
1.000000 1.000000 0.000000
0.000000 0.000000 0.035452
0.000000 0.000000 0.035452
0.005154 0.000000 0.035387
0.035023 0.000000 0.035023
0.098075 0.000000 0.034255
0.204829 0.000000 0.032955
0.374609 0.000000 0.030887
0.615510 0.000000 0.027953
0.884454 0.000000 0.024677
1.000000 0.000000 0.022696
1.000000 0.000000 0.022696
1.000000 0.000000 0.022696
1.000000 0.000000 0.022696
1.000000 0.000000 0.022696
1.000000 0.000000 0.022696
1.000000 0.000000 0.022696
1.000000 0.000000 0.022696
0.000000 0.000000 0.035452
0.000000 0.000000 0.035452
0.005154 0.000000 0.035387
