assets/presets/luts/arctic/lut.cube
TITLE "Arctic"
LUT_3D_SIZE 9
0.000000 0.000000 0.000000
0.060020 0.000000 0.000000
0.163649 0.000000 0.000000
0.267277 0.000000 0.000000
0.370905 0.000000 0.000000
0.474534 0.001707 0.001707
0.578162 0.010368 0.010368
0.681791 0.019021 0.019021
0.785419 0.027675 0.027675
0.000000 0.088563 0.000000
0.090445 0.096786 0.000000
0.194073 0.105439 0.006178
0.297702 0.114093 0.014832
0.401330 0.122746 0.023485
0.504959 0.131400 0.032139
0.608587 0.140053 0.040793
0.712215 0.148707 0.049446
0.815844 0.157361 0.058100
0.018301 0.218643 0.018301
0.120906 0.226624 0.027986
0.224534 0.235278 0.036639
0.328163 0.243932 0.045293
0.431791 0.252585 0.053946
0.535419 0.261239 0.062600
0.639048 0.269892 0.071253
0.742676 0.278546 0.079907
0.846305 0.287199 0.088561
0.048153 0.348725 0.048153
0.151367 0.356463 0.058446
0.254995 0.365117 0.067100
0.358623 0.373770 0.075753
0.462252 0.382424 0.084407
0.565880 0.391078 0.093061
0.669509 0.399731 0.101714
0.773137 0.408385 0.110368
0.876765 0.417038 0.119021
0.078004 0.478806 0.078004
0.181827 0.486302 0.088907
0.285456 0.494956 0.097561
0.389084 0.503609 0.106214
0.492713 0.512263 0.114868
0.596341 0.520916 0.123521
0.699969 0.529570 0.132175
0.803598 0.538224 0.140829
0.907226 0.546877 0.149482
0.107855 0.608888 0.107855
0.212288 0.616141 0.119368
0.315917 0.624795 0.128021
0.419545 0.633448 0.136675
0.523173 0.642102 0.145329
0.626802 0.650755 0.153982
0.730430 0.659409 0.162636
0.834059 0.668062 0.171289
0.937687 0.676716 0.179943
0.137707 0.738969 0.137707
0.242735 0.745986 0.149811
0.346377 0.754633 0.158482
0.450006 0.763287 0.167136
0.553634 0.771940 0.175789
0.657263 0.780594 0.184443
0.760891 0.789248 0.193097
0.864519 0.797901 0.201750
0.968148 0.806555 0.210404
0.167558 0.869051 0.167558
0.273057 0.875883 0.180104
0.376838 0.884472 0.188943
0.480467 0.893126 0.197597
0.584095 0.901779 0.206250
0.687723 0.910433 0.214904
0.791352 0.919086 0.223557
0.894980 0.927740 0.232211
0.998609 0.936394 0.240864
0.197410 0.999132 0.197410
0.303284 1.000000 0.210291
0.407299 1.000000 0.219404
0.510927 1.000000 0.228057
0.614556 1.000000 0.236711
0.718184 1.000000 0.245365
0.821813 1.000000 0.254018
0.925441 1.000000 0.262672
1.000000 1.000000 0.271325
0.000000 0.000000 0.081617
0.063276 0.000000 0.075587
0.166905 0.000000 0.084240
0.270533 0.000000 0.092894
0.374162 0.000000 0.101547
0.477790 0.004970 0.110201
0.581418 0.013624 0.118855
0.685047 0.022277 0.127508
0.788675 0.030931 0.136162
0.000000 0.096317 0.103650
0.093637 0.100053 0.106093
0.197330 0.108695 0.114665
0.300958 0.117349 0.123319
0.404586 0.126003 0.131972
0.508215 0.134656 0.140626
0.611843 0.143310 0.149279
0.715472 0.151963 0.157933
0.819100 0.160617 0.166587
0.006068 0.226881 0.123046
0.122375 0.230563 0.134973
0.227790 0.238534 0.145126
0.331419 0.247188 0.153780
0.435047 0.255841 0.162433
0.538676 0.264495 0.171087
0.642304 0.273148 0.179740
0.745932 0.281802 0.188394
0.849561 0.290456 0.197047
0.037950 0.356605 0.150468
0.152350 0.360606 0.164850
0.258251 0.368373 0.175587
0.361880 0.377027 0.184240
0.465508 0.385680 0.192894
0.569136 0.394334 0.201547
0.672765 0.402987 0.210201
0.776393 0.411641 0.218855
0.880022 0.420294 0.227508
0.069061 0.486387 0.179570
0.182245 0.490672 0.194716
0.288712 0.498212 0.206048
0.392340 0.506865 0.214701
0.495969 0.515519 0.223355
0.599597 0.524173 0.232008
0.703226 0.532826 0.240662
0.806854 0.541480 0.249315
0.910482 0.550133 0.257969
0.099744 0.616249 0.209154
0.212120 0.620746 0.224576
0.319173 0.628051 0.236508
0.422801 0.636704 0.245162
0.526430 0.645358 0.253815
0.630058 0.654011 0.262469
0.733686 0.662665 0.271123
0.837315 0.671318 0.279776
0.940943 0.679972 0.288430
0.130180 0.746166 0.238912
0.241985 0.750823 0.254433
0.349634 0.757890 0.266969
0.453262 0.766543 0.275623
0.556890 0.775197 0.284276
0.660519 0.783850 0.292930
0.764147 0.792504 0.301583
0.867776 0.801157 0.310237
0.971404 0.809811 0.318891
0.160465 0.876121 0.268740
0.271846 0.880901 0.284288
0.380011 0.887763 0.297327
0.483723 0.896382 0.306084
0.587351 0.905035 0.314737
0.690980 0.913689 0.323391
0.794608 0.922343 0.332044
0.898236 0.930996 0.340698
1.000000 0.939650 0.349351
0.190642 1.000000 0.298594
0.301692 1.000000 0.314130
0.410288 1.000000 0.327572
0.514184 1.000000 0.336544
0.617812 1.000000 0.345198
0.721440 1.000000 0.353851
0.825069 1.000000 0.362505
0.928697 1.000000 0.371159
1.000000 1.000000 0.379812
0.000000 0.000000 0.202321
0.069905 0.000000 0.192454
0.170108 0.000000 0.190967
0.273736 0.000000 0.199621
0.377365 0.000000 0.208275
0.480993 0.008174 0.216928
0.584622 0.016827 0.225582
0.688250 0.025481 0.234235
0.791878 0.034134 0.242889
0.000000 0.097929 0.233431
0.094852 0.102202 0.229119
0.200545 0.111894 0.221408
0.304161 0.120552 0.230046
0.407790 0.129206 0.238699
0.511418 0.137859 0.247353
0.615047 0.146513 0.256007
0.718675 0.155167 0.264660
0.822303 0.163820 0.273314
0.000000 0.234012 0.246418
0.107881 0.238130 0.250592
0.230704 0.241787 0.252221
0.334622 0.250391 0.260507
0.438251 0.259045 0.269160
0.541879 0.267698 0.277814
0.645507 0.276352 0.286467
0.749136 0.285005 0.295121
0.852764 0.293659 0.303774
0.021284 0.365209 0.262196
0.139164 0.368947 0.268940
0.258599 0.372639 0.280200
0.365083 0.380230 0.290967
0.468711 0.388883 0.299621
0.572340 0.397537 0.308275
0.675968 0.406191 0.316928
0.779597 0.414844 0.325582
0.883225 0.423498 0.334235
0.053822 0.495138 0.285649
0.171211 0.498678 0.295793
0.288763 0.502627 0.310057
0.395544 0.510069 0.321428
0.499172 0.518722 0.330082
0.602800 0.527376 0.338735
0.706429 0.536029 0.347389
0.810057 0.544683 0.356042
0.913686 0.553337 0.364696
0.085930 0.624862 0.312400
0.202481 0.628438 0.324655
0.318733 0.632670 0.339934
0.426004 0.639908 0.351889
0.529633 0.648561 0.360543
0.633261 0.657215 0.369196
0.736890 0.665868 0.377850
0.840518 0.674522 0.386503
0.944147 0.683175 0.395157
0.117545 0.754584 0.340617
0.233285 0.758274 0.354128
0.348647 0.762731 0.369804
0.456465 0.769746 0.382350
0.560094 0.778400 0.391003
0.663722 0.787053 0.399657
0.767350 0.795707 0.408310
0.870979 0.804361 0.416964
0.974607 0.813014 0.425618
0.148779 0.884347 0.369551
0.263815 0.888169 0.383829
0.378537 0.892800 0.399668
0.486906 0.899594 0.412786
0.590554 0.908239 0.421464
0.694183 0.916892 0.430118
0.797811 0.925546 0.438771
0.901440 0.934199 0.447425
1.000000 0.942853 0.456078
0.179590 1.000000 0.398773
0.293917 1.000000 0.413430
0.408352 1.000000 0.429471
0.517254 1.000000 0.443111
0.621015 1.000000 0.451925
0.724644 1.000000 0.460578
0.828272 1.000000 0.469232
0.931900 1.000000 0.477886
1.000000 1.000000 0.486539
0.000000 0.000000 0.323026
0.074119 0.000000 0.312374
0.175664 0.000000 0.302371
0.276940 0.000000 0.306348
0.380568 0.002732 0.315002
0.484197 0.011377 0.323655
0.587825 0.020030 0.332309
0.691453 0.028684 0.340962
0.795082 0.037338 0.349616
0.000000 0.099220 0.358085
0.096994 0.104304 0.349881
0.206308 0.113484 0.336571
0.307365 0.123756 0.336773
0.410993 0.132409 0.345426
0.514621 0.141063 0.354080
0.618250 0.149716 0.362734
0.721878 0.158370 0.371387
0.825507 0.167023 0.380041
0.000000 0.236317 0.378331
0.108661 0.239706 0.380569
0.231419 0.243954 0.376537
0.337983 0.253524 0.367471
0.441454 0.262248 0.375887
0.545082 0.270902 0.384541
0.648711 0.279555 0.393194
0.752339 0.288209 0.401848
0.855967 0.296862 0.410502
0.006391 0.371742 0.389226
0.123834 0.375870 0.393395
0.243986 0.380053 0.397674
0.367532 0.383561 0.398652
0.471915 0.392087 0.406348
0.575543 0.400740 0.415002
0.679171 0.409394 0.423655
0.782800 0.418047 0.432309
0.886428 0.426701 0.440962
0.036607 0.503304 0.403343
0.154372 0.507227 0.408585
0.274855 0.511086 0.415108
0.394670 0.514752 0.425505
0.502375 0.521926 0.436809
0.606004 0.530579 0.445462
0.709632 0.539233 0.454116
0.813261 0.547886 0.462770
0.916889 0.556540 0.471423
0.069063 0.633549 0.423906
0.186924 0.637206 0.431500
0.307024 0.640833 0.441447
0.425072 0.644679 0.455264
0.532836 0.651764 0.467270
0.636465 0.660418 0.475923
0.740093 0.669072 0.484577
0.843721 0.677725 0.493230
0.947350 0.686379 0.501884
0.101576 0.763395 0.448252
0.219114 0.766940 0.457911
0.338422 0.770577 0.470086
0.455143 0.774692 0.485140
0.563297 0.781603 0.497730
0.666925 0.790257 0.506384
0.770554 0.798910 0.515038
0.874182 0.807564 0.523691
0.977811 0.816217 0.532345
0.133766 0.893124 0.474702
0.250821 0.896656 0.485914
0.369328 0.900394 0.499452
0.485113 0.904736 0.515018
0.593758 0.911442 0.528191
0.697386 0.920096 0.536845
0.801015 0.928749 0.545498
0.904643 0.937403 0.554152
1.000000 0.946056 0.562805
0.165133 1.000000 0.502144
0.281352 1.000000 0.514256
0.399235 1.000000 0.528594
0.514854 1.000000 0.544720
0.624187 1.000000 0.558613
0.727847 1.000000 0.567306
0.831475 1.000000 0.575959
0.935104 1.000000 0.584613
1.000000 1.000000 0.593266
0.000000 0.000000 0.443730
0.077275 0.000000 0.432427
0.181634 0.000000 0.419396
0.281584 0.000000 0.415509
0.383772 0.005927 0.421729
0.487400 0.014580 0.430382
0.591028 0.023234 0.439036
0.694657 0.031887 0.447689
0.798285 0.040541 0.456343
0.000000 0.100834 0.480863
0.099118 0.106413 0.470619
0.210552 0.115096 0.455998
0.312878 0.125784 0.448333
0.414196 0.135612 0.452154
0.517825 0.144266 0.460807
0.621453 0.152920 0.469461
0.725082 0.161573 0.478114
0.828710 0.170227 0.486768
0.000000 0.237373 0.506459
0.112264 0.240968 0.505347
0.233604 0.246037 0.497358
0.343715 0.255016 0.483699
0.444660 0.265450 0.482618
0.548286 0.274105 0.491268
0.651914 0.282758 0.499921
0.755542 0.291412 0.508575
0.859171 0.300066 0.517229
0.002254 0.374532 0.521667
0.121789 0.378093 0.525286
0.245039 0.381556 0.527574
0.367951 0.385721 0.523905
0.475526 0.395099 0.513768
0.578746 0.403944 0.521729
0.682375 0.412597 0.530382
0.786003 0.421251 0.539036
0.889632 0.429904 0.547689
0.022375 0.509473 0.532034
0.139808 0.513603 0.536201
0.259889 0.517809 0.540470
0.380132 0.521964 0.544760
0.504085 0.525382 0.545433
0.609207 0.533782 0.552189
0.712836 0.542436 0.560843
0.816464 0.551090 0.569497
0.920092 0.559743 0.578150
0.052100 0.641272 0.545241
0.169734 0.645289 0.549942
0.290073 0.649323 0.555147
0.410540 0.653218 0.561355
0.530623 0.656888 0.570922
0.639668 0.663621 0.582650
0.743296 0.672275 0.591304
0.846925 0.680928 0.599957
0.950553 0.689582 0.608611
0.084257 0.771807 0.563808
0.202140 0.775592 0.570077
0.322622 0.779351 0.577589
0.442814 0.782988 0.587157
0.561289 0.786756 0.600491
0.670129 0.793460 0.613111
0.773757 0.802114 0.621765
0.877385 0.810767 0.630418
0.981014 0.819421 0.639072
0.116846 0.901835 0.586129
0.234679 0.905464 0.594090
0.354878 0.909095 0.603699
0.474336 0.912720 0.615555
0.591483 0.916735 0.630345
0.700589 0.923299 0.643572
0.804218 0.931953 0.652225
0.907846 0.940606 0.660879
1.000000 0.949260 0.669532
0.148332 1.000000 0.610552
0.265327 1.000000 0.619681
0.384816 1.000000 0.630602
0.503829 1.000000 0.643823
0.621049 1.000000 0.659810
0.731050 1.000000 0.674033
0.834679 1.000000 0.682686
0.938307 1.000000 0.691340
1.000000 1.000000 0.699993
0.000000 0.000000 0.564435
0.080013 0.000000 0.552481
0.186454 0.000000 0.538034
0.287830 0.000000 0.530009
0.387899 0.008711 0.529882
0.490603 0.017784 0.537109
0.594232 0.026437 0.545763
0.697860 0.035091 0.554416
0.801488 0.043744 0.563070
0.000000 0.102631 0.602740
0.101237 0.108525 0.591352
0.213828 0.116916 0.576212
0.318697 0.127171 0.565349
0.419086 0.138017 0.561829
0.521028 0.147469 0.567534
0.624656 0.156123 0.576188
0.728285 0.164776 0.584841
0.831913 0.173430 0.593495
0.000000 0.238548 0.631865
0.115437 0.242557 0.628160
0.235744 0.248140 0.618118
0.347730 0.256674 0.603344
0.450462 0.267304 0.595063
0.551489 0.277308 0.597995
0.655117 0.285962 0.606649
0.758746 0.294615 0.615302
0.862374 0.303269 0.623956
0.004080 0.375781 0.651808
0.124939 0.379148 0.653450
0.248651 0.382809 0.652421
0.370190 0.387781 0.644803
0.481079 0.396555 0.630881
0.582025 0.407114 0.628560
0.685578 0.415801 0.637109
0.789207 0.424454 0.645763
0.892835 0.433108 0.654416
0.017078 0.512592 0.664628
0.135942 0.516313 0.668637
0.258152 0.519945 0.672311
0.381416 0.523407 0.674578
0.504456 0.527502 0.671230
0.613114 0.536640 0.660267
0.716039 0.545639 0.667570
0.819667 0.554293 0.676224
0.923296 0.562946 0.684877
0.038360 0.647203 0.674843
0.155787 0.651335 0.679008
0.275843 0.655549 0.683273
0.395971 0.659739 0.687549
0.516311 0.663865 0.691846
0.640357 0.667250 0.692570
0.746500 0.675478 0.698031
0.850128 0.684132 0.706684
0.953756 0.692785 0.715338
0.067712 0.779170 0.687485
0.185260 0.783236 0.691947
0.305470 0.787357 0.696676
0.425779 0.791414 0.701750
0.546224 0.795344 0.707675
0.666489 0.799038 0.716471
0.776960 0.805317 0.728492
0.880589 0.813971 0.737145
0.984217 0.822624 0.745799
0.099528 0.909949 0.704639
0.217343 0.913828 0.710175
0.337824 0.917714 0.716430
0.458316 0.921492 0.723719
0.578584 0.925144 0.732925
0.697425 0.928854 0.745752
0.807421 0.935156 0.758952
0.911050 0.943809 0.767606
1.000000 0.952463 0.776260
0.130368 1.000000 0.725093
0.247347 1.000000 0.731684
0.367091 1.000000 0.739241
0.487048 1.000000 0.748149
0.607144 1.000000 0.759394
0.726540 1.000000 0.774581
0.837882 1.000000 0.789413
0.941510 1.000000 0.798067
1.000000 1.000000 0.806720
0.000000 0.000000 0.685139
0.082549 0.000000 0.672524
0.190481 0.000000 0.657295
0.293633 0.000000 0.647161
0.394068 0.010403 0.642847
0.494388 0.020729 0.644684
0.597435 0.029640 0.652490
0.701063 0.038294 0.661143
0.804692 0.046948 0.669797
0.000000 0.104527 0.724223
0.103354 0.110638 0.712082
0.216660 0.118843 0.696679
0.323487 0.128679 0.684204
0.425360 0.139477 0.676785
0.525394 0.150141 0.676104
0.627860 0.159326 0.682915
0.731488 0.167980 0.691568
0.835117 0.176633 0.700222
0.000000 0.239936 0.755742
0.118275 0.244329 0.750139
0.237873 0.250248 0.738863
0.350877 0.258525 0.723638
0.456146 0.268697 0.712420
0.556672 0.279561 0.708306
0.658321 0.289165 0.713376
0.761949 0.297819 0.722029
0.865577 0.306472 0.730683
0.007517 0.376814 0.779341
0.128625 0.380314 0.778940
0.251852 0.384381 0.775312
0.372354 0.389874 0.765595
0.484875 0.398259 0.750713
0.588035 0.408821 0.741851
0.688782 0.419004 0.743837
0.792410 0.427657 0.752490
0.896038 0.436311 0.761144
0.017506 0.514142 0.795899
0.137789 0.517557 0.798763
0.261317 0.520998 0.800455
0.385037 0.524650 0.799492
0.506755 0.529534 0.792220
0.618396 0.538103 0.778110
0.719470 0.548741 0.774632
0.822871 0.557496 0.782951
0.926499 0.566150 0.791604
0.032262 0.650556 0.807473
0.150738 0.654380 0.811609
0.272267 0.658174 0.815691
0.394517 0.661797 0.819335
0.517794 0.665257 0.821583
0.640940 0.669292 0.818518
0.750704 0.678164 0.806937
0.853331 0.687335 0.813411
0.956960 0.695989 0.822065
0.054345 0.784933 0.817652
0.171769 0.789066 0.821816
0.291812 0.793284 0.826078
0.411898 0.797487 0.830348
0.532077 0.801662 0.834632
0.652518 0.805758 0.838931
0.776380 0.809160 0.840023
0.883792 0.817174 0.843872
0.987421 0.825827 0.852526
0.083408 0.917024 0.829915
0.200900 0.921120 0.834255
0.321028 0.925286 0.838772
0.441214 0.929420 0.843435
0.561493 0.933498 0.848391
0.681909 0.937462 0.854064
0.802289 0.941193 0.862158
0.914253 0.947013 0.874333
1.000000 0.955666 0.882987
0.112548 1.000000 0.846070
0.229107 1.000000 0.851068
0.348362 1.000000 0.856388
0.467806 1.000000 0.862072
0.587587 1.000000 0.868447
0.708025 1.000000 0.876363
0.829812 1.000000 0.888597
0.944714 1.000000 0.904794
1.000000 1.000000 0.913447
0.000000 0.000000 0.805844
0.084971 0.000000 0.792558
0.194003 0.000000 0.776847
0.298732 0.000947 0.765618
0.400277 0.011801 0.758613
0.500270 0.022631 0.756407
0.600981 0.032693 0.759698
0.704267 0.041497 0.767871
0.807895 0.050151 0.776524
0.000000 0.106482 0.845483
0.105470 0.112751 0.832811
0.219259 0.120828 0.817254
0.327526 0.130330 0.803847
0.431072 0.140861 0.794148
0.531625 0.151776 0.789448
0.631834 0.162184 0.790791
0.734692 0.171183 0.798295
0.838320 0.179837 0.806949
0.001640 0.241491 0.878714
0.120904 0.246206 0.871695
0.239995 0.252358 0.859600
0.353630 0.260471 0.844143
0.460801 0.270228 0.831437
0.562917 0.280992 0.823632
0.662942 0.291714 0.822411
0.765152 0.301022 0.828756
0.868781 0.309676 0.837410
0.011216 0.377951 0.905080
0.132130 0.381687 0.902903
0.254717 0.386139 0.897351
0.374494 0.391976 0.886355
0.487902 0.400139 0.871076
0.593573 0.410225 0.859522
0.694264 0.421098 0.854835
0.795613 0.430861 0.859217
0.899242 0.439514 0.867871
0.020271 0.515221 0.924959
0.141217 0.518589 0.926332
0.265003 0.522161 0.925975
0.388263 0.526207 0.922457
0.508947 0.531614 0.913050
0.621988 0.539852 0.898102
0.725593 0.550336 0.888692
0.826117 0.560681 0.889736
0.929702 0.569353 0.898331
0.031484 0.652401 0.939379
0.151215 0.655918 0.942854
0.274165 0.659407 0.945772
0.397694 0.662848 0.947460
0.521423 0.666492 0.946559
0.643302 0.671295 0.939610
0.755669 0.679661 0.925382
0.856975 0.690338 0.920825
0.960163 0.699192 0.928792
0.047664 0.788460 0.950278
0.165895 0.792351 0.954461
0.287024 0.796251 0.958679
0.408594 0.800034 0.962744
0.530883 0.803649 0.966358
0.654172 0.807107 0.968587
0.777406 0.811090 0.965777
0.888269 0.819680 0.953754
0.990624 0.829031 0.959253
0.070331 0.922663 0.960460
0.187752 0.926797 0.964624
0.307787 0.931017 0.968885
0.427853 0.935227 0.973151
0.547972 0.939421 0.977426
0.668205 0.943579 0.981716
0.788746 0.947645 0.986014
0.912219 0.951101 0.987710
1.000000 0.958870 0.989714
0.096310 1.000000 0.972938
0.212504 1.000000 0.977369
0.331256 1.000000 0.981888
0.449990 1.000000 0.986390
0.568691 1.000000 0.990860
0.687321 1.000000 0.995263
0.806305 1.000000 0.999525
0.926269 1.000000 1.000000
1.000000 1.000000 1.000000
0.000000 0.000000 0.926548
0.087324 0.000000 0.912584
0.197222 0.000000 0.896787
0.303238 0.002505 0.884810
0.406002 0.013181 0.875971
0.506601 0.024113 0.870980
0.606523 0.034796 0.870440
0.707653 0.044621 0.874846
0.811098 0.053354 0.883251
0.000000 0.108476 0.966606
0.107586 0.114864 0.953539
0.221721 0.122848 0.937883
0.331068 0.132089 0.923886
0.436078 0.142331 0.912735
0.537789 0.153164 0.905445
0.637822 0.164019 0.902873
0.738383 0.174171 0.905720
0.841523 0.183040 0.913676
0.004661 0.243166 1.000000
0.123402 0.248146 0.993010
0.242115 0.254469 0.980333
0.356176 0.262469 0.964740
0.464736 0.271900 0.951170
0.568534 0.282384 0.941199
0.669217 0.293299 0.936120
0.769337 0.303783 0.936977
0.871984 0.312879 0.944137
0.014828 0.379236 1.000000
0.135388 0.383227 1.000000
0.257371 0.388004 1.000000
0.376625 0.394083 1.000000
0.490581 0.402103 0.991616
0.598095 0.411780 0.978689
0.700463 0.422508 0.970511
0.800504 0.433278 0.968765
0.902445 0.442718 0.974598
0.023795 0.516256 1.000000
0.144916 0.519721 1.000000
0.268518 0.523527 1.000000
0.391156 0.527951 1.000000
0.511103 0.533710 1.000000
0.624903 0.541759 1.000000
0.730979 0.551757 1.000000
0.831859 0.562630 1.000000
0.932906 0.572556 1.000000
0.033400 0.653622 1.000000
0.153978 0.656997 1.000000
0.277595 0.660440 1.000000
0.401382 0.664007 1.000000
0.524661 0.668034 1.000000
0.645506 0.673353 1.000000
0.758974 0.681569 1.000000
0.862365 0.692280 1.000000
0.963366 0.702395 1.000000
0.045893 0.790564 1.000000
0.165210 0.794173 1.000000
0.287503 0.797786 1.000000
0.410204 0.801321 1.000000
0.533404 0.804803 1.000000
0.657013 0.808399 1.000000
0.779610 0.813001 1.000000
0.892163 0.821867 1.000000
0.993827 0.832234 1.000000
0.064936 0.925895 1.000000
0.183328 0.929759 1.000000
0.304361 0.933700 1.000000
0.425433 0.937626 1.000000
0.546572 0.941527 1.000000
0.667852 0.945378 1.000000
0.789497 0.949124 1.000000
0.912462 0.952787 1.000000
1.000000 0.962073 1.000000
0.090681 1.000000 1.000000
0.208051 1.000000 1.000000
0.328016 1.000000 1.000000
0.447981 1.000000 1.000000
0.567945 1.000000 1.000000
0.687910 1.000000 1.000000
0.807875 1.000000 1.000000
0.927840 1.000000 1.000000
1.000000 1.000000 1.000000
