assets/presets/luts/arctic/lut.cube
TITLE "Arctic"
LUT_3D_SIZE 5
0.000000 0.000000 0.000000
0.163649 0.000000 0.000000
0.370905 0.000000 0.000000
0.578162 0.010368 0.010368
0.785419 0.027675 0.027675
0.018301 0.218643 0.018301
0.224534 0.235278 0.036639
0.431791 0.252585 0.053946
0.639048 0.269892 0.071253
0.846305 0.287199 0.088561
0.078004 0.478806 0.078004
0.285456 0.494956 0.097561
0.492713 0.512263 0.114868
0.699969 0.529570 0.132175
0.907226 0.546877 0.149482
0.137707 0.738969 0.137707
0.346377 0.754633 0.158482
0.553634 0.771940 0.175789
0.760891 0.789248 0.193097
0.968148 0.806555 0.210404
0.197410 0.999132 0.197410
0.407299 1.000000 0.219404
0.614556 1.000000 0.236711
0.821813 1.000000 0.254018
1.000000 1.000000 0.271325
0.000000 0.000000 0.202321
0.170108 0.000000 0.190967
0.377365 0.000000 0.208275
0.584622 0.016827 0.225582
0.791878 0.034134 0.242889
0.000000 0.234012 0.246418
0.230704 0.241787 0.252221
0.438251 0.259045 0.269160
0.645507 0.276352 0.286467
0.852764 0.293659 0.303774
0.053822 0.495138 0.285649
0.288763 0.502627 0.310057
0.499172 0.518722 0.330082
0.706429 0.536029 0.347389
0.913686 0.553337 0.364696
0.117545 0.754584 0.340617
0.348647 0.762731 0.369804
0.560094 0.778400 0.391003
0.767350 0.795707 0.408310
0.974607 0.813014 0.425618
0.179590 1.000000 0.398773
0.408352 1.000000 0.429471
0.621015 1.000000 0.451925
0.828272 1.000000 0.469232
1.000000 1.000000 0.486539
0.000000 0.000000 0.443730
0.181634 0.000000 0.419396
0.383772 0.005927 0.421729
0.591028 0.023234 0.439036
0.798285 0.040541 0.456343
0.000000 0.237373 0.506459
0.233604 0.246037 0.497358
0.444660 0.265450 0.482618
0.651914 0.282758 0.499921
0.859171 0.300066 0.517229
0.022375 0.509473 0.532034
0.259889 0.517809 0.540470
0.504085 0.525382 0.545433
0.712836 0.542436 0.560843
0.920092 0.559743 0.578150
0.084257 0.771807 0.563808
0.322622 0.779351 0.577589
0.561289 0.786756 0.600491
0.773757 0.802114 0.621765
0.981014 0.819421 0.639072
0.148332 1.000000 0.610552
0.384816 1.000000 0.630602
0.621049 1.000000 0.659810
0.834679 1.000000 0.682686
1.000000 1.000000 0.699993
0.000000 0.000000 0.685139
0.190481 0.000000 0.657295
0.394068 0.010403 0.642847
0.597435 0.029640 0.652490
0.804692 0.046948 0.669797
0.000000 0.239936 0.755742
0.237873 0.250248 0.738863
0.456146 0.268697 0.712420
0.658321 0.289165 0.713376
0.865577 0.306472 0.730683
0.017506 0.514142 0.795899
0.261317 0.520998 0.800455
0.506755 0.529534 0.792220
0.719470 0.548741 0.774632
0.926499 0.566150 0.791604
0.054345 0.784933 0.817652
0.291812 0.793284 0.826078
0.532077 0.801662 0.834632
0.776380 0.809160 0.840023
0.987421 0.825827 0.852526
0.112548 1.000000 0.846070
0.348362 1.000000 0.856388
0.587587 1.000000 0.868447
0.829812 1.000000 0.888597
1.000000 1.000000 0.913447
0.000000 0.000000 0.926548
0.197222 0.000000 0.896787
0.406002 0.013181 0.875971
0.606523 0.034796 0.870440
0.811098 0.053354 0.883251
0.004661 0.243166 1.000000
0.242115 0.254469 0.980333
0.464736 0.271900 0.951170
0.669217 0.293299 0.936120
0.871984 0.312879 0.944137
0.023795 0.516256 1.000000
0.268518 0.523527 1.000000
0.511103 0.533710 1.000000
0.730979 0.551757 1.000000
0.932906 0.572556 1.000000
0.045893 0.790564 1.000000
0.287503 0.797786 1.000000
0.533404 0.804803 1.000000
0.779610 0.813001 1.000000
0.993827 0.832234 1.000000
0.090681 1.000000 1.000000
0.328016 1.000000 1.000000
0.567945 1.000000 1.000000
0.807875 1.000000 1.000000
1.000000 1.000000 1.000000
