assets/presets/luts/arctic/lut.cube
TITLE "Arctic"
LUT_3D_SIZE 17
0.000000 0.000000 0.000000
0.008206 0.000000 0.000000
0.060020 0.000000 0.000000
0.111834 0.000000 0.000000
0.163649 0.000000 0.000000
0.215463 0.000000 0.000000
0.267277 0.000000 0.000000
0.319091 0.000000 0.000000
0.370905 0.000000 0.000000
0.422720 0.000000 0.000000
0.474534 0.001707 0.001707
0.526348 0.006041 0.006041
0.578162 0.010368 0.010368
0.629976 0.014694 0.014694
0.681791 0.019021 0.019021
0.733605 0.023348 0.023348
0.785419 0.027675 0.027675
0.000000 0.023487 0.000000
0.023400 0.027539 0.000000
0.075215 0.031866 0.000000
0.127029 0.036193 0.000000
0.178843 0.040520 0.000000
0.230657 0.044847 0.000000
0.282471 0.049173 0.000000
0.334286 0.053500 0.003937
0.386100 0.057827 0.008255
0.437914 0.062154 0.012582
0.489728 0.066481 0.016909
0.541542 0.070807 0.021235
0.593357 0.075134 0.025562
0.645171 0.079461 0.029889
0.696985 0.083788 0.034216
0.748799 0.088114 0.038543
0.800614 0.092441 0.042869
0.000000 0.088563 0.000000
0.038631 0.092459 0.000000
0.090445 0.096786 0.000000
0.142259 0.101112 0.001847
0.194073 0.105439 0.006178
0.245888 0.109766 0.010505
0.297702 0.114093 0.014832
0.349516 0.118420 0.019159
0.401330 0.122746 0.023485
0.453144 0.127073 0.027812
0.504959 0.131400 0.032139
0.556773 0.135727 0.036466
0.608587 0.140053 0.040793
0.660401 0.144380 0.045119
0.712215 0.148707 0.049446
0.764030 0.153034 0.053773
0.815844 0.157361 0.058100
0.003381 0.153602 0.003381
0.053861 0.157378 0.008428
0.105675 0.161705 0.012755
0.157490 0.166032 0.017082
0.209304 0.170359 0.021409
0.261118 0.174685 0.025736
0.312932 0.179012 0.030062
0.364746 0.183339 0.034389
0.416561 0.187666 0.038716
0.468375 0.191993 0.043043
0.520189 0.196319 0.047369
0.572003 0.200646 0.051696
0.623818 0.204973 0.056023
0.675632 0.209300 0.060350
0.727446 0.213626 0.064677
0.779260 0.217953 0.069003
0.831074 0.222280 0.073330
0.018301 0.218643 0.018301
0.069092 0.222298 0.023659
0.120906 0.226624 0.027986
0.172720 0.230951 0.032312
0.224534 0.235278 0.036639
0.276348 0.239605 0.040966
0.328163 0.243932 0.045293
0.379977 0.248258 0.049619
0.431791 0.252585 0.053946
0.483605 0.256912 0.058273
0.535419 0.261239 0.062600
0.587234 0.265566 0.066927
0.639048 0.269892 0.071253
0.690862 0.274219 0.075580
0.742676 0.278546 0.079907
0.794490 0.282873 0.084234
0.846305 0.287199 0.088561
0.033227 0.283684 0.033227
0.084322 0.287217 0.038889
0.136136 0.291544 0.043216
0.187950 0.295871 0.047543
0.239765 0.300197 0.051870
0.291579 0.304524 0.056196
0.343393 0.308851 0.060523
0.395207 0.313178 0.064850
0.447021 0.317505 0.069177
0.498836 0.321831 0.073503
0.550650 0.326158 0.077830
0.602464 0.330485 0.082157
0.654278 0.334812 0.086484
0.706092 0.339139 0.090811
0.757907 0.343465 0.095137
0.809721 0.347792 0.099464
0.861535 0.352119 0.103791
0.048153 0.348725 0.048153
0.099541 0.352142 0.054105
0.151367 0.356463 0.058446
0.203181 0.360790 0.062773
0.254995 0.365117 0.067100
0.306809 0.369444 0.071427
0.358623 0.373770 0.075753
0.410438 0.378097 0.080080
0.462252 0.382424 0.084407
0.514066 0.386751 0.088734
0.565880 0.391078 0.093061
0.617694 0.395404 0.097387
0.669509 0.399731 0.101714
0.721323 0.404058 0.106041
0.773137 0.408385 0.110368
0.824951 0.412711 0.114695
0.876765 0.417038 0.119021
0.063078 0.413765 0.063078
0.114692 0.417094 0.069240
0.166597 0.421383 0.073677
0.218411 0.425710 0.078004
0.270225 0.430036 0.082330
0.322040 0.434363 0.086657
0.373854 0.438690 0.090984
0.425668 0.443017 0.095311
0.477482 0.447343 0.099637
0.529296 0.451670 0.103964
0.581111 0.455997 0.108291
0.632925 0.460324 0.112618
0.684739 0.464651 0.116945
0.736553 0.468977 0.121271
0.788367 0.473304 0.125598
0.840182 0.477631 0.129925
0.891996 0.481958 0.134252
0.078004 0.478806 0.078004
0.129792 0.482068 0.084318
0.181827 0.486302 0.088907
0.233642 0.490629 0.093234
0.285456 0.494956 0.097561
0.337270 0.499282 0.101887
0.389084 0.503609 0.106214
0.440898 0.507936 0.110541
0.492713 0.512263 0.114868
0.544527 0.516590 0.119195
0.596341 0.520916 0.123521
0.648155 0.525243 0.127848
0.699969 0.529570 0.132175
0.751784 0.533897 0.136502
0.803598 0.538224 0.140829
0.855412 0.542550 0.145155
0.907226 0.546877 0.149482
0.092930 0.543847 0.092930
0.144855 0.547056 0.099360
0.197058 0.551222 0.104138
0.248872 0.555548 0.108464
0.300686 0.559875 0.112791
0.352500 0.564202 0.117118
0.404315 0.568529 0.121445
0.456129 0.572855 0.125771
0.507943 0.577182 0.130098
0.559757 0.581509 0.134425
0.611571 0.585836 0.138752
0.663386 0.590163 0.143079
0.715200 0.594489 0.147405
0.767014 0.598816 0.151732
0.818828 0.603143 0.156059
0.870642 0.607470 0.160386
0.922457 0.611796 0.164712
0.107855 0.608888 0.107855
0.159892 0.612054 0.114376
0.212288 0.616141 0.119368
0.264102 0.620468 0.123695
0.315917 0.624795 0.128021
0.367731 0.629121 0.132348
0.419545 0.633448 0.136675
0.471359 0.637775 0.141002
0.523173 0.642102 0.145329
0.574988 0.646428 0.149655
0.626802 0.650755 0.153982
0.678616 0.655082 0.158309
0.730430 0.659409 0.162636
0.782244 0.663736 0.166963
0.834059 0.668062 0.171289
0.885873 0.672389 0.175616
0.937687 0.676716 0.179943
0.122781 0.673928 0.122781
0.174909 0.677060 0.129375
0.227519 0.681060 0.134598
0.279333 0.685387 0.138925
0.331147 0.689714 0.143252
0.382961 0.694041 0.147579
0.434775 0.698367 0.151905
0.486590 0.702694 0.156232
0.538404 0.707021 0.160559
0.590218 0.711348 0.164886
0.642032 0.715675 0.169213
0.693846 0.720001 0.173539
0.745661 0.724328 0.177866
0.797475 0.728655 0.182193
0.849289 0.732982 0.186520
0.901103 0.737309 0.190846
0.952917 0.741635 0.195173
0.137707 0.738969 0.137707
0.189912 0.742072 0.144360
0.242735 0.745986 0.149811
0.294563 0.750307 0.154155
0.346377 0.754633 0.158482
0.398192 0.758960 0.162809
0.450006 0.763287 0.167136
0.501820 0.767614 0.171463
0.553634 0.771940 0.175789
0.605448 0.776267 0.180116
0.657263 0.780594 0.184443
0.709077 0.784921 0.188770
0.760891 0.789248 0.193097
0.812705 0.793574 0.197423
0.864519 0.797901 0.201750
0.916334 0.802228 0.206077
0.968148 0.806555 0.210404
0.152633 0.804010 0.152633
0.204904 0.807088 0.159336
0.257913 0.810927 0.164977
0.309794 0.815226 0.169386
0.361608 0.819553 0.173713
0.413422 0.823880 0.178039
0.465236 0.828206 0.182366
0.517050 0.832533 0.186693
0.568865 0.836860 0.191020
0.620679 0.841187 0.195347
0.672493 0.845513 0.199673
0.724307 0.849840 0.204000
0.776121 0.854167 0.208327
0.827936 0.858494 0.212654
0.879750 0.862821 0.216980
0.931564 0.867147 0.221307
0.983378 0.871474 0.225634
0.167558 0.869051 0.167558
0.219886 0.872108 0.174305
0.273057 0.875883 0.180104
0.325024 0.880145 0.184616
0.376838 0.884472 0.188943
0.428652 0.888799 0.193270
0.480467 0.893126 0.197597
0.532281 0.897453 0.201923
0.584095 0.901779 0.206250
0.635909 0.906106 0.210577
0.687723 0.910433 0.214904
0.739538 0.914760 0.219231
0.791352 0.919086 0.223557
0.843166 0.923413 0.227884
0.894980 0.927740 0.232211
0.946794 0.932067 0.236538
0.998609 0.936394 0.240864
0.182484 0.934091 0.182484
0.234861 0.937130 0.189267
0.288175 0.940849 0.195201
0.340254 0.945065 0.199847
0.392069 0.949392 0.204173
0.443883 0.953718 0.208500
0.495697 0.958045 0.212827
0.547511 0.962372 0.217154
0.599325 0.966699 0.221481
0.651140 0.971025 0.225807
0.702954 0.975352 0.230134
0.754768 0.979679 0.234461
0.806582 0.984006 0.238788
0.858396 0.988333 0.243115
0.910211 0.992659 0.247441
0.962025 0.996986 0.251768
1.000000 1.000000 0.256095
0.197410 0.999132 0.197410
0.249834 1.000000 0.204228
0.303284 1.000000 0.210291
0.355485 1.000000 0.215077
0.407299 1.000000 0.219404
0.459113 1.000000 0.223731
0.510927 1.000000 0.228057
0.562742 1.000000 0.232384
0.614556 1.000000 0.236711
0.666370 1.000000 0.241038
0.718184 1.000000 0.245365
0.769998 1.000000 0.249691
0.821813 1.000000 0.254018
0.873627 1.000000 0.258345
0.925441 1.000000 0.262672
0.977255 1.000000 0.266998
1.000000 1.000000 0.271325
0.000000 0.000000 0.019586
0.010412 0.000000 0.018581
0.061675 0.000000 0.022223
0.113489 0.000000 0.026550
0.165303 0.000000 0.030877
0.217117 0.000000 0.035204
0.268931 0.000000 0.039530
0.320746 0.000000 0.043857
0.372560 0.000000 0.048184
0.424374 0.000000 0.052511
0.476188 0.003380 0.056837
0.528003 0.007695 0.061164
0.579817 0.012022 0.065491
0.631631 0.016349 0.069818
0.683445 0.020676 0.074145
0.735259 0.025003 0.078471
0.787073 0.029329 0.082798
0.000000 0.026894 0.031472
0.025037 0.029197 0.033114
0.076869 0.033521 0.037418
0.128683 0.037848 0.041744
0.180498 0.042174 0.046071
0.232312 0.046501 0.050398
0.284126 0.050828 0.054725
0.335940 0.055155 0.059052
0.387754 0.059481 0.063378
0.439569 0.063808 0.067705
0.491383 0.068135 0.072032
0.543197 0.072462 0.076359
0.595011 0.076789 0.080686
0.646825 0.081115 0.085012
0.698640 0.085442 0.089339
0.750454 0.089769 0.093666
0.802268 0.094096 0.097993
0.000000 0.092476 0.042011
0.039515 0.094404 0.047710
0.092100 0.098440 0.052648
0.143914 0.102767 0.056975
0.195728 0.107094 0.061302
0.247542 0.111421 0.065628
0.299356 0.115747 0.069955
0.351171 0.120074 0.074282
0.402985 0.124401 0.078609
0.454799 0.128728 0.082936
0.506613 0.133054 0.087262
0.558427 0.137381 0.091589
0.610242 0.141708 0.095916
0.662056 0.146035 0.100243
0.713870 0.150362 0.104569
0.765684 0.154688 0.108896
0.817498 0.159015 0.113223
0.000000 0.157615 0.055395
0.054193 0.159545 0.062371
0.107330 0.163360 0.067878
0.159144 0.167686 0.072205
0.210958 0.172013 0.076532
0.262773 0.176340 0.080859
0.314587 0.180667 0.085186
0.366401 0.184993 0.089512
0.418215 0.189320 0.093839
0.470029 0.193647 0.098166
0.521844 0.197974 0.102493
0.573658 0.202301 0.106820
0.625472 0.206627 0.111146
0.677286 0.210954 0.115473
0.729100 0.215281 0.119800
0.780915 0.219608 0.124127
0.832729 0.223935 0.128453
0.013724 0.222504 0.069922
0.069155 0.224574 0.077307
0.122560 0.228279 0.083109
0.174375 0.232606 0.087436
0.226189 0.236933 0.091762
0.278003 0.241259 0.096089
0.329817 0.245586 0.100416
0.381631 0.249913 0.104743
0.433446 0.254240 0.109070
0.485260 0.258566 0.113396
0.537074 0.262893 0.117723
0.588888 0.267220 0.122050
0.640702 0.271547 0.126377
0.692517 0.275874 0.130703
0.744331 0.280200 0.135030
0.796145 0.284527 0.139357
0.847959 0.288854 0.143684
0.029077 0.287432 0.084704
0.084100 0.289609 0.092239
0.137791 0.293198 0.098339
0.189605 0.297525 0.102666
0.241419 0.301852 0.106993
0.293233 0.306179 0.111320
0.345048 0.310506 0.115646
0.396862 0.314832 0.119973
0.448676 0.319159 0.124300
0.500490 0.323486 0.128627
0.552304 0.327813 0.132954
0.604119 0.332139 0.137280
0.655933 0.336466 0.141607
0.707747 0.340793 0.145934
0.759561 0.345120 0.150261
0.811375 0.349447 0.154587
0.863190 0.353773 0.158914
0.044303 0.352388 0.099579
0.099037 0.354645 0.107169
0.153020 0.358118 0.113568
0.204835 0.362445 0.117896
0.256650 0.366771 0.122223
0.308464 0.371098 0.126550
0.360278 0.375425 0.130877
0.412092 0.379752 0.135204
0.463906 0.384079 0.139530
0.515721 0.388405 0.143857
0.567535 0.392732 0.148184
0.619349 0.397059 0.152511
0.671163 0.401386 0.156838
0.722977 0.405712 0.161164
0.774792 0.410039 0.165491
0.826606 0.414366 0.169818
0.878420 0.418693 0.174145
0.059452 0.417364 0.114490
0.113971 0.419683 0.122098
0.168189 0.423064 0.128724
0.220066 0.427364 0.133127
0.271880 0.431691 0.137454
0.323694 0.436018 0.141780
0.375508 0.440344 0.146107
0.427323 0.444671 0.150434
0.479137 0.448998 0.154761
0.530951 0.453325 0.159088
0.582765 0.457651 0.163414
0.634579 0.461978 0.167741
0.686394 0.466305 0.172068
0.738208 0.470632 0.176395
0.790022 0.474959 0.180721
0.841836 0.479285 0.185048
0.893650 0.483612 0.189375
0.074549 0.482354 0.129419
0.128902 0.484722 0.137026
0.183293 0.488035 0.143807
0.235296 0.492283 0.148357
0.287110 0.496610 0.152684
0.338925 0.500937 0.157011
0.390739 0.505264 0.161338
0.442553 0.509591 0.165664
0.494367 0.513917 0.169991
0.546181 0.518244 0.174318
0.597996 0.522571 0.178645
0.649810 0.526898 0.182972
0.701624 0.531224 0.187298
0.753438 0.535551 0.191625
0.805252 0.539878 0.195952
0.857067 0.544205 0.200279
0.908881 0.548532 0.204605
0.089611 0.547353 0.144354
0.143832 0.549762 0.151954
0.198355 0.553024 0.158847
0.250527 0.557203 0.163588
0.302341 0.561530 0.167914
0.354155 0.565856 0.172241
0.405969 0.570183 0.176568
0.457783 0.574510 0.180895
0.509598 0.578837 0.185222
0.561412 0.583163 0.189548
0.613226 0.587490 0.193875
0.665040 0.591817 0.198202
0.716854 0.596144 0.202529
0.768669 0.600471 0.206855
0.820483 0.604797 0.211182
0.872297 0.609124 0.215509
0.924111 0.613451 0.219836
0.104647 0.612360 0.159293
0.158761 0.614801 0.166881
0.213387 0.618024 0.173859
0.265757 0.622122 0.178818
0.317571 0.626449 0.183145
0.369385 0.630776 0.187472
0.421200 0.635103 0.191798
0.473014 0.639429 0.196125
0.524828 0.643756 0.200452
0.576642 0.648083 0.204779
0.628456 0.652410 0.209106
0.680270 0.656736 0.213432
0.732085 0.661063 0.217759
0.783899 0.665390 0.222086
0.835713 0.669717 0.226413
0.887527 0.674044 0.230739
0.939342 0.678370 0.235066
0.119664 0.677372 0.174233
0.173689 0.679841 0.181808
0.228400 0.683032 0.188853
0.280987 0.687042 0.194048
0.332801 0.691368 0.198375
0.384616 0.695695 0.202702
0.436430 0.700022 0.207029
0.488244 0.704349 0.211356
0.540058 0.708676 0.215682
0.591873 0.713002 0.220009
0.643687 0.717329 0.224336
0.695501 0.721656 0.228663
0.747315 0.725983 0.232989
0.799129 0.730309 0.237316
0.850944 0.734636 0.241643
0.902758 0.738963 0.245970
0.954572 0.743290 0.250297
0.134666 0.742389 0.189173
0.188617 0.744881 0.196734
0.243396 0.748047 0.203834
0.296213 0.751963 0.209273
0.348032 0.756288 0.213606
0.399846 0.760615 0.217932
0.451660 0.764941 0.222259
0.503474 0.769268 0.226586
0.555289 0.773595 0.230913
0.607103 0.777922 0.235240
0.658917 0.782248 0.239566
0.710731 0.786575 0.243893
0.762546 0.790902 0.248220
0.814360 0.795229 0.252547
0.866174 0.799556 0.256873
0.917988 0.803882 0.261200
0.969802 0.808209 0.265527
0.149657 0.807408 0.204112
0.203545 0.809921 0.211661
0.258382 0.813065 0.218804
0.311402 0.816900 0.224451
0.363262 0.821207 0.228836
0.415076 0.825534 0.233163
0.466891 0.829861 0.237490
0.518705 0.834188 0.241816
0.570519 0.838514 0.246143
0.622333 0.842841 0.250470
0.674147 0.847168 0.254797
0.725962 0.851495 0.259123
0.777776 0.855821 0.263450
0.829590 0.860148 0.267777
0.881404 0.864475 0.272104
0.933218 0.868802 0.276431
0.985033 0.873129 0.280757
0.164639 0.872431 0.219051
0.218472 0.874961 0.226587
0.273358 0.878087 0.233768
0.326553 0.881853 0.239586
0.378493 0.886127 0.244066
0.430307 0.890453 0.248393
0.482121 0.894780 0.252720
0.533935 0.899107 0.257047
0.585750 0.903434 0.261374
0.637564 0.907761 0.265700
0.689378 0.912087 0.270027
0.741192 0.916414 0.274354
0.793006 0.920741 0.278681
0.844820 0.925068 0.283007
0.896635 0.929394 0.287334
0.948449 0.933721 0.291661
1.000000 0.938048 0.295988
0.179614 0.937456 0.233989
0.233399 0.940002 0.241514
0.288327 0.943111 0.248726
0.341675 0.946817 0.254688
0.393723 0.951046 0.259297
0.445537 0.955373 0.263624
0.497351 0.959700 0.267950
0.549166 0.964026 0.272277
0.600980 0.968353 0.276604
0.652794 0.972680 0.280931
0.704608 0.977007 0.285257
0.756422 0.981334 0.289584
0.808237 0.985660 0.293911
0.860051 0.989987 0.298238
0.911865 0.994314 0.302565
0.963679 0.998641 0.306891
1.000000 1.000000 0.311218
0.194583 1.000000 0.248926
0.248324 1.000000 0.256437
0.303310 1.000000 0.263699
0.356799 1.000000 0.269796
0.408953 1.000000 0.274527
0.460768 1.000000 0.278854
0.512582 1.000000 0.283181
0.564396 1.000000 0.287508
0.616210 1.000000 0.291834
0.668024 1.000000 0.296161
0.719839 1.000000 0.300488
0.771653 1.000000 0.304815
0.823467 1.000000 0.309141
0.875281 1.000000 0.313468
0.927095 1.000000 0.317795
0.978910 1.000000 0.322122
1.000000 1.000000 0.326449
0.000000 0.000000 0.081617
0.014574 0.000000 0.080691
0.063276 0.000000 0.075587
0.115091 0.000000 0.079914
0.166905 0.000000 0.084240
0.218719 0.000000 0.088567
0.270533 0.000000 0.092894
0.322347 0.000000 0.097221
0.374162 0.000000 0.101547
0.425976 0.000599 0.105874
0.477790 0.004970 0.110201
0.529604 0.009297 0.114528
0.581418 0.013624 0.118855
0.633233 0.017951 0.123181
0.685047 0.022277 0.127508
0.736861 0.026604 0.131835
0.788675 0.030931 0.136162
0.000000 0.028126 0.095851
0.025695 0.030381 0.093392
0.078491 0.035114 0.090810
0.130285 0.039449 0.095108
0.182099 0.043776 0.099435
0.233913 0.048103 0.103762
0.285728 0.052430 0.108088
0.337542 0.056756 0.112415
0.389356 0.061083 0.116742
0.441170 0.065410 0.121069
0.492984 0.069737 0.125396
0.544799 0.074063 0.129722
0.596613 0.078390 0.134049
0.648427 0.082717 0.138376
0.700241 0.087044 0.142703
0.752055 0.091371 0.147029
0.803870 0.095697 0.151356
0.000000 0.096317 0.103650
0.033879 0.097775 0.104861
0.093637 0.100053 0.106093
0.145515 0.104369 0.110338
0.197330 0.108695 0.114665
0.249144 0.113022 0.118992
0.300958 0.117349 0.123319
0.352772 0.121676 0.127646
0.404586 0.126003 0.131972
0.456401 0.130329 0.136299
0.508215 0.134656 0.140626
0.560029 0.138983 0.144953
0.611843 0.143310 0.149279
0.663657 0.147636 0.153606
0.715472 0.151963 0.157933
0.767286 0.156290 0.162260
0.819100 0.160617 0.166587
0.000000 0.161910 0.111392
0.047434 0.163744 0.114622
0.107748 0.165397 0.120414
0.160746 0.169288 0.125569
0.212560 0.173615 0.129896
0.264374 0.177942 0.134222
0.316188 0.182268 0.138549
0.368003 0.186595 0.142876
0.419817 0.190922 0.147203
0.471631 0.195249 0.151530
0.523445 0.199575 0.155856
0.575259 0.203902 0.160183
0.627074 0.208229 0.164510
0.678888 0.212556 0.168837
0.730702 0.216883 0.173163
0.782516 0.221209 0.177490
0.834330 0.225536 0.181817
0.006068 0.226881 0.123046
0.063486 0.228613 0.127937
0.122375 0.230563 0.134973
0.175976 0.234207 0.140799
0.227790 0.238534 0.145126
0.279605 0.242861 0.149453
0.331419 0.247188 0.153780
0.383233 0.251515 0.158106
0.435047 0.255841 0.162433
0.486861 0.260168 0.166760
0.538676 0.264495 0.171087
0.590490 0.268822 0.175413
0.642304 0.273148 0.179740
0.694118 0.277475 0.184067
0.745932 0.281802 0.188394
0.797747 0.286129 0.192721
0.849561 0.290456 0.197047
0.022132 0.291744 0.136382
0.079149 0.293489 0.142320
0.137381 0.295579 0.149913
0.191207 0.299127 0.156030
0.243021 0.303454 0.160356
0.294835 0.307780 0.164683
0.346649 0.312107 0.169010
0.398463 0.316434 0.173337
0.450278 0.320761 0.177664
0.502092 0.325088 0.181990
0.553906 0.329414 0.186317
0.605720 0.333741 0.190644
0.657534 0.338068 0.194971
0.709349 0.342395 0.199297
0.761163 0.346721 0.203624
0.812977 0.351048 0.207951
0.864791 0.355375 0.212278
0.037950 0.356605 0.150468
0.094574 0.358403 0.157034
0.152350 0.360606 0.164850
0.206437 0.364046 0.171260
0.258251 0.368373 0.175587
0.310065 0.372700 0.179914
0.361880 0.377027 0.184240
0.413694 0.381353 0.188567
0.465508 0.385680 0.192894
0.517322 0.390007 0.197221
0.569136 0.394334 0.201547
0.620951 0.398661 0.205874
0.672765 0.402987 0.210201
0.724579 0.407314 0.214528
0.776393 0.411641 0.218855
0.828207 0.415968 0.223181
0.880022 0.420294 0.227508
0.053576 0.421485 0.164921
0.109856 0.423347 0.171873
0.167302 0.425638 0.179784
0.221645 0.428975 0.186463
0.273482 0.433292 0.190817
0.325296 0.437619 0.195144
0.377110 0.441946 0.199471
0.428924 0.446273 0.203798
0.480738 0.450600 0.208124
0.532553 0.454926 0.212451
0.584367 0.459253 0.216778
0.636181 0.463580 0.221105
0.687995 0.467907 0.225431
0.739809 0.472233 0.229758
0.791624 0.476560 0.234085
0.843438 0.480887 0.238412
0.895252 0.485214 0.242739
0.069061 0.486387 0.179570
0.125048 0.488312 0.186766
0.182245 0.490672 0.194716
0.236771 0.493938 0.201570
0.288712 0.498212 0.206048
0.340526 0.502539 0.210374
0.392340 0.506865 0.214701
0.444155 0.511192 0.219028
0.495969 0.515519 0.223355
0.547783 0.519846 0.227681
0.599597 0.524173 0.232008
0.651411 0.528499 0.236335
0.703226 0.532826 0.240662
0.755040 0.537153 0.244989
0.806854 0.541480 0.249315
0.858668 0.545806 0.253642
0.910482 0.550133 0.257969
0.084442 0.551310 0.194329
0.140179 0.553292 0.201684
0.197184 0.555709 0.209646
0.251843 0.558923 0.216619
0.303942 0.563131 0.221278
0.355757 0.567458 0.225605
0.407571 0.571785 0.229932
0.459385 0.576112 0.234258
0.511199 0.580438 0.238585
0.563013 0.584765 0.242912
0.614828 0.589092 0.247239
0.666642 0.593419 0.251565
0.718456 0.597746 0.255892
0.770270 0.602072 0.260219
0.822084 0.606399 0.264546
0.873899 0.610726 0.268873
0.925713 0.615053 0.273199
0.099744 0.616249 0.209154
0.155269 0.618283 0.216614
0.212120 0.620746 0.224576
0.266879 0.623922 0.231635
0.319173 0.628051 0.236508
0.370987 0.632377 0.240835
0.422801 0.636704 0.245162
0.474615 0.641031 0.249489
0.526430 0.645358 0.253815
0.578244 0.649685 0.258142
0.630058 0.654011 0.262469
0.681872 0.658338 0.266796
0.733686 0.662665 0.271123
0.785501 0.666992 0.275449
0.837315 0.671318 0.279776
0.889129 0.675645 0.284103
0.940943 0.679972 0.288430
0.114986 0.681201 0.224020
0.170329 0.683283 0.231550
0.227053 0.685784 0.239504
0.281892 0.688930 0.246629
0.334403 0.692970 0.251739
0.386217 0.697297 0.256066
0.438032 0.701624 0.260392
0.489846 0.705950 0.264719
0.541660 0.710277 0.269046
0.593474 0.714604 0.273373
0.645288 0.718931 0.277699
0.697103 0.723258 0.282026
0.748917 0.727584 0.286353
0.800731 0.731911 0.290680
0.852545 0.736238 0.295007
0.904359 0.740565 0.299333
0.956174 0.744891 0.303660
0.130180 0.746166 0.238912
0.185365 0.748290 0.246488
0.241985 0.750823 0.254433
0.296887 0.753944 0.261609
0.349634 0.757890 0.266969
0.401448 0.762216 0.271296
0.453262 0.766543 0.275623
0.505076 0.770870 0.279949
0.556890 0.775197 0.284276
0.608705 0.779523 0.288603
0.660519 0.783850 0.292930
0.712333 0.788177 0.297257
0.764147 0.792504 0.301583
0.815961 0.796831 0.305910
0.867776 0.801157 0.310237
0.919590 0.805484 0.314564
0.971404 0.809811 0.318891
0.145338 0.811139 0.253821
0.200384 0.813301 0.261428
0.256916 0.815862 0.269360
0.311870 0.818963 0.276578
0.364844 0.822817 0.282174
0.416678 0.827136 0.286526
0.468492 0.831462 0.290853
0.520307 0.835789 0.295180
0.572121 0.840116 0.299507
0.623935 0.844443 0.303833
0.675749 0.848770 0.308160
0.727563 0.853096 0.312487
0.779378 0.857423 0.316814
0.831192 0.861750 0.321141
0.883006 0.866077 0.325467
0.934820 0.870403 0.329794
0.986634 0.874730 0.334121
0.160465 0.876121 0.268740
0.215390 0.878317 0.276368
0.271846 0.880901 0.284288
0.326844 0.883986 0.291539
0.380011 0.887763 0.297327
0.431909 0.892055 0.301757
0.483723 0.896382 0.306084
0.535537 0.900709 0.310410
0.587351 0.905035 0.314737
0.639165 0.909362 0.319064
0.690980 0.913689 0.323391
0.742794 0.918016 0.327717
0.794608 0.922343 0.332044
0.846422 0.926669 0.336371
0.898236 0.930996 0.340698
0.950051 0.935323 0.345025
1.000000 0.939650 0.349351
0.175567 0.941109 0.283667
0.230385 0.943336 0.291308
0.286775 0.945941 0.299215
0.341811 0.949012 0.306495
0.395144 0.952724 0.312441
0.447139 0.956975 0.316987
0.498953 0.961301 0.321314
0.550767 0.965628 0.325641
0.602582 0.969955 0.329967
0.654396 0.974282 0.334294
0.706210 0.978608 0.338621
0.758024 0.982935 0.342948
0.809838 0.987262 0.347275
0.861653 0.991589 0.351601
0.913467 0.995916 0.355928
0.965281 1.000000 0.360255
1.000000 1.000000 0.364582
0.190642 1.000000 0.298594
0.245334 1.000000 0.306214
0.301692 1.000000 0.314130
0.356805 1.000000 0.321481
0.410288 1.000000 0.327572
0.462369 1.000000 0.332217
0.514184 1.000000 0.336544
0.565998 1.000000 0.340871
0.617812 1.000000 0.345198
0.669626 1.000000 0.349525
0.721440 1.000000 0.353851
0.773255 1.000000 0.358178
0.825069 1.000000 0.362505
0.876883 1.000000 0.366832
0.928697 1.000000 0.371159
0.980511 1.000000 0.375485
1.000000 1.000000 0.379812
0.000000 0.000000 0.141969
0.016132 0.000000 0.141037
0.066828 0.000000 0.132887
0.116692 0.000000 0.133277
0.168506 0.000000 0.137604
0.220321 0.000000 0.141931
0.272135 0.000000 0.146257
0.323949 0.000000 0.150584
0.375763 0.000000 0.154911
0.427577 0.002248 0.159238
0.479392 0.006572 0.163565
0.531206 0.010899 0.167891
0.583020 0.015226 0.172218
0.634834 0.019552 0.176545
0.686648 0.023879 0.180872
0.738463 0.028206 0.185198
0.790277 0.032533 0.189525
0.000000 0.028845 0.157130
0.026553 0.031333 0.155387
0.081386 0.035879 0.148650
