assets/presets/luts/exposure-minus/lut.cube
TITLE "Exposure −"
LUT_3D_SIZE 5
0.000000 0.000000 0.000000
0.196340 0.000000 0.000000
0.402357 0.000000 0.000000
0.608374 0.000000 0.000000
0.814391 0.000000 0.000000
0.000000 0.196340 0.000000
0.196340 0.196340 0.000000
0.402357 0.196340 0.000000
0.608374 0.196340 0.000000
0.814391 0.196340 0.000000
0.000000 0.402357 0.000000
0.196340 0.402357 0.000000
0.402357 0.402357 0.000000
0.608374 0.402357 0.000000
0.814391 0.402357 0.000000
0.000000 0.608374 0.000000
0.196340 0.608374 0.000000
0.402357 0.608374 0.000000
0.608374 0.608374 0.000000
0.814391 0.608374 0.000000
0.000000 0.814391 0.000000
0.196340 0.814391 0.000000
0.402357 0.814391 0.000000
0.608374 0.814391 0.000000
0.814391 0.814391 0.000000
0.000000 0.000000 0.196340
0.196340 0.000000 0.196340
0.402357 0.000000 0.196340
0.608374 0.000000 0.196340
0.814391 0.000000 0.196340
0.000000 0.196340 0.196340
0.196340 0.196340 0.196340
0.402357 0.196340 0.196340
0.608374 0.196340 0.196340
0.814391 0.196340 0.196340
0.000000 0.402357 0.196340
0.196340 0.402357 0.196340
0.402357 0.402357 0.196340
0.608374 0.402357 0.196340
0.814391 0.402357 0.196340
0.000000 0.608374 0.196340
0.196340 0.608374 0.196340
0.402357 0.608374 0.196340
0.608374 0.608374 0.196340
0.814391 0.608374 0.196340
0.000000 0.814391 0.196340
0.196340 0.814391 0.196340
0.402357 0.814391 0.196340
0.608374 0.814391 0.196340
0.814391 0.814391 0.196340
0.000000 0.000000 0.402357
0.196340 0.000000 0.402357
0.402357 0.000000 0.402357
0.608374 0.000000 0.402357
0.814391 0.000000 0.402357
0.000000 0.196340 0.402357
0.196340 0.196340 0.402357
0.402357 0.196340 0.402357
0.608374 0.196340 0.402357
0.814391 0.196340 0.402357
0.000000 0.402357 0.402357
0.196340 0.402357 0.402357
0.402357 0.402357 0.402357
0.608374 0.402357 0.402357
0.814391 0.402357 0.402357
0.000000 0.608374 0.402357
0.196340 0.608374 0.402357
0.402357 0.608374 0.402357
0.608374 0.608374 0.402357
0.814391 0.608374 0.402357
0.000000 0.814391 0.402357
0.196340 0.814391 0.402357
0.402357 0.814391 0.402357
0.608374 0.814391 0.402357
0.814391 0.814391 0.402357
0.000000 0.000000 0.608374
0.196340 0.000000 0.608374
0.402357 0.000000 0.608374
0.608374 0.000000 0.608374
0.814391 0.000000 0.608374
0.000000 0.196340 0.608374
0.196340 0.196340 0.608374
0.402357 0.196340 0.608374
0.608374 0.196340 0.608374
0.814391 0.196340 0.608374
0.000000 0.402357 0.608374
0.196340 0.402357 0.608374
0.402357 0.402357 0.608374
0.608374 0.402357 0.608374
0.814391 0.402357 0.608374
0.000000 0.608374 0.608374
0.196340 0.608374 0.608374
0.402357 0.608374 0.608374
0.608374 0.608374 0.608374
0.814391 0.608374 0.608374
0.000000 0.814391 0.608374
0.196340 0.814391 0.608374
0.402357 0.814391 0.608374
0.608374 0.814391 0.608374
0.814391 0.814391 0.608374
0.000000 0.000000 0.814391
0.196340 0.000000 0.814391
0.402357 0.000000 0.814391
0.608374 0.000000 0.814391
0.814391 0.000000 0.814391
0.000000 0.196340 0.814391
0.196340 0.196340 0.814391
0.402357 0.196340 0.814391
0.608374 0.196340 0.814391
0.814391 0.196340 0.814391
0.000000 0.402357 0.814391
0.196340 0.402357 0.814391
0.402357 0.402357 0.814391
0.608374 0.402357 0.814391
0.814391 0.402357 0.814391
0.000000 0.608374 0.814391
0.196340 0.608374 0.814391
0.402357 0.608374 0.814391
0.608374 0.608374 0.814391
0.814391 0.608374 0.814391
0.000000 0.814391 0.814391
0.196340 0.814391 0.814391
0.402357 0.814391 0.814391
0.608374 0.814391 0.814391
0.814391 0.814391 0.814391
