assets/presets/luts/exposure-minus/lut.cube
TITLE "Exposure −"
LUT_3D_SIZE 17
0.000000 0.000000 0.000000
0.041828 0.000000 0.000000
0.093332 0.000000 0.000000
0.144836 0.000000 0.000000
0.196340 0.000000 0.000000
0.247845 0.000000 0.000000
0.299349 0.000000 0.000000
0.350853 0.000000 0.000000
0.402357 0.000000 0.000000
0.453861 0.000000 0.000000
0.505365 0.000000 0.000000
0.556870 0.000000 0.000000
0.608374 0.000000 0.000000
0.659878 0.000000 0.000000
0.711382 0.000000 0.000000
0.762886 0.000000 0.000000
0.814391 0.000000 0.000000
0.000000 0.041828 0.000000
0.041828 0.041828 0.000000
0.093332 0.041828 0.000000
0.144836 0.041828 0.000000
0.196340 0.041828 0.000000
0.247845 0.041828 0.000000
0.299349 0.041828 0.000000
0.350853 0.041828 0.000000
0.402357 0.041828 0.000000
0.453861 0.041828 0.000000
0.505365 0.041828 0.000000
0.556870 0.041828 0.000000
0.608374 0.041828 0.000000
0.659878 0.041828 0.000000
0.711382 0.041828 0.000000
0.762886 0.041828 0.000000
0.814391 0.041828 0.000000
0.000000 0.093332 0.000000
0.041828 0.093332 0.000000
0.093332 0.093332 0.000000
0.144836 0.093332 0.000000
0.196340 0.093332 0.000000
0.247845 0.093332 0.000000
0.299349 0.093332 0.000000
0.350853 0.093332 0.000000
0.402357 0.093332 0.000000
0.453861 0.093332 0.000000
0.505365 0.093332 0.000000
0.556870 0.093332 0.000000
0.608374 0.093332 0.000000
0.659878 0.093332 0.000000
0.711382 0.093332 0.000000
0.762886 0.093332 0.000000
0.814391 0.093332 0.000000
0.000000 0.144836 0.000000
0.041828 0.144836 0.000000
0.093332 0.144836 0.000000
0.144836 0.144836 0.000000
0.196340 0.144836 0.000000
0.247845 0.144836 0.000000
0.299349 0.144836 0.000000
0.350853 0.144836 0.000000
0.402357 0.144836 0.000000
0.453861 0.144836 0.000000
0.505365 0.144836 0.000000
0.556870 0.144836 0.000000
0.608374 0.144836 0.000000
0.659878 0.144836 0.000000
0.711382 0.144836 0.000000
0.762886 0.144836 0.000000
0.814391 0.144836 0.000000
0.000000 0.196340 0.000000
0.041828 0.196340 0.000000
0.093332 0.196340 0.000000
0.144836 0.196340 0.000000
0.196340 0.196340 0.000000
0.247845 0.196340 0.000000
0.299349 0.196340 0.000000
0.350853 0.196340 0.000000
0.402357 0.196340 0.000000
0.453861 0.196340 0.000000
0.505365 0.196340 0.000000
0.556870 0.196340 0.000000
0.608374 0.196340 0.000000
0.659878 0.196340 0.000000
0.711382 0.196340 0.000000
0.762886 0.196340 0.000000
0.814391 0.196340 0.000000
0.000000 0.247845 0.000000
0.041828 0.247845 0.000000
0.093332 0.247845 0.000000
0.144836 0.247845 0.000000
0.196340 0.247845 0.000000
0.247845 0.247845 0.000000
0.299349 0.247845 0.000000
0.350853 0.247845 0.000000
0.402357 0.247845 0.000000
0.453861 0.247845 0.000000
0.505365 0.247845 0.000000
0.556870 0.247845 0.000000
0.608374 0.247845 0.000000
0.659878 0.247845 0.000000
0.711382 0.247845 0.000000
0.762886 0.247845 0.000000
0.814391 0.247845 0.000000
0.000000 0.299349 0.000000
0.041828 0.299349 0.000000
0.093332 0.299349 0.000000
0.144836 0.299349 0.000000
0.196340 0.299349 0.000000
0.247845 0.299349 0.000000
0.299349 0.299349 0.000000
0.350853 0.299349 0.000000
0.402357 0.299349 0.000000
0.453861 0.299349 0.000000
0.505365 0.299349 0.000000
0.556870 0.299349 0.000000
0.608374 0.299349 0.000000
0.659878 0.299349 0.000000
0.711382 0.299349 0.000000
0.762886 0.299349 0.000000
0.814391 0.299349 0.000000
0.000000 0.350853 0.000000
0.041828 0.350853 0.000000
0.093332 0.350853 0.000000
0.144836 0.350853 0.000000
0.196340 0.350853 0.000000
0.247845 0.350853 0.000000
0.299349 0.350853 0.000000
0.350853 0.350853 0.000000
0.402357 0.350853 0.000000
0.453861 0.350853 0.000000
0.505365 0.350853 0.000000
0.556870 0.350853 0.000000
0.608374 0.350853 0.000000
0.659878 0.350853 0.000000
0.711382 0.350853 0.000000
0.762886 0.350853 0.000000
0.814391 0.350853 0.000000
0.000000 0.402357 0.000000
0.041828 0.402357 0.000000
0.093332 0.402357 0.000000
0.144836 0.402357 0.000000
0.196340 0.402357 0.000000
0.247845 0.402357 0.000000
0.299349 0.402357 0.000000
0.350853 0.402357 0.000000
0.402357 0.402357 0.000000
0.453861 0.402357 0.000000
0.505365 0.402357 0.000000
0.556870 0.402357 0.000000
0.608374 0.402357 0.000000
0.659878 0.402357 0.000000
0.711382 0.402357 0.000000
0.762886 0.402357 0.000000
0.814391 0.402357 0.000000
0.000000 0.453861 0.000000
0.041828 0.453861 0.000000
0.093332 0.453861 0.000000
0.144836 0.453861 0.000000
0.196340 0.453861 0.000000
0.247845 0.453861 0.000000
0.299349 0.453861 0.000000
0.350853 0.453861 0.000000
0.402357 0.453861 0.000000
0.453861 0.453861 0.000000
0.505365 0.453861 0.000000
0.556870 0.453861 0.000000
0.608374 0.453861 0.000000
0.659878 0.453861 0.000000
0.711382 0.453861 0.000000
0.762886 0.453861 0.000000
0.814391 0.453861 0.000000
0.000000 0.505365 0.000000
0.041828 0.505365 0.000000
0.093332 0.505365 0.000000
0.144836 0.505365 0.000000
0.196340 0.505365 0.000000
0.247845 0.505365 0.000000
0.299349 0.505365 0.000000
0.350853 0.505365 0.000000
0.402357 0.505365 0.000000
0.453861 0.505365 0.000000
0.505365 0.505365 0.000000
0.556870 0.505365 0.000000
0.608374 0.505365 0.000000
0.659878 0.505365 0.000000
0.711382 0.505365 0.000000
0.762886 0.505365 0.000000
0.814391 0.505365 0.000000
0.000000 0.556870 0.000000
0.041828 0.556870 0.000000
0.093332 0.556870 0.000000
0.144836 0.556870 0.000000
0.196340 0.556870 0.000000
0.247845 0.556870 0.000000
0.299349 0.556870 0.000000
0.350853 0.556870 0.000000
0.402357 0.556870 0.000000
0.453861 0.556870 0.000000
0.505365 0.556870 0.000000
0.556870 0.556870 0.000000
0.608374 0.556870 0.000000
0.659878 0.556870 0.000000
0.711382 0.556870 0.000000
0.762886 0.556870 0.000000
0.814391 0.556870 0.000000
0.000000 0.608374 0.000000
0.041828 0.608374 0.000000
0.093332 0.608374 0.000000
0.144836 0.608374 0.000000
0.196340 0.608374 0.000000
0.247845 0.608374 0.000000
0.299349 0.608374 0.000000
0.350853 0.608374 0.000000
0.402357 0.608374 0.000000
0.453861 0.608374 0.000000
0.505365 0.608374 0.000000
0.556870 0.608374 0.000000
0.608374 0.608374 0.000000
0.659878 0.608374 0.000000
0.711382 0.608374 0.000000
0.762886 0.608374 0.000000
0.814391 0.608374 0.000000
0.000000 0.659878 0.000000
0.041828 0.659878 0.000000
0.093332 0.659878 0.000000
0.144836 0.659878 0.000000
0.196340 0.659878 0.000000
0.247845 0.659878 0.000000
0.299349 0.659878 0.000000
0.350853 0.659878 0.000000
0.402357 0.659878 0.000000
0.453861 0.659878 0.000000
0.505365 0.659878 0.000000
0.556870 0.659878 0.000000
0.608374 0.659878 0.000000
0.659878 0.659878 0.000000
0.711382 0.659878 0.000000
0.762886 0.659878 0.000000
0.814391 0.659878 0.000000
0.000000 0.711382 0.000000
0.041828 0.711382 0.000000
0.093332 0.711382 0.000000
0.144836 0.711382 0.000000
0.196340 0.711382 0.000000
0.247845 0.711382 0.000000
0.299349 0.711382 0.000000
0.350853 0.711382 0.000000
0.402357 0.711382 0.000000
0.453861 0.711382 0.000000
0.505365 0.711382 0.000000
0.556870 0.711382 0.000000
0.608374 0.711382 0.000000
0.659878 0.711382 0.000000
0.711382 0.711382 0.000000
0.762886 0.711382 0.000000
0.814391 0.711382 0.000000
0.000000 0.762886 0.000000
0.041828 0.762886 0.000000
0.093332 0.762886 0.000000
0.144836 0.762886 0.000000
0.196340 0.762886 0.000000
0.247845 0.762886 0.000000
0.299349 0.762886 0.000000
0.350853 0.762886 0.000000
0.402357 0.762886 0.000000
0.453861 0.762886 0.000000
0.505365 0.762886 0.000000
0.556870 0.762886 0.000000
0.608374 0.762886 0.000000
0.659878 0.762886 0.000000
0.711382 0.762886 0.000000
0.762886 0.762886 0.000000
0.814391 0.762886 0.000000
0.000000 0.814391 0.000000
0.041828 0.814391 0.000000
0.093332 0.814391 0.000000
0.144836 0.814391 0.000000
0.196340 0.814391 0.000000
0.247845 0.814391 0.000000
0.299349 0.814391 0.000000
0.350853 0.814391 0.000000
0.402357 0.814391 0.000000
0.453861 0.814391 0.000000
0.505365 0.814391 0.000000
0.556870 0.814391 0.000000
0.608374 0.814391 0.000000
0.659878 0.814391 0.000000
0.711382 0.814391 0.000000
0.762886 0.814391 0.000000
0.814391 0.814391 0.000000
0.000000 0.000000 0.041828
0.041828 0.000000 0.041828
0.093332 0.000000 0.041828
0.144836 0.000000 0.041828
0.196340 0.000000 0.041828
0.247845 0.000000 0.041828
0.299349 0.000000 0.041828
0.350853 0.000000 0.041828
0.402357 0.000000 0.041828
0.453861 0.000000 0.041828
0.505365 0.000000 0.041828
0.556870 0.000000 0.041828
0.608374 0.000000 0.041828
0.659878 0.000000 0.041828
0.711382 0.000000 0.041828
0.762886 0.000000 0.041828
0.814391 0.000000 0.041828
0.000000 0.041828 0.041828
0.041828 0.041828 0.041828
0.093332 0.041828 0.041828
0.144836 0.041828 0.041828
0.196340 0.041828 0.041828
0.247845 0.041828 0.041828
0.299349 0.041828 0.041828
0.350853 0.041828 0.041828
0.402357 0.041828 0.041828
0.453861 0.041828 0.041828
0.505365 0.041828 0.041828
0.556870 0.041828 0.041828
0.608374 0.041828 0.041828
0.659878 0.041828 0.041828
0.711382 0.041828 0.041828
0.762886 0.041828 0.041828
0.814391 0.041828 0.041828
0.000000 0.093332 0.041828
0.041828 0.093332 0.041828
0.093332 0.093332 0.041828
0.144836 0.093332 0.041828
0.196340 0.093332 0.041828
0.247845 0.093332 0.041828
0.299349 0.093332 0.041828
0.350853 0.093332 0.041828
0.402357 0.093332 0.041828
0.453861 0.093332 0.041828
0.505365 0.093332 0.041828
0.556870 0.093332 0.041828
0.608374 0.093332 0.041828
0.659878 0.093332 0.041828
0.711382 0.093332 0.041828
0.762886 0.093332 0.041828
0.814391 0.093332 0.041828
0.000000 0.144836 0.041828
0.041828 0.144836 0.041828
0.093332 0.144836 0.041828
0.144836 0.144836 0.041828
0.196340 0.144836 0.041828
0.247845 0.144836 0.041828
0.299349 0.144836 0.041828
0.350853 0.144836 0.041828
0.402357 0.144836 0.041828
0.453861 0.144836 0.041828
0.505365 0.144836 0.041828
0.556870 0.144836 0.041828
0.608374 0.144836 0.041828
0.659878 0.144836 0.041828
0.711382 0.144836 0.041828
0.762886 0.144836 0.041828
0.814391 0.144836 0.041828
0.000000 0.196340 0.041828
0.041828 0.196340 0.041828
0.093332 0.196340 0.041828
0.144836 0.196340 0.041828
0.196340 0.196340 0.041828
0.247845 0.196340 0.041828
0.299349 0.196340 0.041828
0.350853 0.196340 0.041828
0.402357 0.196340 0.041828
0.453861 0.196340 0.041828
0.505365 0.196340 0.041828
0.556870 0.196340 0.041828
0.608374 0.196340 0.041828
0.659878 0.196340 0.041828
0.711382 0.196340 0.041828
0.762886 0.196340 0.041828
0.814391 0.196340 0.041828
0.000000 0.247845 0.041828
0.041828 0.247845 0.041828
0.093332 0.247845 0.041828
0.144836 0.247845 0.041828
0.196340 0.247845 0.041828
0.247845 0.247845 0.041828
0.299349 0.247845 0.041828
0.350853 0.247845 0.041828
0.402357 0.247845 0.041828
0.453861 0.247845 0.041828
0.505365 0.247845 0.041828
0.556870 0.247845 0.041828
0.608374 0.247845 0.041828
0.659878 0.247845 0.041828
0.711382 0.247845 0.041828
0.762886 0.247845 0.041828
0.814391 0.247845 0.041828
0.000000 0.299349 0.041828
0.041828 0.299349 0.041828
0.093332 0.299349 0.041828
0.144836 0.299349 0.041828
0.196340 0.299349 0.041828
0.247845 0.299349 0.041828
0.299349 0.299349 0.041828
0.350853 0.299349 0.041828
0.402357 0.299349 0.041828
0.453861 0.299349 0.041828
0.505365 0.299349 0.041828
0.556870 0.299349 0.041828
0.608374 0.299349 0.041828
0.659878 0.299349 0.041828
0.711382 0.299349 0.041828
0.762886 0.299349 0.041828
0.814391 0.299349 0.041828
0.000000 0.350853 0.041828
0.041828 0.350853 0.041828
0.093332 0.350853 0.041828
0.144836 0.350853 0.041828
0.196340 0.350853 0.041828
0.247845 0.350853 0.041828
0.299349 0.350853 0.041828
0.350853 0.350853 0.041828
0.402357 0.350853 0.041828
0.453861 0.350853 0.041828
0.505365 0.350853 0.041828
0.556870 0.350853 0.041828
0.608374 0.350853 0.041828
0.659878 0.350853 0.041828
0.711382 0.350853 0.041828
0.762886 0.350853 0.041828
0.814391 0.350853 0.041828
0.000000 0.402357 0.041828
0.041828 0.402357 0.041828
0.093332 0.402357 0.041828
0.144836 0.402357 0.041828
0.196340 0.402357 0.041828
0.247845 0.402357 0.041828
0.299349 0.402357 0.041828
0.350853 0.402357 0.041828
0.402357 0.402357 0.041828
0.453861 0.402357 0.041828
0.505365 0.402357 0.041828
0.556870 0.402357 0.041828
0.608374 0.402357 0.041828
0.659878 0.402357 0.041828
0.711382 0.402357 0.041828
0.762886 0.402357 0.041828
0.814391 0.402357 0.041828
0.000000 0.453861 0.041828
0.041828 0.453861 0.041828
0.093332 0.453861 0.041828
0.144836 0.453861 0.041828
0.196340 0.453861 0.041828
0.247845 0.453861 0.041828
0.299349 0.453861 0.041828
0.350853 0.453861 0.041828
0.402357 0.453861 0.041828
0.453861 0.453861 0.041828
0.505365 0.453861 0.041828
0.556870 0.453861 0.041828
0.608374 0.453861 0.041828
0.659878 0.453861 0.041828
0.711382 0.453861 0.041828
0.762886 0.453861 0.041828
0.814391 0.453861 0.041828
0.000000 0.505365 0.041828
0.041828 0.505365 0.041828
0.093332 0.505365 0.041828
0.144836 0.505365 0.041828
0.196340 0.505365 0.041828
0.247845 0.505365 0.041828
0.299349 0.505365 0.041828
0.350853 0.505365 0.041828
0.402357 0.505365 0.041828
0.453861 0.505365 0.041828
0.505365 0.505365 0.041828
0.556870 0.505365 0.041828
0.608374 0.505365 0.041828
0.659878 0.505365 0.041828
0.711382 0.505365 0.041828
0.762886 0.505365 0.041828
0.814391 0.505365 0.041828
0.000000 0.556870 0.041828
0.041828 0.556870 0.041828
0.093332 0.556870 0.041828
0.144836 0.556870 0.041828
0.196340 0.556870 0.041828
0.247845 0.556870 0.041828
0.299349 0.556870 0.041828
0.350853 0.556870 0.041828
0.402357 0.556870 0.041828
0.453861 0.556870 0.041828
0.505365 0.556870 0.041828
0.556870 0.556870 0.041828
0.608374 0.556870 0.041828
0.659878 0.556870 0.041828
0.711382 0.556870 0.041828
0.762886 0.556870 0.041828
0.814391 0.556870 0.041828
0.000000 0.608374 0.041828
0.041828 0.608374 0.041828
0.093332 0.608374 0.041828
0.144836 0.608374 0.041828
0.196340 0.608374 0.041828
0.247845 0.608374 0.041828
0.299349 0.608374 0.041828
0.350853 0.608374 0.041828
0.402357 0.608374 0.041828
0.453861 0.608374 0.041828
0.505365 0.608374 0.041828
0.556870 0.608374 0.041828
0.608374 0.608374 0.041828
0.659878 0.608374 0.041828
0.711382 0.608374 0.041828
0.762886 0.608374 0.041828
0.814391 0.608374 0.041828
0.000000 0.659878 0.041828
0.041828 0.659878 0.041828
0.093332 0.659878 0.041828
0.144836 0.659878 0.041828
0.196340 0.659878 0.041828
0.247845 0.659878 0.041828
0.299349 0.659878 0.041828
0.350853 0.659878 0.041828
0.402357 0.659878 0.041828
0.453861 0.659878 0.041828
0.505365 0.659878 0.041828
0.556870 0.659878 0.041828
0.608374 0.659878 0.041828
0.659878 0.659878 0.041828
0.711382 0.659878 0.041828
0.762886 0.659878 0.041828
0.814391 0.659878 0.041828
0.000000 0.711382 0.041828
0.041828 0.711382 0.041828
0.093332 0.711382 0.041828
0.144836 0.711382 0.041828
0.196340 0.711382 0.041828
0.247845 0.711382 0.041828
0.299349 0.711382 0.041828
0.350853 0.711382 0.041828
0.402357 0.711382 0.041828
0.453861 0.711382 0.041828
0.505365 0.711382 0.041828
0.556870 0.711382 0.041828
0.608374 0.711382 0.041828
0.659878 0.711382 0.041828
0.711382 0.711382 0.041828
0.762886 0.711382 0.041828
0.814391 0.711382 0.041828
0.000000 0.762886 0.041828
0.041828 0.762886 0.041828
0.093332 0.762886 0.041828
0.144836 0.762886 0.041828
0.196340 0.762886 0.041828
0.247845 0.762886 0.041828
0.299349 0.762886 0.041828
0.350853 0.762886 0.041828
0.402357 0.762886 0.041828
0.453861 0.762886 0.041828
0.505365 0.762886 0.041828
0.556870 0.762886 0.041828
0.608374 0.762886 0.041828
0.659878 0.762886 0.041828
0.711382 0.762886 0.041828
0.762886 0.762886 0.041828
0.814391 0.762886 0.041828
0.000000 0.814391 0.041828
0.041828 0.814391 0.041828
0.093332 0.814391 0.041828
0.144836 0.814391 0.041828
0.196340 0.814391 0.041828
0.247845 0.814391 0.041828
0.299349 0.814391 0.041828
0.350853 0.814391 0.041828
0.402357 0.814391 0.041828
0.453861 0.814391 0.041828
0.505365 0.814391 0.041828
0.556870 0.814391 0.041828
0.608374 0.814391 0.041828
0.659878 0.814391 0.041828
0.711382 0.814391 0.041828
0.762886 0.814391 0.041828
0.814391 0.814391 0.041828
0.000000 0.000000 0.093332
0.041828 0.000000 0.093332
0.093332 0.000000 0.093332
0.144836 0.000000 0.093332
0.196340 0.000000 0.093332
0.247845 0.000000 0.093332
0.299349 0.000000 0.093332
0.350853 0.000000 0.093332
0.402357 0.000000 0.093332
0.453861 0.000000 0.093332
0.505365 0.000000 0.093332
0.556870 0.000000 0.093332
0.608374 0.000000 0.093332
0.659878 0.000000 0.093332
0.711382 0.000000 0.093332
0.762886 0.000000 0.093332
0.814391 0.000000 0.093332
0.000000 0.041828 0.093332
0.041828 0.041828 0.093332
0.093332 0.041828 0.093332
0.144836 0.041828 0.093332
0.196340 0.041828 0.093332
0.247845 0.041828 0.093332
0.299349 0.041828 0.093332
0.350853 0.041828 0.093332
0.402357 0.041828 0.093332
0.453861 0.041828 0.093332
0.505365 0.041828 0.093332
0.556870 0.041828 0.093332
0.608374 0.041828 0.093332
0.659878 0.041828 0.093332
0.711382 0.041828 0.093332
0.762886 0.041828 0.093332
0.814391 0.041828 0.093332
0.000000 0.093332 0.093332
0.041828 0.093332 0.093332
0.093332 0.093332 0.093332
0.144836 0.093332 0.093332
0.196340 0.093332 0.093332
0.247845 0.093332 0.093332
0.299349 0.093332 0.093332
0.350853 0.093332 0.093332
0.402357 0.093332 0.093332
0.453861 0.093332 0.093332
0.505365 0.093332 0.093332
0.556870 0.093332 0.093332
0.608374 0.093332 0.093332
0.659878 0.093332 0.093332
0.711382 0.093332 0.093332
0.762886 0.093332 0.093332
0.814391 0.093332 0.093332
0.000000 0.144836 0.093332
0.041828 0.144836 0.093332
0.093332 0.144836 0.093332
0.144836 0.144836 0.093332
0.196340 0.144836 0.093332
0.247845 0.144836 0.093332
0.299349 0.144836 0.093332
0.350853 0.144836 0.093332
0.402357 0.144836 0.093332
0.453861 0.144836 0.093332
0.505365 0.144836 0.093332
0.556870 0.144836 0.093332
0.608374 0.144836 0.093332
0.659878 0.144836 0.093332
0.711382 0.144836 0.093332
0.762886 0.144836 0.093332
0.814391 0.144836 0.093332
0.000000 0.196340 0.093332
0.041828 0.196340 0.093332
0.093332 0.196340 0.093332
0.144836 0.196340 0.093332
0.196340 0.196340 0.093332
0.247845 0.196340 0.093332
0.299349 0.196340 0.093332
0.350853 0.196340 0.093332
0.402357 0.196340 0.093332
0.453861 0.196340 0.093332
0.505365 0.196340 0.093332
0.556870 0.196340 0.093332
0.608374 0.196340 0.093332
0.659878 0.196340 0.093332
0.711382 0.196340 0.093332
0.762886 0.196340 0.093332
0.814391 0.196340 0.093332
0.000000 0.247845 0.093332
0.041828 0.247845 0.093332
0.093332 0.247845 0.093332
0.144836 0.247845 0.093332
0.196340 0.247845 0.093332
0.247845 0.247845 0.093332
0.299349 0.247845 0.093332
0.350853 0.247845 0.093332
0.402357 0.247845 0.093332
0.453861 0.247845 0.093332
0.505365 0.247845 0.093332
0.556870 0.247845 0.093332
0.608374 0.247845 0.093332
0.659878 0.247845 0.093332
0.711382 0.247845 0.093332
0.762886 0.247845 0.093332
0.814391 0.247845 0.093332
0.000000 0.299349 0.093332
0.041828 0.299349 0.093332
0.093332 0.299349 0.093332
0.144836 0.299349 0.093332
0.196340 0.299349 0.093332
0.247845 0.299349 0.093332
0.299349 0.299349 0.093332
0.350853 0.299349 0.093332
0.402357 0.299349 0.093332
0.453861 0.299349 0.093332
0.505365 0.299349 0.093332
0.556870 0.299349 0.093332
0.608374 0.299349 0.093332
0.659878 0.299349 0.093332
0.711382 0.299349 0.093332
0.762886 0.299349 0.093332
0.814391 0.299349 0.093332
0.000000 0.350853 0.093332
0.041828 0.350853 0.093332
0.093332 0.350853 0.093332
0.144836 0.350853 0.093332
0.196340 0.350853 0.093332
0.247845 0.350853 0.093332
0.299349 0.350853 0.093332
0.350853 0.350853 0.093332
0.402357 0.350853 0.093332
0.453861 0.350853 0.093332
0.505365 0.350853 0.093332
0.556870 0.350853 0.093332
0.608374 0.350853 0.093332
0.659878 0.350853 0.093332
0.711382 0.350853 0.093332
0.762886 0.350853 0.093332
0.814391 0.350853 0.093332
0.000000 0.402357 0.093332
0.041828 0.402357 0.093332
0.093332 0.402357 0.093332
0.144836 0.402357 0.093332
0.196340 0.402357 0.093332
0.247845 0.402357 0.093332
0.299349 0.402357 0.093332
0.350853 0.402357 0.093332
0.402357 0.402357 0.093332
0.453861 0.402357 0.093332
0.505365 0.402357 0.093332
0.556870 0.402357 0.093332
0.608374 0.402357 0.093332
0.659878 0.402357 0.093332
0.711382 0.402357 0.093332
0.762886 0.402357 0.093332
0.814391 0.402357 0.093332
0.000000 0.453861 0.093332
0.041828 0.453861 0.093332
0.093332 0.453861 0.093332
0.144836 0.453861 0.093332
0.196340 0.453861 0.093332
0.247845 0.453861 0.093332
0.299349 0.453861 0.093332
0.350853 0.453861 0.093332
0.402357 0.453861 0.093332
0.453861 0.453861 0.093332
0.505365 0.453861 0.093332
0.556870 0.453861 0.093332
0.608374 0.453861 0.093332
0.659878 0.453861 0.093332
0.711382 0.453861 0.093332
0.762886 0.453861 0.093332
0.814391 0.453861 0.093332
0.000000 0.505365 0.093332
0.041828 0.505365 0.093332
0.093332 0.505365 0.093332
0.144836 0.505365 0.093332
0.196340 0.505365 0.093332
0.247845 0.505365 0.093332
0.299349 0.505365 0.093332
0.350853 0.505365 0.093332
0.402357 0.505365 0.093332
0.453861 0.505365 0.093332
0.505365 0.505365 0.093332
0.556870 0.505365 0.093332
0.608374 0.505365 0.093332
0.659878 0.505365 0.093332
0.711382 0.505365 0.093332
0.762886 0.505365 0.093332
0.814391 0.505365 0.093332
0.000000 0.556870 0.093332
0.041828 0.556870 0.093332
0.093332 0.556870 0.093332
0.144836 0.556870 0.093332
0.196340 0.556870 0.093332
0.247845 0.556870 0.093332
0.299349 0.556870 0.093332
0.350853 0.556870 0.093332
0.402357 0.556870 0.093332
0.453861 0.556870 0.093332
0.505365 0.556870 0.093332
0.556870 0.556870 0.093332
0.608374 0.556870 0.093332
0.659878 0.556870 0.093332
0.711382 0.556870 0.093332
0.762886 0.556870 0.093332
0.814391 0.556870 0.093332
0.000000 0.608374 0.093332
0.041828 0.608374 0.093332
0.093332 0.608374 0.093332
0.144836 0.608374 0.093332
0.196340 0.608374 0.093332
0.247845 0.608374 0.093332
0.299349 0.608374 0.093332
0.350853 0.608374 0.093332
0.402357 0.608374 0.093332
0.453861 0.608374 0.093332
0.505365 0.608374 0.093332
0.556870 0.608374 0.093332
0.608374 0.608374 0.093332
0.659878 0.608374 0.093332
0.711382 0.608374 0.093332
0.762886 0.608374 0.093332
0.814391 0.608374 0.093332
0.000000 0.659878 0.093332
0.041828 0.659878 0.093332
0.093332 0.659878 0.093332
0.144836 0.659878 0.093332
0.196340 0.659878 0.093332
0.247845 0.659878 0.093332
0.299349 0.659878 0.093332
0.350853 0.659878 0.093332
0.402357 0.659878 0.093332
0.453861 0.659878 0.093332
0.505365 0.659878 0.093332
0.556870 0.659878 0.093332
0.608374 0.659878 0.093332
0.659878 0.659878 0.093332
0.711382 0.659878 0.093332
0.762886 0.659878 0.093332
0.814391 0.659878 0.093332
0.000000 0.711382 0.093332
0.041828 0.711382 0.093332
0.093332 0.711382 0.093332
0.144836 0.711382 0.093332
0.196340 0.711382 0.093332
0.247845 0.711382 0.093332
0.299349 0.711382 0.093332
0.350853 0.711382 0.093332
0.402357 0.711382 0.093332
0.453861 0.711382 0.093332
0.505365 0.711382 0.093332
0.556870 0.711382 0.093332
0.608374 0.711382 0.093332
0.659878 0.711382 0.093332
0.711382 0.711382 0.093332
0.762886 0.711382 0.093332
0.814391 0.711382 0.093332
0.000000 0.762886 0.093332
0.041828 0.762886 0.093332
0.093332 0.762886 0.093332
0.144836 0.762886 0.093332
0.196340 0.762886 0.093332
0.247845 0.762886 0.093332
0.299349 0.762886 0.093332
0.350853 0.762886 0.093332
0.402357 0.762886 0.093332
0.453861 0.762886 0.093332
0.505365 0.762886 0.093332
0.556870 0.762886 0.093332
0.608374 0.762886 0.093332
0.659878 0.762886 0.093332
0.711382 0.762886 0.093332
0.762886 0.762886 0.093332
0.814391 0.762886 0.093332
0.000000 0.814391 0.093332
0.041828 0.814391 0.093332
0.093332 0.814391 0.093332
0.144836 0.814391 0.093332
0.196340 0.814391 0.093332
0.247845 0.814391 0.093332
0.299349 0.814391 0.093332
0.350853 0.814391 0.093332
0.402357 0.814391 0.093332
0.453861 0.814391 0.093332
0.505365 0.814391 0.093332
0.556870 0.814391 0.093332
0.608374 0.814391 0.093332
0.659878 0.814391 0.093332
0.711382 0.814391 0.093332
0.762886 0.814391 0.093332
0.814391 0.814391 0.093332
0.000000 0.000000 0.144836
0.041828 0.000000 0.144836
0.093332 0.000000 0.144836
0.144836 0.000000 0.144836
0.196340 0.000000 0.144836
0.247845 0.000000 0.144836
0.299349 0.000000 0.144836
0.350853 0.000000 0.144836
0.402357 0.000000 0.144836
0.453861 0.000000 0.144836
0.505365 0.000000 0.144836
0.556870 0.000000 0.144836
0.608374 0.000000 0.144836
0.659878 0.000000 0.144836
0.711382 0.000000 0.144836
0.762886 0.000000 0.144836
0.814391 0.000000 0.144836
0.000000 0.041828 0.144836
0.041828 0.041828 0.144836
0.093332 0.041828 0.144836
