assets/presets/luts/exposure-minus/lut.cube
TITLE "Exposure −"
LUT_3D_SIZE 9
0.000000 0.000000 0.000000
0.093332 0.000000 0.000000
0.196340 0.000000 0.000000
0.299349 0.000000 0.000000
0.402357 0.000000 0.000000
0.505365 0.000000 0.000000
0.608374 0.000000 0.000000
0.711382 0.000000 0.000000
0.814391 0.000000 0.000000
0.000000 0.093332 0.000000
0.093332 0.093332 0.000000
0.196340 0.093332 0.000000
0.299349 0.093332 0.000000
0.402357 0.093332 0.000000
0.505365 0.093332 0.000000
0.608374 0.093332 0.000000
0.711382 0.093332 0.000000
0.814391 0.093332 0.000000
0.000000 0.196340 0.000000
0.093332 0.196340 0.000000
0.196340 0.196340 0.000000
0.299349 0.196340 0.000000
0.402357 0.196340 0.000000
0.505365 0.196340 0.000000
0.608374 0.196340 0.000000
0.711382 0.196340 0.000000
0.814391 0.196340 0.000000
0.000000 0.299349 0.000000
0.093332 0.299349 0.000000
0.196340 0.299349 0.000000
0.299349 0.299349 0.000000
0.402357 0.299349 0.000000
0.505365 0.299349 0.000000
0.608374 0.299349 0.000000
0.711382 0.299349 0.000000
0.814391 0.299349 0.000000
0.000000 0.402357 0.000000
0.093332 0.402357 0.000000
0.196340 0.402357 0.000000
0.299349 0.402357 0.000000
0.402357 0.402357 0.000000
0.505365 0.402357 0.000000
0.608374 0.402357 0.000000
0.711382 0.402357 0.000000
0.814391 0.402357 0.000000
0.000000 0.505365 0.000000
0.093332 0.505365 0.000000
0.196340 0.505365 0.000000
0.299349 0.505365 0.000000
0.402357 0.505365 0.000000
0.505365 0.505365 0.000000
0.608374 0.505365 0.000000
0.711382 0.505365 0.000000
0.814391 0.505365 0.000000
0.000000 0.608374 0.000000
0.093332 0.608374 0.000000
0.196340 0.608374 0.000000
0.299349 0.608374 0.000000
0.402357 0.608374 0.000000
0.505365 0.608374 0.000000
0.608374 0.608374 0.000000
0.711382 0.608374 0.000000
0.814391 0.608374 0.000000
0.000000 0.711382 0.000000
0.093332 0.711382 0.000000
0.196340 0.711382 0.000000
0.299349 0.711382 0.000000
0.402357 0.711382 0.000000
0.505365 0.711382 0.000000
0.608374 0.711382 0.000000
0.711382 0.711382 0.000000
0.814391 0.711382 0.000000
0.000000 0.814391 0.000000
0.093332 0.814391 0.000000
0.196340 0.814391 0.000000
0.299349 0.814391 0.000000
0.402357 0.814391 0.000000
0.505365 0.814391 0.000000
0.608374 0.814391 0.000000
0.711382 0.814391 0.000000
0.814391 0.814391 0.000000
0.000000 0.000000 0.093332
0.093332 0.000000 0.093332
0.196340 0.000000 0.093332
0.299349 0.000000 0.093332
0.402357 0.000000 0.093332
0.505365 0.000000 0.093332
0.608374 0.000000 0.093332
0.711382 0.000000 0.093332
0.814391 0.000000 0.093332
0.000000 0.093332 0.093332
0.093332 0.093332 0.093332
0.196340 0.093332 0.093332
0.299349 0.093332 0.093332
0.402357 0.093332 0.093332
0.505365 0.093332 0.093332
0.608374 0.093332 0.093332
0.711382 0.093332 0.093332
0.814391 0.093332 0.093332
0.000000 0.196340 0.093332
0.093332 0.196340 0.093332
0.196340 0.196340 0.093332
0.299349 0.196340 0.093332
0.402357 0.196340 0.093332
0.505365 0.196340 0.093332
0.608374 0.196340 0.093332
0.711382 0.196340 0.093332
0.814391 0.196340 0.093332
0.000000 0.299349 0.093332
0.093332 0.299349 0.093332
0.196340 0.299349 0.093332
0.299349 0.299349 0.093332
0.402357 0.299349 0.093332
0.505365 0.299349 0.093332
0.608374 0.299349 0.093332
0.711382 0.299349 0.093332
0.814391 0.299349 0.093332
0.000000 0.402357 0.093332
0.093332 0.402357 0.093332
0.196340 0.402357 0.093332
0.299349 0.402357 0.093332
0.402357 0.402357 0.093332
0.505365 0.402357 0.093332
0.608374 0.402357 0.093332
0.711382 0.402357 0.093332
0.814391 0.402357 0.093332
0.000000 0.505365 0.093332
0.093332 0.505365 0.093332
0.196340 0.505365 0.093332
0.299349 0.505365 0.093332
0.402357 0.505365 0.093332
0.505365 0.505365 0.093332
0.608374 0.505365 0.093332
0.711382 0.505365 0.093332
0.814391 0.505365 0.093332
0.000000 0.608374 0.093332
0.093332 0.608374 0.093332
0.196340 0.608374 0.093332
0.299349 0.608374 0.093332
0.402357 0.608374 0.093332
0.505365 0.608374 0.093332
0.608374 0.608374 0.093332
0.711382 0.608374 0.093332
0.814391 0.608374 0.093332
0.000000 0.711382 0.093332
0.093332 0.711382 0.093332
0.196340 0.711382 0.093332
0.299349 0.711382 0.093332
0.402357 0.711382 0.093332
0.505365 0.711382 0.093332
0.608374 0.711382 0.093332
0.711382 0.711382 0.093332
0.814391 0.711382 0.093332
0.000000 0.814391 0.093332
0.093332 0.814391 0.093332
0.196340 0.814391 0.093332
0.299349 0.814391 0.093332
0.402357 0.814391 0.093332
0.505365 0.814391 0.093332
0.608374 0.814391 0.093332
0.711382 0.814391 0.093332
0.814391 0.814391 0.093332
0.000000 0.000000 0.196340
0.093332 0.000000 0.196340
0.196340 0.000000 0.196340
0.299349 0.000000 0.196340
0.402357 0.000000 0.196340
0.505365 0.000000 0.196340
0.608374 0.000000 0.196340
0.711382 0.000000 0.196340
0.814391 0.000000 0.196340
0.000000 0.093332 0.196340
0.093332 0.093332 0.196340
0.196340 0.093332 0.196340
0.299349 0.093332 0.196340
0.402357 0.093332 0.196340
0.505365 0.093332 0.196340
0.608374 0.093332 0.196340
0.711382 0.093332 0.196340
0.814391 0.093332 0.196340
0.000000 0.196340 0.196340
0.093332 0.196340 0.196340
0.196340 0.196340 0.196340
0.299349 0.196340 0.196340
0.402357 0.196340 0.196340
0.505365 0.196340 0.196340
0.608374 0.196340 0.196340
0.711382 0.196340 0.196340
0.814391 0.196340 0.196340
0.000000 0.299349 0.196340
0.093332 0.299349 0.196340
0.196340 0.299349 0.196340
0.299349 0.299349 0.196340
0.402357 0.299349 0.196340
0.505365 0.299349 0.196340
0.608374 0.299349 0.196340
0.711382 0.299349 0.196340
0.814391 0.299349 0.196340
0.000000 0.402357 0.196340
0.093332 0.402357 0.196340
0.196340 0.402357 0.196340
0.299349 0.402357 0.196340
0.402357 0.402357 0.196340
0.505365 0.402357 0.196340
0.608374 0.402357 0.196340
0.711382 0.402357 0.196340
0.814391 0.402357 0.196340
0.000000 0.505365 0.196340
0.093332 0.505365 0.196340
0.196340 0.505365 0.196340
0.299349 0.505365 0.196340
0.402357 0.505365 0.196340
0.505365 0.505365 0.196340
0.608374 0.505365 0.196340
0.711382 0.505365 0.196340
0.814391 0.505365 0.196340
0.000000 0.608374 0.196340
0.093332 0.608374 0.196340
0.196340 0.608374 0.196340
0.299349 0.608374 0.196340
0.402357 0.608374 0.196340
0.505365 0.608374 0.196340
0.608374 0.608374 0.196340
0.711382 0.608374 0.196340
0.814391 0.608374 0.196340
0.000000 0.711382 0.196340
0.093332 0.711382 0.196340
0.196340 0.711382 0.196340
0.299349 0.711382 0.196340
0.402357 0.711382 0.196340
0.505365 0.711382 0.196340
0.608374 0.711382 0.196340
0.711382 0.711382 0.196340
0.814391 0.711382 0.196340
0.000000 0.814391 0.196340
0.093332 0.814391 0.196340
0.196340 0.814391 0.196340
0.299349 0.814391 0.196340
0.402357 0.814391 0.196340
0.505365 0.814391 0.196340
0.608374 0.814391 0.196340
0.711382 0.814391 0.196340
0.814391 0.814391 0.196340
0.000000 0.000000 0.299349
0.093332 0.000000 0.299349
0.196340 0.000000 0.299349
0.299349 0.000000 0.299349
0.402357 0.000000 0.299349
0.505365 0.000000 0.299349
0.608374 0.000000 0.299349
0.711382 0.000000 0.299349
0.814391 0.000000 0.299349
0.000000 0.093332 0.299349
0.093332 0.093332 0.299349
0.196340 0.093332 0.299349
0.299349 0.093332 0.299349
0.402357 0.093332 0.299349
0.505365 0.093332 0.299349
0.608374 0.093332 0.299349
0.711382 0.093332 0.299349
0.814391 0.093332 0.299349
0.000000 0.196340 0.299349
0.093332 0.196340 0.299349
0.196340 0.196340 0.299349
0.299349 0.196340 0.299349
0.402357 0.196340 0.299349
0.505365 0.196340 0.299349
0.608374 0.196340 0.299349
0.711382 0.196340 0.299349
0.814391 0.196340 0.299349
0.000000 0.299349 0.299349
0.093332 0.299349 0.299349
0.196340 0.299349 0.299349
0.299349 0.299349 0.299349
0.402357 0.299349 0.299349
0.505365 0.299349 0.299349
0.608374 0.299349 0.299349
0.711382 0.299349 0.299349
0.814391 0.299349 0.299349
0.000000 0.402357 0.299349
0.093332 0.402357 0.299349
0.196340 0.402357 0.299349
0.299349 0.402357 0.299349
0.402357 0.402357 0.299349
0.505365 0.402357 0.299349
0.608374 0.402357 0.299349
0.711382 0.402357 0.299349
0.814391 0.402357 0.299349
0.000000 0.505365 0.299349
0.093332 0.505365 0.299349
0.196340 0.505365 0.299349
0.299349 0.505365 0.299349
0.402357 0.505365 0.299349
0.505365 0.505365 0.299349
0.608374 0.505365 0.299349
0.711382 0.505365 0.299349
0.814391 0.505365 0.299349
0.000000 0.608374 0.299349
0.093332 0.608374 0.299349
0.196340 0.608374 0.299349
0.299349 0.608374 0.299349
0.402357 0.608374 0.299349
0.505365 0.608374 0.299349
0.608374 0.608374 0.299349
0.711382 0.608374 0.299349
0.814391 0.608374 0.299349
0.000000 0.711382 0.299349
0.093332 0.711382 0.299349
0.196340 0.711382 0.299349
0.299349 0.711382 0.299349
0.402357 0.711382 0.299349
0.505365 0.711382 0.299349
0.608374 0.711382 0.299349
0.711382 0.711382 0.299349
0.814391 0.711382 0.299349
0.000000 0.814391 0.299349
0.093332 0.814391 0.299349
0.196340 0.814391 0.299349
0.299349 0.814391 0.299349
0.402357 0.814391 0.299349
0.505365 0.814391 0.299349
0.608374 0.814391 0.299349
0.711382 0.814391 0.299349
0.814391 0.814391 0.299349
0.000000 0.000000 0.402357
0.093332 0.000000 0.402357
0.196340 0.000000 0.402357
0.299349 0.000000 0.402357
0.402357 0.000000 0.402357
0.505365 0.000000 0.402357
0.608374 0.000000 0.402357
0.711382 0.000000 0.402357
0.814391 0.000000 0.402357
0.000000 0.093332 0.402357
0.093332 0.093332 0.402357
0.196340 0.093332 0.402357
0.299349 0.093332 0.402357
0.402357 0.093332 0.402357
0.505365 0.093332 0.402357
0.608374 0.093332 0.402357
0.711382 0.093332 0.402357
0.814391 0.093332 0.402357
0.000000 0.196340 0.402357
0.093332 0.196340 0.402357
0.196340 0.196340 0.402357
0.299349 0.196340 0.402357
0.402357 0.196340 0.402357
0.505365 0.196340 0.402357
0.608374 0.196340 0.402357
0.711382 0.196340 0.402357
0.814391 0.196340 0.402357
0.000000 0.299349 0.402357
0.093332 0.299349 0.402357
0.196340 0.299349 0.402357
0.299349 0.299349 0.402357
0.402357 0.299349 0.402357
0.505365 0.299349 0.402357
0.608374 0.299349 0.402357
0.711382 0.299349 0.402357
0.814391 0.299349 0.402357
0.000000 0.402357 0.402357
0.093332 0.402357 0.402357
0.196340 0.402357 0.402357
0.299349 0.402357 0.402357
0.402357 0.402357 0.402357
0.505365 0.402357 0.402357
0.608374 0.402357 0.402357
0.711382 0.402357 0.402357
0.814391 0.402357 0.402357
0.000000 0.505365 0.402357
0.093332 0.505365 0.402357
0.196340 0.505365 0.402357
0.299349 0.505365 0.402357
0.402357 0.505365 0.402357
0.505365 0.505365 0.402357
0.608374 0.505365 0.402357
0.711382 0.505365 0.402357
0.814391 0.505365 0.402357
0.000000 0.608374 0.402357
0.093332 0.608374 0.402357
0.196340 0.608374 0.402357
0.299349 0.608374 0.402357
0.402357 0.608374 0.402357
0.505365 0.608374 0.402357
0.608374 0.608374 0.402357
0.711382 0.608374 0.402357
0.814391 0.608374 0.402357
0.000000 0.711382 0.402357
0.093332 0.711382 0.402357
0.196340 0.711382 0.402357
0.299349 0.711382 0.402357
0.402357 0.711382 0.402357
0.505365 0.711382 0.402357
0.608374 0.711382 0.402357
0.711382 0.711382 0.402357
0.814391 0.711382 0.402357
0.000000 0.814391 0.402357
0.093332 0.814391 0.402357
0.196340 0.814391 0.402357
0.299349 0.814391 0.402357
0.402357 0.814391 0.402357
0.505365 0.814391 0.402357
0.608374 0.814391 0.402357
0.711382 0.814391 0.402357
0.814391 0.814391 0.402357
0.000000 0.000000 0.505365
0.093332 0.000000 0.505365
0.196340 0.000000 0.505365
0.299349 0.000000 0.505365
0.402357 0.000000 0.505365
0.505365 0.000000 0.505365
0.608374 0.000000 0.505365
0.711382 0.000000 0.505365
0.814391 0.000000 0.505365
0.000000 0.093332 0.505365
0.093332 0.093332 0.505365
0.196340 0.093332 0.505365
0.299349 0.093332 0.505365
0.402357 0.093332 0.505365
0.505365 0.093332 0.505365
0.608374 0.093332 0.505365
0.711382 0.093332 0.505365
0.814391 0.093332 0.505365
0.000000 0.196340 0.505365
0.093332 0.196340 0.505365
0.196340 0.196340 0.505365
0.299349 0.196340 0.505365
0.402357 0.196340 0.505365
0.505365 0.196340 0.505365
0.608374 0.196340 0.505365
0.711382 0.196340 0.505365
0.814391 0.196340 0.505365
0.000000 0.299349 0.505365
0.093332 0.299349 0.505365
0.196340 0.299349 0.505365
0.299349 0.299349 0.505365
0.402357 0.299349 0.505365
0.505365 0.299349 0.505365
0.608374 0.299349 0.505365
0.711382 0.299349 0.505365
0.814391 0.299349 0.505365
0.000000 0.402357 0.505365
0.093332 0.402357 0.505365
0.196340 0.402357 0.505365
0.299349 0.402357 0.505365
0.402357 0.402357 0.505365
0.505365 0.402357 0.505365
0.608374 0.402357 0.505365
0.711382 0.402357 0.505365
0.814391 0.402357 0.505365
0.000000 0.505365 0.505365
0.093332 0.505365 0.505365
0.196340 0.505365 0.505365
0.299349 0.505365 0.505365
0.402357 0.505365 0.505365
0.505365 0.505365 0.505365
0.608374 0.505365 0.505365
0.711382 0.505365 0.505365
0.814391 0.505365 0.505365
0.000000 0.608374 0.505365
0.093332 0.608374 0.505365
0.196340 0.608374 0.505365
0.299349 0.608374 0.505365
0.402357 0.608374 0.505365
0.505365 0.608374 0.505365
0.608374 0.608374 0.505365
0.711382 0.608374 0.505365
0.814391 0.608374 0.505365
0.000000 0.711382 0.505365
0.093332 0.711382 0.505365
0.196340 0.711382 0.505365
0.299349 0.711382 0.505365
0.402357 0.711382 0.505365
0.505365 0.711382 0.505365
0.608374 0.711382 0.505365
0.711382 0.711382 0.505365
0.814391 0.711382 0.505365
0.000000 0.814391 0.505365
0.093332 0.814391 0.505365
0.196340 0.814391 0.505365
0.299349 0.814391 0.505365
0.402357 0.814391 0.505365
0.505365 0.814391 0.505365
0.608374 0.814391 0.505365
0.711382 0.814391 0.505365
0.814391 0.814391 0.505365
0.000000 0.000000 0.608374
0.093332 0.000000 0.608374
0.196340 0.000000 0.608374
0.299349 0.000000 0.608374
0.402357 0.000000 0.608374
0.505365 0.000000 0.608374
0.608374 0.000000 0.608374
0.711382 0.000000 0.608374
0.814391 0.000000 0.608374
0.000000 0.093332 0.608374
0.093332 0.093332 0.608374
0.196340 0.093332 0.608374
0.299349 0.093332 0.608374
0.402357 0.093332 0.608374
0.505365 0.093332 0.608374
0.608374 0.093332 0.608374
0.711382 0.093332 0.608374
0.814391 0.093332 0.608374
0.000000 0.196340 0.608374
0.093332 0.196340 0.608374
0.196340 0.196340 0.608374
0.299349 0.196340 0.608374
0.402357 0.196340 0.608374
0.505365 0.196340 0.608374
0.608374 0.196340 0.608374
0.711382 0.196340 0.608374
0.814391 0.196340 0.608374
0.000000 0.299349 0.608374
0.093332 0.299349 0.608374
0.196340 0.299349 0.608374
0.299349 0.299349 0.608374
0.402357 0.299349 0.608374
0.505365 0.299349 0.608374
0.608374 0.299349 0.608374
0.711382 0.299349 0.608374
0.814391 0.299349 0.608374
0.000000 0.402357 0.608374
0.093332 0.402357 0.608374
0.196340 0.402357 0.608374
0.299349 0.402357 0.608374
0.402357 0.402357 0.608374
0.505365 0.402357 0.608374
0.608374 0.402357 0.608374
0.711382 0.402357 0.608374
0.814391 0.402357 0.608374
0.000000 0.505365 0.608374
0.093332 0.505365 0.608374
0.196340 0.505365 0.608374
0.299349 0.505365 0.608374
0.402357 0.505365 0.608374
0.505365 0.505365 0.608374
0.608374 0.505365 0.608374
0.711382 0.505365 0.608374
0.814391 0.505365 0.608374
0.000000 0.608374 0.608374
0.093332 0.608374 0.608374
0.196340 0.608374 0.608374
0.299349 0.608374 0.608374
0.402357 0.608374 0.608374
0.505365 0.608374 0.608374
0.608374 0.608374 0.608374
0.711382 0.608374 0.608374
0.814391 0.608374 0.608374
0.000000 0.711382 0.608374
0.093332 0.711382 0.608374
0.196340 0.711382 0.608374
0.299349 0.711382 0.608374
0.402357 0.711382 0.608374
0.505365 0.711382 0.608374
0.608374 0.711382 0.608374
0.711382 0.711382 0.608374
0.814391 0.711382 0.608374
0.000000 0.814391 0.608374
0.093332 0.814391 0.608374
0.196340 0.814391 0.608374
0.299349 0.814391 0.608374
0.402357 0.814391 0.608374
0.505365 0.814391 0.608374
0.608374 0.814391 0.608374
0.711382 0.814391 0.608374
0.814391 0.814391 0.608374
0.000000 0.000000 0.711382
0.093332 0.000000 0.711382
0.196340 0.000000 0.711382
0.299349 0.000000 0.711382
0.402357 0.000000 0.711382
0.505365 0.000000 0.711382
0.608374 0.000000 0.711382
0.711382 0.000000 0.711382
0.814391 0.000000 0.711382
0.000000 0.093332 0.711382
0.093332 0.093332 0.711382
0.196340 0.093332 0.711382
0.299349 0.093332 0.711382
0.402357 0.093332 0.711382
0.505365 0.093332 0.711382
0.608374 0.093332 0.711382
0.711382 0.093332 0.711382
0.814391 0.093332 0.711382
0.000000 0.196340 0.711382
0.093332 0.196340 0.711382
0.196340 0.196340 0.711382
0.299349 0.196340 0.711382
0.402357 0.196340 0.711382
0.505365 0.196340 0.711382
0.608374 0.196340 0.711382
0.711382 0.196340 0.711382
0.814391 0.196340 0.711382
0.000000 0.299349 0.711382
0.093332 0.299349 0.711382
0.196340 0.299349 0.711382
0.299349 0.299349 0.711382
0.402357 0.299349 0.711382
0.505365 0.299349 0.711382
0.608374 0.299349 0.711382
0.711382 0.299349 0.711382
0.814391 0.299349 0.711382
0.000000 0.402357 0.711382
0.093332 0.402357 0.711382
0.196340 0.402357 0.711382
0.299349 0.402357 0.711382
0.402357 0.402357 0.711382
0.505365 0.402357 0.711382
0.608374 0.402357 0.711382
0.711382 0.402357 0.711382
0.814391 0.402357 0.711382
0.000000 0.505365 0.711382
0.093332 0.505365 0.711382
0.196340 0.505365 0.711382
0.299349 0.505365 0.711382
0.402357 0.505365 0.711382
0.505365 0.505365 0.711382
0.608374 0.505365 0.711382
0.711382 0.505365 0.711382
0.814391 0.505365 0.711382
0.000000 0.608374 0.711382
0.093332 0.608374 0.711382
0.196340 0.608374 0.711382
0.299349 0.608374 0.711382
0.402357 0.608374 0.711382
0.505365 0.608374 0.711382
0.608374 0.608374 0.711382
0.711382 0.608374 0.711382
0.814391 0.608374 0.711382
0.000000 0.711382 0.711382
0.093332 0.711382 0.711382
0.196340 0.711382 0.711382
0.299349 0.711382 0.711382
0.402357 0.711382 0.711382
0.505365 0.711382 0.711382
0.608374 0.711382 0.711382
0.711382 0.711382 0.711382
0.814391 0.711382 0.711382
0.000000 0.814391 0.711382
0.093332 0.814391 0.711382
0.196340 0.814391 0.711382
0.299349 0.814391 0.711382
0.402357 0.814391 0.711382
0.505365 0.814391 0.711382
0.608374 0.814391 0.711382
0.711382 0.814391 0.711382
0.814391 0.814391 0.711382
0.000000 0.000000 0.814391
0.093332 0.000000 0.814391
0.196340 0.000000 0.814391
0.299349 0.000000 0.814391
0.402357 0.000000 0.814391
0.505365 0.000000 0.814391
0.608374 0.000000 0.814391
0.711382 0.000000 0.814391
0.814391 0.000000 0.814391
0.000000 0.093332 0.814391
0.093332 0.093332 0.814391
0.196340 0.093332 0.814391
0.299349 0.093332 0.814391
0.402357 0.093332 0.814391
0.505365 0.093332 0.814391
0.608374 0.093332 0.814391
0.711382 0.093332 0.814391
0.814391 0.093332 0.814391
0.000000 0.196340 0.814391
0.093332 0.196340 0.814391
0.196340 0.196340 0.814391
0.299349 0.196340 0.814391
0.402357 0.196340 0.814391
0.505365 0.196340 0.814391
0.608374 0.196340 0.814391
0.711382 0.196340 0.814391
0.814391 0.196340 0.814391
0.000000 0.299349 0.814391
0.093332 0.299349 0.814391
0.196340 0.299349 0.814391
0.299349 0.299349 0.814391
0.402357 0.299349 0.814391
0.505365 0.299349 0.814391
0.608374 0.299349 0.814391
0.711382 0.299349 0.814391
0.814391 0.299349 0.814391
0.000000 0.402357 0.814391
0.093332 0.402357 0.814391
0.196340 0.402357 0.814391
0.299349 0.402357 0.814391
0.402357 0.402357 0.814391
0.505365 0.402357 0.814391
0.608374 0.402357 0.814391
0.711382 0.402357 0.814391
0.814391 0.402357 0.814391
0.000000 0.505365 0.814391
0.093332 0.505365 0.814391
0.196340 0.505365 0.814391
0.299349 0.505365 0.814391
0.402357 0.505365 0.814391
0.505365 0.505365 0.814391
0.608374 0.505365 0.814391
0.711382 0.505365 0.814391
0.814391 0.505365 0.814391
0.000000 0.608374 0.814391
0.093332 0.608374 0.814391
0.196340 0.608374 0.814391
0.299349 0.608374 0.814391
0.402357 0.608374 0.814391
0.505365 0.608374 0.814391
0.608374 0.608374 0.814391
0.711382 0.608374 0.814391
0.814391 0.608374 0.814391
0.000000 0.711382 0.814391
0.093332 0.711382 0.814391
0.196340 0.711382 0.814391
0.299349 0.711382 0.814391
0.402357 0.711382 0.814391
0.505365 0.711382 0.814391
0.608374 0.711382 0.814391
0.711382 0.711382 0.814391
0.814391 0.711382 0.814391
0.000000 0.814391 0.814391
0.093332 0.814391 0.814391
0.196340 0.814391 0.814391
0.299349 0.814391 0.814391
0.402357 0.814391 0.814391
0.505365 0.814391 0.814391
0.608374 0.814391 0.814391
0.711382 0.814391 0.814391
0.814391 0.814391 0.814391
