assets/presets/luts/matte-film/lut.cube
TITLE "Matte Film"
LUT_3D_SIZE 17
0.062400 0.062400 0.066144
0.070835 0.062400 0.066144
0.092914 0.062400 0.066144
0.129113 0.062400 0.066144
0.180245 0.062400 0.066144
0.246289 0.062400 0.066144
0.325813 0.062400 0.066144
0.415683 0.062400 0.066144
0.511200 0.062400 0.066144
0.606717 0.062400 0.066144
0.696587 0.062400 0.066144
0.776111 0.062400 0.066144
0.842155 0.062400 0.066144
0.893287 0.062400 0.066144
0.929486 0.062400 0.066144
0.951565 0.062400 0.066144
0.960000 0.062400 0.066144
0.062400 0.070835 0.066144
0.070835 0.070835 0.066144
0.092914 0.070835 0.066144
0.129113 0.070835 0.066144
0.180245 0.070835 0.066144
0.246289 0.070835 0.066144
0.325813 0.070835 0.066144
0.415683 0.070835 0.066144
0.511200 0.070835 0.066144
0.606717 0.070835 0.066144
0.696587 0.070835 0.066144
0.776111 0.070835 0.066144
0.842155 0.070835 0.066144
0.893287 0.070835 0.066144
0.929486 0.070835 0.066144
0.951565 0.070835 0.066144
0.960000 0.070835 0.066144
0.062400 0.092914 0.066144
0.070835 0.092914 0.066144
0.092914 0.092914 0.066144
0.129113 0.092914 0.066144
0.180245 0.092914 0.066144
0.246289 0.092914 0.066144
0.325813 0.092914 0.066144
0.415683 0.092914 0.066144
0.511200 0.092914 0.066144
0.606717 0.092914 0.066144
0.696587 0.092914 0.066144
0.776111 0.092914 0.066144
0.842155 0.092914 0.066144
0.893287 0.092914 0.066144
0.929486 0.092914 0.066144
0.951565 0.092914 0.066144
0.960000 0.092914 0.066144
0.062400 0.129113 0.066144
0.070835 0.129113 0.066144
0.092914 0.129113 0.066144
0.129113 0.129113 0.066144
0.180245 0.129113 0.066144
0.246289 0.129113 0.066144
0.325813 0.129113 0.066144
0.415683 0.129113 0.066144
0.511200 0.129113 0.066144
0.606717 0.129113 0.066144
0.696587 0.129113 0.066144
0.776111 0.129113 0.066144
0.842155 0.129113 0.066144
0.893287 0.129113 0.066144
0.929486 0.129113 0.066144
0.951565 0.129113 0.066144
0.960000 0.129113 0.066144
0.062400 0.180245 0.066144
0.070835 0.180245 0.066144
0.092914 0.180245 0.066144
0.129113 0.180245 0.066144
0.180245 0.180245 0.066144
0.246289 0.180245 0.066144
0.325813 0.180245 0.066144
0.415683 0.180245 0.066144
0.511200 0.180245 0.066144
0.606717 0.180245 0.066144
0.696587 0.180245 0.066144
0.776111 0.180245 0.066144
0.842155 0.180245 0.066144
0.893287 0.180245 0.066144
0.929486 0.180245 0.066144
0.951565 0.180245 0.066144
0.960000 0.180245 0.066144
0.062400 0.246289 0.066144
0.070835 0.246289 0.066144
0.092914 0.246289 0.066144
0.129113 0.246289 0.066144
0.180245 0.246289 0.066144
0.246289 0.246289 0.066144
0.325813 0.246289 0.066144
0.415683 0.246289 0.066144
0.511200 0.246289 0.066144
0.606717 0.246289 0.066144
0.696587 0.246289 0.066144
0.776111 0.246289 0.066144
0.842155 0.246289 0.066144
0.893287 0.246289 0.066144
0.929486 0.246289 0.066144
0.951565 0.246289 0.066144
0.960000 0.246289 0.066144
0.062400 0.325813 0.066144
0.070835 0.325813 0.066144
0.092914 0.325813 0.066144
0.129113 0.325813 0.066144
0.180245 0.325813 0.066144
0.246289 0.325813 0.066144
0.325813 0.325813 0.066144
0.415683 0.325813 0.066144
0.511200 0.325813 0.066144
0.606717 0.325813 0.066144
0.696587 0.325813 0.066144
0.776111 0.325813 0.066144
0.842155 0.325813 0.066144
0.893287 0.325813 0.066144
0.929486 0.325813 0.066144
0.951565 0.325813 0.066144
0.960000 0.325813 0.066144
0.062400 0.415683 0.066144
0.070835 0.415683 0.066144
0.092914 0.415683 0.066144
0.129113 0.415683 0.066144
0.180245 0.415683 0.066144
0.246289 0.415683 0.066144
0.325813 0.415683 0.066144
0.415683 0.415683 0.066144
0.511200 0.415683 0.066144
0.606717 0.415683 0.066144
0.696587 0.415683 0.066144
0.776111 0.415683 0.066144
0.842155 0.415683 0.066144
0.893287 0.415683 0.066144
0.929486 0.415683 0.066144
0.951565 0.415683 0.066144
0.960000 0.415683 0.066144
0.062400 0.511200 0.066144
0.070835 0.511200 0.066144
0.092914 0.511200 0.066144
0.129113 0.511200 0.066144
0.180245 0.511200 0.066144
0.246289 0.511200 0.066144
0.325813 0.511200 0.066144
0.415683 0.511200 0.066144
0.511200 0.511200 0.066144
0.606717 0.511200 0.066144
0.696587 0.511200 0.066144
0.776111 0.511200 0.066144
0.842155 0.511200 0.066144
0.893287 0.511200 0.066144
0.929486 0.511200 0.066144
0.951565 0.511200 0.066144
0.960000 0.511200 0.066144
0.062400 0.606717 0.066144
0.070835 0.606717 0.066144
0.092914 0.606717 0.066144
0.129113 0.606717 0.066144
0.180245 0.606717 0.066144
0.246289 0.606717 0.066144
0.325813 0.606717 0.066144
0.415683 0.606717 0.066144
0.511200 0.606717 0.066144
0.606717 0.606717 0.066144
0.696587 0.606717 0.066144
0.776111 0.606717 0.066144
0.842155 0.606717 0.066144
0.893287 0.606717 0.066144
0.929486 0.606717 0.066144
0.951565 0.606717 0.066144
0.960000 0.606717 0.066144
0.062400 0.696587 0.066144
0.070835 0.696587 0.066144
0.092914 0.696587 0.066144
0.129113 0.696587 0.066144
0.180245 0.696587 0.066144
0.246289 0.696587 0.066144
0.325813 0.696587 0.066144
0.415683 0.696587 0.066144
0.511200 0.696587 0.066144
0.606717 0.696587 0.066144
0.696587 0.696587 0.066144
0.776111 0.696587 0.066144
0.842155 0.696587 0.066144
0.893287 0.696587 0.066144
0.929486 0.696587 0.066144
0.951565 0.696587 0.066144
0.960000 0.696587 0.066144
0.062400 0.776111 0.066144
0.070835 0.776111 0.066144
0.092914 0.776111 0.066144
0.129113 0.776111 0.066144
0.180245 0.776111 0.066144
0.246289 0.776111 0.066144
0.325813 0.776111 0.066144
0.415683 0.776111 0.066144
0.511200 0.776111 0.066144
0.606717 0.776111 0.066144
0.696587 0.776111 0.066144
0.776111 0.776111 0.066144
0.842155 0.776111 0.066144
0.893287 0.776111 0.066144
0.929486 0.776111 0.066144
0.951565 0.776111 0.066144
0.960000 0.776111 0.066144
0.062400 0.842155 0.066144
0.070835 0.842155 0.066144
0.092914 0.842155 0.066144
0.129113 0.842155 0.066144
0.180245 0.842155 0.066144
0.246289 0.842155 0.066144
0.325813 0.842155 0.066144
0.415683 0.842155 0.066144
0.511200 0.842155 0.066144
0.606717 0.842155 0.066144
0.696587 0.842155 0.066144
0.776111 0.842155 0.066144
0.842155 0.842155 0.066144
0.893287 0.842155 0.066144
0.929486 0.842155 0.066144
0.951565 0.842155 0.066144
0.960000 0.842155 0.066144
0.062400 0.893287 0.066144
0.070835 0.893287 0.066144
0.092914 0.893287 0.066144
0.129113 0.893287 0.066144
0.180245 0.893287 0.066144
0.246289 0.893287 0.066144
0.325813 0.893287 0.066144
0.415683 0.893287 0.066144
0.511200 0.893287 0.066144
0.606717 0.893287 0.066144
0.696587 0.893287 0.066144
0.776111 0.893287 0.066144
0.842155 0.893287 0.066144
0.893287 0.893287 0.066144
0.929486 0.893287 0.066144
0.951565 0.893287 0.066144
0.960000 0.893287 0.066144
0.062400 0.929486 0.066144
0.070835 0.929486 0.066144
0.092914 0.929486 0.066144
0.129113 0.929486 0.066144
0.180245 0.929486 0.066144
0.246289 0.929486 0.066144
0.325813 0.929486 0.066144
0.415683 0.929486 0.066144
0.511200 0.929486 0.066144
0.606717 0.929486 0.066144
0.696587 0.929486 0.066144
0.776111 0.929486 0.066144
0.842155 0.929486 0.066144
0.893287 0.929486 0.066144
0.929486 0.929486 0.066144
0.951565 0.929486 0.066144
0.960000 0.929486 0.066144
0.062400 0.951565 0.066144
0.070835 0.951565 0.066144
0.092914 0.951565 0.066144
0.129113 0.951565 0.066144
0.180245 0.951565 0.066144
0.246289 0.951565 0.066144
0.325813 0.951565 0.066144
0.415683 0.951565 0.066144
0.511200 0.951565 0.066144
0.606717 0.951565 0.066144
0.696587 0.951565 0.066144
0.776111 0.951565 0.066144
0.842155 0.951565 0.066144
0.893287 0.951565 0.066144
0.929486 0.951565 0.066144
0.951565 0.951565 0.066144
0.960000 0.951565 0.066144
0.062400 0.960000 0.066144
0.070835 0.960000 0.066144
0.092914 0.960000 0.066144
0.129113 0.960000 0.066144
0.180245 0.960000 0.066144
0.246289 0.960000 0.066144
0.325813 0.960000 0.066144
0.415683 0.960000 0.066144
0.511200 0.960000 0.066144
0.606717 0.960000 0.066144
0.696587 0.960000 0.066144
0.776111 0.960000 0.066144
0.842155 0.960000 0.066144
0.893287 0.960000 0.066144
0.929486 0.960000 0.066144
0.951565 0.960000 0.066144
0.960000 0.960000 0.066144
0.062400 0.062400 0.074544
0.070835 0.062400 0.074544
0.092914 0.062400 0.074544
0.129113 0.062400 0.074544
0.180245 0.062400 0.074544
0.246289 0.062400 0.074544
0.325813 0.062400 0.074544
0.415683 0.062400 0.074544
0.511200 0.062400 0.074544
0.606717 0.062400 0.074544
0.696587 0.062400 0.074544
0.776111 0.062400 0.074544
0.842155 0.062400 0.074544
0.893287 0.062400 0.074544
0.929486 0.062400 0.074544
0.951565 0.062400 0.074544
0.960000 0.062400 0.074544
0.062400 0.070835 0.074544
0.070835 0.070835 0.074544
0.092914 0.070835 0.074544
0.129113 0.070835 0.074544
0.180245 0.070835 0.074544
0.246289 0.070835 0.074544
0.325813 0.070835 0.074544
0.415683 0.070835 0.074544
0.511200 0.070835 0.074544
0.606717 0.070835 0.074544
0.696587 0.070835 0.074544
0.776111 0.070835 0.074544
0.842155 0.070835 0.074544
0.893287 0.070835 0.074544
0.929486 0.070835 0.074544
0.951565 0.070835 0.074544
0.960000 0.070835 0.074544
0.062400 0.092914 0.074544
0.070835 0.092914 0.074544
0.092914 0.092914 0.074544
0.129113 0.092914 0.074544
0.180245 0.092914 0.074544
0.246289 0.092914 0.074544
0.325813 0.092914 0.074544
0.415683 0.092914 0.074544
0.511200 0.092914 0.074544
0.606717 0.092914 0.074544
0.696587 0.092914 0.074544
0.776111 0.092914 0.074544
0.842155 0.092914 0.074544
0.893287 0.092914 0.074544
0.929486 0.092914 0.074544
0.951565 0.092914 0.074544
0.960000 0.092914 0.074544
0.062400 0.129113 0.074544
0.070835 0.129113 0.074544
0.092914 0.129113 0.074544
0.129113 0.129113 0.074544
0.180245 0.129113 0.074544
0.246289 0.129113 0.074544
0.325813 0.129113 0.074544
0.415683 0.129113 0.074544
0.511200 0.129113 0.074544
0.606717 0.129113 0.074544
0.696587 0.129113 0.074544
0.776111 0.129113 0.074544
0.842155 0.129113 0.074544
0.893287 0.129113 0.074544
0.929486 0.129113 0.074544
0.951565 0.129113 0.074544
0.960000 0.129113 0.074544
0.062400 0.180245 0.074544
0.070835 0.180245 0.074544
0.092914 0.180245 0.074544
0.129113 0.180245 0.074544
0.180245 0.180245 0.074544
0.246289 0.180245 0.074544
0.325813 0.180245 0.074544
0.415683 0.180245 0.074544
0.511200 0.180245 0.074544
0.606717 0.180245 0.074544
0.696587 0.180245 0.074544
0.776111 0.180245 0.074544
0.842155 0.180245 0.074544
0.893287 0.180245 0.074544
0.929486 0.180245 0.074544
0.951565 0.180245 0.074544
0.960000 0.180245 0.074544
0.062400 0.246289 0.074544
0.070835 0.246289 0.074544
0.092914 0.246289 0.074544
0.129113 0.246289 0.074544
0.180245 0.246289 0.074544
0.246289 0.246289 0.074544
0.325813 0.246289 0.074544
0.415683 0.246289 0.074544
0.511200 0.246289 0.074544
0.606717 0.246289 0.074544
0.696587 0.246289 0.074544
0.776111 0.246289 0.074544
0.842155 0.246289 0.074544
0.893287 0.246289 0.074544
0.929486 0.246289 0.074544
0.951565 0.246289 0.074544
0.960000 0.246289 0.074544
0.062400 0.325813 0.074544
0.070835 0.325813 0.074544
0.092914 0.325813 0.074544
0.129113 0.325813 0.074544
0.180245 0.325813 0.074544
0.246289 0.325813 0.074544
0.325813 0.325813 0.074544
0.415683 0.325813 0.074544
0.511200 0.325813 0.074544
0.606717 0.325813 0.074544
0.696587 0.325813 0.074544
0.776111 0.325813 0.074544
0.842155 0.325813 0.074544
0.893287 0.325813 0.074544
0.929486 0.325813 0.074544
0.951565 0.325813 0.074544
0.960000 0.325813 0.074544
0.062400 0.415683 0.074544
0.070835 0.415683 0.074544
0.092914 0.415683 0.074544
0.129113 0.415683 0.074544
0.180245 0.415683 0.074544
0.246289 0.415683 0.074544
0.325813 0.415683 0.074544
0.415683 0.415683 0.074544
0.511200 0.415683 0.074544
0.606717 0.415683 0.074544
0.696587 0.415683 0.074544
0.776111 0.415683 0.074544
0.842155 0.415683 0.074544
0.893287 0.415683 0.074544
0.929486 0.415683 0.074544
0.951565 0.415683 0.074544
0.960000 0.415683 0.074544
0.062400 0.511200 0.074544
0.070835 0.511200 0.074544
0.092914 0.511200 0.074544
0.129113 0.511200 0.074544
0.180245 0.511200 0.074544
0.246289 0.511200 0.074544
0.325813 0.511200 0.074544
0.415683 0.511200 0.074544
0.511200 0.511200 0.074544
0.606717 0.511200 0.074544
0.696587 0.511200 0.074544
0.776111 0.511200 0.074544
0.842155 0.511200 0.074544
0.893287 0.511200 0.074544
0.929486 0.511200 0.074544
0.951565 0.511200 0.074544
0.960000 0.511200 0.074544
0.062400 0.606717 0.074544
0.070835 0.606717 0.074544
0.092914 0.606717 0.074544
0.129113 0.606717 0.074544
0.180245 0.606717 0.074544
0.246289 0.606717 0.074544
0.325813 0.606717 0.074544
0.415683 0.606717 0.074544
0.511200 0.606717 0.074544
0.606717 0.606717 0.074544
0.696587 0.606717 0.074544
0.776111 0.606717 0.074544
0.842155 0.606717 0.074544
0.893287 0.606717 0.074544
0.929486 0.606717 0.074544
0.951565 0.606717 0.074544
0.960000 0.606717 0.074544
0.062400 0.696587 0.074544
0.070835 0.696587 0.074544
0.092914 0.696587 0.074544
0.129113 0.696587 0.074544
0.180245 0.696587 0.074544
0.246289 0.696587 0.074544
0.325813 0.696587 0.074544
0.415683 0.696587 0.074544
0.511200 0.696587 0.074544
0.606717 0.696587 0.074544
0.696587 0.696587 0.074544
0.776111 0.696587 0.074544
0.842155 0.696587 0.074544
0.893287 0.696587 0.074544
0.929486 0.696587 0.074544
0.951565 0.696587 0.074544
0.960000 0.696587 0.074544
0.062400 0.776111 0.074544
0.070835 0.776111 0.074544
0.092914 0.776111 0.074544
0.129113 0.776111 0.074544
0.180245 0.776111 0.074544
0.246289 0.776111 0.074544
0.325813 0.776111 0.074544
0.415683 0.776111 0.074544
0.511200 0.776111 0.074544
0.606717 0.776111 0.074544
0.696587 0.776111 0.074544
0.776111 0.776111 0.074544
0.842155 0.776111 0.074544
0.893287 0.776111 0.074544
0.929486 0.776111 0.074544
0.951565 0.776111 0.074544
0.960000 0.776111 0.074544
0.062400 0.842155 0.074544
0.070835 0.842155 0.074544
0.092914 0.842155 0.074544
0.129113 0.842155 0.074544
0.180245 0.842155 0.074544
0.246289 0.842155 0.074544
0.325813 0.842155 0.074544
0.415683 0.842155 0.074544
0.511200 0.842155 0.074544
0.606717 0.842155 0.074544
0.696587 0.842155 0.074544
0.776111 0.842155 0.074544
0.842155 0.842155 0.074544
0.893287 0.842155 0.074544
0.929486 0.842155 0.074544
0.951565 0.842155 0.074544
0.960000 0.842155 0.074544
0.062400 0.893287 0.074544
0.070835 0.893287 0.074544
0.092914 0.893287 0.074544
0.129113 0.893287 0.074544
0.180245 0.893287 0.074544
0.246289 0.893287 0.074544
0.325813 0.893287 0.074544
0.415683 0.893287 0.074544
0.511200 0.893287 0.074544
0.606717 0.893287 0.074544
0.696587 0.893287 0.074544
0.776111 0.893287 0.074544
0.842155 0.893287 0.074544
0.893287 0.893287 0.074544
0.929486 0.893287 0.074544
0.951565 0.893287 0.074544
0.960000 0.893287 0.074544
0.062400 0.929486 0.074544
0.070835 0.929486 0.074544
0.092914 0.929486 0.074544
0.129113 0.929486 0.074544
0.180245 0.929486 0.074544
0.246289 0.929486 0.074544
0.325813 0.929486 0.074544
0.415683 0.929486 0.074544
0.511200 0.929486 0.074544
0.606717 0.929486 0.074544
0.696587 0.929486 0.074544
0.776111 0.929486 0.074544
0.842155 0.929486 0.074544
0.893287 0.929486 0.074544
0.929486 0.929486 0.074544
0.951565 0.929486 0.074544
0.960000 0.929486 0.074544
0.062400 0.951565 0.074544
0.070835 0.951565 0.074544
0.092914 0.951565 0.074544
0.129113 0.951565 0.074544
0.180245 0.951565 0.074544
0.246289 0.951565 0.074544
0.325813 0.951565 0.074544
0.415683 0.951565 0.074544
0.511200 0.951565 0.074544
0.606717 0.951565 0.074544
0.696587 0.951565 0.074544
0.776111 0.951565 0.074544
0.842155 0.951565 0.074544
0.893287 0.951565 0.074544
0.929486 0.951565 0.074544
0.951565 0.951565 0.074544
0.960000 0.951565 0.074544
0.062400 0.960000 0.074544
0.070835 0.960000 0.074544
0.092914 0.960000 0.074544
0.129113 0.960000 0.074544
0.180245 0.960000 0.074544
0.246289 0.960000 0.074544
0.325813 0.960000 0.074544
0.415683 0.960000 0.074544
0.511200 0.960000 0.074544
0.606717 0.960000 0.074544
0.696587 0.960000 0.074544
0.776111 0.960000 0.074544
0.842155 0.960000 0.074544
0.893287 0.960000 0.074544
0.929486 0.960000 0.074544
0.951565 0.960000 0.074544
0.960000 0.960000 0.074544
0.062400 0.062400 0.096530
0.070835 0.062400 0.096530
0.092914 0.062400 0.096530
0.129113 0.062400 0.096530
0.180245 0.062400 0.096530
0.246289 0.062400 0.096530
0.325813 0.062400 0.096530
0.415683 0.062400 0.096530
0.511200 0.062400 0.096530
0.606717 0.062400 0.096530
0.696587 0.062400 0.096530
0.776111 0.062400 0.096530
0.842155 0.062400 0.096530
0.893287 0.062400 0.096530
0.929486 0.062400 0.096530
0.951565 0.062400 0.096530
0.960000 0.062400 0.096530
0.062400 0.070835 0.096530
0.070835 0.070835 0.096530
0.092914 0.070835 0.096530
0.129113 0.070835 0.096530
0.180245 0.070835 0.096530
0.246289 0.070835 0.096530
0.325813 0.070835 0.096530
0.415683 0.070835 0.096530
0.511200 0.070835 0.096530
0.606717 0.070835 0.096530
0.696587 0.070835 0.096530
0.776111 0.070835 0.096530
0.842155 0.070835 0.096530
0.893287 0.070835 0.096530
0.929486 0.070835 0.096530
0.951565 0.070835 0.096530
0.960000 0.070835 0.096530
0.062400 0.092914 0.096530
0.070835 0.092914 0.096530
0.092914 0.092914 0.096530
0.129113 0.092914 0.096530
0.180245 0.092914 0.096530
0.246289 0.092914 0.096530
0.325813 0.092914 0.096530
0.415683 0.092914 0.096530
0.511200 0.092914 0.096530
0.606717 0.092914 0.096530
0.696587 0.092914 0.096530
0.776111 0.092914 0.096530
0.842155 0.092914 0.096530
0.893287 0.092914 0.096530
0.929486 0.092914 0.096530
0.951565 0.092914 0.096530
0.960000 0.092914 0.096530
0.062400 0.129113 0.096530
0.070835 0.129113 0.096530
0.092914 0.129113 0.096530
0.129113 0.129113 0.096530
0.180245 0.129113 0.096530
0.246289 0.129113 0.096530
0.325813 0.129113 0.096530
0.415683 0.129113 0.096530
0.511200 0.129113 0.096530
0.606717 0.129113 0.096530
0.696587 0.129113 0.096530
0.776111 0.129113 0.096530
0.842155 0.129113 0.096530
0.893287 0.129113 0.096530
0.929486 0.129113 0.096530
0.951565 0.129113 0.096530
0.960000 0.129113 0.096530
0.062400 0.180245 0.096530
0.070835 0.180245 0.096530
0.092914 0.180245 0.096530
0.129113 0.180245 0.096530
0.180245 0.180245 0.096530
0.246289 0.180245 0.096530
0.325813 0.180245 0.096530
0.415683 0.180245 0.096530
0.511200 0.180245 0.096530
0.606717 0.180245 0.096530
0.696587 0.180245 0.096530
0.776111 0.180245 0.096530
0.842155 0.180245 0.096530
0.893287 0.180245 0.096530
0.929486 0.180245 0.096530
0.951565 0.180245 0.096530
0.960000 0.180245 0.096530
0.062400 0.246289 0.096530
0.070835 0.246289 0.096530
0.092914 0.246289 0.096530
0.129113 0.246289 0.096530
0.180245 0.246289 0.096530
0.246289 0.246289 0.096530
0.325813 0.246289 0.096530
0.415683 0.246289 0.096530
0.511200 0.246289 0.096530
0.606717 0.246289 0.096530
0.696587 0.246289 0.096530
0.776111 0.246289 0.096530
0.842155 0.246289 0.096530
0.893287 0.246289 0.096530
0.929486 0.246289 0.096530
0.951565 0.246289 0.096530
0.960000 0.246289 0.096530
0.062400 0.325813 0.096530
0.070835 0.325813 0.096530
0.092914 0.325813 0.096530
0.129113 0.325813 0.096530
0.180245 0.325813 0.096530
0.246289 0.325813 0.096530
0.325813 0.325813 0.096530
0.415683 0.325813 0.096530
0.511200 0.325813 0.096530
0.606717 0.325813 0.096530
0.696587 0.325813 0.096530
0.776111 0.325813 0.096530
0.842155 0.325813 0.096530
0.893287 0.325813 0.096530
0.929486 0.325813 0.096530
0.951565 0.325813 0.096530
0.960000 0.325813 0.096530
0.062400 0.415683 0.096530
0.070835 0.415683 0.096530
0.092914 0.415683 0.096530
0.129113 0.415683 0.096530
0.180245 0.415683 0.096530
0.246289 0.415683 0.096530
0.325813 0.415683 0.096530
0.415683 0.415683 0.096530
0.511200 0.415683 0.096530
0.606717 0.415683 0.096530
0.696587 0.415683 0.096530
0.776111 0.415683 0.096530
0.842155 0.415683 0.096530
0.893287 0.415683 0.096530
0.929486 0.415683 0.096530
0.951565 0.415683 0.096530
0.960000 0.415683 0.096530
0.062400 0.511200 0.096530
0.070835 0.511200 0.096530
0.092914 0.511200 0.096530
0.129113 0.511200 0.096530
0.180245 0.511200 0.096530
0.246289 0.511200 0.096530
0.325813 0.511200 0.096530
0.415683 0.511200 0.096530
0.511200 0.511200 0.096530
0.606717 0.511200 0.096530
0.696587 0.511200 0.096530
0.776111 0.511200 0.096530
0.842155 0.511200 0.096530
0.893287 0.511200 0.096530
0.929486 0.511200 0.096530
0.951565 0.511200 0.096530
0.960000 0.511200 0.096530
0.062400 0.606717 0.096530
0.070835 0.606717 0.096530
0.092914 0.606717 0.096530
0.129113 0.606717 0.096530
0.180245 0.606717 0.096530
0.246289 0.606717 0.096530
0.325813 0.606717 0.096530
0.415683 0.606717 0.096530
0.511200 0.606717 0.096530
0.606717 0.606717 0.096530
0.696587 0.606717 0.096530
0.776111 0.606717 0.096530
0.842155 0.606717 0.096530
0.893287 0.606717 0.096530
0.929486 0.606717 0.096530
0.951565 0.606717 0.096530
0.960000 0.606717 0.096530
0.062400 0.696587 0.096530
0.070835 0.696587 0.096530
0.092914 0.696587 0.096530
0.129113 0.696587 0.096530
0.180245 0.696587 0.096530
0.246289 0.696587 0.096530
0.325813 0.696587 0.096530
0.415683 0.696587 0.096530
0.511200 0.696587 0.096530
0.606717 0.696587 0.096530
0.696587 0.696587 0.096530
0.776111 0.696587 0.096530
0.842155 0.696587 0.096530
0.893287 0.696587 0.096530
0.929486 0.696587 0.096530
0.951565 0.696587 0.096530
0.960000 0.696587 0.096530
0.062400 0.776111 0.096530
0.070835 0.776111 0.096530
0.092914 0.776111 0.096530
0.129113 0.776111 0.096530
0.180245 0.776111 0.096530
0.246289 0.776111 0.096530
0.325813 0.776111 0.096530
0.415683 0.776111 0.096530
0.511200 0.776111 0.096530
0.606717 0.776111 0.096530
0.696587 0.776111 0.096530
0.776111 0.776111 0.096530
0.842155 0.776111 0.096530
0.893287 0.776111 0.096530
0.929486 0.776111 0.096530
0.951565 0.776111 0.096530
0.960000 0.776111 0.096530
0.062400 0.842155 0.096530
0.070835 0.842155 0.096530
0.092914 0.842155 0.096530
0.129113 0.842155 0.096530
0.180245 0.842155 0.096530
0.246289 0.842155 0.096530
0.325813 0.842155 0.096530
0.415683 0.842155 0.096530
0.511200 0.842155 0.096530
0.606717 0.842155 0.096530
0.696587 0.842155 0.096530
0.776111 0.842155 0.096530
0.842155 0.842155 0.096530
0.893287 0.842155 0.096530
0.929486 0.842155 0.096530
0.951565 0.842155 0.096530
0.960000 0.842155 0.096530
0.062400 0.893287 0.096530
0.070835 0.893287 0.096530
0.092914 0.893287 0.096530
0.129113 0.893287 0.096530
0.180245 0.893287 0.096530
0.246289 0.893287 0.096530
0.325813 0.893287 0.096530
0.415683 0.893287 0.096530
0.511200 0.893287 0.096530
0.606717 0.893287 0.096530
0.696587 0.893287 0.096530
0.776111 0.893287 0.096530
0.842155 0.893287 0.096530
0.893287 0.893287 0.096530
0.929486 0.893287 0.096530
0.951565 0.893287 0.096530
0.960000 0.893287 0.096530
0.062400 0.929486 0.096530
0.070835 0.929486 0.096530
0.092914 0.929486 0.096530
0.129113 0.929486 0.096530
0.180245 0.929486 0.096530
0.246289 0.929486 0.096530
0.325813 0.929486 0.096530
0.415683 0.929486 0.096530
0.511200 0.929486 0.096530
0.606717 0.929486 0.096530
0.696587 0.929486 0.096530
0.776111 0.929486 0.096530
0.842155 0.929486 0.096530
0.893287 0.929486 0.096530
0.929486 0.929486 0.096530
0.951565 0.929486 0.096530
0.960000 0.929486 0.096530
0.062400 0.951565 0.096530
0.070835 0.951565 0.096530
0.092914 0.951565 0.096530
0.129113 0.951565 0.096530
0.180245 0.951565 0.096530
0.246289 0.951565 0.096530
0.325813 0.951565 0.096530
0.415683 0.951565 0.096530
0.511200 0.951565 0.096530
0.606717 0.951565 0.096530
0.696587 0.951565 0.096530
0.776111 0.951565 0.096530
0.842155 0.951565 0.096530
0.893287 0.951565 0.096530
0.929486 0.951565 0.096530
0.951565 0.951565 0.096530
0.960000 0.951565 0.096530
0.062400 0.960000 0.096530
0.070835 0.960000 0.096530
0.092914 0.960000 0.096530
0.129113 0.960000 0.096530
0.180245 0.960000 0.096530
0.246289 0.960000 0.096530
0.325813 0.960000 0.096530
0.415683 0.960000 0.096530
0.511200 0.960000 0.096530
0.606717 0.960000 0.096530
0.696587 0.960000 0.096530
0.776111 0.960000 0.096530
0.842155 0.960000 0.096530
0.893287 0.960000 0.096530
0.929486 0.960000 0.096530
0.951565 0.960000 0.096530
0.960000 0.960000 0.096530
0.062400 0.062400 0.132578
0.070835 0.062400 0.132578
0.092914 0.062400 0.132578
0.129113 0.062400 0.132578
0.180245 0.062400 0.132578
0.246289 0.062400 0.132578
0.325813 0.062400 0.132578
0.415683 0.062400 0.132578
0.511200 0.062400 0.132578
0.606717 0.062400 0.132578
0.696587 0.062400 0.132578
0.776111 0.062400 0.132578
0.842155 0.062400 0.132578
0.893287 0.062400 0.132578
0.929486 0.062400 0.132578
0.951565 0.062400 0.132578
0.960000 0.062400 0.132578
0.062400 0.070835 0.132578
0.070835 0.070835 0.132578
0.092914 0.070835 0.132578
