assets/presets/luts/matte-film/lut.cube
TITLE "Matte Film"
LUT_3D_SIZE 9
0.062400 0.062400 0.066144
0.092914 0.062400 0.066144
0.180245 0.062400 0.066144
0.325813 0.062400 0.066144
0.511200 0.062400 0.066144
0.696587 0.062400 0.066144
0.842155 0.062400 0.066144
0.929486 0.062400 0.066144
0.960000 0.062400 0.066144
0.062400 0.092914 0.066144
0.092914 0.092914 0.066144
0.180245 0.092914 0.066144
0.325813 0.092914 0.066144
0.511200 0.092914 0.066144
0.696587 0.092914 0.066144
0.842155 0.092914 0.066144
0.929486 0.092914 0.066144
0.960000 0.092914 0.066144
0.062400 0.180245 0.066144
0.092914 0.180245 0.066144
0.180245 0.180245 0.066144
0.325813 0.180245 0.066144
0.511200 0.180245 0.066144
0.696587 0.180245 0.066144
0.842155 0.180245 0.066144
0.929486 0.180245 0.066144
0.960000 0.180245 0.066144
0.062400 0.325813 0.066144
0.092914 0.325813 0.066144
0.180245 0.325813 0.066144
0.325813 0.325813 0.066144
0.511200 0.325813 0.066144
0.696587 0.325813 0.066144
0.842155 0.325813 0.066144
0.929486 0.325813 0.066144
0.960000 0.325813 0.066144
0.062400 0.511200 0.066144
0.092914 0.511200 0.066144
0.180245 0.511200 0.066144
0.325813 0.511200 0.066144
0.511200 0.511200 0.066144
0.696587 0.511200 0.066144
0.842155 0.511200 0.066144
0.929486 0.511200 0.066144
0.960000 0.511200 0.066144
0.062400 0.696587 0.066144
0.092914 0.696587 0.066144
0.180245 0.696587 0.066144
0.325813 0.696587 0.066144
0.511200 0.696587 0.066144
0.696587 0.696587 0.066144
0.842155 0.696587 0.066144
0.929486 0.696587 0.066144
0.960000 0.696587 0.066144
0.062400 0.842155 0.066144
0.092914 0.842155 0.066144
0.180245 0.842155 0.066144
0.325813 0.842155 0.066144
0.511200 0.842155 0.066144
0.696587 0.842155 0.066144
0.842155 0.842155 0.066144
0.929486 0.842155 0.066144
0.960000 0.842155 0.066144
0.062400 0.929486 0.066144
0.092914 0.929486 0.066144
0.180245 0.929486 0.066144
0.325813 0.929486 0.066144
0.511200 0.929486 0.066144
0.696587 0.929486 0.066144
0.842155 0.929486 0.066144
0.929486 0.929486 0.066144
0.960000 0.929486 0.066144
0.062400 0.960000 0.066144
0.092914 0.960000 0.066144
0.180245 0.960000 0.066144
0.325813 0.960000 0.066144
0.511200 0.960000 0.066144
0.696587 0.960000 0.066144
0.842155 0.960000 0.066144
0.929486 0.960000 0.066144
0.960000 0.960000 0.066144
0.062400 0.062400 0.096530
0.092914 0.062400 0.096530
0.180245 0.062400 0.096530
0.325813 0.062400 0.096530
0.511200 0.062400 0.096530
0.696587 0.062400 0.096530
0.842155 0.062400 0.096530
0.929486 0.062400 0.096530
0.960000 0.062400 0.096530
0.062400 0.092914 0.096530
0.092914 0.092914 0.096530
0.180245 0.092914 0.096530
0.325813 0.092914 0.096530
0.511200 0.092914 0.096530
0.696587 0.092914 0.096530
0.842155 0.092914 0.096530
0.929486 0.092914 0.096530
0.960000 0.092914 0.096530
0.062400 0.180245 0.096530
0.092914 0.180245 0.096530
0.180245 0.180245 0.096530
0.325813 0.180245 0.096530
0.511200 0.180245 0.096530
0.696587 0.180245 0.096530
0.842155 0.180245 0.096530
0.929486 0.180245 0.096530
0.960000 0.180245 0.096530
0.062400 0.325813 0.096530
0.092914 0.325813 0.096530
0.180245 0.325813 0.096530
0.325813 0.325813 0.096530
0.511200 0.325813 0.096530
0.696587 0.325813 0.096530
0.842155 0.325813 0.096530
0.929486 0.325813 0.096530
0.960000 0.325813 0.096530
0.062400 0.511200 0.096530
0.092914 0.511200 0.096530
0.180245 0.511200 0.096530
0.325813 0.511200 0.096530
0.511200 0.511200 0.096530
0.696587 0.511200 0.096530
0.842155 0.511200 0.096530
0.929486 0.511200 0.096530
0.960000 0.511200 0.096530
0.062400 0.696587 0.096530
0.092914 0.696587 0.096530
0.180245 0.696587 0.096530
0.325813 0.696587 0.096530
0.511200 0.696587 0.096530
0.696587 0.696587 0.096530
0.842155 0.696587 0.096530
0.929486 0.696587 0.096530
0.960000 0.696587 0.096530
0.062400 0.842155 0.096530
0.092914 0.842155 0.096530
0.180245 0.842155 0.096530
0.325813 0.842155 0.096530
0.511200 0.842155 0.096530
0.696587 0.842155 0.096530
0.842155 0.842155 0.096530
0.929486 0.842155 0.096530
0.960000 0.842155 0.096530
0.062400 0.929486 0.096530
0.092914 0.929486 0.096530
0.180245 0.929486 0.096530
0.325813 0.929486 0.096530
0.511200 0.929486 0.096530
0.696587 0.929486 0.096530
0.842155 0.929486 0.096530
0.929486 0.929486 0.096530
0.960000 0.929486 0.096530
0.062400 0.960000 0.096530
0.092914 0.960000 0.096530
0.180245 0.960000 0.096530
0.325813 0.960000 0.096530
0.511200 0.960000 0.096530
0.696587 0.960000 0.096530
0.842155 0.960000 0.096530
0.929486 0.960000 0.096530
0.960000 0.960000 0.096530
0.062400 0.062400 0.183497
0.092914 0.062400 0.183497
0.180245 0.062400 0.183497
0.325813 0.062400 0.183497
0.511200 0.062400 0.183497
0.696587 0.062400 0.183497
0.842155 0.062400 0.183497
0.929486 0.062400 0.183497
0.960000 0.062400 0.183497
0.062400 0.092914 0.183497
0.092914 0.092914 0.183497
0.180245 0.092914 0.183497
0.325813 0.092914 0.183497
0.511200 0.092914 0.183497
0.696587 0.092914 0.183497
0.842155 0.092914 0.183497
0.929486 0.092914 0.183497
0.960000 0.092914 0.183497
0.062400 0.180245 0.183497
0.092914 0.180245 0.183497
0.180245 0.180245 0.183497
0.325813 0.180245 0.183497
0.511200 0.180245 0.183497
0.696587 0.180245 0.183497
0.842155 0.180245 0.183497
0.929486 0.180245 0.183497
0.960000 0.180245 0.183497
0.062400 0.325813 0.183497
0.092914 0.325813 0.183497
0.180245 0.325813 0.183497
0.325813 0.325813 0.183497
0.511200 0.325813 0.183497
0.696587 0.325813 0.183497
0.842155 0.325813 0.183497
0.929486 0.325813 0.183497
0.960000 0.325813 0.183497
0.062400 0.511200 0.183497
0.092914 0.511200 0.183497
0.180245 0.511200 0.183497
0.325813 0.511200 0.183497
0.511200 0.511200 0.183497
0.696587 0.511200 0.183497
0.842155 0.511200 0.183497
0.929486 0.511200 0.183497
0.960000 0.511200 0.183497
0.062400 0.696587 0.183497
0.092914 0.696587 0.183497
0.180245 0.696587 0.183497
0.325813 0.696587 0.183497
0.511200 0.696587 0.183497
0.696587 0.696587 0.183497
0.842155 0.696587 0.183497
0.929486 0.696587 0.183497
0.960000 0.696587 0.183497
0.062400 0.842155 0.183497
0.092914 0.842155 0.183497
0.180245 0.842155 0.183497
0.325813 0.842155 0.183497
0.511200 0.842155 0.183497
0.696587 0.842155 0.183497
0.842155 0.842155 0.183497
0.929486 0.842155 0.183497
0.960000 0.842155 0.183497
0.062400 0.929486 0.183497
0.092914 0.929486 0.183497
0.180245 0.929486 0.183497
0.325813 0.929486 0.183497
0.511200 0.929486 0.183497
0.696587 0.929486 0.183497
0.842155 0.929486 0.183497
0.929486 0.929486 0.183497
0.960000 0.929486 0.183497
0.062400 0.960000 0.183497
0.092914 0.960000 0.183497
0.180245 0.960000 0.183497
0.325813 0.960000 0.183497
0.511200 0.960000 0.183497
0.696587 0.960000 0.183497
0.842155 0.960000 0.183497
0.929486 0.960000 0.183497
0.960000 0.960000 0.183497
0.062400 0.062400 0.328458
0.092914 0.062400 0.328458
0.180245 0.062400 0.328458
0.325813 0.062400 0.328458
0.511200 0.062400 0.328458
0.696587 0.062400 0.328458
0.842155 0.062400 0.328458
0.929486 0.062400 0.328458
0.960000 0.062400 0.328458
0.062400 0.092914 0.328458
0.092914 0.092914 0.328458
0.180245 0.092914 0.328458
0.325813 0.092914 0.328458
0.511200 0.092914 0.328458
0.696587 0.092914 0.328458
0.842155 0.092914 0.328458
0.929486 0.092914 0.328458
0.960000 0.092914 0.328458
0.062400 0.180245 0.328458
0.092914 0.180245 0.328458
0.180245 0.180245 0.328458
0.325813 0.180245 0.328458
0.511200 0.180245 0.328458
0.696587 0.180245 0.328458
0.842155 0.180245 0.328458
0.929486 0.180245 0.328458
0.960000 0.180245 0.328458
0.062400 0.325813 0.328458
0.092914 0.325813 0.328458
0.180245 0.325813 0.328458
0.325813 0.325813 0.328458
0.511200 0.325813 0.328458
0.696587 0.325813 0.328458
0.842155 0.325813 0.328458
0.929486 0.325813 0.328458
0.960000 0.325813 0.328458
0.062400 0.511200 0.328458
0.092914 0.511200 0.328458
0.180245 0.511200 0.328458
0.325813 0.511200 0.328458
0.511200 0.511200 0.328458
0.696587 0.511200 0.328458
0.842155 0.511200 0.328458
0.929486 0.511200 0.328458
0.960000 0.511200 0.328458
0.062400 0.696587 0.328458
0.092914 0.696587 0.328458
0.180245 0.696587 0.328458
0.325813 0.696587 0.328458
0.511200 0.696587 0.328458
0.696587 0.696587 0.328458
0.842155 0.696587 0.328458
0.929486 0.696587 0.328458
0.960000 0.696587 0.328458
0.062400 0.842155 0.328458
0.092914 0.842155 0.328458
0.180245 0.842155 0.328458
0.325813 0.842155 0.328458
0.511200 0.842155 0.328458
0.696587 0.842155 0.328458
0.842155 0.842155 0.328458
0.929486 0.842155 0.328458
0.960000 0.842155 0.328458
0.062400 0.929486 0.328458
0.092914 0.929486 0.328458
0.180245 0.929486 0.328458
0.325813 0.929486 0.328458
0.511200 0.929486 0.328458
0.696587 0.929486 0.328458
0.842155 0.929486 0.328458
0.929486 0.929486 0.328458
0.960000 0.929486 0.328458
0.062400 0.960000 0.328458
0.092914 0.960000 0.328458
0.180245 0.960000 0.328458
0.325813 0.960000 0.328458
0.511200 0.960000 0.328458
0.696587 0.960000 0.328458
0.842155 0.960000 0.328458
0.929486 0.960000 0.328458
0.960000 0.960000 0.328458
0.062400 0.062400 0.513072
0.092914 0.062400 0.513072
0.180245 0.062400 0.513072
0.325813 0.062400 0.513072
0.511200 0.062400 0.513072
0.696587 0.062400 0.513072
0.842155 0.062400 0.513072
0.929486 0.062400 0.513072
0.960000 0.062400 0.513072
0.062400 0.092914 0.513072
0.092914 0.092914 0.513072
0.180245 0.092914 0.513072
0.325813 0.092914 0.513072
0.511200 0.092914 0.513072
0.696587 0.092914 0.513072
0.842155 0.092914 0.513072
0.929486 0.092914 0.513072
0.960000 0.092914 0.513072
0.062400 0.180245 0.513072
0.092914 0.180245 0.513072
0.180245 0.180245 0.513072
0.325813 0.180245 0.513072
0.511200 0.180245 0.513072
0.696587 0.180245 0.513072
0.842155 0.180245 0.513072
0.929486 0.180245 0.513072
0.960000 0.180245 0.513072
0.062400 0.325813 0.513072
0.092914 0.325813 0.513072
0.180245 0.325813 0.513072
0.325813 0.325813 0.513072
0.511200 0.325813 0.513072
0.696587 0.325813 0.513072
0.842155 0.325813 0.513072
0.929486 0.325813 0.513072
0.960000 0.325813 0.513072
0.062400 0.511200 0.513072
0.092914 0.511200 0.513072
0.180245 0.511200 0.513072
0.325813 0.511200 0.513072
0.511200 0.511200 0.513072
0.696587 0.511200 0.513072
0.842155 0.511200 0.513072
0.929486 0.511200 0.513072
0.960000 0.511200 0.513072
0.062400 0.696587 0.513072
0.092914 0.696587 0.513072
0.180245 0.696587 0.513072
0.325813 0.696587 0.513072
0.511200 0.696587 0.513072
0.696587 0.696587 0.513072
0.842155 0.696587 0.513072
0.929486 0.696587 0.513072
0.960000 0.696587 0.513072
0.062400 0.842155 0.513072
0.092914 0.842155 0.513072
0.180245 0.842155 0.513072
0.325813 0.842155 0.513072
0.511200 0.842155 0.513072
0.696587 0.842155 0.513072
0.842155 0.842155 0.513072
0.929486 0.842155 0.513072
0.960000 0.842155 0.513072
0.062400 0.929486 0.513072
0.092914 0.929486 0.513072
0.180245 0.929486 0.513072
0.325813 0.929486 0.513072
0.511200 0.929486 0.513072
0.696587 0.929486 0.513072
0.842155 0.929486 0.513072
0.929486 0.929486 0.513072
0.960000 0.929486 0.513072
0.062400 0.960000 0.513072
0.092914 0.960000 0.513072
0.180245 0.960000 0.513072
0.325813 0.960000 0.513072
0.511200 0.960000 0.513072
0.696587 0.960000 0.513072
0.842155 0.960000 0.513072
0.929486 0.960000 0.513072
0.960000 0.960000 0.513072
0.062400 0.062400 0.697686
0.092914 0.062400 0.697686
0.180245 0.062400 0.697686
0.325813 0.062400 0.697686
0.511200 0.062400 0.697686
0.696587 0.062400 0.697686
0.842155 0.062400 0.697686
0.929486 0.062400 0.697686
0.960000 0.062400 0.697686
0.062400 0.092914 0.697686
0.092914 0.092914 0.697686
0.180245 0.092914 0.697686
0.325813 0.092914 0.697686
0.511200 0.092914 0.697686
0.696587 0.092914 0.697686
0.842155 0.092914 0.697686
0.929486 0.092914 0.697686
0.960000 0.092914 0.697686
0.062400 0.180245 0.697686
0.092914 0.180245 0.697686
0.180245 0.180245 0.697686
0.325813 0.180245 0.697686
0.511200 0.180245 0.697686
0.696587 0.180245 0.697686
0.842155 0.180245 0.697686
0.929486 0.180245 0.697686
0.960000 0.180245 0.697686
0.062400 0.325813 0.697686
0.092914 0.325813 0.697686
0.180245 0.325813 0.697686
0.325813 0.325813 0.697686
0.511200 0.325813 0.697686
0.696587 0.325813 0.697686
0.842155 0.325813 0.697686
0.929486 0.325813 0.697686
0.960000 0.325813 0.697686
0.062400 0.511200 0.697686
0.092914 0.511200 0.697686
0.180245 0.511200 0.697686
0.325813 0.511200 0.697686
0.511200 0.511200 0.697686
0.696587 0.511200 0.697686
0.842155 0.511200 0.697686
0.929486 0.511200 0.697686
0.960000 0.511200 0.697686
0.062400 0.696587 0.697686
0.092914 0.696587 0.697686
0.180245 0.696587 0.697686
0.325813 0.696587 0.697686
0.511200 0.696587 0.697686
0.696587 0.696587 0.697686
0.842155 0.696587 0.697686
0.929486 0.696587 0.697686
0.960000 0.696587 0.697686
0.062400 0.842155 0.697686
0.092914 0.842155 0.697686
0.180245 0.842155 0.697686
0.325813 0.842155 0.697686
0.511200 0.842155 0.697686
0.696587 0.842155 0.697686
0.842155 0.842155 0.697686
0.929486 0.842155 0.697686
0.960000 0.842155 0.697686
0.062400 0.929486 0.697686
0.092914 0.929486 0.697686
0.180245 0.929486 0.697686
0.325813 0.929486 0.697686
0.511200 0.929486 0.697686
0.696587 0.929486 0.697686
0.842155 0.929486 0.697686
0.929486 0.929486 0.697686
0.960000 0.929486 0.697686
0.062400 0.960000 0.697686
0.092914 0.960000 0.697686
0.180245 0.960000 0.697686
0.325813 0.960000 0.697686
0.511200 0.960000 0.697686
0.696587 0.960000 0.697686
0.842155 0.960000 0.697686
0.929486 0.960000 0.697686
0.960000 0.960000 0.697686
0.062400 0.062400 0.842647
0.092914 0.062400 0.842647
0.180245 0.062400 0.842647
0.325813 0.062400 0.842647
0.511200 0.062400 0.842647
0.696587 0.062400 0.842647
0.842155 0.062400 0.842647
0.929486 0.062400 0.842647
0.960000 0.062400 0.842647
0.062400 0.092914 0.842647
0.092914 0.092914 0.842647
0.180245 0.092914 0.842647
0.325813 0.092914 0.842647
0.511200 0.092914 0.842647
0.696587 0.092914 0.842647
0.842155 0.092914 0.842647
0.929486 0.092914 0.842647
0.960000 0.092914 0.842647
0.062400 0.180245 0.842647
0.092914 0.180245 0.842647
0.180245 0.180245 0.842647
0.325813 0.180245 0.842647
0.511200 0.180245 0.842647
0.696587 0.180245 0.842647
0.842155 0.180245 0.842647
0.929486 0.180245 0.842647
0.960000 0.180245 0.842647
0.062400 0.325813 0.842647
0.092914 0.325813 0.842647
0.180245 0.325813 0.842647
0.325813 0.325813 0.842647
0.511200 0.325813 0.842647
0.696587 0.325813 0.842647
0.842155 0.325813 0.842647
0.929486 0.325813 0.842647
0.960000 0.325813 0.842647
0.062400 0.511200 0.842647
0.092914 0.511200 0.842647
0.180245 0.511200 0.842647
0.325813 0.511200 0.842647
0.511200 0.511200 0.842647
0.696587 0.511200 0.842647
0.842155 0.511200 0.842647
0.929486 0.511200 0.842647
0.960000 0.511200 0.842647
0.062400 0.696587 0.842647
0.092914 0.696587 0.842647
0.180245 0.696587 0.842647
0.325813 0.696587 0.842647
0.511200 0.696587 0.842647
0.696587 0.696587 0.842647
0.842155 0.696587 0.842647
0.929486 0.696587 0.842647
0.960000 0.696587 0.842647
0.062400 0.842155 0.842647
0.092914 0.842155 0.842647
0.180245 0.842155 0.842647
0.325813 0.842155 0.842647
0.511200 0.842155 0.842647
0.696587 0.842155 0.842647
0.842155 0.842155 0.842647
0.929486 0.842155 0.842647
0.960000 0.842155 0.842647
0.062400 0.929486 0.842647
0.092914 0.929486 0.842647
0.180245 0.929486 0.842647
0.325813 0.929486 0.842647
0.511200 0.929486 0.842647
0.696587 0.929486 0.842647
0.842155 0.929486 0.842647
0.929486 0.929486 0.842647
0.960000 0.929486 0.842647
0.062400 0.960000 0.842647
0.092914 0.960000 0.842647
0.180245 0.960000 0.842647
0.325813 0.960000 0.842647
0.511200 0.960000 0.842647
0.696587 0.960000 0.842647
0.842155 0.960000 0.842647
0.929486 0.960000 0.842647
0.960000 0.960000 0.842647
0.062400 0.062400 0.929614
0.092914 0.062400 0.929614
0.180245 0.062400 0.929614
0.325813 0.062400 0.929614
0.511200 0.062400 0.929614
0.696587 0.062400 0.929614
0.842155 0.062400 0.929614
0.929486 0.062400 0.929614
0.960000 0.062400 0.929614
0.062400 0.092914 0.929614
0.092914 0.092914 0.929614
0.180245 0.092914 0.929614
0.325813 0.092914 0.929614
0.511200 0.092914 0.929614
0.696587 0.092914 0.929614
0.842155 0.092914 0.929614
0.929486 0.092914 0.929614
0.960000 0.092914 0.929614
0.062400 0.180245 0.929614
0.092914 0.180245 0.929614
0.180245 0.180245 0.929614
0.325813 0.180245 0.929614
0.511200 0.180245 0.929614
0.696587 0.180245 0.929614
0.842155 0.180245 0.929614
0.929486 0.180245 0.929614
0.960000 0.180245 0.929614
0.062400 0.325813 0.929614
0.092914 0.325813 0.929614
0.180245 0.325813 0.929614
0.325813 0.325813 0.929614
0.511200 0.325813 0.929614
0.696587 0.325813 0.929614
0.842155 0.325813 0.929614
0.929486 0.325813 0.929614
0.960000 0.325813 0.929614
0.062400 0.511200 0.929614
0.092914 0.511200 0.929614
0.180245 0.511200 0.929614
0.325813 0.511200 0.929614
0.511200 0.511200 0.929614
0.696587 0.511200 0.929614
0.842155 0.511200 0.929614
0.929486 0.511200 0.929614
0.960000 0.511200 0.929614
0.062400 0.696587 0.929614
0.092914 0.696587 0.929614
0.180245 0.696587 0.929614
0.325813 0.696587 0.929614
0.511200 0.696587 0.929614
0.696587 0.696587 0.929614
0.842155 0.696587 0.929614
0.929486 0.696587 0.929614
0.960000 0.696587 0.929614
0.062400 0.842155 0.929614
0.092914 0.842155 0.929614
0.180245 0.842155 0.929614
0.325813 0.842155 0.929614
0.511200 0.842155 0.929614
0.696587 0.842155 0.929614
0.842155 0.842155 0.929614
0.929486 0.842155 0.929614
0.960000 0.842155 0.929614
0.062400 0.929486 0.929614
0.092914 0.929486 0.929614
0.180245 0.929486 0.929614
0.325813 0.929486 0.929614
0.511200 0.929486 0.929614
0.696587 0.929486 0.929614
0.842155 0.929486 0.929614
0.929486 0.929486 0.929614
0.960000 0.929486 0.929614
0.062400 0.960000 0.929614
0.092914 0.960000 0.929614
0.180245 0.960000 0.929614
0.325813 0.960000 0.929614
0.511200 0.960000 0.929614
0.696587 0.960000 0.929614
0.842155 0.960000 0.929614
0.929486 0.960000 0.929614
0.960000 0.960000 0.929614
0.062400 0.062400 0.960000
0.092914 0.062400 0.960000
0.180245 0.062400 0.960000
0.325813 0.062400 0.960000
0.511200 0.062400 0.960000
0.696587 0.062400 0.960000
0.842155 0.062400 0.960000
0.929486 0.062400 0.960000
0.960000 0.062400 0.960000
0.062400 0.092914 0.960000
0.092914 0.092914 0.960000
0.180245 0.092914 0.960000
0.325813 0.092914 0.960000
0.511200 0.092914 0.960000
0.696587 0.092914 0.960000
0.842155 0.092914 0.960000
0.929486 0.092914 0.960000
0.960000 0.092914 0.960000
0.062400 0.180245 0.960000
0.092914 0.180245 0.960000
0.180245 0.180245 0.960000
0.325813 0.180245 0.960000
0.511200 0.180245 0.960000
0.696587 0.180245 0.960000
0.842155 0.180245 0.960000
0.929486 0.180245 0.960000
0.960000 0.180245 0.960000
0.062400 0.325813 0.960000
0.092914 0.325813 0.960000
0.180245 0.325813 0.960000
0.325813 0.325813 0.960000
0.511200 0.325813 0.960000
0.696587 0.325813 0.960000
0.842155 0.325813 0.960000
0.929486 0.325813 0.960000
0.960000 0.325813 0.960000
0.062400 0.511200 0.960000
0.092914 0.511200 0.960000
0.180245 0.511200 0.960000
0.325813 0.511200 0.960000
0.511200 0.511200 0.960000
0.696587 0.511200 0.960000
0.842155 0.511200 0.960000
0.929486 0.511200 0.960000
0.960000 0.511200 0.960000
0.062400 0.696587 0.960000
0.092914 0.696587 0.960000
0.180245 0.696587 0.960000
0.325813 0.696587 0.960000
0.511200 0.696587 0.960000
0.696587 0.696587 0.960000
0.842155 0.696587 0.960000
0.929486 0.696587 0.960000
0.960000 0.696587 0.960000
0.062400 0.842155 0.960000
0.092914 0.842155 0.960000
0.180245 0.842155 0.960000
0.325813 0.842155 0.960000
0.511200 0.842155 0.960000
0.696587 0.842155 0.960000
0.842155 0.842155 0.960000
0.929486 0.842155 0.960000
0.960000 0.842155 0.960000
0.062400 0.929486 0.960000
0.092914 0.929486 0.960000
0.180245 0.929486 0.960000
0.325813 0.929486 0.960000
0.511200 0.929486 0.960000
0.696587 0.929486 0.960000
0.842155 0.929486 0.960000
0.929486 0.929486 0.960000
0.960000 0.929486 0.960000
0.062400 0.960000 0.960000
0.092914 0.960000 0.960000
0.180245 0.960000 0.960000
0.325813 0.960000 0.960000
0.511200 0.960000 0.960000
0.696587 0.960000 0.960000
0.842155 0.960000 0.960000
0.929486 0.960000 0.960000
0.960000 0.960000 0.960000
