assets/presets/luts/matte-film/lut.cube
TITLE "Matte Film"
LUT_3D_SIZE 5
0.062400 0.062400 0.066144
0.180245 0.062400 0.066144
0.511200 0.062400 0.066144
0.842155 0.062400 0.066144
0.960000 0.062400 0.066144
0.062400 0.180245 0.066144
0.180245 0.180245 0.066144
0.511200 0.180245 0.066144
0.842155 0.180245 0.066144
0.960000 0.180245 0.066144
0.062400 0.511200 0.066144
0.180245 0.511200 0.066144
0.511200 0.511200 0.066144
0.842155 0.511200 0.066144
0.960000 0.511200 0.066144
0.062400 0.842155 0.066144
0.180245 0.842155 0.066144
0.511200 0.842155 0.066144
0.842155 0.842155 0.066144
0.960000 0.842155 0.066144
0.062400 0.960000 0.066144
0.180245 0.960000 0.066144
0.511200 0.960000 0.066144
0.842155 0.960000 0.066144
0.960000 0.960000 0.066144
0.062400 0.062400 0.183497
0.180245 0.062400 0.183497
0.511200 0.062400 0.183497
0.842155 0.062400 0.183497
0.960000 0.062400 0.183497
0.062400 0.180245 0.183497
0.180245 0.180245 0.183497
0.511200 0.180245 0.183497
0.842155 0.180245 0.183497
0.960000 0.180245 0.183497
0.062400 0.511200 0.183497
0.180245 0.511200 0.183497
0.511200 0.511200 0.183497
0.842155 0.511200 0.183497
0.960000 0.511200 0.183497
0.062400 0.842155 0.183497
0.180245 0.842155 0.183497
0.511200 0.842155 0.183497
0.842155 0.842155 0.183497
0.960000 0.842155 0.183497
0.062400 0.960000 0.183497
0.180245 0.960000 0.183497
0.511200 0.960000 0.183497
0.842155 0.960000 0.183497
0.960000 0.960000 0.183497
0.062400 0.062400 0.513072
0.180245 0.062400 0.513072
0.511200 0.062400 0.513072
0.842155 0.062400 0.513072
0.960000 0.062400 0.513072
0.062400 0.180245 0.513072
0.180245 0.180245 0.513072
0.511200 0.180245 0.513072
0.842155 0.180245 0.513072
0.960000 0.180245 0.513072
0.062400 0.511200 0.513072
0.180245 0.511200 0.513072
0.511200 0.511200 0.513072
0.842155 0.511200 0.513072
0.960000 0.511200 0.513072
0.062400 0.842155 0.513072
0.180245 0.842155 0.513072
0.511200 0.842155 0.513072
0.842155 0.842155 0.513072
0.960000 0.842155 0.513072
0.062400 0.960000 0.513072
0.180245 0.960000 0.513072
0.511200 0.960000 0.513072
0.842155 0.960000 0.513072
0.960000 0.960000 0.513072
0.062400 0.062400 0.842647
0.180245 0.062400 0.842647
0.511200 0.062400 0.842647
0.842155 0.062400 0.842647
0.960000 0.062400 0.842647
0.062400 0.180245 0.842647
0.180245 0.180245 0.842647
0.511200 0.180245 0.842647
0.842155 0.180245 0.842647
0.960000 0.180245 0.842647
0.062400 0.511200 0.842647
0.180245 0.511200 0.842647
0.511200 0.511200 0.842647
0.842155 0.511200 0.842647
0.960000 0.511200 0.842647
0.062400 0.842155 0.842647
0.180245 0.842155 0.842647
0.511200 0.842155 0.842647
0.842155 0.842155 0.842647
0.960000 0.842155 0.842647
0.062400 0.960000 0.842647
0.180245 0.960000 0.842647
0.511200 0.960000 0.842647
0.842155 0.960000 0.842647
0.960000 0.960000 0.842647
0.062400 0.062400 0.960000
0.180245 0.062400 0.960000
0.511200 0.062400 0.960000
0.842155 0.062400 0.960000
0.960000 0.062400 0.960000
0.062400 0.180245 0.960000
0.180245 0.180245 0.960000
0.511200 0.180245 0.960000
0.842155 0.180245 0.960000
0.960000 0.180245 0.960000
0.062400 0.511200 0.960000
0.180245 0.511200 0.960000
0.511200 0.511200 0.960000
0.842155 0.511200 0.960000
0.960000 0.511200 0.960000
0.062400 0.842155 0.960000
0.180245 0.842155 0.960000
0.511200 0.842155 0.960000
0.842155 0.842155 0.960000
0.960000 0.842155 0.960000
0.062400 0.960000 0.960000
0.180245 0.960000 0.960000
0.511200 0.960000 0.960000
0.842155 0.960000 0.960000
0.960000 0.960000 0.960000
