assets/presets/luts/twilight/lut.cube
TITLE "Twilight"
LUT_3D_SIZE 9
0.000000 0.000000 0.018000
0.095340 0.000000 0.017932
0.209871 0.000000 0.017724
0.324506 0.000000 0.017387
0.439234 0.000000 0.016933
0.554048 0.000000 0.016372
0.668938 0.000000 0.015716
0.783895 0.000000 0.014976
0.898909 0.000000 0.014164
0.000000 0.106530 0.017229
0.096281 0.106719 0.016755
0.211122 0.106957 0.016161
0.326035 0.107231 0.015476
0.441012 0.107537 0.014710
0.556045 0.107871 0.013876
0.671123 0.108227 0.012985
0.786237 0.108602 0.012047
0.901380 0.108991 0.011075
0.000000 0.224334 0.015117
0.098205 0.224640 0.014351
0.213259 0.224985 0.013490
0.328354 0.225350 0.012577
0.443482 0.225732 0.011623
0.558634 0.226125 0.010639
0.673801 0.226526 0.009637
0.788973 0.226930 0.008627
0.904144 0.227332 0.007629
0.000000 0.342491 0.012122
0.100731 0.342863 0.011193
0.215891 0.343260 0.010199
0.331061 0.343663 0.009193
0.446234 0.344067 0.008184
0.561407 0.344467 0.007220
0.676593 0.344858 0.006388
0.791779 0.345237 0.005692
0.906954 0.345599 0.005135
0.000000 0.460817 0.008706
0.103493 0.461203 0.007744
0.218673 0.461600 0.006837
0.333860 0.461986 0.006064
0.449043 0.462358 0.005429
0.564210 0.462711 0.004934
0.679350 0.463040 0.004581
0.794453 0.463341 0.004373
0.909506 0.463609 0.004311
0.000000 0.579127 0.005741
0.106304 0.579476 0.005194
0.221461 0.579818 0.004761
0.336586 0.580136 0.004472
0.451668 0.580423 0.004327
0.566695 0.580675 0.004330
0.681657 0.580888 0.004483
0.796542 0.581057 0.004788
0.911339 0.581177 0.005248
0.000000 0.697237 0.004384
0.108872 0.697497 0.004310
0.223872 0.697733 0.004379
0.338801 0.697927 0.004599
0.453649 0.698075 0.004972
0.568403 0.698173 0.005500
0.683052 0.698216 0.006186
0.797622 0.698218 0.006986
0.912189 0.698218 0.007794
0.000629 0.814964 0.004759
0.110737 0.815084 0.005185
0.225447 0.815158 0.005782
0.340049 0.815177 0.006535
0.454616 0.815177 0.007342
0.569182 0.815177 0.008148
0.683746 0.815177 0.008943
0.798305 0.815177 0.009718
0.912856 0.815177 0.010464
0.001731 0.932137 0.006923
0.111610 0.932137 0.007698
0.226175 0.932137 0.008500
0.340737 0.932137 0.009287
0.455293 0.932137 0.010051
0.569841 0.932137 0.010782
0.684378 0.932137 0.011471
0.798903 0.932137 0.012109
0.913412 0.932137 0.012688
0.000000 0.000000 0.138637
0.095387 0.000000 0.138520
0.209956 0.000000 0.138264
0.324626 0.000000 0.137884
0.439386 0.000000 0.137390
0.554228 0.000000 0.136794
0.669143 0.000000 0.136106
0.784121 0.000000 0.135339
0.899155 0.000000 0.134504
0.000000 0.106596 0.137710
0.096443 0.106800 0.137200
0.211310 0.107051 0.136572
0.326247 0.107337 0.135857
0.441245 0.107654 0.135065
0.556295 0.107996 0.134210
0.671387 0.108360 0.133300
0.786513 0.108740 0.132349
0.901664 0.109133 0.131367
0.000000 0.224446 0.135485
0.098446 0.224761 0.134696
0.213516 0.225113 0.133815
0.328624 0.225485 0.132886
0.443762 0.225871 0.131920
0.558920 0.226268 0.130928
0.674090 0.226671 0.129922
0.789262 0.227074 0.128913
0.904435 0.227475 0.127941
0.000000 0.342629 0.132425
0.101014 0.343004 0.131486
0.216179 0.343404 0.130486
0.331351 0.343808 0.129477
0.446522 0.344211 0.128472
0.561701 0.344608 0.127553
0.676887 0.344996 0.126769
0.792071 0.345369 0.126123
0.907240 0.345724 0.125616
0.000000 0.460961 0.128992
0.103784 0.461346 0.128051
0.218967 0.461740 0.127191
0.334154 0.462122 0.126468
0.449332 0.462487 0.125883
0.564491 0.462832 0.125438
0.679620 0.463151 0.125137
0.794706 0.463441 0.124980
0.909738 0.463696 0.124971
0.000000 0.579259 0.126169
0.106590 0.579601 0.125669
0.221737 0.579935 0.125288
0.336848 0.580242 0.125050
0.451912 0.580517 0.124958
0.566917 0.580756 0.125014
0.681853 0.580953 0.125222
0.796707 0.581106 0.125582
0.911470 0.581208 0.126097
0.000000 0.697338 0.124987
0.109107 0.697586 0.124964
0.224083 0.697807 0.125087
0.338984 0.697986 0.125361
0.453799 0.698116 0.125790
0.568517 0.698195 0.126374
0.683128 0.698218 0.127116
0.797694 0.698218 0.127922
0.912261 0.698218 0.128728
0.000797 0.815014 0.125548
0.110873 0.815117 0.126028
0.225544 0.815172 0.126681
0.340121 0.815177 0.127470
0.454688 0.815177 0.128278
0.569254 0.815177 0.129081
0.683816 0.815177 0.129870
0.798373 0.815177 0.130636
0.912921 0.815177 0.131370
0.001803 0.932137 0.127859
0.111682 0.932137 0.128633
0.226246 0.932137 0.129430
0.340806 0.932137 0.130210
0.455360 0.932137 0.130963
0.569904 0.932137 0.131680
0.684437 0.932137 0.132353
0.798956 0.932137 0.132971
0.913460 0.932137 0.133525
0.000000 0.000000 0.260585
0.095449 0.000000 0.260419
0.210056 0.000000 0.260117
0.324759 0.000000 0.259694
0.439550 0.000000 0.259162
0.554419 0.000000 0.258532
0.669358 0.000000 0.257814
0.784358 0.000000 0.257021
0.899408 0.000000 0.256164
0.000000 0.106668 0.259506
0.096616 0.106887 0.258960
0.211510 0.107151 0.258299
0.326470 0.107449 0.257555
0.441488 0.107775 0.256739
0.556554 0.108126 0.255863
0.671660 0.108496 0.254937
0.786795 0.108881 0.253973
0.901953 0.109278 0.252983
0.000000 0.224562 0.257171
0.098696 0.224886 0.256360
0.213781 0.225246 0.255460
0.328901 0.225623 0.254517
0.444047 0.226014 0.253540
0.559211 0.226413 0.252542
0.674383 0.226817 0.251533
0.789554 0.227220 0.250526
0.904731 0.227618 0.249597
0.000000 0.342769 0.254050
0.101302 0.343148 0.253102
0.216471 0.343550 0.252098
0.331643 0.343954 0.251089
0.446815 0.344355 0.250100
0.561998 0.344750 0.249230
0.677185 0.345133 0.248496
0.792364 0.345500 0.247900
0.907525 0.345847 0.247445
0.000000 0.461107 0.250604
0.104079 0.461489 0.249701
0.219265 0.461879 0.248890
0.334450 0.462256 0.248217
0.449623 0.462615 0.247682
0.564772 0.462951 0.247289
0.679886 0.463260 0.247040
0.794954 0.463538 0.246937
0.909964 0.463779 0.246982
0.000000 0.579391 0.247942
0.106877 0.579725 0.247492
0.222012 0.580050 0.247162
0.337107 0.580346 0.246976
0.452151 0.580608 0.246938
0.567133 0.580832 0.247049
0.682040 0.581014 0.247311
0.796863 0.581149 0.247727
0.911588 0.581232 0.248299
0.000000 0.697436 0.246939
0.109336 0.697671 0.246968
0.224286 0.697877 0.247146
0.339158 0.698039 0.247475
0.453939 0.698151 0.247960
0.568619 0.698210 0.248601
0.683201 0.698218 0.249384
0.797767 0.698218 0.250192
0.912333 0.698218 0.250995
0.000955 0.815058 0.247689
0.110996 0.815143 0.248223
0.225628 0.815177 0.248934
0.340195 0.815177 0.249740
0.454761 0.815177 0.250547
0.569326 0.815177 0.251346
0.683886 0.815177 0.252127
0.798440 0.815177 0.252883
0.912985 0.815177 0.253603
0.001876 0.932137 0.250129
0.111755 0.932137 0.250900
0.226318 0.932137 0.251692
0.340875 0.932137 0.252464
0.455426 0.932137 0.253205
0.569966 0.932137 0.253906
0.684494 0.932137 0.254560
0.799008 0.932137 0.255156
0.913506 0.932137 0.255686
0.000000 0.000000 0.382514
0.095525 0.000000 0.382302
0.210167 0.000000 0.381954
0.324903 0.000000 0.381491
0.439724 0.000000 0.380921
0.554619 0.000000 0.380258
0.669581 0.000000 0.379512
0.784600 0.000000 0.378694
0.899668 0.000000 0.377816
0.000000 0.106747 0.381288
0.096799 0.106978 0.380708
0.211718 0.107255 0.380016
0.326701 0.107564 0.379244
0.441737 0.107900 0.378405
0.556818 0.108258 0.377509
0.671936 0.108634 0.376569
0.787080 0.109024 0.375594
0.902243 0.109423 0.374597
0.000000 0.224682 0.378848
0.098952 0.225014 0.378017
0.214051 0.225381 0.377100
0.329181 0.225764 0.376143
0.444335 0.226158 0.375157
0.559503 0.226559 0.374154
0.674675 0.226963 0.373145
0.789846 0.227365 0.372151
0.905029 0.227760 0.371270
0.000000 0.342912 0.375672
0.101592 0.343293 0.374717
0.216763 0.343696 0.373710
0.331935 0.344100 0.372701
0.447110 0.344499 0.371747
0.562296 0.344890 0.370925
0.677481 0.345268 0.370241
0.792655 0.345628 0.369696
0.907807 0.345966 0.369292
0.000000 0.461252 0.372226
0.104376 0.461632 0.371368
0.219563 0.462018 0.370607
0.334745 0.462388 0.369984
0.449910 0.462739 0.369500
0.565048 0.463066 0.369159
0.680147 0.463364 0.368962
0.795195 0.463629 0.368913
0.910182 0.463857 0.369012
0.000000 0.579519 0.369733
0.107160 0.579846 0.369332
0.222282 0.580161 0.369055
0.337360 0.580445 0.368922
0.452382 0.580694 0.368938
0.567338 0.580903 0.369103
0.682216 0.581068 0.369421
0.797005 0.581185 0.369893
0.911693 0.581248 0.370522
0.000000 0.697529 0.368911
0.109556 0.697751 0.368992
0.224479 0.697941 0.369224
0.339320 0.698085 0.369610
0.454066 0.698179 0.370151
0.568706 0.698217 0.370850
0.683274 0.698218 0.371654
0.797840 0.698218 0.372461
0.912405 0.698218 0.373260
0.001100 0.815096 0.369851
0.111106 0.815162 0.370439
0.225701 0.815177 0.371202
0.340268 0.815177 0.372009
0.454834 0.815177 0.372814
0.569397 0.815177 0.373608
0.683956 0.815177 0.374381
0.798506 0.815177 0.375125
0.913048 0.815177 0.375830
0.001949 0.932137 0.372398
0.111827 0.932137 0.373166
0.226388 0.932137 0.373952
0.340944 0.932137 0.374713
0.455491 0.932137 0.375441
0.570027 0.932137 0.376126
0.684550 0.932137 0.376760
0.799059 0.932137 0.377333
0.913549 0.932137 0.377837
0.000000 0.000000 0.504425
0.095614 0.000000 0.504167
0.210291 0.000000 0.503776
0.325059 0.000000 0.503273
0.439908 0.000000 0.502668
0.554829 0.000000 0.501974
0.669812 0.000000 0.501200
0.784850 0.000000 0.500359
0.899932 0.000000 0.499462
0.000000 0.106830 0.503056
0.096992 0.107075 0.502444
0.211935 0.107364 0.501722
0.326938 0.107683 0.500924
0.441992 0.108027 0.500063
0.557087 0.108392 0.499150
0.672216 0.108774 0.498196
0.787368 0.109168 0.497212
0.902534 0.109568 0.496210
0.000000 0.224805 0.500517
0.099214 0.225145 0.499667
0.214325 0.225518 0.498734
0.329465 0.225905 0.497766
0.444625 0.226303 0.496772
0.559795 0.226706 0.495765
0.674967 0.227109 0.494756
0.790141 0.227509 0.493793
0.905326 0.227901 0.492962
0.000000 0.343055 0.497290
0.101884 0.343439 0.496330
0.217056 0.343843 0.495321
0.332227 0.344245 0.494317
0.447407 0.344642 0.493410
0.562594 0.345029 0.492639
0.677776 0.345401 0.492004
0.792943 0.345753 0.491510
0.908084 0.346082 0.491158
0.000000 0.461397 0.493864
0.104673 0.461773 0.493054
0.219860 0.462154 0.492342
0.335037 0.462518 0.491769
0.450194 0.462861 0.491337
0.565319 0.463178 0.491048
0.680401 0.463464 0.490904
0.795428 0.463716 0.490908
0.910390 0.463929 0.491062
0.000000 0.579645 0.491544
0.107438 0.579963 0.491192
0.222546 0.580267 0.490967
0.337605 0.580539 0.490888
0.452605 0.580774 0.490957
0.567534 0.580968 0.491178
0.682381 0.581116 0.491551
0.797134 0.581214 0.492080
0.911783 0.581257 0.492766
0.000000 0.697617 0.490902
0.109767 0.697825 0.491035
0.224662 0.697999 0.491323
0.339469 0.698125 0.491765
0.454178 0.698199 0.492363
0.568780 0.698218 0.493116
0.683347 0.698218 0.493923
0.797913 0.698218 0.494729
0.912477 0.698218 0.495523
0.001232 0.815127 0.492033
0.111201 0.815174 0.492676
0.225774 0.815177 0.493471
0.340341 0.815177 0.494279
0.454906 0.815177 0.495081
0.569468 0.815177 0.495868
0.684024 0.815177 0.496631
0.798572 0.815177 0.497362
0.913109 0.815177 0.498051
0.002022 0.932137 0.494666
0.111899 0.932137 0.495430
0.226458 0.932137 0.496207
0.341011 0.932137 0.496958
0.455554 0.932137 0.497671
0.570086 0.932137 0.498339
0.684604 0.932137 0.498952
0.799106 0.932137 0.499501
0.913590 0.932137 0.499977
0.000000 0.000000 0.626319
0.095716 0.000000 0.626016
0.210427 0.000000 0.625583
0.325225 0.000000 0.625042
0.440101 0.000000 0.624403
0.555046 0.000000 0.623679
0.670050 0.000000 0.622880
0.785105 0.000000 0.622017
0.900201 0.000000 0.621103
0.000000 0.106918 0.624812
0.097194 0.107176 0.624169
0.212160 0.107476 0.623418
0.327182 0.107805 0.622596
0.442252 0.108157 0.621715
0.557360 0.108529 0.620786
0.672498 0.108915 0.619819
0.787657 0.109312 0.618827
0.902827 0.109715 0.617821
0.000000 0.224931 0.622179
0.099480 0.225278 0.621311
0.214603 0.225657 0.620364
0.329751 0.226048 0.619385
0.444916 0.226448 0.618385
0.560088 0.226852 0.617377
0.675259 0.227255 0.616371
0.790437 0.227652 0.615453
0.905624 0.228040 0.614671
0.000000 0.343199 0.618906
0.102176 0.343585 0.617942
0.217348 0.343989 0.616932
0.332520 0.344390 0.615950
0.447704 0.344784 0.615092
0.562891 0.345165 0.614370
0.678069 0.345531 0.613786
0.793228 0.345875 0.613343
0.908356 0.346195 0.613042
0.000000 0.461540 0.615520
0.104971 0.461913 0.614757
0.220156 0.462288 0.614095
0.335327 0.462645 0.613573
0.450473 0.462979 0.613193
0.565584 0.463285 0.612956
0.680647 0.463560 0.612865
0.795652 0.463798 0.612923
0.910587 0.463996 0.613132
0.000000 0.579768 0.613372
0.107712 0.580077 0.613070
0.222803 0.580370 0.612898
0.337842 0.580629 0.612872
0.452818 0.580850 0.612996
0.567718 0.581028 0.613272
0.682533 0.581158 0.613701
0.797250 0.581236 0.614287
0.911859 0.581259 0.615030
0.000000 0.697700 0.612913
0.109969 0.697893 0.613099
0.224833 0.698050 0.613442
0.339606 0.698158 0.613940
0.454276 0.698212 0.614595
0.568853 0.698218 0.615385
0.683420 0.698218 0.616192
0.797986 0.698218 0.616995
0.912548 0.698218 0.617784
0.001351 0.815151 0.614236
0.111281 0.815177 0.614934
0.225847 0.815177 0.615741
0.340414 0.815177 0.616547
0.454978 0.815177 0.617345
0.569538 0.815177 0.618124
0.684091 0.815177 0.618877
0.798635 0.815177 0.619594
0.913168 0.815177 0.620266
0.002095 0.932137 0.616933
0.111970 0.932137 0.617691
0.226527 0.932137 0.618460
0.341076 0.932137 0.619198
0.455616 0.932137 0.619896
0.570143 0.932137 0.620545
0.684656 0.932137 0.621136
0.799152 0.932137 0.621659
0.913628 0.932137 0.622107
0.000000 0.000000 0.748195
0.095831 0.000000 0.747849
0.210575 0.000000 0.747376
0.325402 0.000000 0.746798
0.440304 0.000000 0.746127
0.555271 0.000000 0.745374
0.670295 0.000000 0.744551
0.785366 0.000000 0.743668
0.900475 0.000000 0.742738
0.000000 0.107012 0.746555
0.097404 0.107281 0.745883
0.212392 0.107592 0.745105
0.327432 0.107930 0.744260
0.442517 0.108290 0.743360
0.557637 0.108667 0.742416
0.672784 0.109058 0.741439
0.787948 0.109458 0.740441
0.903119 0.109861 0.739432
0.000000 0.225060 0.743833
0.099751 0.225413 0.742949
0.214884 0.225797 0.741989
0.330039 0.226193 0.741002
0.445208 0.226594 0.739997
0.560380 0.226998 0.738988
0.675552 0.227399 0.738000
0.790735 0.227794 0.737131
0.905922 0.228177 0.736398
0.000000 0.343345 0.740520
0.102468 0.343731 0.739553
0.217640 0.344135 0.738545
0.332816 0.344534 0.737601
0.448002 0.344923 0.736791
0.563187 0.345300 0.736119
0.678360 0.345658 0.735586
0.793508 0.345994 0.735194
0.908622 0.346303 0.734946
0.000000 0.461682 0.737194
0.105269 0.462050 0.736478
0.220450 0.462420 0.735867
0.335613 0.462769 0.735396
0.450748 0.463093 0.735067
0.565843 0.463389 0.734883
0.680887 0.463651 0.734846
0.795867 0.463875 0.734958
0.910774 0.464056 0.735222
0.000000 0.579887 0.735220
0.107980 0.580186 0.734968
0.223054 0.580468 0.734848
0.338071 0.580714 0.734877
0.453021 0.580919 0.735055
0.567892 0.581080 0.735386
0.682672 0.581193 0.735872
0.797351 0.581251 0.736515
0.911932 0.581259 0.737299
0.000000 0.697777 0.734944
0.110159 0.697955 0.735182
0.224992 0.698096 0.735581
0.339729 0.698184 0.736136
0.454359 0.698218 0.736849
0.568926 0.698218 0.737654
0.683493 0.698218 0.738461
0.798057 0.698218 0.739260
0.912618 0.698218 0.740041
0.001455 0.815167 0.736459
0.111353 0.815177 0.737203
0.225920 0.815177 0.738010
0.340486 0.815177 0.738814
0.455049 0.815177 0.739607
0.569607 0.815177 0.740378
0.684157 0.815177 0.741118
0.798698 0.815177 0.741820
0.913226 0.815177 0.742473
0.002167 0.932137 0.739198
0.112040 0.932137 0.739949
0.226595 0.932137 0.740708
0.341141 0.932137 0.741433
0.455676 0.932137 0.742114
0.570198 0.932137 0.742743
0.684705 0.932137 0.743310
0.799194 0.932137 0.743807
0.913664 0.932137 0.744225
0.000000 0.000000 0.870054
0.095958 0.000000 0.869668
0.210733 0.000000 0.869155
0.325588 0.000000 0.868542
0.440515 0.000000 0.867840
0.555503 0.000000 0.867061
0.670545 0.000000 0.866214
0.785631 0.000000 0.865313
0.900752 0.000000 0.864368
0.000000 0.107110 0.868287
0.097623 0.107390 0.867586
0.212631 0.107712 0.866783
0.327688 0.108058 0.865917
0.442787 0.108425 0.865000
0.557918 0.108808 0.864042
0.673072 0.109202 0.863056
0.788239 0.109603 0.862053
0.903412 0.110007 0.861044
0.000000 0.225191 0.865481
0.100026 0.225551 0.864582
0.215168 0.225940 0.863611
0.330329 0.226338 0.862616
0.445500 0.226741 0.861609
0.560672 0.227144 0.860600
0.675847 0.227543 0.859647
0.791033 0.227934 0.858827
0.906218 0.228312 0.858144
0.000000 0.343490 0.862132
0.102761 0.343878 0.861164
0.217932 0.344280 0.860164
0.333113 0.344676 0.859269
0.448300 0.345062 0.858509
0.563482 0.345432 0.857887
0.678647 0.345783 0.857404
0.793784 0.346110 0.857064
0.908883 0.346407 0.856869
0.000000 0.461823 0.858886
0.105566 0.462186 0.858218
0.220742 0.462548 0.857657
0.335896 0.462889 0.857237
0.451018 0.463204 0.856960
0.566095 0.463488 0.856829
0.681117 0.463737 0.856846
0.796073 0.463946 0.857013
0.910950 0.464110 0.857332
0.000000 0.580003 0.857086
0.108243 0.580292 0.856885
0.223297 0.580561 0.856818
0.338291 0.580793 0.856901
0.453214 0.580983 0.857134
0.568053 0.581127 0.857521
0.682798 0.581220 0.858064
0.797438 0.581258 0.858764
0.912005 0.581259 0.859568
0.000154 0.697849 0.856994
0.110339 0.698012 0.857286
0.225138 0.698134 0.857741
0.339838 0.698203 0.858353
0.454433 0.698218 0.859116
0.568999 0.698218 0.859924
0.683566 0.698218 0.860729
0.798129 0.698218 0.861522
0.912687 0.698218 0.862295
0.001545 0.815176 0.858703
0.111426 0.815177 0.859472
0.225993 0.815177 0.860279
0.340558 0.815177 0.861080
0.455120 0.815177 0.861866
0.569675 0.815177 0.862627
0.684222 0.815177 0.863354
0.798758 0.815177 0.864039
0.913282 0.815177 0.864673
0.002238 0.932137 0.861461
0.112110 0.932137 0.862204
0.226661 0.932137 0.862952
0.341204 0.932137 0.863662
0.455735 0.932137 0.864325
0.570252 0.932137 0.864933
0.684752 0.932137 0.865476
0.799235 0.932137 0.865945
0.913696 0.932137 0.866332
0.000000 0.000000 0.991898
0.096097 0.000000 0.991471
0.210902 0.000000 0.990921
0.325784 0.000000 0.990274
0.440734 0.000000 0.989543
0.555743 0.000000 0.988738
0.670802 0.000000 0.987871
0.785902 0.000000 0.986952
0.901033 0.000000 0.985994
0.000000 0.107212 0.990008
0.097850 0.107503 0.989280
0.212876 0.107834 0.988453
0.327950 0.108189 0.987567
0.443061 0.108562 0.986634
0.558201 0.108949 0.985665
0.673361 0.109347 0.984671
0.788532 0.109750 0.983664
0.903704 0.110153 0.982656
0.000000 0.225325 0.987123
0.100305 0.225690 0.986211
0.215455 0.226083 0.985230
0.330620 0.226483 0.984229
0.445793 0.226887 0.983220
0.560963 0.227289 0.982217
0.676143 0.227686 0.981311
0.791330 0.228073 0.980540
0.906513 0.228444 0.979907
0.000000 0.343637 0.983743
0.103053 0.344024 0.982776
0.218226 0.344424 0.981801
0.333410 0.344817 0.980955
0.448597 0.345198 0.980244
0.563774 0.345562 0.979673
0.678930 0.345904 0.979242
0.794055 0.346221 0.978954
0.909136 0.346507 0.978811
0.000000 0.461961 0.980596
0.105861 0.462320 0.979975
0.221031 0.462675 0.979465
0.336175 0.463006 0.979097
0.451282 0.463310 0.978873
0.566340 0.463582 0.978795
0.681340 0.463817 0.978866
0.796268 0.464011 0.979088
0.911114 0.464158 0.979462
0.000000 0.580116 0.978971
0.108499 0.580394 0.978821
0.223533 0.580650 0.978808
0.338502 0.580867 0.978945
0.453396 0.581041 0.979234
0.568202 0.581167 0.979677
0.682910 0.581240 0.980276
0.797512 0.581259 0.981030
0.912078 0.581259 0.981838
0.000351 0.697916 0.979065
0.110507 0.698062 0.979410
0.225271 0.698165 0.979921
0.339933 0.698214 0.980590
0.454506 0.698218 0.981385
0.569072 0.698218 0.982193
0.683638 0.698218 0.982995
0.798200 0.698218 0.983782
0.912755 0.698218 0.984545
0.001621 0.815177 0.980967
0.111500 0.815177 0.981741
0.226066 0.815177 0.982547
0.340630 0.815177 0.983344
0.455190 0.815177 0.984122
0.569742 0.815177 0.984872
0.684285 0.815177 0.985585
0.798817 0.815177 0.986252
0.913335 0.815177 0.986864
0.002309 0.932137 0.983721
0.112178 0.932137 0.984456
0.226727 0.932137 0.985191
0.341265 0.932137 0.985885
0.455791 0.932137 0.986529
0.570303 0.932137 0.987114
0.684797 0.932137 0.987632
0.799272 0.932137 0.988072
0.913726 0.932137 0.988427
