assets/presets/luts/twilight/lut.cube
TITLE "Twilight"
LUT_3D_SIZE 17
0.000000 0.000000 0.018000
0.038116 0.000000 0.017984
0.095340 0.000000 0.017932
0.152592 0.000000 0.017845
0.209871 0.000000 0.017724
0.267176 0.000000 0.017571
0.324506 0.000000 0.017387
0.381859 0.000000 0.017174
0.439234 0.000000 0.016933
0.496631 0.000000 0.016665
0.554048 0.000000 0.016372
0.611484 0.000000 0.016055
0.668938 0.000000 0.015716
0.726408 0.000000 0.015355
0.783895 0.000000 0.014976
0.841395 0.000000 0.014578
0.898909 0.000000 0.014164
0.000000 0.047818 0.017811
0.038350 0.047865 0.017691
0.095661 0.047929 0.017531
0.152996 0.048006 0.017340
0.210354 0.048094 0.017120
0.267735 0.048193 0.016873
0.325136 0.048302 0.016599
0.382558 0.048422 0.016300
0.439998 0.048551 0.015978
0.497456 0.048688 0.015634
0.554930 0.048834 0.015269
0.612420 0.048988 0.014885
0.669924 0.049148 0.014483
0.727441 0.049316 0.014065
0.784970 0.049489 0.013632
0.842510 0.049668 0.013185
0.900059 0.049851 0.012727
0.000000 0.106530 0.017229
0.038891 0.106616 0.017015
0.096281 0.106719 0.016755
0.153692 0.106833 0.016470
0.211122 0.106957 0.016161
0.268570 0.107090 0.015829
0.326035 0.107231 0.015476
0.383516 0.107381 0.015102
0.441012 0.107537 0.014710
0.498522 0.107701 0.014301
0.556045 0.107871 0.013876
0.613578 0.108047 0.013437
0.671123 0.108227 0.012985
0.728676 0.108413 0.012521
0.786237 0.108602 0.012047
0.843806 0.108795 0.011565
0.901380 0.108991 0.011075
0.000000 0.165376 0.016312
0.039689 0.165494 0.016018
0.097145 0.165631 0.015676
0.154617 0.165776 0.015314
0.212105 0.165928 0.014932
0.269607 0.166088 0.014532
0.327123 0.166255 0.014116
0.384650 0.166427 0.013684
0.442189 0.166605 0.013239
0.499737 0.166788 0.012782
0.557294 0.166976 0.012314
0.614859 0.167167 0.011836
0.672430 0.167361 0.011350
0.730007 0.167558 0.010858
0.787587 0.167757 0.010360
0.845171 0.167958 0.009859
0.902757 0.168159 0.009355
0.000000 0.224334 0.015117
0.040697 0.224478 0.014758
0.098205 0.224640 0.014351
0.155726 0.224810 0.013928
0.213259 0.224985 0.013490
0.270802 0.225165 0.013039
0.328354 0.225350 0.012577
0.385914 0.225539 0.012104
0.443482 0.225732 0.011623
0.501056 0.225927 0.011134
0.558634 0.226125 0.010639
0.616216 0.226325 0.010140
0.673801 0.226526 0.009637
0.731387 0.226728 0.009132
0.788973 0.226930 0.008627
0.846559 0.227131 0.008124
0.904144 0.227332 0.007629
0.000000 0.283380 0.013701
0.041869 0.283543 0.013293
0.099416 0.283726 0.012837
0.156972 0.283912 0.012370
0.214536 0.284103 0.011893
0.272106 0.284297 0.011408
0.329682 0.284494 0.010917
0.387262 0.284693 0.010420
0.444846 0.284893 0.009918
0.502431 0.285094 0.009415
0.560017 0.285296 0.008910
0.617604 0.285498 0.008405
0.675189 0.285699 0.007903
0.732776 0.285899 0.007421
0.790366 0.286097 0.006973
0.847959 0.286293 0.006559
0.905553 0.286486 0.006179
0.000000 0.342491 0.012122
0.043158 0.342668 0.011681
0.100731 0.342863 0.011193
0.158309 0.343061 0.010698
0.215891 0.343260 0.010199
0.273475 0.343461 0.009697
0.331061 0.343663 0.009193
0.388648 0.343865 0.008688
0.446234 0.344067 0.008184
0.503819 0.344267 0.007687
0.561407 0.344467 0.007220
0.618999 0.344664 0.006787
0.676593 0.344858 0.006388
0.734186 0.345050 0.006023
0.791779 0.345237 0.005692
0.849368 0.345421 0.005396
0.906954 0.345599 0.005135
0.000000 0.401644 0.010438
0.044520 0.401828 0.009978
0.102106 0.402030 0.009475
0.159692 0.402232 0.008970
0.217278 0.402433 0.008465
0.274863 0.402635 0.007962
0.332450 0.402835 0.007477
0.390040 0.403033 0.007025
0.447633 0.403229 0.006607
0.505226 0.403423 0.006223
0.562820 0.403612 0.005873
0.620411 0.403798 0.005557
0.677999 0.403980 0.005277
0.735583 0.404156 0.005031
0.793160 0.404326 0.004821
0.850730 0.404490 0.004647
0.908291 0.404648 0.004508
0.000000 0.460817 0.008706
0.045908 0.461002 0.008244
0.103493 0.461203 0.007744
0.161081 0.461402 0.007274
0.218673 0.461600 0.006837
0.276266 0.461795 0.006433
0.333860 0.461986 0.006064
0.391453 0.462174 0.005730
0.449043 0.462358 0.005429
0.506629 0.462537 0.005164
0.564210 0.462711 0.004934
0.621784 0.462879 0.004740
0.679350 0.463040 0.004581
0.736907 0.463194 0.004459
0.794453 0.463341 0.004373
0.851986 0.463479 0.004323
0.909506 0.463609 0.004311
0.000000 0.519985 0.007041
0.047306 0.520165 0.006655
0.104900 0.520359 0.006267
0.162493 0.520549 0.005913
0.220085 0.520736 0.005593
0.277674 0.520917 0.005308
0.335258 0.521094 0.005059
0.392836 0.521265 0.004844
0.450407 0.521430 0.004666
0.507969 0.521589 0.004523
0.565521 0.521740 0.004416
0.623061 0.521883 0.004346
0.680589 0.522017 0.004313
0.738102 0.522143 0.004317
0.795599 0.522259 0.004358
0.853079 0.522365 0.004437
0.910541 0.522460 0.004553
0.000000 0.579127 0.005741
0.048717 0.579296 0.005463
0.106304 0.579476 0.005194
0.163885 0.579650 0.004960
0.221461 0.579818 0.004761
0.279028 0.579981 0.004598
0.336586 0.580136 0.004472
0.394133 0.580283 0.004381
0.451668 0.580423 0.004327
0.509189 0.580553 0.004310
0.566695 0.580675 0.004330
0.624185 0.580786 0.004388
0.681657 0.580888 0.004483
0.739110 0.580978 0.004617
0.796542 0.581057 0.004788
0.853952 0.581123 0.004999
0.911339 0.581177 0.005248
0.000000 0.638218 0.004852
0.050084 0.638370 0.004685
0.107647 0.638529 0.004538
0.165200 0.638681 0.004427
0.222742 0.638825 0.004353
0.280271 0.638961 0.004315
0.337786 0.639088 0.004314
0.395285 0.639205 0.004351
0.452767 0.639312 0.004425
0.510231 0.639408 0.004537
0.567675 0.639494 0.004688
0.625098 0.639567 0.004876
0.682497 0.639628 0.005104
0.739873 0.639677 0.005370
0.797223 0.639711 0.005676
0.854547 0.639732 0.006021
0.911842 0.639738 0.006406
0.000000 0.697237 0.004384
0.051349 0.697366 0.004332
0.108872 0.697497 0.004310
0.166380 0.697620 0.004326
0.223872 0.697733 0.004379
0.281346 0.697835 0.004470
0.338801 0.697927 0.004599
0.396236 0.698007 0.004766
0.453649 0.698075 0.004972
0.511038 0.698131 0.005216
0.568403 0.698173 0.005500
0.625741 0.698202 0.005823
0.683052 0.698216 0.006186
0.740339 0.698218 0.006583
0.797622 0.698218 0.006986
0.854905 0.698218 0.007390
0.912189 0.698218 0.007794
0.000000 0.756160 0.004349
0.052455 0.756259 0.004414
0.109921 0.756357 0.004522
0.167368 0.756443 0.004668
0.224793 0.756518 0.004852
0.282195 0.756581 0.005074
0.339574 0.756631 0.005336
0.396927 0.756667 0.005637
0.454254 0.756690 0.005978
0.511552 0.756698 0.006358
0.568836 0.756698 0.006760
0.626119 0.756698 0.007164
0.683402 0.756698 0.007568
0.740686 0.756698 0.007971
0.797968 0.756698 0.008371
0.855250 0.756698 0.008769
0.912531 0.756698 0.009162
0.000629 0.814964 0.004759
0.053345 0.815027 0.004945
0.110737 0.815084 0.005185
0.168105 0.815128 0.005464
0.225447 0.815158 0.005782
0.282761 0.815175 0.006140
0.340049 0.815177 0.006535
0.397333 0.815177 0.006938
0.454616 0.815177 0.007342
0.511899 0.815177 0.007746
0.569182 0.815177 0.008148
0.626465 0.815177 0.008547
0.683746 0.815177 0.008943
0.741026 0.815177 0.009333
0.798305 0.815177 0.009718
0.855582 0.815177 0.010095
0.912856 0.815177 0.010464
0.001324 0.873625 0.005625
0.053961 0.873647 0.005935
0.111263 0.873657 0.006310
0.168546 0.873657 0.006712
0.225830 0.873657 0.007116
0.283113 0.873657 0.007520
0.340396 0.873657 0.007923
0.397679 0.873657 0.008324
0.454961 0.873657 0.008722
0.512242 0.873657 0.009115
0.569521 0.873657 0.009503
0.626799 0.873657 0.009885
0.684075 0.873657 0.010259
0.741349 0.873657 0.010624
0.798620 0.873657 0.010979
0.855889 0.873657 0.011323
0.913154 0.873657 0.011655
0.001731 0.932137 0.006923
0.054327 0.932137 0.007294
0.111610 0.932137 0.007698
0.168893 0.932137 0.008100
0.226175 0.932137 0.008500
0.283457 0.932137 0.008896
0.340737 0.932137 0.009287
0.398016 0.932137 0.009672
0.455293 0.932137 0.010051
0.512568 0.932137 0.010421
0.569841 0.932137 0.010782
0.627111 0.932137 0.011132
0.684378 0.932137 0.011471
0.741642 0.932137 0.011797
0.798903 0.932137 0.012109
0.856160 0.932137 0.012407
0.913412 0.932137 0.012688
0.000000 0.000000 0.077656
0.038127 0.000000 0.077628
0.095361 0.000000 0.077563
0.152623 0.000000 0.077464
0.209912 0.000000 0.077332
0.267225 0.000000 0.077168
0.324564 0.000000 0.076973
0.381925 0.000000 0.076750
0.439308 0.000000 0.076499
0.496712 0.000000 0.076222
0.554136 0.000000 0.075920
0.611578 0.000000 0.075595
0.669038 0.000000 0.075249
0.726514 0.000000 0.074881
0.784006 0.000000 0.074495
0.841511 0.000000 0.074091
0.899030 0.000000 0.073671
0.000000 0.047835 0.077426
0.038392 0.047886 0.077296
0.095712 0.047955 0.077125
0.153056 0.048036 0.076924
0.210422 0.048127 0.076694
0.267810 0.048230 0.076437
0.325219 0.048343 0.076154
0.382647 0.048466 0.075847
0.440094 0.048598 0.075517
0.497557 0.048739 0.075165
0.555037 0.048888 0.074793
0.612532 0.049044 0.074403
0.670041 0.049207 0.073995
0.727562 0.049376 0.073572
0.785095 0.049552 0.073134
0.842638 0.049732 0.072682
0.900191 0.049917 0.072220
0.000000 0.106562 0.076807
0.038962 0.106651 0.076584
0.096360 0.106759 0.076315
0.153777 0.106876 0.076022
0.211214 0.107003 0.075704
0.268668 0.107139 0.075364
0.326139 0.107283 0.075004
0.383626 0.107435 0.074624
0.441127 0.107595 0.074225
0.498641 0.107761 0.073811
0.556168 0.107933 0.073380
0.613705 0.108110 0.072936
0.671253 0.108293 0.072480
0.728809 0.108480 0.072013
0.786373 0.108670 0.071536
0.843944 0.108865 0.071051
0.901520 0.109061 0.070559
0.000000 0.165421 0.075859
0.039784 0.165541 0.075557
0.097246 0.165681 0.075208
0.154724 0.165829 0.074839
0.212217 0.165984 0.074450
0.269724 0.166147 0.074045
0.327244 0.166315 0.073623
0.384775 0.166490 0.073187
0.442318 0.166670 0.072737
0.499869 0.166854 0.072275
0.557429 0.167043 0.071804
0.614996 0.167235 0.071323
0.672569 0.167431 0.070835
0.730147 0.167628 0.070340
0.787729 0.167828 0.069841
0.845314 0.168029 0.069338
0.902900 0.168231 0.068834
0.000000 0.224389 0.074638
0.040811 0.224534 0.074274
0.098324 0.224700 0.073861
0.155849 0.224871 0.073432
0.213385 0.225048 0.072990
0.270932 0.225230 0.072535
0.328487 0.225416 0.072069
0.386050 0.225607 0.071593
0.443620 0.225801 0.071109
0.501196 0.225997 0.070618
0.558775 0.226196 0.070121
0.616359 0.226396 0.069620
0.673944 0.226597 0.069116
0.731530 0.226799 0.068612
0.789116 0.227001 0.068107
0.846701 0.227202 0.067604
0.904288 0.227403 0.067120
0.000000 0.283442 0.073203
0.041997 0.283607 0.072791
0.099547 0.283791 0.072331
0.157106 0.283979 0.071860
0.214673 0.284171 0.071381
0.272245 0.284366 0.070893
0.329823 0.284564 0.070399
0.387404 0.284763 0.069901
0.444988 0.284964 0.069399
0.502574 0.285166 0.068894
0.560161 0.285368 0.068389
0.617746 0.285570 0.067885
0.675331 0.285770 0.067387
0.732920 0.285970 0.066917
0.790511 0.286167 0.066481
0.848105 0.286362 0.066079
0.905698 0.286554 0.065711
0.000000 0.342559 0.071611
0.043296 0.342737 0.071167
0.100871 0.342933 0.070676
0.158450 0.343131 0.070180
0.216033 0.343331 0.069680
0.273618 0.343533 0.069177
0.331205 0.343735 0.068672
0.388791 0.343936 0.068167
0.446376 0.344138 0.067664
0.503962 0.344338 0.067176
0.561552 0.344537 0.066721
0.619145 0.344733 0.066300
0.676738 0.344926 0.065913
0.734332 0.345117 0.065560
0.791923 0.345303 0.065241
0.849512 0.345484 0.064958
0.907096 0.345661 0.064709
0.000000 0.401715 0.069919
0.044663 0.401900 0.069459
0.102249 0.402101 0.068954
0.159835 0.402303 0.068450
0.217421 0.402505 0.067945
0.275006 0.402706 0.067445
0.332594 0.402905 0.066971
0.390185 0.403103 0.066531
0.447778 0.403298 0.066125
0.505372 0.403490 0.065753
0.562965 0.403679 0.065415
0.620555 0.403863 0.065112
0.678142 0.404043 0.064844
0.735723 0.404217 0.064611
0.793298 0.404385 0.064414
0.850865 0.404547 0.064252
0.908423 0.404702 0.064126
0.000000 0.460888 0.068186
0.046051 0.461073 0.067724
0.103636 0.461274 0.067232
0.161226 0.461472 0.066773
0.218818 0.461669 0.066348
0.276412 0.461863 0.065957
0.334005 0.462053 0.065600
0.391597 0.462240 0.065278
0.449186 0.462422 0.064990
0.506771 0.462600 0.064737
0.564350 0.462771 0.064520
0.621921 0.462937 0.064338
0.679484 0.463096 0.064192
0.737037 0.463247 0.064082
0.794579 0.463391 0.064009
0.852107 0.463526 0.063973
0.909622 0.463653 0.063973
0.000000 0.520055 0.066547
0.047452 0.520234 0.066172
0.105046 0.520427 0.065796
0.162639 0.520616 0.065454
0.220229 0.520801 0.065147
0.277817 0.520981 0.064874
0.335399 0.521156 0.064637
0.392974 0.521325 0.064435
0.450542 0.521487 0.064269
0.508101 0.521643 0.064139
0.565649 0.521791 0.064046
0.623185 0.521931 0.063989
0.680708 0.522063 0.063968
0.738215 0.522185 0.063985
0.795707 0.522297 0.064040
0.853180 0.522400 0.064132
0.910635 0.522491 0.064262
0.000000 0.579193 0.065289
0.048861 0.579360 0.065022
0.106446 0.579538 0.064765
0.164025 0.579710 0.064544
0.221598 0.579877 0.064358
0.279162 0.580036 0.064208
0.336716 0.580189 0.064094
0.394259 0.580334 0.064016
0.451789 0.580470 0.063975
0.509305 0.580597 0.063971
0.566806 0.580715 0.064005
0.624290 0.580823 0.064076
0.681755 0.580921 0.064184
0.739201 0.581007 0.064331
0.796625 0.581082 0.064517
0.854027 0.581144 0.064741
0.911405 0.581193 0.065004
0.000000 0.638278 0.064442
0.050220 0.638427 0.064287
0.107779 0.638584 0.064153
0.165329 0.638733 0.064055
0.222866 0.638874 0.063993
0.280391 0.639007 0.063969
0.337900 0.639130 0.063981
0.395393 0.639244 0.064031
0.452869 0.639347 0.064119
0.510326 0.639440 0.064244
0.567763 0.639521 0.064408
0.625177 0.639590 0.064611
0.682569 0.639647 0.064852
0.739936 0.639690 0.065132
0.797276 0.639720 0.065452
0.854590 0.639736 0.065811
0.911877 0.639738 0.066207
0.000000 0.697288 0.064018
0.051471 0.697413 0.063978
0.108989 0.697542 0.063970
0.166492 0.697661 0.063999
0.223977 0.697770 0.064065
0.281445 0.697869 0.064170
0.338893 0.697957 0.064312
0.396320 0.698033 0.064493
0.453725 0.698096 0.064712
0.511106 0.698147 0.064970
0.568461 0.698185 0.065268
0.625790 0.698209 0.065605
0.683091 0.698218 0.065982
0.740374 0.698218 0.066384
0.797658 0.698218 0.066788
0.854941 0.698218 0.067192
0.912224 0.698218 0.067595
0.000000 0.756199 0.064029
0.052558 0.756295 0.064106
0.110017 0.756389 0.064227
0.167456 0.756471 0.064387
0.224873 0.756542 0.064584
0.282268 0.756600 0.064821
0.339638 0.756645 0.065097
0.396982 0.756677 0.065412
0.454298 0.756694 0.065766
0.511588 0.756698 0.066159
0.568871 0.756698 0.066562
0.626155 0.756698 0.066966
0.683438 0.756698 0.067369
0.740721 0.756698 0.067771
0.798004 0.756698 0.068171
0.855285 0.756698 0.068567
0.912565 0.756698 0.068958
0.000713 0.814989 0.064485
0.053422 0.815049 0.064684
0.110806 0.815101 0.064938
0.168165 0.815140 0.065230
0.225497 0.815166 0.065563
0.282801 0.815177 0.065935
0.340085 0.815177 0.066336
0.397368 0.815177 0.066740
0.454652 0.815177 0.067143
0.511935 0.815177 0.067547
0.569218 0.815177 0.067948
0.626500 0.815177 0.068346
0.683781 0.815177 0.068740
0.741060 0.815177 0.069128
0.798338 0.815177 0.069511
0.855615 0.815177 0.069885
0.912889 0.815177 0.070251
0.001378 0.873635 0.065399
0.054006 0.873652 0.065722
0.111299 0.873657 0.066111
0.168582 0.873657 0.066514
0.225865 0.873657 0.066917
0.283149 0.873657 0.067321
0.340432 0.873657 0.067724
0.397714 0.873657 0.068124
0.454996 0.873657 0.068520
0.512276 0.873657 0.068912
0.569555 0.873657 0.069298
0.626832 0.873657 0.069677
0.684108 0.873657 0.070047
0.741381 0.873657 0.070409
0.798651 0.873657 0.070760
0.855918 0.873657 0.071100
0.913183 0.873657 0.071428
0.001767 0.932137 0.066724
0.054362 0.932137 0.067095
0.111646 0.932137 0.067499
0.168928 0.932137 0.067900
0.226211 0.932137 0.068299
0.283492 0.932137 0.068693
0.340772 0.932137 0.069082
0.398050 0.932137 0.069465
0.455326 0.932137 0.069841
0.512600 0.932137 0.070208
0.569872 0.932137 0.070565
0.627141 0.932137 0.070912
0.684407 0.932137 0.071246
0.741670 0.932137 0.071567
0.798929 0.932137 0.071875
0.856185 0.932137 0.072166
0.913436 0.932137 0.072442
0.000000 0.000000 0.138637
0.038143 0.000000 0.138597
0.095387 0.000000 0.138520
0.152659 0.000000 0.138408
0.209956 0.000000 0.138264
0.267279 0.000000 0.138089
0.324626 0.000000 0.137884
0.381995 0.000000 0.137651
0.439386 0.000000 0.137390
0.496797 0.000000 0.137104
0.554228 0.000000 0.136794
0.611677 0.000000 0.136461
0.669143 0.000000 0.136106
0.726625 0.000000 0.135732
0.784121 0.000000 0.135339
0.841632 0.000000 0.134929
0.899155 0.000000 0.134504
0.000000 0.047854 0.138367
0.038439 0.047910 0.138226
0.095768 0.047983 0.138044
0.153120 0.048068 0.137832
0.210494 0.048163 0.137592
0.267890 0.048270 0.137326
0.325306 0.048387 0.137034
0.382741 0.048513 0.136718
0.440194 0.048648 0.136380
0.497663 0.048792 0.136021
0.555149 0.048943 0.135642
0.612649 0.049102 0.135246
0.670162 0.049268 0.134832
0.727688 0.049439 0.134403
0.785225 0.049616 0.133960
0.842772 0.049799 0.133505
0.900327 0.049985 0.133038
0.000000 0.106596 0.137710
0.039038 0.106689 0.137478
0.096443 0.106800 0.137200
0.153867 0.106921 0.136898
0.211310 0.107051 0.136572
0.268771 0.107190 0.136225
0.326247 0.107337 0.135857
0.383739 0.107492 0.135470
0.441245 0.107654 0.135065
0.498764 0.107822 0.134645
0.556295 0.107996 0.134210
0.613837 0.108176 0.133761
0.671387 0.108360 0.133300
0.728947 0.108548 0.132829
0.786513 0.108740 0.132349
0.844086 0.108935 0.131861
0.901664 0.109133 0.131367
0.000000 0.165468 0.136731
0.039883 0.165591 0.136422
0.097351 0.165734 0.136065
0.154835 0.165884 0.135689
0.212333 0.166042 0.135294
0.269845 0.166207 0.134882
0.327369 0.166378 0.134455
0.384905 0.166554 0.134014
0.442450 0.166736 0.133560
0.500005 0.166922 0.133094
0.557568 0.167112 0.132619
0.615137 0.167306 0.132135
0.672712 0.167502 0.131645
0.730292 0.167700 0.131148
0.787875 0.167901 0.130648
0.845460 0.168102 0.130144
0.903046 0.168304 0.129640
0.000000 0.224446 0.135485
0.040929 0.224594 0.135115
0.098446 0.224761 0.134696
0.155976 0.224935 0.134262
0.213516 0.225113 0.133815
0.271066 0.225297 0.133356
0.328624 0.225485 0.132886
0.386190 0.225677 0.132407
0.443762 0.225871 0.131920
0.501339 0.226069 0.131427
0.558920 0.226268 0.130928
0.616504 0.226469 0.130426
0.674090 0.226671 0.129922
0.731676 0.226873 0.129417
0.789262 0.227074 0.128913
0.846847 0.227275 0.128413
0.904435 0.227475 0.127941
0.000000 0.283507 0.134030
0.042129 0.283673 0.133614
0.099683 0.283859 0.133150
0.157245 0.284049 0.132676
0.214813 0.284242 0.132193
0.272388 0.284438 0.131703
0.329967 0.284636 0.131208
0.387549 0.284836 0.130708
0.445134 0.285037 0.130204
0.502720 0.285239 0.129700
0.560307 0.285441 0.129195
0.617892 0.285642 0.128691
0.675478 0.285843 0.128201
0.733068 0.286042 0.127744
0.790660 0.286238 0.127320
0.848254 0.286432 0.126930
0.905847 0.286622 0.126575
0.000000 0.342629 0.132425
0.043438 0.342807 0.131978
0.101014 0.343004 0.131486
0.158595 0.343204 0.130988
0.216179 0.343404 0.130486
0.273765 0.343606 0.129982
0.331351 0.343808 0.129477
0.388937 0.344009 0.128973
0.446522 0.344211 0.128472
0.504109 0.344410 0.127996
0.561701 0.344608 0.127553
0.619294 0.344803 0.127144
0.676887 0.344996 0.126769
0.734480 0.345185 0.126429
0.792071 0.345369 0.126123
0.849658 0.345549 0.125852
0.907240 0.345724 0.125616
0.000000 0.401788 0.130726
0.044809 0.401973 0.130265
0.102395 0.402174 0.129760
0.159981 0.402376 0.129255
0.217567 0.402578 0.128751
0.275152 0.402778 0.128258
0.332742 0.402977 0.127796
0.390334 0.403174 0.127369
0.447927 0.403368 0.126975
0.505521 0.403559 0.126615
0.563113 0.403746 0.126290
0.620702 0.403929 0.125999
0.678287 0.404106 0.125744
0.735866 0.404278 0.125524
0.793438 0.404444 0.125339
0.851002 0.404604 0.125191
0.908556 0.404756 0.125078
0.000000 0.460961 0.128992
0.046196 0.461146 0.128531
0.103784 0.461346 0.128051
0.161374 0.461544 0.127604
0.218967 0.461740 0.127191
0.276561 0.461932 0.126812
0.334154 0.462122 0.126468
0.391745 0.462307 0.126158
0.449332 0.462487 0.125883
0.506915 0.462662 0.125643
0.564491 0.462832 0.125438
0.622060 0.462995 0.125269
0.679620 0.463151 0.125137
0.737168 0.463300 0.125040
0.794706 0.463441 0.124980
0.852229 0.463573 0.124957
0.909738 0.463696 0.124971
0.000000 0.520126 0.127384
0.047601 0.520305 0.127020
0.105194 0.520496 0.126656
0.162787 0.520683 0.126327
0.220376 0.520866 0.126032
0.277962 0.521045 0.125773
0.335542 0.521217 0.125548
0.393115 0.521384 0.125359
0.450680 0.521544 0.125206
0.508235 0.521698 0.125090
0.565779 0.521843 0.125009
0.623310 0.521980 0.124965
0.680827 0.522108 0.124959
0.738329 0.522227 0.124989
0.795814 0.522336 0.125057
0.853281 0.522434 0.125163
0.910728 0.522521 0.125307
0.000000 0.579259 0.126169
0.049007 0.579425 0.125914
0.106590 0.579601 0.125669
0.164167 0.579771 0.125461
0.221737 0.579935 0.125288
0.279298 0.580092 0.125151
0.336848 0.580242 0.125050
0.394387 0.580384 0.124985
0.451912 0.580517 0.124958
0.509423 0.580641 0.124968
0.566917 0.580756 0.125014
0.624394 0.580860 0.125099
0.681853 0.580953 0.125222
0.739291 0.581035 0.125383
0.796707 0.581106 0.125582
0.854101 0.581163 0.125820
0.911470 0.581208 0.126097
0.000000 0.638337 0.125366
0.050357 0.638485 0.125223
0.107914 0.638639 0.125102
0.165459 0.638785 0.125017
0.222992 0.638923 0.124969
0.280511 0.639053 0.124958
0.338015 0.639173 0.124984
0.395502 0.639283 0.125047
0.452971 0.639382 0.125148
0.510421 0.639471 0.125288
0.567849 0.639547 0.125466
0.625256 0.639612 0.125682
0.682638 0.639664 0.125937
0.739996 0.639703 0.126232
0.797327 0.639728 0.126566
0.854630 0.639738 0.126939
0.911914 0.639738 0.127341
0.000000 0.697338 0.124987
0.051594 0.697461 0.124959
0.109107 0.697586 0.124964
0.166603 0.697702 0.125007
0.224083 0.697807 0.125087
0.281544 0.697902 0.125205
0.338984 0.697986 0.125361
0.396403 0.698057 0.125556
0.453799 0.698116 0.125790
0.511171 0.698162 0.126062
0.568517 0.698195 0.126374
0.625836 0.698214 0.126725
0.683128 0.698218 0.127116
0.740411 0.698218 0.127519
0.797694 0.698218 0.127922
0.854978 0.698218 0.128326
0.912261 0.698218 0.128728
0.000000 0.756238 0.125044
0.052660 0.756330 0.125134
0.110112 0.756420 0.125269
0.167544 0.756498 0.125442
0.224953 0.756564 0.125654
0.282338 0.756618 0.125905
0.339699 0.756658 0.126195
0.397033 0.756685 0.126524
0.454340 0.756697 0.126893
0.511625 0.756698 0.127293
0.568908 0.756698 0.127696
0.626191 0.756698 0.128100
0.683475 0.756698 0.128504
0.740757 0.756698 0.128905
0.798040 0.756698 0.129303
0.855321 0.756698 0.129698
0.912600 0.756698 0.130087
0.000797 0.815014 0.125548
0.053498 0.815069 0.125760
0.110873 0.815117 0.126028
0.168222 0.815151 0.126335
0.225544 0.815172 0.126681
0.282838 0.815177 0.127068
0.340121 0.815177 0.127470
0.397405 0.815177 0.127874
0.454688 0.815177 0.128278
0.511971 0.815177 0.128681
0.569254 0.815177 0.129081
0.626536 0.815177 0.129478
0.683816 0.815177 0.129870
0.741095 0.815177 0.130256
0.798373 0.815177 0.130636
0.855648 0.815177 0.131007
0.912921 0.815177 0.131370
0.001430 0.873643 0.126511
0.054049 0.873655 0.126847
0.111335 0.873657 0.127245
0.168618 0.873657 0.127648
0.225902 0.873657 0.128052
0.283185 0.873657 0.128456
0.340468 0.873657 0.128857
0.397750 0.873657 0.129256
0.455032 0.873657 0.129651
0.512311 0.873657 0.130041
0.569590 0.873657 0.130424
0.626866 0.873657 0.130800
0.684141 0.873657 0.131168
0.741413 0.873657 0.131526
0.798682 0.873657 0.131873
0.855948 0.873657 0.132209
0.913211 0.873657 0.132531
0.001803 0.932137 0.127859
0.054399 0.932137 0.128230
0.111682 0.932137 0.128633
0.168965 0.932137 0.129033
0.226246 0.932137 0.129430
0.283527 0.932137 0.129823
0.340806 0.932137 0.130210
0.398084 0.932137 0.130591
0.455360 0.932137 0.130963
0.512633 0.932137 0.131327
0.569904 0.932137 0.131680
0.627172 0.932137 0.132023
0.684437 0.932137 0.132353
0.741698 0.932137 0.132669
0.798956 0.932137 0.132971
0.856210 0.932137 0.133256
0.913460 0.932137 0.133525
0.000000 0.000000 0.199613
0.038162 0.000000 0.199562
0.095416 0.000000 0.199472
0.152697 0.000000 0.199348
0.210004 0.000000 0.199193
0.267336 0.000000 0.199007
0.324691 0.000000 0.198791
0.382068 0.000000 0.198548
0.439466 0.000000 0.198278
0.496885 0.000000 0.197983
0.554322 0.000000 0.197664
0.611778 0.000000 0.197323
0.669249 0.000000 0.196961
0.726737 0.000000 0.196580
0.784239 0.000000 0.196181
0.841754 0.000000 0.195766
0.899281 0.000000 0.195335
0.000000 0.047875 0.199303
0.038489 0.047935 0.199152
0.095826 0.048012 0.198959
