assets/presets/luts/twilight/lut.cube
TITLE "Twilight"
LUT_3D_SIZE 5
0.000000 0.000000 0.018000
0.209871 0.000000 0.017724
0.439234 0.000000 0.016933
0.668938 0.000000 0.015716
0.898909 0.000000 0.014164
0.000000 0.224334 0.015117
0.213259 0.224985 0.013490
0.443482 0.225732 0.011623
0.673801 0.226526 0.009637
0.904144 0.227332 0.007629
0.000000 0.460817 0.008706
0.218673 0.461600 0.006837
0.449043 0.462358 0.005429
0.679350 0.463040 0.004581
0.909506 0.463609 0.004311
0.000000 0.697237 0.004384
0.223872 0.697733 0.004379
0.453649 0.698075 0.004972
0.683052 0.698216 0.006186
0.912189 0.698218 0.007794
0.001731 0.932137 0.006923
0.226175 0.932137 0.008500
0.455293 0.932137 0.010051
0.684378 0.932137 0.011471
0.913412 0.932137 0.012688
0.000000 0.000000 0.260585
0.210056 0.000000 0.260117
0.439550 0.000000 0.259162
0.669358 0.000000 0.257814
0.899408 0.000000 0.256164
0.000000 0.224562 0.257171
0.213781 0.225246 0.255460
0.444047 0.226014 0.253540
0.674383 0.226817 0.251533
0.904731 0.227618 0.249597
0.000000 0.461107 0.250604
0.219265 0.461879 0.248890
0.449623 0.462615 0.247682
0.679886 0.463260 0.247040
0.909964 0.463779 0.246982
0.000000 0.697436 0.246939
0.224286 0.697877 0.247146
0.453939 0.698151 0.247960
0.683201 0.698218 0.249384
0.912333 0.698218 0.250995
0.001876 0.932137 0.250129
0.226318 0.932137 0.251692
0.455426 0.932137 0.253205
0.684494 0.932137 0.254560
0.913506 0.932137 0.255686
0.000000 0.000000 0.504425
0.210291 0.000000 0.503776
0.439908 0.000000 0.502668
0.669812 0.000000 0.501200
0.899932 0.000000 0.499462
0.000000 0.224805 0.500517
0.214325 0.225518 0.498734
0.444625 0.226303 0.496772
0.674967 0.227109 0.494756
0.905326 0.227901 0.492962
0.000000 0.461397 0.493864
0.219860 0.462154 0.492342
0.450194 0.462861 0.491337
0.680401 0.463464 0.490904
0.910390 0.463929 0.491062
0.000000 0.697617 0.490902
0.224662 0.697999 0.491323
0.454178 0.698199 0.492363
0.683347 0.698218 0.493923
0.912477 0.698218 0.495523
0.002022 0.932137 0.494666
0.226458 0.932137 0.496207
0.455554 0.932137 0.497671
0.684604 0.932137 0.498952
0.913590 0.932137 0.499977
0.000000 0.000000 0.748195
0.210575 0.000000 0.747376
0.440304 0.000000 0.746127
0.670295 0.000000 0.744551
0.900475 0.000000 0.742738
0.000000 0.225060 0.743833
0.214884 0.225797 0.741989
0.445208 0.226594 0.739997
0.675552 0.227399 0.738000
0.905922 0.228177 0.736398
0.000000 0.461682 0.737194
0.220450 0.462420 0.735867
0.450748 0.463093 0.735067
0.680887 0.463651 0.734846
0.910774 0.464056 0.735222
0.000000 0.697777 0.734944
0.224992 0.698096 0.735581
0.454359 0.698218 0.736849
0.683493 0.698218 0.738461
0.912618 0.698218 0.740041
0.002167 0.932137 0.739198
0.226595 0.932137 0.740708
0.455676 0.932137 0.742114
0.684705 0.932137 0.743310
0.913664 0.932137 0.744225
0.000000 0.000000 0.991898
0.210902 0.000000 0.990921
0.440734 0.000000 0.989543
0.670802 0.000000 0.987871
0.901033 0.000000 0.985994
0.000000 0.225325 0.987123
0.215455 0.226083 0.985230
0.445793 0.226887 0.983220
0.676143 0.227686 0.981311
0.906513 0.228444 0.979907
0.000000 0.461961 0.980596
0.221031 0.462675 0.979465
0.451282 0.463310 0.978873
0.681340 0.463817 0.978866
0.911114 0.464158 0.979462
0.000351 0.697916 0.979065
0.225271 0.698165 0.979921
0.454506 0.698218 0.981385
0.683638 0.698218 0.982995
0.912755 0.698218 0.984545
0.002309 0.932137 0.983721
0.226727 0.932137 0.985191
0.455791 0.932137 0.986529
0.684797 0.932137 0.987632
0.913726 0.932137 0.988427
