assets/presets/luts/honey/lut.cube
TITLE "Honey"
LUT_3D_SIZE 9
0.000000 0.000000 0.000000
0.074200 0.000000 0.000000
0.211836 0.000000 0.000000
0.390139 0.000000 0.000000
0.584428 0.000000 0.000000
0.766400 0.000000 0.000000
0.910622 0.000000 0.000000
0.995614 0.000000 0.000000
1.000000 0.000000 0.000000
0.000000 0.061800 0.000000
0.073177 0.067833 0.000000
0.235896 0.061918 0.000000
0.427865 0.057592 0.000000
0.625913 0.054598 0.000000
0.803336 0.052174 0.000000
0.936697 0.050040 0.000000
1.000000 0.048074 0.000000
1.000000 0.046048 0.000000
0.000000 0.177425 0.000000
0.061693 0.186391 0.000000
0.208402 0.195160 0.000000
0.424632 0.187106 0.000000
0.639986 0.177863 0.000000
0.822885 0.170749 0.000000
0.952379 0.165116 0.000000
1.000000 0.160411 0.000000
1.000000 0.155950 0.000000
0.000000 0.329498 0.000000
0.061414 0.336863 0.000000
0.182981 0.354008 0.000000
0.383779 0.361551 0.000000
0.619612 0.353248 0.000000
0.820222 0.341097 0.000000
0.956540 0.330351 0.000000
1.000000 0.321346 0.000000
1.000000 0.313407 0.000000
0.000000 0.501423 0.000000
0.062385 0.506612 0.000000
0.175387 0.524043 0.000000
0.348480 0.540349 0.000000
0.575660 0.546242 0.000000
0.795537 0.538784 0.000000
0.949062 0.526237 0.000000
1.000000 0.513798 0.000000
1.000000 0.502669 0.000000
0.000000 0.673179 0.000000
0.063327 0.676399 0.000000
0.174006 0.690719 0.000000
0.331717 0.707813 0.000000
0.536558 0.720579 0.000000
0.756754 0.724768 0.000000
0.929844 0.718826 0.000000
1.000000 0.707961 0.000000
1.000000 0.696402 0.000000
0.000000 0.824781 0.000000
0.064072 0.826506 0.000000
0.174704 0.836538 0.000000
0.324749 0.850249 0.000000
0.513142 0.862910 0.000000
0.720506 0.871413 0.000000
0.902254 0.874025 0.000000
1.000000 0.869930 0.000000
1.000000 0.862064 0.000000
0.000000 0.939698 0.000000
0.064629 0.940435 0.000000
0.176062 0.946139 0.000000
0.322482 0.954638 0.000000
0.500394 0.963194 0.000000
0.695292 0.970038 0.000000
0.874575 0.974256 0.000000
0.991722 0.975470 0.000000
1.000000 0.973016 0.000000
0.000000 1.000000 0.000000
0.065025 1.000000 0.000000
0.177510 1.000000 0.000000
0.322385 1.000000 0.000000
0.493830 1.000000 0.000000
0.679141 1.000000 0.000000
0.852865 1.000000 0.000000
0.978014 1.000000 0.000000
1.000000 1.000000 0.000000
0.000190 0.000190 0.038832
0.065666 0.000000 0.057864
0.187033 0.000000 0.057864
0.349328 0.000000 0.058118
0.537387 0.000000 0.058176
0.722371 0.000000 0.057729
0.877177 0.000000 0.056927
0.980061 0.000000 0.055896
1.000000 0.000000 0.054783
0.002407 0.059109 0.055756
0.065857 0.061944 0.057961
0.204251 0.061224 0.056838
0.380967 0.059333 0.055028
0.575069 0.057532 0.053287
0.758245 0.055770 0.051579
0.904784 0.054035 0.049896
0.993376 0.052323 0.048235
1.000000 0.050624 0.046587
0.000151 0.176749 0.058352
0.065666 0.177425 0.057864
0.206015 0.192746 0.037455
0.412385 0.183451 0.034171
0.615159 0.175797 0.034864
0.795470 0.170551 0.034812
0.931712 0.166403 0.034271
1.000000 0.162818 0.033452
1.000000 0.159301 0.032137
0.000000 0.329498 0.057864
0.065666 0.329498 0.057864
0.183450 0.344145 0.043847
0.380843 0.358582 0.018932
0.613852 0.349162 0.013091
0.808601 0.337097 0.013642
0.945482 0.327588 0.014535
1.000000 0.320017 0.015094
1.000000 0.313373 0.014651
0.000000 0.501423 0.057864
0.065666 0.501423 0.057864
0.181146 0.511510 0.049035
0.346211 0.532777 0.024759
0.572634 0.543136 0.005237
0.792423 0.534983 0.000614
0.944355 0.521797 0.000371
1.000000 0.509807 0.000707
1.000000 0.499563 0.000710
0.000000 0.673179 0.057864
0.065666 0.673179 0.057864
0.182008 0.679423 0.052123
0.334288 0.697854 0.031764
0.533232 0.714998 0.009181
0.754089 0.721951 0.000000
0.928160 0.715653 0.000000
1.000000 0.704022 0.000000
1.000000 0.692424 0.000000
0.000000 0.824781 0.057864
0.065666 0.824781 0.057864
0.183233 0.828203 0.054070
0.331184 0.841245 0.037303
0.513084 0.856352 0.015247
0.717197 0.867672 0.000015
0.900312 0.871859 0.000000
0.999998 0.867608 0.000000
1.000000 0.859268 0.000000
0.000000 0.939698 0.057864
0.065666 0.939698 0.057864
0.184311 0.941235 0.055359
0.331274 0.948650 0.041537
0.504007 0.958234 0.021134
0.693806 0.966735 0.002933
0.871976 0.972338 0.000000
0.990880 0.974257 0.000000
1.000000 0.971773 0.000000
0.000000 1.000000 0.057864
0.065666 1.000000 0.057864
0.185148 1.000000 0.056223
0.332441 1.000000 0.044731
0.500390 1.000000 0.026187
0.680370 1.000000 0.007234
0.851044 1.000000 0.000000
0.976604 1.000000 0.000000
1.000000 1.000000 0.000000
0.000507 0.000507 0.111218
0.060426 0.000399 0.150691
0.187033 0.000000 0.167607
0.345855 0.000000 0.167607
0.523699 0.000000 0.167607
0.699494 0.000000 0.167767
0.854198 0.000000 0.168335
0.965213 0.000000 0.168649
1.000000 0.000000 0.168481
0.007796 0.058001 0.128706
0.066456 0.063503 0.140973
0.187033 0.061800 0.167607
0.345855 0.061800 0.167607
0.528505 0.061334 0.168222
0.712980 0.060200 0.168485
0.869673 0.058805 0.167944
0.975984 0.057291 0.166846
1.000000 0.055896 0.165447
0.006601 0.169408 0.161071
0.074729 0.173891 0.165346
0.188504 0.178579 0.168440
0.371859 0.178943 0.167824
0.565269 0.175791 0.164868
0.749512 0.172982 0.162167
0.898414 0.170277 0.159546
0.990686 0.167623 0.156966
1.000000 0.164977 0.154390
0.002005 0.324674 0.169564
0.066604 0.328949 0.168129
0.186964 0.329701 0.167507
0.378319 0.355925 0.140335
0.600682 0.343850 0.135090
0.786556 0.333210 0.135295
0.926266 0.325954 0.134682
0.999987 0.320312 0.133478
1.000000 0.315247 0.131279
0.000424 0.499609 0.169091
0.065666 0.501423 0.167607
0.187033 0.501423 0.167607
0.344852 0.521195 0.146683
0.569795 0.540169 0.108288
0.787248 0.530459 0.097832
0.936259 0.516909 0.098407
1.000000 0.506019 0.099683
1.000000 0.497175 0.098937
0.000033 0.672894 0.167928
0.065666 0.673179 0.167607
0.187033 0.673179 0.167607
0.339615 0.684874 0.153871
0.529894 0.707560 0.116332
0.751510 0.719197 0.079578
0.925953 0.712127 0.066297
1.000000 0.699624 0.064970
1.000000 0.688256 0.064389
0.000000 0.824781 0.167607
0.065666 0.824781 0.167607
0.187033 0.824781 0.167607
0.339836 0.831070 0.158414
0.514540 0.847784 0.127147
0.713692 0.863093 0.087067
0.898400 0.869711 0.054298
0.999801 0.865134 0.040503
1.000000 0.856181 0.036326
0.000000 0.939698 0.167607
0.065666 0.939698 0.167607
0.187033 0.939698 0.167607
0.341029 0.942539 0.161374
0.509729 0.952045 0.135700
0.692954 0.962502 0.098453
0.869200 0.970085 0.060739
0.990026 0.973035 0.032714
1.000000 0.970495 0.021066
0.000000 1.000000 0.167607
0.065666 1.000000 0.167607
0.187033 1.000000 0.167607
0.342215 1.000000 0.163342
0.508897 1.000000 0.142070
0.682903 1.000000 0.108559
0.849417 1.000000 0.070941
0.975087 1.000000 0.037652
1.000000 1.000000 0.018513
0.000900 0.000900 0.207800
0.057673 0.001093 0.257377
0.180099 0.000278 0.299772
0.345855 0.000000 0.312667
0.523699 0.000000 0.312667
0.698584 0.000000 0.312667
0.849151 0.000000 0.312667
0.958169 0.000000 0.312705
1.000000 0.000000 0.313095
0.009432 0.059705 0.220712
0.068135 0.065178 0.244339
0.179711 0.064364 0.294008
0.345855 0.061800 0.312667
0.523699 0.061800 0.312667
0.698584 0.061800 0.312667
0.850205 0.061636 0.312973
0.961720 0.060883 0.313820
1.000000 0.060020 0.314131
0.016290 0.165437 0.263193
0.089106 0.172063 0.265644
0.187348 0.179949 0.282168
0.345855 0.177425 0.312667
0.523699 0.177425 0.312667
0.704238 0.176837 0.313792
0.862085 0.175394 0.314327
0.971625 0.173519 0.313808
1.000000 0.171659 0.312572
0.011905 0.314825 0.300483
0.085934 0.320267 0.305758
0.198533 0.325672 0.310778
0.350766 0.333420 0.315577
0.556731 0.334644 0.315396
0.741172 0.330209 0.311312
0.892105 0.326561 0.307822
0.987789 0.323136 0.304504
1.000000 0.319774 0.301219
0.005538 0.491266 0.314418
0.073803 0.496785 0.315065
0.187911 0.501046 0.313105
0.345738 0.502429 0.312318
0.567593 0.537708 0.284167
0.775211 0.524034 0.277402
0.920494 0.511455 0.276519
0.999039 0.502868 0.275075
1.000000 0.496124 0.272160
0.002264 0.667780 0.316565
0.068119 0.671759 0.314235
0.187033 0.673179 0.312667
0.345841 0.673202 0.312649
0.526647 0.695994 0.287483
0.749196 0.716660 0.242281
0.922191 0.707799 0.229208
1.000000 0.694558 0.229284
1.000000 0.683972 0.228103
0.000765 0.822643 0.315409
0.065957 0.824637 0.312914
0.187033 0.824781 0.312667
0.345855 0.824781 0.312667
0.518352 0.836389 0.295292
0.709892 0.856950 0.249736
0.896599 0.867659 0.202997
0.999372 0.862359 0.185138
1.000000 0.852670 0.180660
0.000175 0.939179 0.313861
0.065666 0.939698 0.312667
0.187033 0.939698 0.312667
0.345855 0.939698 0.312667
0.517582 0.944799 0.300669
0.693161 0.956835 0.262307
0.866185 0.967294 0.211139
0.989188 0.971838 0.166263
1.000000 0.969175 0.146868
0.000013 1.000000 0.312883
0.065666 1.000000 0.312667
0.187033 1.000000 0.312667
0.345855 1.000000 0.312667
0.518414 1.000000 0.304245
0.687147 1.000000 0.272333
0.848136 1.000000 0.224837
0.973440 1.000000 0.173599
1.000000 1.000000 0.138664
0.001351 0.001351 0.322760
0.057083 0.001779 0.378150
0.171527 0.001082 0.432079
0.339364 0.000181 0.468968
0.523699 0.000000 0.478213
0.698584 0.000000 0.478213
0.849151 0.000000 0.478213
0.958091 0.000000 0.478213
1.000000 0.000000 0.478213
0.010343 0.061642 0.331710
0.069841 0.066864 0.363937
0.175123 0.067392 0.420271
0.338263 0.063721 0.465990
0.523699 0.061800 0.478213
0.698584 0.061800 0.478213
0.849151 0.061800 0.478213
0.958091 0.061800 0.478213
1.000000 0.061796 0.478221
0.021261 0.166291 0.371986
0.092700 0.174613 0.377583
0.189735 0.182412 0.405483
0.337565 0.180859 0.460327
0.523699 0.177425 0.478213
0.698584 0.177425 0.478213
0.849151 0.177425 0.478213
0.958997 0.177155 0.478698
1.000000 0.176379 0.479465
0.024797 0.308501 0.422146
0.106885 0.315189 0.425740
0.219303 0.323168 0.428448
0.345304 0.332559 0.447854
0.523699 0.329498 0.478213
0.698637 0.329498 0.478236
0.854762 0.328996 0.479922
0.967031 0.327528 0.480718
1.000000 0.325720 0.480172
0.018127 0.480491 0.460533
0.097710 0.486319 0.466258
0.214277 0.492079 0.471823
0.357740 0.497852 0.476993
0.534323 0.510067 0.484773
0.734364 0.510786 0.484114
0.886152 0.505290 0.479102
0.984787 0.501099 0.475096
1.000000 0.497253 0.471331
0.010303 0.658666 0.478045
0.083549 0.664112 0.480387
0.197691 0.669204 0.480774
0.346439 0.672981 0.478493
0.523883 0.675517 0.477711
0.747575 0.714692 0.453307
0.913187 0.701144 0.445539
0.997514 0.688309 0.443346
1.000000 0.679680 0.439755
0.005460 0.816682 0.483313
0.074770 0.820668 0.482260
0.190025 0.823799 0.479677
0.345855 0.824781 0.478213
0.523594 0.824982 0.478057
0.705431 0.847150 0.451957
0.895039 0.865815 0.406007
0.998377 0.858809 0.391944
1.000000 0.848387 0.388521
0.002672 0.936250 0.483594
0.069669 0.938410 0.480899
0.187280 0.939641 0.478372
0.345855 0.939698 0.478213
0.523699 0.939698 0.478213
0.695050 0.948933 0.459071
0.862712 0.963440 0.410982
0.988400 0.970702 0.360275
1.000000 0.967737 0.339873
0.001178 0.999958 0.482206
0.066972 1.000000 0.479306
0.187033 1.000000 0.478213
0.345855 1.000000 0.478213
0.523699 1.000000 0.478213
0.693238 1.000000 0.464431
0.847427 1.000000 0.423051
0.971581 1.000000 0.366622
1.000000 1.000000 0.323704
0.001853 0.001853 0.449162
0.057407 0.002463 0.506586
0.166420 0.002002 0.564160
0.327236 0.000927 0.611346
0.518558 0.000117 0.640039
0.698584 0.000000 0.646185
0.849151 0.000000 0.646185
0.958091 0.000000 0.646185
1.000000 0.000000 0.646185
0.011139 0.063553 0.454910
0.071565 0.068565 0.492383
0.173985 0.069858 0.549822
0.327500 0.067278 0.603647
0.517670 0.063181 0.638510
0.698584 0.061800 0.646185
0.849151 0.061800 0.646185
0.958091 0.061800 0.646185
1.000000 0.061800 0.646185
0.023998 0.168585 0.489122
0.094643 0.177468 0.500675
0.192190 0.184867 0.535016
0.331386 0.185366 0.592296
0.516548 0.179918 0.635987
0.698584 0.177425 0.646185
0.849151 0.177425 0.646185
0.958091 0.177425 0.646185
1.000000 0.177425 0.646185
0.033230 0.307632 0.539680
0.116277 0.316228 0.542370
0.224213 0.326279 0.548145
0.348057 0.335571 0.577461
0.515625 0.333257 0.631096
0.698584 0.329498 0.646185
0.849151 0.329498 0.646185
0.958091 0.329498 0.646185
1.000000 0.329316 0.646532
0.033632 0.472746 0.588725
0.122564 0.479324 0.593089
0.243335 0.486388 0.596659
0.382836 0.494885 0.599356
0.522244 0.504641 0.619563
0.698584 0.501423 0.646185
0.849397 0.501440 0.646319
0.962354 0.501221 0.648398
1.000000 0.500118 0.649025
0.025163 0.648328 0.624748
0.110036 0.653894 0.630311
0.230439 0.659371 0.635736
0.376245 0.664834 0.641008
0.534211 0.670286 0.645662
0.715516 0.687301 0.657187
0.881676 0.685930 0.654934
0.981906 0.679944 0.649461
1.000000 0.675696 0.645327
0.016069 0.808579 0.643317
0.094471 0.813201 0.646485
0.211251 0.817654 0.648496
0.357320 0.821818 0.648591
0.523955 0.824713 0.646305
0.699535 0.828428 0.645843
0.894063 0.864476 0.628168
0.995199 0.852979 0.620150
1.000000 0.842543 0.615441
0.009806 0.931462 0.650804
0.083497 0.934436 0.651095
0.199233 0.937096 0.649933
0.348801 0.939150 0.647378
0.523699 0.939698 0.646185
0.698401 0.940106 0.645834
0.858191 0.957050 0.622179
0.987737 0.969703 0.580982
1.000000 0.965908 0.565902
0.005788 0.999234 0.652896
0.076211 0.999775 0.651208
0.192334 1.000000 0.648587
0.346011 1.000000 0.646267
0.523699 1.000000 0.646185
0.698546 1.000000 0.646133
0.847664 1.000000 0.627364
0.969323 1.000000 0.582060
1.000000 1.000000 0.541077
0.002400 0.002400 0.578897
0.058185 0.003158 0.634609
0.163674 0.002931 0.690235
0.317630 0.001932 0.738565
0.505714 0.000761 0.774304
0.695039 0.000076 0.794363
0.849151 0.000000 0.798059
0.958091 0.000000 0.798059
1.000000 0.000000 0.798059
0.011942 0.065425 0.582104
0.073306 0.070281 0.621331
0.174330 0.072055 0.675822
0.320902 0.070504 0.728585
0.504775 0.066658 0.769818
0.694477 0.062794 0.793616
0.849151 0.061800 0.798059
0.958091 0.061800 0.798059
1.000000 0.061800 0.798059
0.025778 0.171314 0.609367
0.096334 0.180259 0.625921
0.194668 0.187328 0.662263
0.329674 0.188993 0.715775
0.504842 0.185098 0.763390
0.693731 0.179178 0.792495
0.849151 0.177425 0.798059
0.958091 0.177425 0.798059
1.000000 0.177425 0.798059
0.038607 0.309209 0.654108
0.121179 0.319057 0.658315
0.226842 0.329742 0.669342
0.350964 0.338538 0.702091
0.508448 0.338814 0.753737
0.692746 0.332136 0.790628
0.849151 0.329498 0.798059
0.958091 0.329498 0.798059
1.000000 0.329498 0.798059
0.045189 0.470207 0.702890
0.137170 0.478339 0.705475
0.255903 0.487462 0.707908
0.388493 0.498207 0.713245
0.524948 0.507891 0.740585
0.691771 0.504984 0.786942
0.849151 0.501423 0.798059
0.958091 0.501423 0.798059
1.000000 0.501423 0.798059
0.042936 0.640306 0.745314
0.137675 0.646338 0.749610
0.263891 0.652520 0.753461
0.410370 0.659202 0.756655
0.560703 0.667208 0.759039
0.696541 0.676140 0.777640
0.849151 0.673179 0.798059
0.958488 0.673265 0.798362
1.000000 0.673358 0.799949
0.032949 0.799844 0.775897
0.122892 0.804550 0.780722
0.246981 0.809159 0.785421
0.394990 0.813733 0.790021
0.553232 0.818274 0.794422
0.706559 0.822779 0.798045
0.869752 0.842649 0.812514
0.979916 0.838676 0.808267
1.000000 0.833301 0.803168
0.022705 0.925582 0.792927
0.106201 0.928862 0.796119
0.226235 0.932028 0.798652
0.373061 0.935084 0.800187
0.534380 0.937893 0.800035
0.698629 0.939689 0.798080
0.851027 0.943714 0.798194
0.987364 0.969017 0.787940
1.000000 0.962655 0.779495
0.015286 0.997733 0.801046
0.093752 0.998675 0.802152
0.211608 0.999413 0.802275
0.359532 0.999901 0.801164
0.526249 1.000000 0.798927
0.698584 1.000000 0.798059
0.848994 1.000000 0.797570
0.966142 1.000000 0.778709
1.000000 1.000000 0.750812
0.002987 0.002987 0.703469
0.059222 0.003871 0.753999
0.162394 0.003852 0.803419
0.310885 0.003018 0.846806
0.493561 0.001757 0.880821
0.683779 0.000616 0.904042
0.847053 0.000049 0.916174
0.958091 0.000000 0.918081
1.000000 0.000000 0.918081
0.012774 0.067271 0.704783
0.075062 0.072012 0.742377
0.175407 0.074118 0.790554
0.317277 0.073367 0.836887
0.494265 0.070237 0.875038
0.682668 0.065988 0.901738
0.846754 0.062516 0.915850
0.958091 0.061800 0.918081
1.000000 0.061800 0.918081
0.027134 0.174157 0.725403
0.098022 0.182978 0.744441
0.197161 0.189798 0.779014
0.329908 0.192186 0.825153
0.497453 0.189804 0.867433
0.681729 0.184177 0.898566
0.846360 0.178660 0.915395
0.958091 0.177425 0.918081
1.000000 0.177425 0.918081
0.042234 0.311873 0.761540
0.124289 0.322402 0.767968
0.229143 0.333112 0.782395
0.353909 0.341498 0.813768
0.506270 0.343256 0.857468
0.681606 0.338376 0.893960
0.845827 0.331306 0.914707
0.958091 0.329498 0.918081
1.000000 0.329498 0.918081
0.053388 0.470569 0.803948
0.146014 0.480043 0.806167
0.262317 0.490495 0.809677
0.391501 0.501886 0.819024
0.527940 0.511040 0.846437
0.684503 0.510986 0.886904
0.845096 0.503830 0.913550
0.958091 0.501423 0.918081
1.000000 0.501423 0.918081
0.057270 0.636681 0.843849
0.156506 0.643837 0.846337
0.282920 0.651509 0.848397
0.424742 0.660182 0.850347
0.566416 0.670348 0.854664
0.698796 0.679264 0.876851
0.844259 0.676122 0.911222
0.958091 0.673179 0.918081
1.000000 0.673179 0.918081
0.052763 0.792670 0.876160
0.152749 0.797675 0.879693
0.283268 0.802684 0.882980
0.433429 0.807851 0.885962
0.588381 0.813397 0.888432
0.731104 0.820009 0.890253
0.847059 0.827135 0.904923
0.958091 0.824781 0.918081
1.000000 0.824806 0.918137
0.041437 0.919344 0.898970
0.136262 0.922717 0.902593
0.263879 0.925996 0.906104
0.413898 0.929223 0.909536
0.572308 0.932400 0.912858
0.723737 0.935528 0.915969
0.854216 0.938593 0.918293
0.975485 0.956406 0.932712
1.000000 0.952306 0.928266
0.030363 0.995579 0.912181
0.118962 0.996806 0.914763
0.242466 0.997889 0.916991
0.390831 0.998820 0.918744
0.550717 0.999554 0.919740
0.707469 0.999988 0.919474
0.849151 1.000000 0.918081
0.960368 1.000000 0.918768
1.000000 1.000000 0.915139
0.003611 0.003611 0.814975
0.060422 0.004605 0.857414
0.162053 0.004768 0.897445
0.306344 0.004123 0.931707
0.483743 0.002914 0.958133
0.671621 0.001556 0.976315
0.838748 0.000497 0.987078
0.957124 0.000032 0.991901
1.000000 0.000000 0.992508
0.013642 0.069102 0.815031
0.076834 0.073759 0.847995
0.176895 0.076109 0.887180
0.315525 0.075974 0.923569
0.486776 0.073571 0.953018
0.671137 0.069645 0.973818
0.837890 0.065380 0.986253
0.956999 0.062314 0.991812
1.000000 0.061800 0.992508
0.028315 0.177006 0.829712
0.099751 0.185646 0.848470
0.199668 0.192279 0.878164
0.331105 0.195155 0.914363
0.493310 0.193946 0.946582
0.671640 0.189363 0.970518
0.836990 0.183213 0.985144
0.956839 0.178295 0.991691
1.000000 0.177425 0.992508
0.044868 0.315028 0.856556
0.126632 0.325867 0.864471
0.231441 0.336383 0.879352
0.356872 0.344460 0.905822
0.506313 0.347128 0.938723
0.674351 0.344088 0.966042
0.836188 0.337245 0.983580
0.956626 0.330740 0.991521
1.000000 0.329498 0.992508
0.059295 0.472499 0.889599
0.151809 0.482925 0.892191
0.266341 0.494074 0.897022
0.394152 0.505449 0.907887
0.530992 0.514167 0.930781
0.682119 0.515762 0.959950
0.835951 0.510410 0.981240
0.956331 0.503026 0.991260
1.000000 0.501423 0.992508
0.068219 0.635879 0.921807
0.169228 0.644172 0.923312
0.294186 0.653121 0.924866
0.431934 0.663059 0.927353
0.569436 0.673805 0.933988
0.701491 0.682229 0.952840
0.837931 0.681852 0.977494
0.955913 0.675088 0.990816
1.000000 0.673179 0.992508
0.069589 0.788790 0.948751
0.175029 0.794542 0.950646
0.307213 0.800506 0.952263
0.454780 0.806943 0.953611
0.602827 0.814177 0.954872
0.736177 0.822609 0.957677
0.848605 0.829781 0.971751
0.955374 0.826871 0.989892
1.000000 0.824781 0.992508
0.063132 0.913966 0.968631
0.167998 0.917540 0.970840
0.302223 0.921057 0.972907
0.454827 0.924591 0.974832
0.611117 0.928201 0.976557
0.755556 0.932033 0.977972
0.873771 0.936556 0.978993
0.956556 0.941210 0.987128
1.000000 0.939698 0.992508
0.050934 0.993002 0.981526
0.150634 0.994430 0.983490
0.281728 0.995736 0.985348
0.433606 0.996929 0.987122
0.591955 0.997996 0.988801
0.741386 0.998914 0.990366
0.867990 0.999642 0.991761
0.960677 1.000000 0.992669
1.000000 1.000000 0.999392
