assets/presets/luts/honey/lut.cube
TITLE "Honey"
LUT_3D_SIZE 17
0.000000 0.000000 0.000000
0.026714 0.000000 0.000000
0.074200 0.000000 0.000000
0.136643 0.000000 0.000000
0.211836 0.000000 0.000000
0.297299 0.000000 0.000000
0.390139 0.000000 0.000000
0.487042 0.000000 0.000000
0.584428 0.000000 0.000000
0.678682 0.000000 0.000000
0.766400 0.000000 0.000000
0.844572 0.000000 0.000000
0.910622 0.000000 0.000000
0.962168 0.000000 0.000000
0.995614 0.000000 0.000000
1.000000 0.000000 0.000000
1.000000 0.000000 0.000000
0.000000 0.022180 0.000000
0.026432 0.024065 0.000000
0.082507 0.022199 0.000000
0.150495 0.020696 0.000000
0.229622 0.019651 0.000000
0.317920 0.018803 0.000000
0.412593 0.018055 0.000000
0.510330 0.017364 0.000000
0.607559 0.016711 0.000000
0.700718 0.016085 0.000000
0.786498 0.015479 0.000000
0.862011 0.014889 0.000000
0.924775 0.014314 0.000000
0.972349 0.013751 0.000000
0.999703 0.013198 0.000000
1.000000 0.012657 0.000000
1.000000 0.012063 0.000000
0.000000 0.061800 0.000000
0.022555 0.064916 0.000000
0.073177 0.067833 0.000000
0.149397 0.065055 0.000000
0.235896 0.061918 0.000000
0.329541 0.059504 0.000000
0.427865 0.057592 0.000000
0.527793 0.055993 0.000000
0.625913 0.054598 0.000000
0.718810 0.053338 0.000000
0.803336 0.052174 0.000000
0.876755 0.051080 0.000000
0.936697 0.050040 0.000000
0.980610 0.049040 0.000000
1.000000 0.048074 0.000000
1.000000 0.047135 0.000000
1.000000 0.046048 0.000000
0.000000 0.114174 0.000000
0.022424 0.116842 0.000000
0.064361 0.122908 0.000000
0.134532 0.125522 0.000000
0.227036 0.122521 0.000000
0.328010 0.118217 0.000000
0.432269 0.114435 0.000000
0.536434 0.111278 0.000000
0.637177 0.108608 0.000000
0.731254 0.106294 0.000000
0.815719 0.104240 0.000000
0.888033 0.102381 0.000000
0.945963 0.100668 0.000000
0.986811 0.099068 0.000000
1.000000 0.097558 0.000000
1.000000 0.096120 0.000000
1.000000 0.094460 0.000000
0.000000 0.177425 0.000000
0.022761 0.179514 0.000000
0.061693 0.186391 0.000000
0.121774 0.192856 0.000000
0.208402 0.195160 0.000000
0.313645 0.192113 0.000000
0.424632 0.187106 0.000000
0.534759 0.182205 0.000000
0.639986 0.177863 0.000000
0.736971 0.174076 0.000000
0.822885 0.170749 0.000000
0.895381 0.167788 0.000000
0.952379 0.165116 0.000000
0.991030 0.162672 0.000000
1.000000 0.160411 0.000000
1.000000 0.158297 0.000000
1.000000 0.155950 0.000000
0.000000 0.249841 0.000000
0.023095 0.251397 0.000000
0.061189 0.258174 0.000000
0.115747 0.266385 0.000000
0.192362 0.272619 0.000000
0.292407 0.274642 0.000000
0.406625 0.271639 0.000000
0.522905 0.266293 0.000000
0.633935 0.260603 0.000000
0.735457 0.255283 0.000000
0.824427 0.250481 0.000000
0.898559 0.246175 0.000000
0.955903 0.242298 0.000000
0.993492 0.238780 0.000000
1.000000 0.235559 0.000000
1.000000 0.232584 0.000000
1.000000 0.229447 0.000000
0.000000 0.329498 0.000000
0.023361 0.330599 0.000000
0.061414 0.336863 0.000000
0.113238 0.345633 0.000000
0.182981 0.354008 0.000000
0.273767 0.359787 0.000000
0.383779 0.361551 0.000000
0.502847 0.358657 0.000000
0.619612 0.353248 0.000000
0.726755 0.347110 0.000000
0.820222 0.341097 0.000000
0.897462 0.335492 0.000000
0.956540 0.330351 0.000000
0.994449 0.325651 0.000000
1.000000 0.321346 0.000000
1.000000 0.317381 0.000000
1.000000 0.313407 0.000000
0.000000 0.414180 0.000000
0.023561 0.414913 0.000000
0.061873 0.420461 0.000000
0.112410 0.429090 0.000000
0.177932 0.438377 0.000000
0.261386 0.446363 0.000000
0.363293 0.451585 0.000000
0.479344 0.453103 0.000000
0.598893 0.450374 0.000000
0.711498 0.445115 0.000000
0.810422 0.438853 0.000000
0.892076 0.432465 0.000000
0.954275 0.426331 0.000000
0.994035 0.420581 0.000000
1.000000 0.415240 0.000000
1.000000 0.410289 0.000000
1.000000 0.405524 0.000000
0.000000 0.501423 0.000000
0.023707 0.501873 0.000000
0.062385 0.506612 0.000000
0.112395 0.514671 0.000000
0.175387 0.524043 0.000000
0.253708 0.533049 0.000000
0.348480 0.540349 0.000000
0.457842 0.544959 0.000000
0.575660 0.546242 0.000000
0.691321 0.543728 0.000000
0.795537 0.538784 0.000000
0.882507 0.532682 0.000000
0.949062 0.526237 0.000000
0.992172 0.519881 0.000000
1.000000 0.513798 0.000000
1.000000 0.508057 0.000000
1.000000 0.502669 0.000000
0.000000 0.588623 0.000000
0.023809 0.588870 0.000000
0.062878 0.592778 0.000000
0.112772 0.600008 0.000000
0.174280 0.608907 0.000000
0.249116 0.618071 0.000000
0.338394 0.626334 0.000000
0.441308 0.632781 0.000000
0.554010 0.636755 0.000000
0.669234 0.637816 0.000000
0.776913 0.635557 0.000000
0.869086 0.631054 0.000000
0.940874 0.625347 0.000000
0.988612 0.619137 0.000000
1.000000 0.612862 0.000000
1.000000 0.606740 0.000000
1.000000 0.601026 0.000000
0.000000 0.673179 0.000000
0.023878 0.673293 0.000000
0.063327 0.676399 0.000000
0.113329 0.682655 0.000000
0.174006 0.690719 0.000000
0.246503 0.699431 0.000000
0.331717 0.707813 0.000000
0.429265 0.715067 0.000000
0.536558 0.720579 0.000000
0.648295 0.723913 0.000000
0.756754 0.724768 0.000000
0.852831 0.722793 0.000000
0.929844 0.718826 0.000000
0.983078 0.713690 0.000000
1.000000 0.707961 0.000000
1.000000 0.702045 0.000000
1.000000 0.696402 0.000000
0.000000 0.752634 0.000000
0.023920 0.752672 0.000000
0.063725 0.755040 0.000000
0.113957 0.760264 0.000000
0.174216 0.767272 0.000000
0.245161 0.775123 0.000000
0.327413 0.783014 0.000000
0.420712 0.790278 0.000000
0.523169 0.796386 0.000000
0.630757 0.800935 0.000000
0.737320 0.803645 0.000000
0.835271 0.804311 0.000000
0.916642 0.802642 0.000000
0.975450 0.799269 0.000000
1.000000 0.794830 0.000000
1.000000 0.789776 0.000000
1.000000 0.784648 0.000000
0.000000 0.824781 0.000000
0.023940 0.824786 0.000000
0.064072 0.826506 0.000000
0.114598 0.830702 0.000000
0.174704 0.836538 0.000000
0.244641 0.843268 0.000000
0.324749 0.850249 0.000000
0.414751 0.856941 0.000000
0.513142 0.862910 0.000000
0.616729 0.867817 0.000000
0.720506 0.871413 0.000000
0.818038 0.873528 0.000000
0.902254 0.874025 0.000000
0.966039 0.872672 0.000000
1.000000 0.869930 0.000000
1.000000 0.866268 0.000000
1.000000 0.862064 0.000000
0.000000 0.887706 0.000000
0.023944 0.887706 0.000000
0.064372 0.888877 0.000000
0.115221 0.892091 0.000000
0.175344 0.896715 0.000000
0.244653 0.902173 0.000000
0.323221 0.907965 0.000000
0.410689 0.913671 0.000000
0.505754 0.918949 0.000000
0.605768 0.923536 0.000000
0.706572 0.927235 0.000000
0.802683 0.929906 0.000000
0.887823 0.931457 0.000000
0.955418 0.931805 0.000000
0.997199 0.930776 0.000000
1.000000 0.928685 0.000000
1.000000 0.925660 0.000000
0.000000 0.939698 0.000000
0.023944 0.939698 0.000000
0.064629 0.940435 0.000000
0.115810 0.942731 0.000000
0.176062 0.946139 0.000000
0.245008 0.950233 0.000000
0.322482 0.954638 0.000000
0.408014 0.959042 0.000000
0.500394 0.963194 0.000000
0.597334 0.966904 0.000000
0.695292 0.970038 0.000000
0.789554 0.972506 0.000000
0.874575 0.974256 0.000000
0.944365 0.975256 0.000000
0.991722 0.975470 0.000000
1.000000 0.974782 0.000000
1.000000 0.973016 0.000000
0.000000 0.978861 0.000000
0.023944 0.978861 0.000000
0.064848 0.979259 0.000000
0.116359 0.980677 0.000000
0.176811 0.982831 0.000000
0.245582 0.985422 0.000000
0.322294 0.988182 0.000000
0.406353 0.990889 0.000000
0.496581 0.993367 0.000000
0.590927 0.995495 0.000000
0.686297 0.997200 0.000000
0.778587 0.998458 0.000000
0.862900 0.999290 0.000000
0.933825 0.999754 0.000000
0.985013 0.999944 0.000000
1.000000 0.999972 0.000000
1.000000 0.999706 0.000000
0.000000 1.000000 0.000000
0.023944 1.000000 0.000000
0.065025 1.000000 0.000000
0.116840 1.000000 0.000000
0.177510 1.000000 0.000000
0.246212 1.000000 0.000000
0.322385 1.000000 0.000000
0.405317 1.000000 0.000000
0.493830 1.000000 0.000000
0.586026 1.000000 0.000000
0.679141 1.000000 0.000000
0.769539 1.000000 0.000000
0.852865 1.000000 0.000000
0.924243 1.000000 0.000000
0.978014 1.000000 0.000000
1.000000 1.000000 0.000000
1.000000 1.000000 0.000000
0.000055 0.000055 0.014866
0.023944 0.000000 0.020392
0.065666 0.000000 0.020392
0.122054 0.000000 0.020484
0.192719 0.000000 0.020493
0.274745 0.000000 0.020327
0.365194 0.000000 0.020041
0.460795 0.000000 0.019676
0.557997 0.000000 0.019260
0.653158 0.000000 0.018810
0.742787 0.000000 0.018336
0.823744 0.000000 0.017847
0.893333 0.000000 0.017346
0.949166 0.000000 0.016839
0.988350 0.000000 0.016328
1.000000 0.000000 0.015815
1.000000 0.000000 0.015345
0.000696 0.021395 0.019825
0.023975 0.022202 0.020404
0.071558 0.021976 0.019985
0.133624 0.021294 0.019333
0.208277 0.020661 0.018726
0.293325 0.020043 0.018131
0.385893 0.019435 0.017545
0.482683 0.018834 0.016966
0.580119 0.018241 0.016394
0.674584 0.017654 0.015829
0.762659 0.017075 0.015271
0.841314 0.016502 0.014719
0.907955 0.015936 0.014175
0.960206 0.015377 0.013637
0.994621 0.014824 0.013106
1.000000 0.014278 0.012582
1.000000 0.013735 0.012062
0.000051 0.061588 0.020551
0.023940 0.061807 0.020387
0.072021 0.066748 0.013455
0.144916 0.063831 0.011982
0.225141 0.061228 0.012233
0.313660 0.059439 0.012222
0.408359 0.058024 0.012038
0.506136 0.056801 0.011754
0.603497 0.055689 0.011413
0.696906 0.054648 0.011035
0.783058 0.053655 0.010636
0.859051 0.052697 0.010222
0.922397 0.051765 0.009801
0.970672 0.050854 0.009376
0.999218 0.049960 0.008948
1.000000 0.049080 0.008522
1.000000 0.048110 0.008015
0.000000 0.114174 0.020392
0.023944 0.114174 0.020392
0.064468 0.119501 0.015299
0.133497 0.124484 0.006542
0.224544 0.121087 0.004510
0.321172 0.116826 0.004710
0.421148 0.113479 0.005031
0.522098 0.110820 0.005233
0.620970 0.108606 0.005312
0.714519 0.106684 0.005293
0.799678 0.104961 0.005200
0.873748 0.103378 0.005054
0.934385 0.101897 0.004868
0.979092 0.100494 0.004654
1.000000 0.099151 0.004418
1.000000 0.097856 0.004167
1.000000 0.096376 0.003750
0.000000 0.177425 0.020392
0.023944 0.177425 0.020392
0.063595 0.181531 0.017162
0.120952 0.189904 0.008576
0.207173 0.193930 0.001671
0.311880 0.190607 0.000105
0.420030 0.185372 0.000038
0.526991 0.180665 0.000136
0.629752 0.176698 0.000280
0.725366 0.173332 0.000412
0.811078 0.170414 0.000509
0.884472 0.167828 0.000566
0.943399 0.165491 0.000585
0.985291 0.163344 0.000573
1.000000 0.161345 0.000536
1.000000 0.159461 0.000478
1.000000 0.157350 0.000276
0.000000 0.249841 0.020392
0.023944 0.249841 0.020392
0.063871 0.252902 0.018277
0.116603 0.261664 0.011068
0.191036 0.269924 0.003050
0.291030 0.273262 0.000000
0.405147 0.270088 0.000000
0.519640 0.264404 0.000000
0.628474 0.258714 0.000000
0.728281 0.253619 0.000000
0.816412 0.249148 0.000000
0.890697 0.245208 0.000000
0.949215 0.241697 0.000000
0.989351 0.238528 0.000000
1.000000 0.235631 0.000000
1.000000 0.232953 0.000000
1.000000 0.230091 0.000000
0.000000 0.329498 0.020392
0.023944 0.329498 0.020392
0.064293 0.331721 0.018983
0.115442 0.339933 0.013041
0.182927 0.349706 0.005213
0.272142 0.357261 0.000000
0.382302 0.360064 0.000000
0.501491 0.357075 0.000000
0.617199 0.351313 0.000000
0.722901 0.345045 0.000000
0.815288 0.339122 0.000000
0.892165 0.333739 0.000000
0.951769 0.328891 0.000000
0.991492 0.324513 0.000000
1.000000 0.320535 0.000000
1.000000 0.316889 0.000000
1.000000 0.313199 0.000000
0.000000 0.414180 0.020392
0.023944 0.414180 0.020392
0.064670 0.415740 0.019453
0.115445 0.423048 0.014549
0.179287 0.432996 0.007318
0.260662 0.442497 0.000848
0.361498 0.449205 0.000000
0.477822 0.451559 0.000000
0.597618 0.448788 0.000000
0.709668 0.443207 0.000000
0.807712 0.436740 0.000000
0.888788 0.430336 0.000000
0.951043 0.424323 0.000000
0.991916 0.418782 0.000000
1.000000 0.413699 0.000000
1.000000 0.409030 0.000000
1.000000 0.404523 0.000000
0.000000 0.501423 0.020392
0.023944 0.501423 0.020392
0.064973 0.502468 0.019774
0.115871 0.508739 0.015711
0.177867 0.518153 0.009167
0.254250 0.528213 0.002416
0.347291 0.536908 0.000000
0.455973 0.542735 0.000000
0.574149 0.544695 0.000000
0.690134 0.542174 0.000000
0.794131 0.536958 0.000000
0.880635 0.530620 0.000000
0.947008 0.524085 0.000000
0.990662 0.517766 0.000000
1.000000 0.511811 0.000000
1.000000 0.506259 0.000000
1.000000 0.501068 0.000000
0.000000 0.588623 0.020392
0.023944 0.588623 0.020392
0.065206 0.589282 0.019998
0.116432 0.594490 0.016620
0.177560 0.602980 0.010746
0.250849 0.612744 0.004100
0.338261 0.622112 0.000000
0.439821 0.629759 0.000000
0.552152 0.634712 0.000000
0.667790 0.636318 0.000000
0.775836 0.634074 0.000000
0.868006 0.629352 0.000000
0.939641 0.623410 0.000000
0.987570 0.617067 0.000000
1.000000 0.610766 0.000000
1.000000 0.604704 0.000000
1.000000 0.599104 0.000000
0.000000 0.673179 0.020392
0.023944 0.673179 0.020392
0.065378 0.673561 0.020153
0.117011 0.677747 0.017343
0.177814 0.685111 0.012085
0.249214 0.694052 0.005721
0.332711 0.703211 0.000399
0.428616 0.711474 0.000000
0.534914 0.717972 0.000000
0.646519 0.722081 0.000000
0.755429 0.723369 0.000000
0.851894 0.721422 0.000000
0.929044 0.717283 0.000000
0.982381 0.711936 0.000000
1.000000 0.706056 0.000000
1.000000 0.700072 0.000000
1.000000 0.694456 0.000000
0.000000 0.752634 0.020392
0.023944 0.752634 0.020392
0.065502 0.752831 0.020259
0.117558 0.756075 0.017924
0.178344 0.762233 0.013220
0.248625 0.770044 0.007214
0.329432 0.778420 0.001533
0.421058 0.786453 0.000000
0.522161 0.793412 0.000000
0.629076 0.798743 0.000000
0.735690 0.802053 0.000000
0.834107 0.803056 0.000000
0.915876 0.801419 0.000000
0.974923 0.797917 0.000000
1.000000 0.793300 0.000000
1.000000 0.788096 0.000000
1.000000 0.782924 0.000000
0.000000 0.824781 0.020392
0.023944 0.824781 0.020392
0.065586 0.824865 0.020328
0.118054 0.827275 0.018396
0.179000 0.832228 0.014187
0.248657 0.838750 0.008564
0.327632 0.845988 0.002817
0.416080 0.853220 0.000000
0.512969 0.859859 0.000000
0.615507 0.865445 0.000000
0.718887 0.869637 0.000000
0.816606 0.872200 0.000000
0.901291 0.872952 0.000000
0.965479 0.871630 0.000000
1.000000 0.868793 0.000000
1.000000 0.864991 0.000000
1.000000 0.860708 0.000000
0.000000 0.887706 0.020392
0.023944 0.887706 0.020392
0.065637 0.887731 0.020370
0.118495 0.889426 0.018782
0.179700 0.893226 0.015016
0.249056 0.898399 0.009775
0.326802 0.904292 0.004110
0.412907 0.910351 0.000000
0.506465 0.916119 0.000000
0.605215 0.921241 0.000000
0.705265 0.925447 0.000000
0.801207 0.928548 0.000000
0.886630 0.930418 0.000000
0.954693 0.930948 0.000000
0.996943 0.929944 0.000000
1.000000 0.927787 0.000000
1.000000 0.924699 0.000000
0.000000 0.939698 0.020392
0.023944 0.939698 0.020392
0.065662 0.939701 0.020389
0.118882 0.940801 0.019100
0.180399 0.943521 0.015729
0.249667 0.947332 0.010857
0.326610 0.951757 0.005357
0.410998 0.956382 0.000646
0.501954 0.960874 0.000000
0.597537 0.964973 0.000000
0.694496 0.968493 0.000000
0.788272 0.971308 0.000000
0.873306 0.973339 0.000000
0.943448 0.974543 0.000000
0.991308 0.974871 0.000000
1.000000 0.974201 0.000000
1.000000 0.972405 0.000000
0.000000 0.978861 0.020392
0.023944 0.978861 0.020392
0.065666 0.978861 0.020392
0.119218 0.979471 0.019363
0.181072 0.981153 0.016346
0.250395 0.983553 0.011825
0.326836 0.986337 0.006532
0.409977 0.989213 0.001592
0.498912 0.991946 0.000000
0.591895 0.994363 0.000000
0.686118 0.996353 0.000000
0.777675 0.997864 0.000000
0.861734 0.998902 0.000000
0.932816 0.999518 0.000000
0.984433 0.999807 0.000000
1.000000 0.999869 0.000000
1.000000 0.999546 0.000000
0.000000 1.000000 0.020392
0.023944 1.000000 0.020392
0.065666 1.000000 0.020392
0.119496 1.000000 0.019573
0.181672 1.000000 0.016860
0.251115 1.000000 0.012651
0.327243 1.000000 0.007575
0.409471 1.000000 0.002565
0.496838 1.000000 0.000000
0.587718 1.000000 0.000000
0.679613 1.000000 0.000000
0.769102 1.000000 0.000000
0.851945 1.000000 0.000000
0.923268 1.000000 0.000000
0.977327 1.000000 0.000000
1.000000 1.000000 0.000000
1.000000 1.000000 0.000000
0.000190 0.000190 0.038832
0.022147 0.000144 0.052396
0.065666 0.000000 0.057864
0.120694 0.000000 0.057864
0.187033 0.000000 0.057864
0.263310 0.000000 0.057926
0.349328 0.000000 0.058118
0.441904 0.000000 0.058217
0.537387 0.000000 0.058176
0.632072 0.000000 0.058006
0.722371 0.000000 0.057729
0.805017 0.000000 0.057363
0.877177 0.000000 0.056927
0.936393 0.000000 0.056434
0.980061 0.000000 0.055896
1.000000 0.000000 0.055319
1.000000 0.000000 0.054783
0.002894 0.020846 0.044836
0.024089 0.022644 0.051022
0.065666 0.022180 0.057864
0.120694 0.022180 0.057864
0.189117 0.022003 0.058083
0.270081 0.021599 0.058155
0.359946 0.021109 0.057956
0.455277 0.020577 0.057571
0.552466 0.020027 0.057064
0.647844 0.019466 0.056477
0.737889 0.018901 0.055834
0.819430 0.018334 0.055152
0.889741 0.017769 0.054442
0.946426 0.017206 0.053711
0.986675 0.016647 0.052966
1.000000 0.016092 0.052210
1.000000 0.015604 0.051508
0.002407 0.059109 0.055756
0.026315 0.060888 0.057342
0.065857 0.061944 0.057961
0.130130 0.062311 0.057852
0.204251 0.061224 0.056838
0.288755 0.060258 0.055918
0.380967 0.059333 0.055028
0.477596 0.058426 0.054153
0.575069 0.057532 0.053287
0.669764 0.056647 0.052430
0.758245 0.055770 0.051579
0.837456 0.054899 0.050734
0.904784 0.054035 0.049896
0.957855 0.053176 0.049063
0.993376 0.052323 0.048235
1.000000 0.051476 0.047413
1.000000 0.050624 0.046587
0.000728 0.112518 0.058533
0.024217 0.114012 0.058016
0.065625 0.114304 0.057800
0.132241 0.123262 0.048642
0.218888 0.119213 0.046641
0.308599 0.115463 0.046725
0.403533 0.112906 0.046529
0.501385 0.110921 0.046130
0.598880 0.109236 0.045610
0.692550 0.107726 0.045017
0.779102 0.106327 0.044377
0.855627 0.105003 0.043706
0.919626 0.103732 0.043015
0.968695 0.102500 0.042310
0.998516 0.101299 0.041596
1.000000 0.100122 0.040876
1.000000 0.098829 0.040002
0.000151 0.176749 0.058352
0.023944 0.177425 0.057864
0.065666 0.177425 0.057864
0.120415 0.185389 0.050476
0.206015 0.192746 0.037455
0.308944 0.188801 0.033967
0.412385 0.183451 0.034171
0.515161 0.179189 0.034611
0.615159 0.175797 0.034864
0.709556 0.172982 0.034918
0.795470 0.170551 0.034812
0.870289 0.168384 0.034586
0.931712 0.166403 0.034271
0.977313 0.164559 0.033887
1.000000 0.162818 0.033452
1.000000 0.161157 0.032977
1.000000 0.159301 0.032137
0.000011 0.249722 0.057964
0.023944 0.249841 0.057864
0.065666 0.249841 0.057864
0.118430 0.255523 0.052981
0.189681 0.266340 0.040141
0.289689 0.271901 0.027647
0.403201 0.268350 0.023145
0.514712 0.262284 0.022699
0.620538 0.256733 0.023125
0.718295 0.252022 0.023630
0.805619 0.248014 0.024029
0.880327 0.244540 0.024287
0.940421 0.241465 0.024414
0.983496 0.238691 0.024429
1.000000 0.236147 0.024351
1.000000 0.233784 0.024197
1.000000 0.231228 0.023462
0.000000 0.329498 0.057864
0.023944 0.329498 0.057864
0.065666 0.329498 0.057864
0.118473 0.333544 0.054575
0.183450 0.344145 0.043847
0.270404 0.354182 0.030165
0.380843 0.358582 0.018932
0.499953 0.355380 0.014181
0.613852 0.349162 0.013091
0.717550 0.342823 0.013204
0.808601 0.337097 0.013642
0.885135 0.332048 0.014119
0.945482 0.327588 0.014535
0.987325 0.323609 0.014862
1.000000 0.320017 0.015094
1.000000 0.316734 0.015239
1.000000 0.313373 0.014651
0.000000 0.414180 0.057864
0.023944 0.414180 0.057864
0.065666 0.414180 0.057864
0.118893 0.417031 0.055618
0.181478 0.426516 0.046788
0.260221 0.437687 0.034065
0.359572 0.446454 0.021122
0.476304 0.450010 0.011403
0.596273 0.447129 0.006988
0.707305 0.441115 0.005581
0.804105 0.434452 0.005375
0.884445 0.428096 0.005599
0.946806 0.422287 0.005968
0.988999 0.417036 0.006359
1.000000 0.412284 0.006721
1.000000 0.407957 0.007032
1.000000 0.403761 0.006607
0.000000 0.501423 0.057864
0.023944 0.501423 0.057864
0.065666 0.501423 0.057864
0.119332 0.503383 0.056327
0.181146 0.511510 0.049035
0.255400 0.522381 0.037626
0.346211 0.532777 0.024759
0.453980 0.540250 0.013217
0.572634 0.543136 0.005237
0.688920 0.540568 0.001745
0.792423 0.534983 0.000614
0.878235 0.528389 0.000352
0.944355 0.521797 0.000371
0.988653 0.515570 0.000509
1.000000 0.509807 0.000707
1.000000 0.504504 0.000929
1.000000 0.499563 0.000710
0.000000 0.588623 0.057864
0.023944 0.588623 0.057864
0.065666 0.588623 0.057864
0.119709 0.589921 0.056823
0.181457 0.596665 0.050766
0.253323 0.606561 0.040635
0.338523 0.617091 0.028422
0.438347 0.626232 0.016377
0.550181 0.632479 0.006631
0.666336 0.634804 0.000859
0.774751 0.632552 0.000000
0.866764 0.627535 0.000000
0.938112 0.621324 0.000000
0.986237 0.614858 0.000000
1.000000 0.608565 0.000000
1.000000 0.602608 0.000000
1.000000 0.597164 0.000000
0.000000 0.673179 0.057864
0.023944 0.673179 0.057864
0.065666 0.673179 0.057864
0.120011 0.673995 0.057175
0.182008 0.679423 0.052123
0.252659 0.688031 0.043140
0.334288 0.697854 0.031764
0.428203 0.707269 0.019812
0.533232 0.714998 0.009181
0.644646 0.720108 0.001706
0.754089 0.721951 0.000000
0.850955 0.720019 0.000000
0.928160 0.715653 0.000000
0.981537 0.710056 0.000000
1.000000 0.704022 0.000000
1.000000 0.697988 0.000000
1.000000 0.692424 0.000000
0.000000 0.752634 0.057864
0.023944 0.752634 0.057864
0.065666 0.752634 0.057864
0.120244 0.753112 0.057426
0.182625 0.757339 0.053201
0.252730 0.764540 0.045227
0.332116 0.773194 0.034718
0.421828 0.782022 0.023153
0.521278 0.789985 0.012163
0.627333 0.796286 0.003467
0.733977 0.800355 0.000000
0.832928 0.801781 0.000000
0.915108 0.800170 0.000000
0.974355 0.796499 0.000000
1.000000 0.791668 0.000000
1.000000 0.786303 0.000000
1.000000 0.781095 0.000000
0.000000 0.824781 0.057864
0.023944 0.824781 0.057864
0.065666 0.824781 0.057864
0.120418 0.825035 0.057603
0.183233 0.828203 0.054070
0.253181 0.833992 0.046979
0.331184 0.841245 0.037303
0.417951 0.848971 0.026262
0.513084 0.856352 0.015247
0.614336 0.862746 0.005781
0.717197 0.867672 0.000015
0.815105 0.870794 0.000000
0.900312 0.871859 0.000000
0.964916 0.870566 0.000000
0.999998 0.867608 0.000000
1.000000 0.863635 0.000000
1.000000 0.859268 0.000000
0.000000 0.887706 0.057864
0.023944 0.887706 0.057864
0.065666 0.887706 0.057864
0.120542 0.887821 0.057723
0.183799 0.890081 0.054778
0.253818 0.894519 0.048458
0.331002 0.900278 0.039561
0.415722 0.906608 0.029102
0.507590 0.912887 0.018264
0.604844 0.918620 0.008381
0.703964 0.923433 0.001134
0.799662 0.927060 0.000000
0.885381 0.929322 0.000000
0.953954 0.930072 0.000000
0.996680 0.929094 0.000000
1.000000 0.926854 0.000000
1.000000 0.923692 0.000000
0.000000 0.939698 0.057864
0.023944 0.939698 0.057864
0.065666 0.939698 0.057864
0.120625 0.939739 0.057802
0.184311 0.941235 0.055359
0.254536 0.944410 0.049718
0.331274 0.948650 0.041537
0.414587 0.953410 0.031671
0.504007 0.958234 0.021134
0.598038 0.962764 0.011084
0.693806 0.966735 0.002933
0.786970 0.969964 0.000000
0.871976 0.972338 0.000000
0.942490 0.973790 0.000000
0.990880 0.974257 0.000000
1.000000 0.973605 0.000000
1.000000 0.971773 0.000000
0.000000 0.978861 0.057864
0.023944 0.978861 0.057864
0.065666 0.978861 0.057864
0.120673 0.978870 0.057846
0.184766 0.979722 0.055839
0.255273 0.981682 0.050797
0.331817 0.984338 0.043272
0.414178 0.987313 0.033989
0.501775 0.990288 0.023820
0.593247 0.993017 0.013778
0.686143 0.995333 0.005069
0.776816 0.997142 0.000000
0.860535 0.998424 0.000000
0.931756 0.999221 0.000000
0.983823 0.999622 0.000000
1.000000 0.999730 0.000000
1.000000 0.999364 0.000000
0.000000 1.000000 0.057864
0.023944 1.000000 0.057864
0.065666 1.000000 0.057864
0.120692 1.000000 0.057863
0.185148 1.000000 0.056223
0.255953 1.000000 0.051689
0.332441 1.000000 0.044731
0.414153 1.000000 0.035976
0.500390 1.000000 0.026187
0.589851 1.000000 0.016254
0.680370 1.000000 0.007234
0.768795 1.000000 0.000688
0.851044 1.000000 0.000000
0.922258 1.000000 0.000000
0.976604 1.000000 0.000000
1.000000 1.000000 0.000000
1.000000 1.000000 0.000000
0.000337 0.000337 0.071642
0.021128 0.000406 0.088794
0.063395 0.000098 0.103284
0.120694 0.000000 0.107525
0.187033 0.000000 0.107525
0.262801 0.000000 0.107525
0.345855 0.000000 0.107525
0.433844 0.000000 0.107543
0.525623 0.000000 0.107754
0.618060 0.000000 0.107994
0.707431 0.000000 0.108153
0.790326 0.000000 0.108197
0.863763 0.000000 0.108124
0.925174 0.000000 0.107942
0.972042 0.000000 0.107663
0.999486 0.000000 0.107300
1.000000 0.000000 0.106891
0.003505 0.021438 0.076075
0.024712 0.023362 0.084307
0.063232 0.023040 0.101367
