assets/presets/luts/honey/lut.cube
TITLE "Honey"
LUT_3D_SIZE 5
0.000000 0.000000 0.000000
0.211836 0.000000 0.000000
0.584428 0.000000 0.000000
0.910622 0.000000 0.000000
1.000000 0.000000 0.000000
0.000000 0.177425 0.000000
0.208402 0.195160 0.000000
0.639986 0.177863 0.000000
0.952379 0.165116 0.000000
1.000000 0.155950 0.000000
0.000000 0.501423 0.000000
0.175387 0.524043 0.000000
0.575660 0.546242 0.000000
0.949062 0.526237 0.000000
1.000000 0.502669 0.000000
0.000000 0.824781 0.000000
0.174704 0.836538 0.000000
0.513142 0.862910 0.000000
0.902254 0.874025 0.000000
1.000000 0.862064 0.000000
0.000000 1.000000 0.000000
0.177510 1.000000 0.000000
0.493830 1.000000 0.000000
0.852865 1.000000 0.000000
1.000000 1.000000 0.000000
0.000507 0.000507 0.111218
0.187033 0.000000 0.167607
0.523699 0.000000 0.167607
0.854198 0.000000 0.168335
1.000000 0.000000 0.168481
0.006601 0.169408 0.161071
0.188504 0.178579 0.168440
0.565269 0.175791 0.164868
0.898414 0.170277 0.159546
1.000000 0.164977 0.154390
0.000424 0.499609 0.169091
0.187033 0.501423 0.167607
0.569795 0.540169 0.108288
0.936259 0.516909 0.098407
1.000000 0.497175 0.098937
0.000000 0.824781 0.167607
0.187033 0.824781 0.167607
0.514540 0.847784 0.127147
0.898400 0.869711 0.054298
1.000000 0.856181 0.036326
0.000000 1.000000 0.167607
0.187033 1.000000 0.167607
0.508897 1.000000 0.142070
0.849417 1.000000 0.070941
1.000000 1.000000 0.018513
0.001351 0.001351 0.322760
0.171527 0.001082 0.432079
0.523699 0.000000 0.478213
0.849151 0.000000 0.478213
1.000000 0.000000 0.478213
0.021261 0.166291 0.371986
0.189735 0.182412 0.405483
0.523699 0.177425 0.478213
0.849151 0.177425 0.478213
1.000000 0.176379 0.479465
0.018127 0.480491 0.460533
0.214277 0.492079 0.471823
0.534323 0.510067 0.484773
0.886152 0.505290 0.479102
1.000000 0.497253 0.471331
0.005460 0.816682 0.483313
0.190025 0.823799 0.479677
0.523594 0.824982 0.478057
0.895039 0.865815 0.406007
1.000000 0.848387 0.388521
0.001178 0.999958 0.482206
0.187033 1.000000 0.478213
0.523699 1.000000 0.478213
0.847427 1.000000 0.423051
1.000000 1.000000 0.323704
0.002400 0.002400 0.578897
0.163674 0.002931 0.690235
0.505714 0.000761 0.774304
0.849151 0.000000 0.798059
1.000000 0.000000 0.798059
0.025778 0.171314 0.609367
0.194668 0.187328 0.662263
0.504842 0.185098 0.763390
0.849151 0.177425 0.798059
1.000000 0.177425 0.798059
0.045189 0.470207 0.702890
0.255903 0.487462 0.707908
0.524948 0.507891 0.740585
0.849151 0.501423 0.798059
1.000000 0.501423 0.798059
0.032949 0.799844 0.775897
0.246981 0.809159 0.785421
0.553232 0.818274 0.794422
0.869752 0.842649 0.812514
1.000000 0.833301 0.803168
0.015286 0.997733 0.801046
0.211608 0.999413 0.802275
0.526249 1.000000 0.798927
0.848994 1.000000 0.797570
1.000000 1.000000 0.750812
0.003611 0.003611 0.814975
0.162053 0.004768 0.897445
0.483743 0.002914 0.958133
0.838748 0.000497 0.987078
1.000000 0.000000 0.992508
0.028315 0.177006 0.829712
0.199668 0.192279 0.878164
0.493310 0.193946 0.946582
0.836990 0.183213 0.985144
1.000000 0.177425 0.992508
0.059295 0.472499 0.889599
0.266341 0.494074 0.897022
0.530992 0.514167 0.930781
0.835951 0.510410 0.981240
1.000000 0.501423 0.992508
0.069589 0.788790 0.948751
0.307213 0.800506 0.952263
0.602827 0.814177 0.954872
0.848605 0.829781 0.971751
1.000000 0.824781 0.992508
0.050934 0.993002 0.981526
0.281728 0.995736 0.985348
0.591955 0.997996 0.988801
0.867990 0.999642 0.991761
1.000000 1.000000 0.999392
