assets/presets/luts/silver-retained/lut.cube
TITLE "Silver Retained"
LUT_3D_SIZE 5
0.000000 0.000000 0.000000
0.062777 0.000000 0.000000
0.196313 0.000000 0.000000
0.596217 0.000000 0.000000
0.960161 0.000000 0.000000
0.000000 0.112925 0.000000
0.135533 0.135533 0.000000
0.330951 0.158972 0.000000
0.671765 0.185765 0.000000
0.976619 0.211729 0.004619
0.000000 0.388221 0.000000
0.217681 0.431186 0.004176
0.474981 0.474981 0.012841
0.756705 0.519339 0.022070
1.000000 0.562868 0.030469
0.024087 0.765117 0.024087
0.304517 0.790517 0.031922
0.620906 0.816747 0.040587
0.840749 0.840749 0.047024
1.000000 0.863921 0.052631
0.042442 1.000000 0.042442
0.381961 1.000000 0.050277
0.757440 1.000000 0.058942
0.915401 1.000000 0.062587
1.000000 1.000000 0.065402
0.000000 0.000000 0.049597
0.069695 0.000000 0.069695
0.209479 0.000000 0.090624
0.603418 0.000000 0.117418
0.961396 0.000000 0.143381
0.000000 0.120510 0.120510
0.143400 0.143400 0.143400
0.345065 0.167120 0.167120
0.679914 0.193914 0.193914
0.978803 0.219878 0.219878
0.000000 0.402719 0.200814
0.226496 0.445966 0.226496
0.490043 0.490043 0.253008
0.765801 0.534401 0.279801
1.000000 0.577930 0.305765
0.026655 0.773650 0.287650
0.313332 0.799332 0.313332
0.635968 0.825843 0.339843
0.849845 0.849845 0.363845
1.000000 0.873017 0.387017
0.045009 1.000000 0.365094
0.390776 1.000000 0.390776
0.772502 1.000000 0.417288
0.924498 1.000000 0.438498
1.000000 1.000000 0.458878
0.000000 0.000000 0.146020
0.076710 0.000000 0.183965
0.222740 0.000000 0.222740
0.610714 0.000000 0.267099
0.962727 0.000000 0.310628
0.000000 0.128190 0.276970
0.151362 0.151362 0.317708
0.359275 0.175364 0.359275
0.688158 0.202158 0.403633
0.981082 0.228122 0.447162
0.001573 0.417313 0.417313
0.235406 0.460841 0.460841
0.505200 0.505200 0.505200
0.774994 0.549559 0.549559
1.000000 0.593087 0.593087
0.029318 0.782278 0.563238
0.322242 0.808242 0.606767
0.651125 0.835036 0.651125
0.859038 0.859038 0.692692
1.000000 0.882210 0.733430
0.047673 1.000000 0.699772
0.399686 1.000000 0.743301
0.787660 1.000000 0.787660
0.933690 1.000000 0.826435
1.000000 1.000000 0.864380
0.000000 0.000000 0.551522
0.085902 0.000000 0.571902
0.237898 0.000000 0.593112
0.619624 0.000000 0.619624
0.965391 0.000000 0.645306
0.000000 0.137383 0.623383
0.160555 0.160555 0.646555
0.374432 0.184557 0.670557
0.697068 0.211068 0.697068
0.983745 0.236750 0.722750
0.004800 0.432470 0.704635
0.244599 0.475999 0.730599
0.520357 0.520357 0.757392
0.783904 0.564434 0.783904
1.000000 0.607681 0.809586
0.031598 0.790522 0.790522
0.330486 0.816486 0.816486
0.665335 0.843280 0.843280
0.867000 0.867000 0.867000
1.000000 0.889890 0.889890
0.049004 1.000000 0.867019
0.406982 1.000000 0.892982
0.800921 1.000000 0.919776
0.940705 1.000000 0.940705
1.000000 1.000000 0.960803
0.000000 0.000000 0.944998
0.094999 0.000000 0.947813
0.252960 0.000000 0.951458
0.628439 0.000000 0.960123
0.967958 0.000000 0.967958
0.000000 0.146479 0.957769
0.169651 0.169651 0.963376
0.389494 0.193653 0.969813
0.705883 0.219883 0.978478
0.986313 0.245283 0.986313
0.007931 0.447532 0.979931
0.253695 0.491061 0.988330
0.535419 0.535419 0.997559
0.792719 0.579214 1.000000
1.000000 0.622179 1.000000
0.033781 0.798671 1.000000
0.338635 0.824635 1.000000
0.679449 0.851428 1.000000
0.874867 0.874867 1.000000
1.000000 0.897475 1.000000
0.050239 1.000000 1.000000
0.414183 1.000000 1.000000
0.814086 1.000000 1.000000
0.947623 1.000000 1.000000
1.000000 1.000000 1.000000
