assets/presets/luts/silver-retained/lut.cube
TITLE "Silver Retained"
LUT_3D_SIZE 17
0.000000 0.000000 0.000000
0.000000 0.000000 0.000000
0.009493 0.000000 0.000000
0.035011 0.000000 0.000000
0.062777 0.000000 0.000000
0.092790 0.000000 0.000000
0.125050 0.000000 0.000000
0.159558 0.000000 0.000000
0.196313 0.000000 0.000000
0.299661 0.000000 0.000000
0.400760 0.000000 0.000000
0.499612 0.000000 0.000000
0.596217 0.000000 0.000000
0.690574 0.000000 0.000000
0.782684 0.000000 0.000000
0.872546 0.000000 0.000000
0.960161 0.000000 0.000000
0.000000 0.000000 0.000000
0.000000 0.000000 0.000000
0.019067 0.000000 0.000000
0.048452 0.000000 0.000000
0.080085 0.000000 0.000000
0.113966 0.000000 0.000000
0.150094 0.001494 0.000000
0.188470 0.003563 0.000000
0.229093 0.005683 0.000000
0.328747 0.009166 0.000000
0.426153 0.012597 0.000000
0.521312 0.015976 0.000000
0.614224 0.019303 0.000000
0.704888 0.022578 0.000000
0.793304 0.025802 0.000000
0.879473 0.028973 0.000000
0.963395 0.032093 0.000000
0.000000 0.023116 0.000000
0.000000 0.026146 0.000000
0.029227 0.029227 0.000000
0.062481 0.032361 0.000000
0.097981 0.035546 0.000000
0.135729 0.038783 0.000000
0.175725 0.042072 0.000000
0.217968 0.045413 0.000000
0.262459 0.048806 0.000000
0.358419 0.053387 0.000000
0.452133 0.057915 0.000000
0.543599 0.062392 0.000000
0.632817 0.066817 0.000000
0.719788 0.071190 0.000000
0.804512 0.075512 0.000000
0.886988 0.079781 0.000000
0.967216 0.083999 0.000000
0.000000 0.064034 0.000000
0.005102 0.068336 0.000000
0.039975 0.072690 0.000000
0.077096 0.077096 0.000000
0.116464 0.081553 0.000000
0.158079 0.086063 0.000000
0.201943 0.090624 0.000000
0.248053 0.095237 0.000000
0.296412 0.099902 0.000000
0.388679 0.105581 0.000000
0.478700 0.111207 0.000000
0.566472 0.116782 0.000000
0.651998 0.122305 0.000000
0.735276 0.127776 0.000000
0.816306 0.133195 0.000000
0.895089 0.138562 0.000000
0.971624 0.143877 0.000000
0.000000 0.112925 0.000000
0.012568 0.118499 0.000000
0.051309 0.124125 0.000000
0.092297 0.129803 0.000000
0.135533 0.135533 0.000000
0.181017 0.141315 0.000000
0.228747 0.147149 0.000000
0.278726 0.153034 0.000000
0.330951 0.158972 0.000000
0.419526 0.165748 0.000000
0.505853 0.172472 0.000000
0.589933 0.179145 0.000000
0.671765 0.185765 0.000000
0.751350 0.192334 0.000000
0.828687 0.198851 0.000523
0.903777 0.205316 0.002597
0.976619 0.211729 0.004619
0.000000 0.169789 0.000000
0.020622 0.176636 0.000000
0.063230 0.183534 0.000000
0.108086 0.190484 0.000000
0.155190 0.197487 0.000000
0.204541 0.204541 0.000000
0.256139 0.211647 0.000000
0.309985 0.218804 0.000000
0.366078 0.226014 0.000000
0.450960 0.233888 0.000000
0.533594 0.241710 0.000000
0.613981 0.249481 0.000000
0.692120 0.257199 0.001802
0.768011 0.264866 0.003980
0.841655 0.272480 0.006105
0.913052 0.280043 0.008179
0.982201 0.287554 0.010201
0.000000 0.234626 0.000000
0.029263 0.242745 0.000000
0.075739 0.250916 0.000000
0.124462 0.259139 0.000000
0.175433 0.267413 0.000000
0.228652 0.275740 0.000000
0.284118 0.284118 0.000000
0.341831 0.292548 0.000000
0.401792 0.301030 0.000000
0.482981 0.310002 0.001128
0.561922 0.318922 0.003461
0.638615 0.327790 0.005742
0.713061 0.336606 0.007971
0.785260 0.345370 0.010149
0.855211 0.354083 0.012274
0.922914 0.362743 0.014348
0.988370 0.371352 0.016370
0.000000 0.307437 0.000000
0.038490 0.316828 0.000000
0.088834 0.326271 0.000000
0.141425 0.335766 0.000000
0.196264 0.345313 0.000000
0.253350 0.354912 0.000000
0.312683 0.364562 0.001411
0.374264 0.374264 0.003429
0.438093 0.384019 0.005499
0.515588 0.394088 0.007884
0.590836 0.404106 0.010217
0.663837 0.414072 0.012498
0.734589 0.423986 0.014727
0.803095 0.433848 0.016905
0.869353 0.443659 0.019030
0.933363 0.453417 0.021104
0.995126 0.463124 0.023126
0.000000 0.388221 0.000000
0.048305 0.398884 0.000000
0.102516 0.409599 0.000155
0.158975 0.420367 0.002140
0.217681 0.431186 0.004176
0.278635 0.442057 0.006265
0.341836 0.452980 0.008405
0.407285 0.463954 0.010597
0.474981 0.474981 0.012841
0.548783 0.486148 0.015226
0.620338 0.497264 0.017559
0.689645 0.508328 0.019841
0.756705 0.519339 0.022070
0.821517 0.530299 0.024248
0.884082 0.541208 0.026373
0.944399 0.552064 0.028447
1.000000 0.562868 0.030469
0.004158 0.494404 0.004158
0.059815 0.503970 0.006039
0.117719 0.513588 0.007972
0.177871 0.523257 0.009957
0.240270 0.532978 0.011993
0.304917 0.542751 0.014082
0.371812 0.552576 0.016222
0.440953 0.562453 0.018414
0.512343 0.572382 0.020658
0.582277 0.582277 0.022869
0.649964 0.592121 0.025027
0.715404 0.601912 0.027134
0.778596 0.611651 0.029189
0.839541 0.621339 0.031192
0.898238 0.630975 0.033143
0.954688 0.640559 0.035042
1.000000 0.650091 0.036890
0.011388 0.592615 0.011388
0.070738 0.601083 0.013269
0.132336 0.609603 0.015202
0.196180 0.618174 0.017187
0.262273 0.626798 0.019223
0.330613 0.635473 0.021312
0.401200 0.644200 0.023452
0.474035 0.652979 0.025644
0.549117 0.661810 0.027888
0.615184 0.670433 0.029924
0.679004 0.679004 0.031908
0.740576 0.687523 0.033841
0.799901 0.695990 0.035721
0.856978 0.704406 0.037550
0.911807 0.712769 0.039326
0.964389 0.721081 0.041051
1.000000 0.729341 0.042724
0.018031 0.682852 0.018031
0.081074 0.690222 0.019912
0.146365 0.697644 0.021845
0.213903 0.705118 0.023830
0.283688 0.712644 0.025866
0.355721 0.720221 0.027955
0.430002 0.727851 0.030095
0.506530 0.735532 0.032287
0.585305 0.743265 0.034531
0.647505 0.750616 0.036393
0.707457 0.757914 0.038202
0.765161 0.765161 0.039960
0.820618 0.772356 0.041666
0.873828 0.779499 0.043320
0.924790 0.786591 0.044922
0.973504 0.793630 0.046473
1.000000 0.800617 0.047971
0.024087 0.765117 0.024087
0.090823 0.771389 0.025968
0.159807 0.777713 0.027901
0.231038 0.784089 0.029886
0.304517 0.790517 0.031922
0.380243 0.796996 0.034011
0.458216 0.803528 0.036151
0.538438 0.810111 0.038343
0.620906 0.816747 0.040587
0.679238 0.822825 0.042274
0.735322 0.828851 0.043909
0.789159 0.834826 0.045493
0.840749 0.840749 0.047024
0.890091 0.846619 0.048504
0.937185 0.852438 0.049931
0.982032 0.858206 0.051307
1.000000 0.863921 0.052631
0.029556 0.839408 0.029556
0.099985 0.844582 0.031437
0.172662 0.849808 0.033370
0.247587 0.855087 0.035355
0.324758 0.860417 0.037391
0.404177 0.865798 0.039480
0.485844 0.871232 0.041620
0.569758 0.876718 0.043812
0.655920 0.882255 0.046056
0.710384 0.887061 0.047569
0.762601 0.891815 0.049030
0.812571 0.896518 0.050438
0.860292 0.901168 0.051795
0.905767 0.905767 0.053100
0.948993 0.910313 0.054354
0.989973 0.914808 0.055555
1.000000 0.919251 0.056704
0.034438 0.905725 0.034438
0.108561 0.909802 0.036319
0.184931 0.913931 0.038252
0.263548 0.918111 0.040237
0.344413 0.922343 0.042273
0.427525 0.926627 0.044362
0.512885 0.930963 0.046502
0.600492 0.935351 0.048694
0.690347 0.939791 0.050938
0.740944 0.943324 0.052276
0.789293 0.946806 0.053563
0.835395 0.950236 0.054797
0.879249 0.953614 0.055979
0.920856 0.956940 0.057110
0.960215 0.960215 0.058189
0.997327 0.963437 0.059216
1.000000 0.966608 0.060191
0.038733 0.964070 0.038733
0.116549 0.967049 0.040614
0.196612 0.970080 0.042547
0.278922 0.973162 0.044532
0.363480 0.976296 0.046569
0.450286 0.979483 0.048657
0.539339 0.982721 0.050797
0.630639 0.986011 0.052989
0.724187 0.989353 0.055234
0.770916 0.991614 0.056397
0.815398 0.993824 0.057509
0.857632 0.995981 0.058569
0.897619 0.998087 0.059577
0.935358 1.000000 0.060533
0.970849 1.000000 0.061437
1.000000 1.000000 0.062290
1.000000 1.000000 0.063090
0.042442 1.000000 0.042442
0.123950 1.000000 0.044323
0.207706 1.000000 0.046255
0.293710 1.000000 0.048240
0.381961 1.000000 0.050277
0.472460 1.000000 0.052365
0.565206 1.000000 0.054505
0.660199 1.000000 0.056698
0.757440 1.000000 0.058942
0.800302 1.000000 0.059931
0.840916 1.000000 0.060868
0.879282 1.000000 0.061753
0.915401 1.000000 0.062587
0.949273 1.000000 0.063369
0.980897 1.000000 0.064098
1.000000 1.000000 0.064776
1.000000 1.000000 0.065402
0.000000 0.000000 0.000000
0.000000 0.000000 0.000000
0.010433 0.000000 0.000000
0.036342 0.000000 0.000000
0.064497 0.000000 0.000000
0.094901 0.000000 0.000000
0.127552 0.000000 0.000000
0.162450 0.000000 0.000000
0.199596 0.000000 0.000000
0.302570 0.000000 0.002911
0.403297 0.000000 0.006342
0.501776 0.000000 0.009721
0.598008 0.000000 0.013048
0.691993 0.000000 0.016324
0.783729 0.000000 0.019547
0.873219 0.000000 0.022719
0.960461 0.000000 0.025838
0.000000 0.000000 0.000000
0.000000 0.000000 0.000000
0.020066 0.000000 0.000000
0.049842 0.000000 0.000000
0.081865 0.000000 0.000000
0.116136 0.000156 0.000156
0.152655 0.002191 0.002191
0.191421 0.004277 0.004277
0.232434 0.006415 0.006415
0.331715 0.009898 0.009898
0.428749 0.013329 0.013329
0.523535 0.016708 0.016708
0.616074 0.020035 0.020035
0.706365 0.023310 0.023310
0.794409 0.026534 0.026534
0.880205 0.029705 0.029705
0.963754 0.032825 0.032825
0.000000 0.024139 0.000000
0.000000 0.027186 0.000000
0.030286 0.030286 0.000891
0.063929 0.033437 0.002944
0.099820 0.036640 0.005049
0.137959 0.039895 0.007206
0.178345 0.043201 0.009415
0.220978 0.046560 0.011676
0.265859 0.049970 0.013989
0.361448 0.054551 0.017471
0.454788 0.059079 0.020902
0.545881 0.063556 0.024281
0.634727 0.067981 0.027608
0.721325 0.072354 0.030884
0.805676 0.076676 0.034107
0.887779 0.080945 0.037279
0.967634 0.085163 0.040398
0.000000 0.065489 0.003705
0.005829 0.069809 0.005829
0.041092 0.074180 0.008005
0.078604 0.078604 0.010232
0.118362 0.083079 0.012512
0.160368 0.087606 0.014843
0.204622 0.092185 0.017227
0.251123 0.096816 0.019662
0.299872 0.101498 0.022149
0.391767 0.107177 0.025632
0.481414 0.112803 0.029063
0.568814 0.118378 0.032442
0.653967 0.123901 0.035769
0.736872 0.129372 0.039044
0.817529 0.134791 0.042268
0.895939 0.140158 0.045439
0.972102 0.145473 0.048559
0.000000 0.114812 0.011056
0.013355 0.120404 0.013355
0.052486 0.126048 0.015705
0.093865 0.131743 0.018107
0.137491 0.137491 0.020561
0.183365 0.143290 0.023067
0.231486 0.149142 0.025625
0.281855 0.155045 0.028235
0.334471 0.161000 0.030896
0.422673 0.167776 0.034379
0.508627 0.174500 0.037810
0.592334 0.181173 0.041189
0.673793 0.187793 0.044516
0.753005 0.194362 0.047792
0.829970 0.200879 0.051015
0.904687 0.207344 0.054187
0.977156 0.213757 0.057306
0.000000 0.172108 0.018995
0.021468 0.178973 0.021468
0.064467 0.185889 0.023993
0.109713 0.192857 0.026569
0.157207 0.199876 0.029198
0.206948 0.206948 0.031878
0.258937 0.214072 0.034611
0.313173 0.221247 0.037395
0.369657 0.228474 0.040231
0.454166 0.236348 0.043714
0.536427 0.244171 0.047144
0.616441 0.251941 0.050523
0.694207 0.259659 0.053851
0.769726 0.267326 0.057126
0.842997 0.274940 0.060349
0.914021 0.282503 0.063521
0.982797 0.290014 0.066641
0.000000 0.237378 0.027520
0.030168 0.245514 0.030168
0.077034 0.253703 0.032867
0.126148 0.261943 0.035618
0.177510 0.270235 0.038421
0.231118 0.278579 0.041276
0.286975 0.286975 0.044183
0.345079 0.295423 0.047142
0.405430 0.303922 0.050152
0.486246 0.312894 0.053635
0.564814 0.321814 0.057066
0.641135 0.330682 0.060445
0.715208 0.339498 0.063772
0.787033 0.348263 0.067047
0.856612 0.356975 0.070271
0.923942 0.365636 0.073442
0.989025 0.374245 0.076562
0.000000 0.310620 0.036633
0.039455 0.320029 0.039455
0.090189 0.329490 0.042328
0.143170 0.339002 0.045254
0.198399 0.348567 0.048232
0.255876 0.358183 0.051261
0.315600 0.367851 0.054342
0.377571 0.377571 0.057475
0.441790 0.387343 0.060660
0.518913 0.397413 0.064143
0.593788 0.407431 0.067574
0.666415 0.417396 0.070953
0.736795 0.427310 0.074280
0.804928 0.437173 0.077555
0.870813 0.446983 0.080779
0.934451 0.456741 0.083951
0.995841 0.466448 0.087070
0.000000 0.391836 0.046332
0.049328 0.402517 0.049328
0.103930 0.413250 0.052377
0.160779 0.424035 0.055477
0.219876 0.434872 0.058629
0.281220 0.445760 0.061833
0.344812 0.456701 0.065088
0.410651 0.467693 0.068396
0.478737 0.478737 0.071756
0.552167 0.489905 0.075238
0.623349 0.501020 0.078669
0.692283 0.512084 0.082048
0.758970 0.523096 0.085375
0.823409 0.534056 0.088651
0.885601 0.544964 0.091874
0.945546 0.555820 0.095046
1.000000 0.566625 0.098165
0.004791 0.497647 0.057842
0.060838 0.507230 0.060838
0.119133 0.516866 0.063887
0.179675 0.526553 0.066987
0.242465 0.536291 0.070139
0.307502 0.546082 0.073343
0.374787 0.555925 0.076598
0.444319 0.565819 0.079906
0.516099 0.575766 0.083266
0.585661 0.585661 0.086574
0.652975 0.595504 0.089830
0.718042 0.605296 0.093035
0.780861 0.615035 0.096188
0.841433 0.624723 0.099288
0.899758 0.634359 0.102337
0.955834 0.643943 0.105334
1.000000 0.653475 0.108280
0.012021 0.595485 0.068765
0.071762 0.603970 0.071762
0.133749 0.612508 0.074810
0.197985 0.621097 0.077910
0.264468 0.629738 0.081062
0.333198 0.638431 0.084266
0.404176 0.647176 0.087522
0.477401 0.655972 0.090829
0.552874 0.664821 0.094189
0.618568 0.673444 0.097322
0.682015 0.682015 0.100404
0.743214 0.690534 0.103434
0.802166 0.699001 0.106413
0.858870 0.707417 0.109339
0.913327 0.715780 0.112213
0.965536 0.724092 0.115036
1.000000 0.732352 0.117807
0.018664 0.685349 0.079101
0.082098 0.692737 0.082098
0.147779 0.700177 0.085146
0.215707 0.707668 0.088246
0.285883 0.715211 0.091398
0.358306 0.722806 0.094602
0.432977 0.730453 0.097858
0.509896 0.738152 0.101165
0.589062 0.745903 0.104525
0.650888 0.753254 0.107484
0.710468 0.760552 0.110391
0.767799 0.767799 0.113247
0.822883 0.774994 0.116051
0.875720 0.782137 0.118803
0.926309 0.789228 0.121503
0.974651 0.796268 0.124151
1.000000 0.803255 0.126747
0.024720 0.767241 0.088850
0.091847 0.773531 0.091847
0.161221 0.779872 0.094895
0.232842 0.786266 0.097995
0.306711 0.792711 0.101147
0.382828 0.799209 0.104351
0.461192 0.805758 0.107607
0.541804 0.812359 0.110914
0.624663 0.819012 0.114274
0.682622 0.825090 0.117059
0.738333 0.831117 0.119792
0.791797 0.837091 0.122473
0.843014 0.843014 0.125102
0.891983 0.848885 0.127679
0.938704 0.854704 0.130205
0.983179 0.860471 0.132679
1.000000 0.866186 0.135100
0.030189 0.841159 0.098012
0.101009 0.846351 0.101009
0.174076 0.851595 0.104057
0.249391 0.856891 0.107157
0.326953 0.862238 0.110309
0.406763 0.867638 0.113513
0.488820 0.873089 0.116769
0.573124 0.878592 0.120077
0.659677 0.884148 0.123436
0.713768 0.888954 0.126046
0.765612 0.893708 0.128605
0.815208 0.898410 0.131111
0.862557 0.903060 0.133566
0.907659 0.907659 0.135969
0.950513 0.912206 0.138320
0.991119 0.916700 0.140619
1.000000 0.921143 0.142867
0.035071 0.907104 0.106588
0.109584 0.911198 0.109584
0.186344 0.915344 0.112632
0.265352 0.919542 0.115733
0.346608 0.923792 0.118885
0.430110 0.928094 0.122088
0.515861 0.932447 0.125344
0.603858 0.936853 0.128652
0.694104 0.941310 0.132011
0.744327 0.944844 0.134447
0.792304 0.948326 0.136831
0.838033 0.951756 0.139163
0.881514 0.955134 0.141444
0.922748 0.958460 0.143672
0.961734 0.961734 0.145849
0.998473 0.964957 0.147973
1.000000 0.968127 0.150046
0.039366 0.965076 0.114576
0.117572 0.968072 0.117572
0.198026 0.971121 0.120621
0.280727 0.974221 0.123721
0.365675 0.977373 0.126873
0.452871 0.980577 0.130077
0.542314 0.983832 0.133332
0.634005 0.987140 0.136640
0.727944 0.990499 0.139999
0.774300 0.992761 0.142261
0.818409 0.994970 0.144470
0.860270 0.997128 0.146628
0.899884 0.999234 0.148734
0.937250 1.000000 0.150788
0.972369 1.000000 0.152790
1.000000 1.000000 0.154740
1.000000 1.000000 0.156638
0.043075 1.000000 0.121977
0.124974 1.000000 0.124974
0.209120 1.000000 0.128022
0.295514 1.000000 0.131122
0.384156 1.000000 0.134274
0.475045 1.000000 0.137478
0.568181 1.000000 0.140734
0.663565 1.000000 0.144041
0.761197 1.000000 0.147401
0.803685 1.000000 0.149488
0.843927 1.000000 0.151523
0.881920 1.000000 0.153506
0.917666 1.000000 0.155437
0.951165 1.000000 0.157317
0.982416 1.000000 0.159144
1.000000 1.000000 0.160920
1.000000 1.000000 0.162644
0.000000 0.000000 0.005895
0.000000 0.000000 0.008611
0.011379 0.000000 0.011379
0.037678 0.000000 0.014199
0.066224 0.000000 0.017070
0.097018 0.000000 0.019994
0.130059 0.000000 0.022969
0.165348 0.000000 0.025996
0.202884 0.000000 0.029075
0.305486 0.000000 0.033656
0.405840 0.000000 0.038185
0.503946 0.000000 0.042662
0.599805 0.000000 0.047087
0.693417 0.000000 0.051460
0.784781 0.000000 0.055781
0.873897 0.000000 0.060050
0.960766 0.000000 0.064268
0.000000 0.000000 0.015238
0.000000 0.000000 0.018129
0.021071 0.000000 0.021071
0.051237 0.000000 0.024065
0.083651 0.000000 0.027111
0.118313 0.000841 0.030209
0.155222 0.002893 0.033359
0.194378 0.004997 0.036561
0.235782 0.007153 0.039814
0.334690 0.010636 0.044395
0.431351 0.014067 0.048924
0.525765 0.017446 0.053400
0.617930 0.020773 0.057825
0.707849 0.024048 0.062199
0.795520 0.027272 0.066520
0.880943 0.030443 0.070789
0.964119 0.033563 0.075007
0.000000 0.025168 0.025168
0.000000 0.028233 0.028233
0.031350 0.031350 0.031350
0.065384 0.034519 0.034519
0.101666 0.037739 0.037739
0.140194 0.041012 0.041012
0.180971 0.044336 0.044336
0.223995 0.047712 0.047712
0.269266 0.051140 0.051140
0.364482 0.055721 0.055721
0.457449 0.060249 0.060249
0.548170 0.064726 0.064726
0.636643 0.069151 0.069151
0.722868 0.073524 0.073524
0.806846 0.077846 0.077846
0.888576 0.082115 0.082115
0.968059 0.086333 0.086333
0.000000 0.066950 0.035685
0.006562 0.071287 0.038925
0.042216 0.075677 0.042216
0.080118 0.080118 0.045559
0.120267 0.084610 0.048954
0.162663 0.089155 0.052401
0.207307 0.093752 0.055900
0.254199 0.098400 0.059450
0.303338 0.103100 0.063053
0.394860 0.108779 0.067634
0.484135 0.114405 0.072162
0.571162 0.119980 0.076639
0.655942 0.125503 0.081064
0.738474 0.130974 0.085437
0.818758 0.136393 0.089758
0.896796 0.141760 0.094028
0.972585 0.147075 0.098245
0.000000 0.116705 0.046789
0.014147 0.122315 0.050203
0.053669 0.127976 0.053669
0.095438 0.133690 0.057186
0.139455 0.139455 0.060756
0.185719 0.145272 0.064377
0.234231 0.151141 0.068051
0.284990 0.157061 0.071776
0.337996 0.163034 0.075553
0.425825 0.169810 0.080133
0.511407 0.176534 0.084662
0.594741 0.183207 0.089139
0.675828 0.189828 0.093564
0.754667 0.196396 0.097937
0.831258 0.202913 0.102258
0.905602 0.209378 0.106528
0.977699 0.215791 0.110745
0.000000 0.174434 0.058480
0.022319 0.181315 0.062068
0.065709 0.188249 0.065709
0.111345 0.195235 0.069401
0.159230 0.202272 0.073145
0.209361 0.209361 0.076941
0.261741 0.216503 0.080788
0.316368 0.223696 0.084688
0.373242 0.230941 0.088639
0.457378 0.238815 0.093220
0.539266 0.246637 0.097749
0.618907 0.254407 0.102226
0.696300 0.262125 0.106651
0.771446 0.269792 0.111024
0.844345 0.277407 0.115345
0.914996 0.284970 0.119614
0.983399 0.292480 0.123832
0.000000 0.240135 0.070758
0.031079 0.248289 0.074521
0.078335 0.256495 0.078335
0.127840 0.264753 0.082202
0.179592 0.273063 0.086121
0.233591 0.281424 0.090091
0.289838 0.289838 0.094113
0.348332 0.298303 0.098187
0.409074 0.306820 0.102313
0.489517 0.315792 0.106894
0.567712 0.324712 0.111422
0.643660 0.333580 0.115899
0.717360 0.342397 0.120324
0.788813 0.351161 0.124697
0.858019 0.359873 0.129019
0.924976 0.368534 0.133288
0.989687 0.377143 0.137505
0.000000 0.313810 0.083623
0.040425 0.323236 0.087560
0.091549 0.332715 0.091549
0.144921 0.342245 0.095590
0.200541 0.351827 0.099683
0.258408 0.361461 0.103828
0.318522 0.371146 0.108025
0.380884 0.380884 0.112273
0.445493 0.390673 0.116574
0.522243 0.400743 0.121154
0.596745 0.410761 0.125683
0.669000 0.420727 0.130160
0.739007 0.430641 0.134585
0.806767 0.440503 0.138958
0.872279 0.450313 0.143279
0.935544 0.460072 0.147549
0.996561 0.469778 0.151766
0.000000 0.395458 0.097074
0.050358 0.406156 0.101186
0.105350 0.416907 0.105350
0.162589 0.427709 0.109565
0.222077 0.438564 0.113833
0.283811 0.449470 0.118152
0.347793 0.460428 0.122523
0.414023 0.471438 0.126946
0.482500 0.482500 0.131421
0.555556 0.493667 0.136002
0.626365 0.504783 0.140531
0.694927 0.515846 0.145007
0.761241 0.526858 0.149432
0.825308 0.537818 0.153806
0.887127 0.548726 0.158127
0.946698 0.559583 0.162396
1.000000 0.570387 0.166614
0.005430 0.500896 0.112278
0.061868 0.510497 0.116389
0.120553 0.520150 0.120553
0.181486 0.529854 0.124769
0.244666 0.539611 0.129036
0.310094 0.549419 0.133355
0.377769 0.559279 0.137727
0.447691 0.569191 0.142150
0.519862 0.579155 0.146624
0.589050 0.589050 0.151031
0.655992 0.598894 0.155385
0.720686 0.608685 0.159687
0.783132 0.618425 0.163938
0.843332 0.628112 0.168136
0.901283 0.637748 0.172283
0.956987 0.647332 0.176378
1.000000 0.656864 0.180421
0.012660 0.598361 0.126894
0.072791 0.606864 0.131005
0.135169 0.615419 0.135169
0.199795 0.624026 0.139385
0.266668 0.632684 0.143652
0.335789 0.641395 0.147971
0.407157 0.650157 0.152343
0.480773 0.658972 0.156766
0.556636 0.667838 0.161241
0.621958 0.676461 0.165472
0.685032 0.685032 0.169652
0.745858 0.693551 0.173780
0.804437 0.702018 0.177856
0.860768 0.710433 0.181880
0.914852 0.718797 0.185852
0.966689 0.727109 0.189773
1.000000 0.735368 0.193641
0.019303 0.687853 0.140923
0.083127 0.695258 0.145035
0.149198 0.702715 0.149198
0.217517 0.710224 0.153414
0.288084 0.717785 0.157681
0.360898 0.725398 0.162001
0.435959 0.733062 0.166372
0.513268 0.740779 0.170795
0.592824 0.748547 0.175270
0.654278 0.755898 0.179327
0.713484 0.763196 0.183332
0.770443 0.770443 0.187286
0.825154 0.777638 0.191187
0.877618 0.784781 0.195037
0.927835 0.791873 0.198835
0.975803 0.798912 0.202581
1.000000 0.805899 0.206275
0.025359 0.769371 0.154365
0.092876 0.775679 0.158477
0.162641 0.782038 0.162641
0.234653 0.788449 0.166856
0.308912 0.794912 0.171124
0.385419 0.801427 0.175443
0.464174 0.807994 0.179814
0.545176 0.814613 0.184237
0.628425 0.821283 0.188712
0.686011 0.827361 0.192595
0.741350 0.833388 0.196425
0.794441 0.839362 0.200204
0.845285 0.845285 0.203931
0.893881 0.851156 0.207607
0.940230 0.856975 0.211230
0.984331 0.862742 0.214801
1.000000 0.868457 0.218321
0.030828 0.842916 0.167220
0.102038 0.848126 0.171332
0.175496 0.853388 0.175496
0.251201 0.858701 0.179711
0.329154 0.864066 0.183979
0.409354 0.869483 0.188298
0.491801 0.874952 0.192669
0.576496 0.880473 0.197092
0.663439 0.886046 0.201567
0.717158 0.890852 0.205275
0.768629 0.895606 0.208932
0.817852 0.900308 0.212536
0.864829 0.904959 0.216089
0.909557 0.909557 0.219590
0.952038 0.914104 0.223038
0.992272 0.918599 0.226435
1.000000 0.923042 0.229781
0.035710 0.908489 0.179489
0.110613 0.912601 0.183601
0.187764 0.916764 0.187764
0.267163 0.920980 0.191980
0.348808 0.925247 0.196247
0.432701 0.929567 0.200567
0.518842 0.933938 0.204938
0.607230 0.938361 0.209361
0.697866 0.942836 0.213836
0.747717 0.946369 0.217369
0.795321 0.949851 0.220851
0.840677 0.953281 0.224281
0.883785 0.956659 0.227659
0.924646 0.959985 0.230985
0.963260 0.963260 0.234260
0.999626 0.966482 0.237482
1.000000 0.969653 0.240653
0.040005 0.966088 0.191170
0.118602 0.969102 0.195282
0.199446 0.972168 0.199446
0.282537 0.975285 0.203661
0.367876 0.978455 0.207929
0.455462 0.981676 0.212248
0.545296 0.984950 0.216619
0.637377 0.988275 0.221042
0.731706 0.991652 0.225517
0.777690 0.993914 0.228876
0.821425 0.996123 0.232184
0.862914 0.998281 0.235439
0.902155 1.000000 0.238643
0.939148 1.000000 0.241794
0.973894 1.000000 0.244894
1.000000 1.000000 0.247942
1.000000 1.000000 0.250939
0.043714 1.000000 0.202264
0.126003 1.000000 0.206376
0.210540 1.000000 0.210540
0.297324 1.000000 0.214756
0.386356 1.000000 0.219023
0.477636 1.000000 0.223342
0.571163 1.000000 0.227713
0.666937 1.000000 0.232137
0.764959 1.000000 0.236611
0.807075 1.000000 0.239796
0.846943 1.000000 0.242929
0.884564 1.000000 0.246010
0.919938 1.000000 0.249039
0.953063 1.000000 0.252016
0.983942 1.000000 0.254942
1.000000 1.000000 0.257815
1.000000 1.000000 0.260637
0.000000 0.000000 0.027370
0.000000 0.000000 0.031202
0.012331 0.000000 0.035085
0.039020 0.000000 0.039020
0.067957 0.000000 0.043007
0.099141 0.000000 0.047046
0.132573 0.000000 0.051137
0.168252 0.000000 0.055279
0.206179 0.000000 0.059474
0.308407 0.000000 0.065152
0.408389 0.000000 0.070779
0.506122 0.000000 0.076353
0.601608 0.000000 0.081876
0.694847 0.000000 0.087347
0.785838 0.000000 0.092766
0.874582 0.000000 0.098133
0.961078 0.000000 0.103449
0.000000 0.000000 0.040466
0.000000 0.000000 0.044472
0.022082 0.000000 0.048529
