assets/presets/luts/silver-retained/lut.cube
TITLE "Silver Retained"
LUT_3D_SIZE 9
0.000000 0.000000 0.000000
0.009493 0.000000 0.000000
0.062777 0.000000 0.000000
0.125050 0.000000 0.000000
0.196313 0.000000 0.000000
0.400760 0.000000 0.000000
0.596217 0.000000 0.000000
0.782684 0.000000 0.000000
0.960161 0.000000 0.000000
0.000000 0.023116 0.000000
0.029227 0.029227 0.000000
0.097981 0.035546 0.000000
0.175725 0.042072 0.000000
0.262459 0.048806 0.000000
0.452133 0.057915 0.000000
0.632817 0.066817 0.000000
0.804512 0.075512 0.000000
0.967216 0.083999 0.000000
0.000000 0.112925 0.000000
0.051309 0.124125 0.000000
0.135533 0.135533 0.000000
0.228747 0.147149 0.000000
0.330951 0.158972 0.000000
0.505853 0.172472 0.000000
0.671765 0.185765 0.000000
0.828687 0.198851 0.000523
0.976619 0.211729 0.004619
0.000000 0.234626 0.000000
0.075739 0.250916 0.000000
0.175433 0.267413 0.000000
0.284118 0.284118 0.000000
0.401792 0.301030 0.000000
0.561922 0.318922 0.003461
0.713061 0.336606 0.007971
0.855211 0.354083 0.012274
0.988370 0.371352 0.016370
0.000000 0.388221 0.000000
0.102516 0.409599 0.000155
0.217681 0.431186 0.004176
0.341836 0.452980 0.008405
0.474981 0.474981 0.012841
0.620338 0.497264 0.017559
0.756705 0.519339 0.022070
0.884082 0.541208 0.026373
1.000000 0.562868 0.030469
0.011388 0.592615 0.011388
0.132336 0.609603 0.015202
0.262273 0.626798 0.019223
0.401200 0.644200 0.023452
0.549117 0.661810 0.027888
0.679004 0.679004 0.031908
0.799901 0.695990 0.035721
0.911807 0.712769 0.039326
1.000000 0.729341 0.042724
0.024087 0.765117 0.024087
0.159807 0.777713 0.027901
0.304517 0.790517 0.031922
0.458216 0.803528 0.036151
0.620906 0.816747 0.040587
0.735322 0.828851 0.043909
0.840749 0.840749 0.047024
0.937185 0.852438 0.049931
1.000000 0.863921 0.052631
0.034438 0.905725 0.034438
0.184931 0.913931 0.038252
0.344413 0.922343 0.042273
0.512885 0.930963 0.046502
0.690347 0.939791 0.050938
0.789293 0.946806 0.053563
0.879249 0.953614 0.055979
0.960215 0.960215 0.058189
1.000000 0.966608 0.060191
0.042442 1.000000 0.042442
0.207706 1.000000 0.046255
0.381961 1.000000 0.050277
0.565206 1.000000 0.054505
0.757440 1.000000 0.058942
0.840916 1.000000 0.060868
0.915401 1.000000 0.062587
0.980897 1.000000 0.064098
1.000000 1.000000 0.065402
0.000000 0.000000 0.005895
0.011379 0.000000 0.011379
0.066224 0.000000 0.017070
0.130059 0.000000 0.022969
0.202884 0.000000 0.029075
0.405840 0.000000 0.038185
0.599805 0.000000 0.047087
0.784781 0.000000 0.055781
0.960766 0.000000 0.064268
0.000000 0.025168 0.025168
0.031350 0.031350 0.031350
0.101666 0.037739 0.037739
0.180971 0.044336 0.044336
0.269266 0.051140 0.051140
0.457449 0.060249 0.060249
0.636643 0.069151 0.069151
0.806846 0.077846 0.077846
0.968059 0.086333 0.086333
0.000000 0.116705 0.046789
0.053669 0.127976 0.053669
0.139455 0.139455 0.060756
0.234231 0.151141 0.068051
0.337996 0.163034 0.075553
0.511407 0.176534 0.084662
0.675828 0.189828 0.093564
0.831258 0.202913 0.102258
0.977699 0.215791 0.110745
0.000000 0.240135 0.070758
0.078335 0.256495 0.078335
0.179592 0.273063 0.086121
0.289838 0.289838 0.094113
0.409074 0.306820 0.102313
0.567712 0.324712 0.111422
0.717360 0.342397 0.120324
0.858019 0.359873 0.129019
0.989687 0.377143 0.137505
0.000000 0.395458 0.097074
0.105350 0.416907 0.105350
0.222077 0.438564 0.113833
0.347793 0.460428 0.122523
0.482500 0.482500 0.131421
0.626365 0.504783 0.140531
0.761241 0.526858 0.149432
0.887127 0.548726 0.158127
1.000000 0.570387 0.166614
0.012660 0.598361 0.126894
0.135169 0.615419 0.135169
0.266668 0.632684 0.143652
0.407157 0.650157 0.152343
0.556636 0.667838 0.161241
0.685032 0.685032 0.169652
0.804437 0.702018 0.177856
0.914852 0.718797 0.185852
1.000000 0.735368 0.193641
0.025359 0.769371 0.154365
0.162641 0.782038 0.162641
0.308912 0.794912 0.171124
0.464174 0.807994 0.179814
0.628425 0.821283 0.188712
0.741350 0.833388 0.196425
0.845285 0.845285 0.203931
0.940230 0.856975 0.211230
1.000000 0.868457 0.218321
0.035710 0.908489 0.179489
0.187764 0.916764 0.187764
0.348808 0.925247 0.196247
0.518842 0.933938 0.204938
0.697866 0.942836 0.213836
0.795321 0.949851 0.220851
0.883785 0.956659 0.227659
0.963260 0.963260 0.234260
1.000000 0.969653 0.240653
0.043714 1.000000 0.202264
0.210540 1.000000 0.210540
0.386356 1.000000 0.219023
0.571163 1.000000 0.227713
0.764959 1.000000 0.236611
0.846943 1.000000 0.242929
0.919938 1.000000 0.249039
0.983942 1.000000 0.254942
1.000000 1.000000 0.260637
0.000000 0.000000 0.049597
0.013289 0.000000 0.059542
0.069695 0.000000 0.069695
0.135092 0.000000 0.080056
0.209479 0.000000 0.090624
0.410943 0.000000 0.104124
0.603418 0.000000 0.117418
0.786902 0.000000 0.130503
0.961396 0.000000 0.143381
0.000000 0.027244 0.083879
0.033497 0.033497 0.094523
0.105374 0.039956 0.105374
0.186241 0.046623 0.116432
0.276098 0.053498 0.127698
0.462790 0.062607 0.141199
0.640492 0.071509 0.154492
0.809204 0.080204 0.167577
0.968925 0.088690 0.180456
0.000000 0.120510 0.120510
0.056052 0.131851 0.131851
0.143400 0.143400 0.143400
0.239738 0.155156 0.155156
0.345065 0.167120 0.167120
0.516984 0.180621 0.180621
0.679914 0.193914 0.193914
0.833853 0.206999 0.206999
0.978803 0.219878 0.219878
0.000000 0.245668 0.159488
0.080956 0.262098 0.171527
0.183774 0.278736 0.183774
0.295582 0.295582 0.196228
0.416380 0.312635 0.208890
0.573527 0.330527 0.222391
0.721684 0.348211 0.235684
0.860851 0.365688 0.248769
0.991027 0.382957 0.261647
0.000000 0.402719 0.200814
0.108208 0.424239 0.213551
0.226496 0.445966 0.226496
0.353774 0.467900 0.239648
0.490043 0.490043 0.253008
0.632417 0.512326 0.266508
0.765801 0.534401 0.279801
0.890196 0.556269 0.292887
1.000000 0.577930 0.305765
0.013956 0.604131 0.245406
0.138027 0.621259 0.258143
0.271088 0.638595 0.271088
0.413138 0.656138 0.284240
0.564179 0.673889 0.297599
0.691083 0.691083 0.310402
0.808997 0.708070 0.322997
0.917921 0.724849 0.335385
1.000000 0.741420 0.347565
0.026655 0.773650 0.287650
0.165498 0.786387 0.300387
0.313332 0.799332 0.313332
0.470155 0.812484 0.326484
0.635968 0.825843 0.339843
0.747402 0.837948 0.351948
0.849845 0.849845 0.363845
0.943299 0.861535 0.375535
1.000000 0.873017 0.387017
0.037006 0.911276 0.327546
0.190622 0.919622 0.340283
0.353228 0.928175 0.353228
0.524823 0.936936 0.366380
0.705409 0.945905 0.379739
0.801372 0.952920 0.391146
0.888345 0.959728 0.402346
0.966329 0.966329 0.413337
1.000000 0.972722 0.424122
0.045009 1.000000 0.365094
0.213398 1.000000 0.377831
0.390776 1.000000 0.390776
0.577144 1.000000 0.403928
0.772502 1.000000 0.417288
0.852995 1.000000 0.427996
0.924498 1.000000 0.438498
0.987011 1.000000 0.448792
1.000000 1.000000 0.458878
0.000000 0.000000 0.096305
0.015222 0.000000 0.110712
0.073191 0.000000 0.125327
0.140149 0.000000 0.140149
0.216098 0.000000 0.155179
0.416071 0.000000 0.173071
0.607054 0.000000 0.190755
0.789047 0.000000 0.208232
0.962050 0.000000 0.225501
0.000000 0.029344 0.145597
0.035667 0.035667 0.160702
0.109106 0.042197 0.176015
0.191535 0.048935 0.191535
0.282954 0.055880 0.207263
0.468154 0.064989 0.225154
0.644365 0.073891 0.242839
0.811585 0.082585 0.260316
0.969816 0.091072 0.277585
0.000000 0.124338 0.197237
0.058460 0.135750 0.213040
0.147369 0.147369 0.229051
0.245269 0.159196 0.245269
0.352158 0.171230 0.261694
0.522586 0.184731 0.279586
0.684024 0.198024 0.297270
0.836472 0.211110 0.314747
0.979930 0.223988 0.332016
0.000000 0.251224 0.251224
0.083601 0.267726 0.267726
0.187980 0.284434 0.284434
0.301350 0.301350 0.301350
0.423710 0.318473 0.318473
0.579365 0.336365 0.336365
0.726031 0.354050 0.354050
0.863706 0.371526 0.371526
0.992392 0.388796 0.388796
0.000229 0.410004 0.307560
0.111089 0.431594 0.324759
0.230939 0.453392 0.342165
0.359779 0.475397 0.359779
0.497609 0.497609 0.377601
0.638492 0.519892 0.395492
0.770386 0.541968 0.413177
0.893289 0.563836 0.430654
1.000000 0.585497 0.447923
0.015276 0.609924 0.366924
0.140908 0.627123 0.384123
0.275531 0.644530 0.401530
0.419143 0.662143 0.419143
0.571746 0.679965 0.436965
0.697159 0.697159 0.454159
0.813581 0.714145 0.471145
0.921014 0.730924 0.487924
1.000000 0.747496 0.504496
0.027975 0.777952 0.423941
0.168380 0.790760 0.441139
0.317775 0.803775 0.458546
0.476160 0.816997 0.476160
0.643535 0.830428 0.493981
0.753477 0.842532 0.510477
0.854429 0.854429 0.526766
0.946392 0.866119 0.542847
1.000000 0.877602 0.558720
0.038326 0.914087 0.478609
0.193503 0.922503 0.495808
0.357671 0.931127 0.513214
0.530828 0.939959 0.530828
0.712976 0.948997 0.548650
0.807448 0.956013 0.564448
0.892930 0.962821 0.580038
0.969422 0.969422 0.595421
1.000000 0.975815 0.610597
0.046329 1.000000 0.530930
0.216279 1.000000 0.548129
0.395219 1.000000 0.565535
0.583149 1.000000 0.583149
0.780069 1.000000 0.600970
0.859070 1.000000 0.616070
0.929082 1.000000 0.630963
0.990104 1.000000 0.645648
1.000000 1.000000 0.660126
0.000000 0.000000 0.146020
0.017179 0.000000 0.164889
0.076710 0.000000 0.183965
0.145230 0.000000 0.203249
0.222740 0.000000 0.222740
0.421222 0.000000 0.245023
0.610714 0.000000 0.267099
0.791215 0.000000 0.288967
0.962727 0.000000 0.310628
0.000000 0.031468 0.210321
0.037861 0.037861 0.229888
0.112862 0.044462 0.249662
0.196853 0.051270 0.269644
0.289834 0.058286 0.289834
0.473543 0.067395 0.312117
0.648262 0.076297 0.334192
0.813991 0.084991 0.356060
0.970730 0.093478 0.377721
0.000000 0.128190 0.276970
0.060891 0.139673 0.297235
0.151362 0.151362 0.317708
0.250823 0.163260 0.338387
0.359275 0.175364 0.359275
0.528211 0.188865 0.381558
0.688158 0.202158 0.403633
0.839115 0.215244 0.425501
0.981082 0.228122 0.447162
0.000000 0.256805 0.345968
0.086269 0.273377 0.366930
0.192210 0.290156 0.388101
0.307142 0.307142 0.409478
0.431063 0.324336 0.431063
0.585228 0.342228 0.453346
0.730402 0.359912 0.475422
0.866586 0.377389 0.497290
0.993781 0.394658 0.518951
0.001573 0.417313 0.417313
0.113995 0.438973 0.438973
0.235406 0.460841 0.460841
0.365808 0.482917 0.482917
0.505200 0.505200 0.505200
0.644592 0.527483 0.527483
0.774994 0.549559 0.549559
0.896405 0.571427 0.571427
1.000000 0.593087 0.593087
0.016619 0.615742 0.491449
0.143814 0.633011 0.513110
0.279998 0.650488 0.534978
0.425172 0.668172 0.557054
0.579337 0.686064 0.579337
0.703258 0.703258 0.600922
0.818190 0.720244 0.622299
0.924131 0.737023 0.643470
1.000000 0.753595 0.664432
0.029318 0.782278 0.563238
0.171285 0.795156 0.584899
0.322242 0.808242 0.606767
0.482189 0.821535 0.628842
0.651125 0.835036 0.651125
0.759576 0.847140 0.672013
0.859038 0.859038 0.692692
0.949509 0.870727 0.713165
1.000000 0.882210 0.733430
0.039670 0.916922 0.632679
0.196409 0.925409 0.654340
0.362138 0.934103 0.676208
0.536857 0.943005 0.698283
0.720566 0.952114 0.720566
0.813547 0.959130 0.740756
0.897538 0.965938 0.760738
0.972539 0.972539 0.780512
1.000000 0.978932 0.800079
0.047673 1.000000 0.699772
0.219185 1.000000 0.721433
0.399686 1.000000 0.743301
0.589178 1.000000 0.765377
0.787660 1.000000 0.787660
0.865170 1.000000 0.807151
0.933690 1.000000 0.826435
0.993221 1.000000 0.845511
1.000000 1.000000 0.864380
0.000000 0.000000 0.350274
0.020296 0.000000 0.364752
0.081318 0.000000 0.379437
0.151330 0.000000 0.394330
0.230331 0.000000 0.409430
0.427251 0.000000 0.427251
0.615181 0.000000 0.444865
0.794121 0.000000 0.462271
0.964071 0.000000 0.479470
0.000000 0.034585 0.399803
0.040978 0.040978 0.414979
0.117470 0.047579 0.430362
0.202952 0.054387 0.445952
0.297424 0.061403 0.461750
0.479572 0.070441 0.479572
0.652729 0.079273 0.497186
0.816897 0.087897 0.514592
0.972074 0.096313 0.531791
0.000000 0.132798 0.451680
0.064008 0.144281 0.467553
0.155971 0.155971 0.483634
0.256923 0.167868 0.499923
0.366865 0.179972 0.516419
0.534240 0.193403 0.534240
0.692625 0.206625 0.551854
0.842020 0.219640 0.569260
0.982425 0.232448 0.586459
0.000000 0.262904 0.505904
0.089386 0.279476 0.522476
0.196819 0.296255 0.539255
0.313241 0.313241 0.556241
0.438654 0.330435 0.573435
0.591257 0.348257 0.591257
0.734869 0.365870 0.608870
0.869492 0.383277 0.626277
0.995124 0.400476 0.643476
0.003198 0.424903 0.562477
0.117111 0.446564 0.579746
0.240014 0.468432 0.597223
0.371908 0.490508 0.614908
0.512791 0.512791 0.632799
0.650621 0.535003 0.650621
0.779461 0.557008 0.668235
0.899311 0.578806 0.685641
1.000000 0.600396 0.702840
0.018008 0.621604 0.621604
0.146694 0.638874 0.638874
0.284369 0.656350 0.656350
0.431035 0.674035 0.674035
0.586690 0.691927 0.691927
0.709050 0.709050 0.709050
0.822420 0.725966 0.725966
0.926799 0.742674 0.742674
1.000000 0.759175 0.759175
0.030470 0.786412 0.678384
0.173928 0.799290 0.695653
0.326376 0.812376 0.713130
0.487814 0.825669 0.730814
0.658242 0.839170 0.748706
0.765131 0.851204 0.765131
0.863031 0.863031 0.781349
0.951940 0.874650 0.797360
1.000000 0.886062 0.813163
0.040584 0.919328 0.732815
0.198815 0.927815 0.750084
0.366035 0.936509 0.767561
0.542246 0.945411 0.785246
0.727446 0.954520 0.803137
0.818865 0.961465 0.818865
0.901294 0.968203 0.834385
0.974733 0.974733 0.849698
1.000000 0.981056 0.864803
0.048350 1.000000 0.784899
0.221353 1.000000 0.802168
0.403346 1.000000 0.819645
0.594329 1.000000 0.837329
0.794302 1.000000 0.855221
0.870251 1.000000 0.870251
0.937209 1.000000 0.885073
0.995178 1.000000 0.899688
1.000000 1.000000 0.914095
0.000000 0.000000 0.551522
0.023389 0.000000 0.561608
0.085902 0.000000 0.571902
0.157405 0.000000 0.582404
0.237898 0.000000 0.593112
0.433256 0.000000 0.606472
0.619624 0.000000 0.619624
0.797002 0.000000 0.632569
0.965391 0.000000 0.645306
0.000000 0.037678 0.586278
0.044071 0.044071 0.597063
0.122054 0.050672 0.608055
0.209028 0.057480 0.619254
0.304991 0.064495 0.630661
0.485577 0.073464 0.644020
0.657172 0.082225 0.657172
0.819778 0.090778 0.670117
0.973394 0.099124 0.682854
0.000000 0.137383 0.623383
0.067101 0.148865 0.634865
0.160555 0.160555 0.646555
0.262998 0.172452 0.658452
0.374432 0.184557 0.670557
0.540245 0.197916 0.683916
0.697068 0.211068 0.697068
0.844902 0.224013 0.710013
0.983745 0.236750 0.722750
0.000000 0.268980 0.662835
0.092479 0.285551 0.675015
0.201403 0.302330 0.687403
0.319317 0.319317 0.699998
0.446221 0.336511 0.712801
0.597262 0.354262 0.726160
0.739312 0.371805 0.739312
0.872373 0.389141 0.752257
0.996444 0.406269 0.764994
0.004800 0.432470 0.704635
0.120204 0.454131 0.717513
0.244599 0.475999 0.730599
0.377983 0.498074 0.743892
0.520357 0.520357 0.757392
0.656626 0.542500 0.770752
0.783904 0.564434 0.783904
0.902192 0.586161 0.796849
1.000000 0.607681 0.809586
0.019373 0.627443 0.748753
0.149549 0.644712 0.761631
0.288716 0.662189 0.774716
0.436873 0.679873 0.788009
0.594020 0.697765 0.801510
0.714818 0.714818 0.814172
0.826626 0.731664 0.826626
0.929444 0.748302 0.838873
1.000000 0.764732 0.850912
0.031598 0.790522 0.790522
0.176547 0.803401 0.803401
0.330486 0.816486 0.816486
0.493416 0.829779 0.829779
0.665335 0.843280 0.843280
0.770662 0.855244 0.855244
0.867000 0.867000 0.867000
0.954348 0.878549 0.878549
1.000000 0.889890 0.889890
0.041475 0.921710 0.829944
0.201196 0.930196 0.842823
0.369908 0.938891 0.855908
0.547610 0.947793 0.869201
0.734302 0.956902 0.882702
0.824159 0.963777 0.893968
0.905026 0.970444 0.905026
0.976903 0.976903 0.915877
1.000000 0.983156 0.926521
0.049004 1.000000 0.867019
0.223498 1.000000 0.879897
0.406982 1.000000 0.892982
0.599457 1.000000 0.906276
0.800921 1.000000 0.919776
0.875308 1.000000 0.930344
0.940705 1.000000 0.940705
0.997111 1.000000 0.950858
1.000000 1.000000 0.960803
0.000000 0.000000 0.749763
0.026458 0.000000 0.755458
0.090462 0.000000 0.761361
0.163457 0.000000 0.767471
0.245441 0.000000 0.773789
0.439237 0.000000 0.782687
0.624044 0.000000 0.791377
0.799860 0.000000 0.799860
0.966686 0.000000 0.808136
0.000000 0.040747 0.769747
0.047140 0.047140 0.776140
0.126615 0.053741 0.782741
0.215079 0.060549 0.789549
0.312534 0.067564 0.796564
0.491558 0.076462 0.805462
0.661592 0.085153 0.814153
0.822636 0.093636 0.822636
0.974690 0.101911 0.830911
0.000000 0.141943 0.792079
0.070170 0.153425 0.799170
0.165115 0.165115 0.806469
0.269050 0.177012 0.813974
0.381975 0.189117 0.821688
0.546226 0.202406 0.830586
0.701488 0.215488 0.839276
0.847759 0.228362 0.847759
0.985041 0.241029 0.856035
0.000000 0.275032 0.816759
0.095548 0.291603 0.824548
0.205963 0.308382 0.832544
0.325368 0.325368 0.840748
0.453764 0.342562 0.849159
0.603243 0.360243 0.858057
0.743732 0.377716 0.866748
0.875231 0.394981 0.875231
0.997740 0.412039 0.883506
0.006377 0.440013 0.843786
0.123273 0.461674 0.852273
0.249159 0.483542 0.860968
0.384035 0.505617 0.869869
0.527900 0.527900 0.878979
0.662607 0.549972 0.887877
0.788323 0.571836 0.896567
0.905050 0.593493 0.905050
1.000000 0.614942 0.913326
0.020713 0.633257 0.872895
0.152381 0.650527 0.881381
0.293040 0.668003 0.890076
0.442688 0.685688 0.898978
0.601326 0.703580 0.908087
0.720562 0.720562 0.916287
0.830808 0.737337 0.924279
0.932065 0.753905 0.932065
1.000000 0.770265 0.939642
0.032701 0.794609 0.899655
0.179142 0.807487 0.908142
0.334572 0.820572 0.916836
0.498993 0.833866 0.925738
0.672404 0.847366 0.934847
0.776169 0.859259 0.942349
0.870945 0.870945 0.949644
0.956731 0.882424 0.956731
1.000000 0.893695 0.963611
0.042341 0.924067 0.924067
0.203554 0.932554 0.932554
0.373757 0.941249 0.941249
0.552951 0.950151 0.950151
0.741134 0.959260 0.959260
0.829429 0.966064 0.966064
0.908735 0.972661 0.972661
0.979050 0.979050 0.979050
1.000000 0.985232 0.985232
0.049634 1.000000 0.946132
0.225619 1.000000 0.954619
0.410595 1.000000 0.963313
0.604560 1.000000 0.972215
0.807516 1.000000 0.981325
0.880341 1.000000 0.987431
0.944176 1.000000 0.993330
0.999021 1.000000 0.999021
1.000000 1.000000 1.000000
0.000000 0.000000 0.944998
0.029503 0.000000 0.946302
0.094999 0.000000 0.947813
0.169484 0.000000 0.949532
0.252960 0.000000 0.951458
0.445194 0.000000 0.955895
0.628439 0.000000 0.960123
0.802694 0.000000 0.964145
0.967958 0.000000 0.967958
0.000000 0.043792 0.950209
0.050185 0.050185 0.952211
0.131151 0.056786 0.954421
0.221107 0.063594 0.956837
0.320053 0.070609 0.959462
0.497515 0.079437 0.963898
0.665987 0.088057 0.968127
0.825469 0.096469 0.972148
0.975962 0.104675 0.975962
0.000000 0.146479 0.957769
0.073215 0.157962 0.960469
0.169651 0.169651 0.963376
0.275078 0.181549 0.966491
0.389494 0.193653 0.969813
0.552184 0.206872 0.974249
0.705883 0.219883 0.978478
0.850593 0.232687 0.982499
0.986313 0.245283 0.986313
0.000000 0.281059 0.967676
0.098593 0.297631 0.971074
0.210499 0.314410 0.974679
0.331396 0.331396 0.978492
0.461283 0.348590 0.982512
0.609200 0.366200 0.986948
0.748127 0.383602 0.991177
0.878064 0.400797 0.995198
0.999012 0.417785 0.999012
0.007931 0.447532 0.979931
0.126318 0.469192 0.984027
0.253695 0.491061 0.988330
0.390062 0.513136 0.992841
0.535419 0.535419 0.997559
0.668564 0.557420 1.000000
0.792719 0.579214 1.000000
0.907884 0.600801 1.000000
1.000000 0.622179 1.000000
0.022030 0.639048 0.994030
0.155189 0.656317 0.998126
0.297339 0.673794 1.000000
0.448478 0.691478 1.000000
0.608608 0.709370 1.000000
0.726282 0.726282 1.000000
0.834967 0.742987 1.000000
0.934661 0.759484 1.000000
1.000000 0.775774 1.000000
0.033781 0.798671 1.000000
0.181713 0.811549 1.000000
0.338635 0.824635 1.000000
0.504547 0.837928 1.000000
0.679449 0.851428 1.000000
0.781653 0.863251 1.000000
0.874867 0.874867 1.000000
0.959091 0.886275 1.000000
1.000000 0.897475 1.000000
0.043184 0.926401 1.000000
0.205888 0.934888 1.000000
0.377583 0.943583 1.000000
0.558267 0.952485 1.000000
0.747941 0.961594 1.000000
0.834675 0.968328 1.000000
0.912419 0.974854 1.000000
0.981173 0.981173 1.000000
1.000000 0.987284 1.000000
0.050239 1.000000 1.000000
0.227716 1.000000 1.000000
0.414183 1.000000 1.000000
0.609640 1.000000 1.000000
0.814086 1.000000 1.000000
0.885350 1.000000 1.000000
0.947623 1.000000 1.000000
1.000000 1.000000 1.000000
1.000000 1.000000 1.000000
