assets/presets/luts/logc3-rec709/lut.cube
TITLE "LogC3 to Rec.709"
LUT_3D_SIZE 9
0.000000 0.000000 0.000000
0.007417 0.000000 0.000000
0.112445 0.000000 0.000000
0.411080 0.000000 0.000000
0.929650 0.000000 0.000000
1.000000 0.000000 0.000000
1.000000 0.000000 0.000000
1.000000 0.000000 0.000000
1.000000 0.000000 0.000000
0.000000 0.007237 0.000000
0.007162 0.007162 0.000000
0.112190 0.006087 0.000000
0.410825 0.003033 0.000000
0.929395 0.000000 0.000000
1.000000 0.000000 0.000000
1.000000 0.000000 0.000000
1.000000 0.000000 0.000000
1.000000 0.000000 0.000000
0.000000 0.109726 0.000000
0.003548 0.109650 0.000000
0.108576 0.108576 0.000000
0.407211 0.105522 0.000000
0.925781 0.100218 0.000000
1.000000 0.099096 0.000000
1.000000 0.099096 0.000000
1.000000 0.099096 0.000000
1.000000 0.099096 0.000000
0.000000 0.401141 0.000000
0.000000 0.401065 0.000000
0.098301 0.399991 0.000000
0.396937 0.396937 0.000000
0.915507 0.391633 0.000000
1.000000 0.390511 0.000000
1.000000 0.390511 0.000000
1.000000 0.390511 0.000000
1.000000 0.390511 0.000000
0.000000 0.907173 0.000000
0.000000 0.907097 0.000000
0.080460 0.906023 0.000000
0.379095 0.902969 0.000000
0.897665 0.897665 0.000000
1.000000 0.896543 0.000000
1.000000 0.896543 0.000000
1.000000 0.896543 0.000000
1.000000 0.896543 0.000000
0.000000 1.000000 0.000000
0.000000 1.000000 0.000000
0.076685 1.000000 0.000000
0.375320 1.000000 0.000000
0.893890 1.000000 0.000000
1.000000 1.000000 0.000000
1.000000 1.000000 0.000000
1.000000 1.000000 0.000000
1.000000 1.000000 0.000000
0.000000 1.000000 0.000000
0.000000 1.000000 0.000000
0.076685 1.000000 0.000000
0.375320 1.000000 0.000000
0.893890 1.000000 0.000000
1.000000 1.000000 0.000000
1.000000 1.000000 0.000000
1.000000 1.000000 0.000000
1.000000 1.000000 0.000000
0.000000 1.000000 0.000000
0.000000 1.000000 0.000000
0.076685 1.000000 0.000000
0.375320 1.000000 0.000000
0.893890 1.000000 0.000000
1.000000 1.000000 0.000000
1.000000 1.000000 0.000000
1.000000 1.000000 0.000000
1.000000 1.000000 0.000000
0.000000 1.000000 0.000000
0.000000 1.000000 0.000000
0.076685 1.000000 0.000000
0.375320 1.000000 0.000000
0.893890 1.000000 0.000000
1.000000 1.000000 0.000000
1.000000 1.000000 0.000000
1.000000 1.000000 0.000000
1.000000 1.000000 0.000000
0.000000 0.000000 0.007467
0.007391 0.000000 0.007391
0.112419 0.000000 0.006317
0.411054 0.000000 0.003263
0.929624 0.000000 0.000000
1.000000 0.000000 0.000000
1.000000 0.000000 0.000000
1.000000 0.000000 0.000000
1.000000 0.000000 0.000000
0.000000 0.007212 0.007212
0.007136 0.007136 0.007136
0.112164 0.006062 0.006062
0.410799 0.003007 0.003007
0.929369 0.000000 0.000000
1.000000 0.000000 0.000000
1.000000 0.000000 0.000000
1.000000 0.000000 0.000000
1.000000 0.000000 0.000000
0.000000 0.109700 0.003598
0.003522 0.109624 0.003522
0.108550 0.108550 0.002448
0.407186 0.105496 0.000000
0.925756 0.100192 0.000000
1.000000 0.099070 0.000000
1.000000 0.099070 0.000000
1.000000 0.099070 0.000000
1.000000 0.099070 0.000000
0.000000 0.401115 0.000000
0.000000 0.401039 0.000000
0.098276 0.399965 0.000000
0.396911 0.396911 0.000000
0.915481 0.391607 0.000000
1.000000 0.390485 0.000000
1.000000 0.390485 0.000000
1.000000 0.390485 0.000000
1.000000 0.390485 0.000000
0.000000 0.907147 0.000000
0.000000 0.907071 0.000000
0.080434 0.905997 0.000000
0.379069 0.902943 0.000000
0.897639 0.897639 0.000000
1.000000 0.896517 0.000000
1.000000 0.896517 0.000000
1.000000 0.896517 0.000000
1.000000 0.896517 0.000000
0.000000 1.000000 0.000000
0.000000 1.000000 0.000000
0.076659 1.000000 0.000000
0.375294 1.000000 0.000000
0.893864 1.000000 0.000000
1.000000 1.000000 0.000000
1.000000 1.000000 0.000000
1.000000 1.000000 0.000000
1.000000 1.000000 0.000000
0.000000 1.000000 0.000000
0.000000 1.000000 0.000000
0.076659 1.000000 0.000000
0.375294 1.000000 0.000000
0.893864 1.000000 0.000000
1.000000 1.000000 0.000000
1.000000 1.000000 0.000000
1.000000 1.000000 0.000000
1.000000 1.000000 0.000000
0.000000 1.000000 0.000000
0.000000 1.000000 0.000000
0.076659 1.000000 0.000000
0.375294 1.000000 0.000000
0.893864 1.000000 0.000000
1.000000 1.000000 0.000000
1.000000 1.000000 0.000000
1.000000 1.000000 0.000000
1.000000 1.000000 0.000000
0.000000 1.000000 0.000000
0.000000 1.000000 0.000000
0.076659 1.000000 0.000000
0.375294 1.000000 0.000000
0.893864 1.000000 0.000000
1.000000 1.000000 0.000000
1.000000 1.000000 0.000000
1.000000 1.000000 0.000000
1.000000 1.000000 0.000000
0.000000 0.000000 0.113204
0.007026 0.000000 0.113128
0.112054 0.000000 0.112054
0.410690 0.000000 0.109000
0.929259 0.000000 0.103696
1.000000 0.000000 0.102574
1.000000 0.000000 0.102574
1.000000 0.000000 0.102574
1.000000 0.000000 0.102574
0.000000 0.006847 0.112949
0.006771 0.006771 0.112873
0.111799 0.005697 0.111799
0.410434 0.002643 0.108745
0.929004 0.000000 0.103441
1.000000 0.000000 0.102319
1.000000 0.000000 0.102319
1.000000 0.000000 0.102319
1.000000 0.000000 0.102319
0.000000 0.109336 0.109336
0.003157 0.109260 0.109260
0.108186 0.108186 0.108186
0.406821 0.105131 0.105131
0.925391 0.099828 0.099828
1.000000 0.098706 0.098706
1.000000 0.098706 0.098706
1.000000 0.098706 0.098706
1.000000 0.098706 0.098706
0.000000 0.400750 0.099061
0.000000 0.400675 0.098985
0.097911 0.399600 0.097911
0.396546 0.396546 0.094857
0.915116 0.391243 0.089553
1.000000 0.390120 0.088431
1.000000 0.390120 0.088431
1.000000 0.390120 0.088431
1.000000 0.390120 0.088431
0.000000 0.906782 0.081219
0.000000 0.906706 0.081143
0.080069 0.905632 0.080069
0.378705 0.902578 0.077015
0.897274 0.897274 0.071711
1.000000 0.896152 0.070589
1.000000 0.896152 0.070589
1.000000 0.896152 0.070589
1.000000 0.896152 0.070589
0.000000 1.000000 0.077444
0.000000 1.000000 0.077368
0.076294 1.000000 0.076294
0.374930 1.000000 0.073240
0.893499 1.000000 0.067936
1.000000 1.000000 0.066814
1.000000 1.000000 0.066814
1.000000 1.000000 0.066814
1.000000 1.000000 0.066814
0.000000 1.000000 0.077444
0.000000 1.000000 0.077368
0.076294 1.000000 0.076294
0.374930 1.000000 0.073240
0.893499 1.000000 0.067936
1.000000 1.000000 0.066814
1.000000 1.000000 0.066814
1.000000 1.000000 0.066814
1.000000 1.000000 0.066814
0.000000 1.000000 0.077444
0.000000 1.000000 0.077368
0.076294 1.000000 0.076294
0.374930 1.000000 0.073240
0.893499 1.000000 0.067936
1.000000 1.000000 0.066814
1.000000 1.000000 0.066814
1.000000 1.000000 0.066814
1.000000 1.000000 0.066814
0.000000 1.000000 0.077444
0.000000 1.000000 0.077368
0.076294 1.000000 0.076294
0.374930 1.000000 0.073240
0.893499 1.000000 0.067936
1.000000 1.000000 0.066814
1.000000 1.000000 0.066814
1.000000 1.000000 0.066814
1.000000 1.000000 0.066814
0.000000 0.000000 0.413857
0.005989 0.000000 0.413781
0.111017 0.000000 0.412707
0.409652 0.000000 0.409652
0.928222 0.000000 0.404349
1.000000 0.000000 0.403227
1.000000 0.000000 0.403227
1.000000 0.000000 0.403227
1.000000 0.000000 0.403227
0.000000 0.005810 0.413601
0.005734 0.005734 0.413526
0.110762 0.004660 0.412451
0.409397 0.001605 0.409397
0.927967 0.000000 0.404094
1.000000 0.000000 0.402971
1.000000 0.000000 0.402971
1.000000 0.000000 0.402971
1.000000 0.000000 0.402971
0.000000 0.108298 0.409988
0.002120 0.108222 0.409912
0.107148 0.107148 0.408838
0.405784 0.104094 0.405784
0.924353 0.098790 0.400480
1.000000 0.097668 0.399358
1.000000 0.097668 0.399358
1.000000 0.097668 0.399358
1.000000 0.097668 0.399358
0.000000 0.399713 0.399713
0.000000 0.399637 0.399637
0.096874 0.398563 0.398563
0.395509 0.395509 0.395509
0.914079 0.390205 0.390205
1.000000 0.389083 0.389083
1.000000 0.389083 0.389083
1.000000 0.389083 0.389083
1.000000 0.389083 0.389083
0.000000 0.905745 0.381872
0.000000 0.905669 0.381796
0.079032 0.904595 0.380722
0.377667 0.901541 0.377667
0.896237 0.896237 0.372364
1.000000 0.895115 0.371242
1.000000 0.895115 0.371242
1.000000 0.895115 0.371242
1.000000 0.895115 0.371242
0.000000 1.000000 0.378097
0.000000 1.000000 0.378021
0.075257 1.000000 0.376947
0.373892 1.000000 0.373892
0.892462 1.000000 0.368589
1.000000 1.000000 0.367467
1.000000 1.000000 0.367467
1.000000 1.000000 0.367467
1.000000 1.000000 0.367467
0.000000 1.000000 0.378097
0.000000 1.000000 0.378021
0.075257 1.000000 0.376947
0.373892 1.000000 0.373892
0.892462 1.000000 0.368589
1.000000 1.000000 0.367467
1.000000 1.000000 0.367467
1.000000 1.000000 0.367467
1.000000 1.000000 0.367467
0.000000 1.000000 0.378097
0.000000 1.000000 0.378021
0.075257 1.000000 0.376947
0.373892 1.000000 0.373892
0.892462 1.000000 0.368589
1.000000 1.000000 0.367467
1.000000 1.000000 0.367467
1.000000 1.000000 0.367467
1.000000 1.000000 0.367467
0.000000 1.000000 0.378097
0.000000 1.000000 0.378021
0.075257 1.000000 0.376947
0.373892 1.000000 0.373892
0.892462 1.000000 0.368589
1.000000 1.000000 0.367467
1.000000 1.000000 0.367467
1.000000 1.000000 0.367467
1.000000 1.000000 0.367467
0.000000 0.000000 0.935929
0.004188 0.000000 0.935853
0.109216 0.000000 0.934779
0.407851 0.000000 0.931725
0.926421 0.000000 0.926421
1.000000 0.000000 0.925299
1.000000 0.000000 0.925299
1.000000 0.000000 0.925299
1.000000 0.000000 0.925299
0.000000 0.004008 0.935674
0.003933 0.003933 0.935598
0.108961 0.002858 0.934524
0.407596 0.000000 0.931469
0.926166 0.000000 0.926166
1.000000 0.000000 0.925044
1.000000 0.000000 0.925044
1.000000 0.000000 0.925044
1.000000 0.000000 0.925044
0.000000 0.106497 0.932060
0.000319 0.106421 0.931984
0.105347 0.105347 0.930910
0.403982 0.102293 0.927856
0.922552 0.096989 0.922552
1.000000 0.095867 0.921430
1.000000 0.095867 0.921430
1.000000 0.095867 0.921430
1.000000 0.095867 0.921430
0.000000 0.397912 0.921785
0.000000 0.397836 0.921710
0.095072 0.396762 0.920635
0.393708 0.393708 0.917581
0.912278 0.388404 0.912278
1.000000 0.387282 0.911156
1.000000 0.387282 0.911156
1.000000 0.387282 0.911156
1.000000 0.387282 0.911156
0.000000 0.903944 0.903944
0.000000 0.903868 0.903868
0.077231 0.902794 0.902794
0.375866 0.899740 0.899740
0.894436 0.894436 0.894436
1.000000 0.893314 0.893314
1.000000 0.893314 0.893314
1.000000 0.893314 0.893314
1.000000 0.893314 0.893314
0.000000 1.000000 0.900169
0.000000 1.000000 0.900093
0.073456 1.000000 0.899019
0.372091 1.000000 0.895965
0.890661 1.000000 0.890661
1.000000 1.000000 0.889539
1.000000 1.000000 0.889539
1.000000 1.000000 0.889539
1.000000 1.000000 0.889539
0.000000 1.000000 0.900169
0.000000 1.000000 0.900093
0.073456 1.000000 0.899019
0.372091 1.000000 0.895965
0.890661 1.000000 0.890661
1.000000 1.000000 0.889539
1.000000 1.000000 0.889539
1.000000 1.000000 0.889539
1.000000 1.000000 0.889539
0.000000 1.000000 0.900169
0.000000 1.000000 0.900093
0.073456 1.000000 0.899019
0.372091 1.000000 0.895965
0.890661 1.000000 0.890661
1.000000 1.000000 0.889539
1.000000 1.000000 0.889539
1.000000 1.000000 0.889539
1.000000 1.000000 0.889539
0.000000 1.000000 0.900169
0.000000 1.000000 0.900093
0.073456 1.000000 0.899019
0.372091 1.000000 0.895965
0.890661 1.000000 0.890661
1.000000 1.000000 0.889539
1.000000 1.000000 0.889539
1.000000 1.000000 0.889539
1.000000 1.000000 0.889539
0.000000 0.000000 1.000000
0.003807 0.000000 1.000000
0.108835 0.000000 1.000000
0.407470 0.000000 1.000000
0.926040 0.000000 1.000000
1.000000 0.000000 1.000000
1.000000 0.000000 1.000000
1.000000 0.000000 1.000000
1.000000 0.000000 1.000000
0.000000 0.003627 1.000000
0.003552 0.003552 1.000000
0.108580 0.002477 1.000000
0.407215 0.000000 1.000000
0.925785 0.000000 1.000000
1.000000 0.000000 1.000000
1.000000 0.000000 1.000000
1.000000 0.000000 1.000000
1.000000 0.000000 1.000000
0.000000 0.106116 1.000000
0.000000 0.106040 1.000000
0.104966 0.104966 1.000000
0.403601 0.101912 1.000000
0.922171 0.096608 1.000000
1.000000 0.095486 1.000000
1.000000 0.095486 1.000000
1.000000 0.095486 1.000000
1.000000 0.095486 1.000000
0.000000 0.397531 1.000000
0.000000 0.397455 1.000000
0.094691 0.396381 1.000000
0.393327 0.393327 1.000000
0.911897 0.388023 1.000000
1.000000 0.386901 1.000000
1.000000 0.386901 1.000000
1.000000 0.386901 1.000000
1.000000 0.386901 1.000000
0.000000 0.903563 1.000000
0.000000 0.903487 1.000000
0.076850 0.902413 1.000000
0.375485 0.899359 1.000000
0.894055 0.894055 1.000000
1.000000 0.892933 1.000000
1.000000 0.892933 1.000000
1.000000 0.892933 1.000000
1.000000 0.892933 1.000000
0.000000 1.000000 1.000000
0.000000 1.000000 1.000000
0.073075 1.000000 1.000000
0.371710 1.000000 1.000000
0.890280 1.000000 1.000000
1.000000 1.000000 1.000000
1.000000 1.000000 1.000000
1.000000 1.000000 1.000000
1.000000 1.000000 1.000000
0.000000 1.000000 1.000000
0.000000 1.000000 1.000000
0.073075 1.000000 1.000000
0.371710 1.000000 1.000000
0.890280 1.000000 1.000000
1.000000 1.000000 1.000000
1.000000 1.000000 1.000000
1.000000 1.000000 1.000000
1.000000 1.000000 1.000000
0.000000 1.000000 1.000000
0.000000 1.000000 1.000000
0.073075 1.000000 1.000000
0.371710 1.000000 1.000000
0.890280 1.000000 1.000000
1.000000 1.000000 1.000000
1.000000 1.000000 1.000000
1.000000 1.000000 1.000000
1.000000 1.000000 1.000000
0.000000 1.000000 1.000000
0.000000 1.000000 1.000000
0.073075 1.000000 1.000000
0.371710 1.000000 1.000000
0.890280 1.000000 1.000000
1.000000 1.000000 1.000000
1.000000 1.000000 1.000000
1.000000 1.000000 1.000000
1.000000 1.000000 1.000000
0.000000 0.000000 1.000000
0.003807 0.000000 1.000000
0.108835 0.000000 1.000000
0.407470 0.000000 1.000000
0.926040 0.000000 1.000000
1.000000 0.000000 1.000000
1.000000 0.000000 1.000000
1.000000 0.000000 1.000000
1.000000 0.000000 1.000000
0.000000 0.003627 1.000000
0.003552 0.003552 1.000000
0.108580 0.002477 1.000000
0.407215 0.000000 1.000000
0.925785 0.000000 1.000000
1.000000 0.000000 1.000000
1.000000 0.000000 1.000000
1.000000 0.000000 1.000000
1.000000 0.000000 1.000000
0.000000 0.106116 1.000000
0.000000 0.106040 1.000000
0.104966 0.104966 1.000000
0.403601 0.101912 1.000000
0.922171 0.096608 1.000000
1.000000 0.095486 1.000000
1.000000 0.095486 1.000000
1.000000 0.095486 1.000000
1.000000 0.095486 1.000000
0.000000 0.397531 1.000000
0.000000 0.397455 1.000000
0.094691 0.396381 1.000000
0.393327 0.393327 1.000000
0.911897 0.388023 1.000000
1.000000 0.386901 1.000000
1.000000 0.386901 1.000000
1.000000 0.386901 1.000000
1.000000 0.386901 1.000000
0.000000 0.903563 1.000000
0.000000 0.903487 1.000000
0.076850 0.902413 1.000000
0.375485 0.899359 1.000000
0.894055 0.894055 1.000000
1.000000 0.892933 1.000000
1.000000 0.892933 1.000000
1.000000 0.892933 1.000000
1.000000 0.892933 1.000000
0.000000 1.000000 1.000000
0.000000 1.000000 1.000000
0.073075 1.000000 1.000000
0.371710 1.000000 1.000000
0.890280 1.000000 1.000000
1.000000 1.000000 1.000000
1.000000 1.000000 1.000000
1.000000 1.000000 1.000000
1.000000 1.000000 1.000000
0.000000 1.000000 1.000000
0.000000 1.000000 1.000000
0.073075 1.000000 1.000000
0.371710 1.000000 1.000000
0.890280 1.000000 1.000000
1.000000 1.000000 1.000000
1.000000 1.000000 1.000000
1.000000 1.000000 1.000000
1.000000 1.000000 1.000000
0.000000 1.000000 1.000000
0.000000 1.000000 1.000000
0.073075 1.000000 1.000000
0.371710 1.000000 1.000000
0.890280 1.000000 1.000000
1.000000 1.000000 1.000000
1.000000 1.000000 1.000000
1.000000 1.000000 1.000000
1.000000 1.000000 1.000000
0.000000 1.000000 1.000000
0.000000 1.000000 1.000000
0.073075 1.000000 1.000000
0.371710 1.000000 1.000000
0.890280 1.000000 1.000000
1.000000 1.000000 1.000000
1.000000 1.000000 1.000000
1.000000 1.000000 1.000000
1.000000 1.000000 1.000000
0.000000 0.000000 1.000000
0.003807 0.000000 1.000000
0.108835 0.000000 1.000000
0.407470 0.000000 1.000000
0.926040 0.000000 1.000000
1.000000 0.000000 1.000000
1.000000 0.000000 1.000000
1.000000 0.000000 1.000000
1.000000 0.000000 1.000000
0.000000 0.003627 1.000000
0.003552 0.003552 1.000000
0.108580 0.002477 1.000000
0.407215 0.000000 1.000000
0.925785 0.000000 1.000000
1.000000 0.000000 1.000000
1.000000 0.000000 1.000000
1.000000 0.000000 1.000000
1.000000 0.000000 1.000000
0.000000 0.106116 1.000000
0.000000 0.106040 1.000000
0.104966 0.104966 1.000000
0.403601 0.101912 1.000000
0.922171 0.096608 1.000000
1.000000 0.095486 1.000000
1.000000 0.095486 1.000000
1.000000 0.095486 1.000000
1.000000 0.095486 1.000000
0.000000 0.397531 1.000000
0.000000 0.397455 1.000000
0.094691 0.396381 1.000000
0.393327 0.393327 1.000000
0.911897 0.388023 1.000000
1.000000 0.386901 1.000000
1.000000 0.386901 1.000000
1.000000 0.386901 1.000000
1.000000 0.386901 1.000000
0.000000 0.903563 1.000000
0.000000 0.903487 1.000000
0.076850 0.902413 1.000000
0.375485 0.899359 1.000000
0.894055 0.894055 1.000000
1.000000 0.892933 1.000000
1.000000 0.892933 1.000000
1.000000 0.892933 1.000000
1.000000 0.892933 1.000000
0.000000 1.000000 1.000000
0.000000 1.000000 1.000000
0.073075 1.000000 1.000000
0.371710 1.000000 1.000000
0.890280 1.000000 1.000000
1.000000 1.000000 1.000000
1.000000 1.000000 1.000000
1.000000 1.000000 1.000000
1.000000 1.000000 1.000000
0.000000 1.000000 1.000000
0.000000 1.000000 1.000000
0.073075 1.000000 1.000000
0.371710 1.000000 1.000000
0.890280 1.000000 1.000000
1.000000 1.000000 1.000000
1.000000 1.000000 1.000000
1.000000 1.000000 1.000000
1.000000 1.000000 1.000000
0.000000 1.000000 1.000000
0.000000 1.000000 1.000000
0.073075 1.000000 1.000000
0.371710 1.000000 1.000000
0.890280 1.000000 1.000000
1.000000 1.000000 1.000000
1.000000 1.000000 1.000000
1.000000 1.000000 1.000000
1.000000 1.000000 1.000000
0.000000 1.000000 1.000000
0.000000 1.000000 1.000000
0.073075 1.000000 1.000000
0.371710 1.000000 1.000000
0.890280 1.000000 1.000000
1.000000 1.000000 1.000000
1.000000 1.000000 1.000000
1.000000 1.000000 1.000000
1.000000 1.000000 1.000000
0.000000 0.000000 1.000000
0.003807 0.000000 1.000000
0.108835 0.000000 1.000000
0.407470 0.000000 1.000000
0.926040 0.000000 1.000000
1.000000 0.000000 1.000000
1.000000 0.000000 1.000000
1.000000 0.000000 1.000000
1.000000 0.000000 1.000000
0.000000 0.003627 1.000000
0.003552 0.003552 1.000000
0.108580 0.002477 1.000000
0.407215 0.000000 1.000000
0.925785 0.000000 1.000000
1.000000 0.000000 1.000000
1.000000 0.000000 1.000000
1.000000 0.000000 1.000000
1.000000 0.000000 1.000000
0.000000 0.106116 1.000000
0.000000 0.106040 1.000000
0.104966 0.104966 1.000000
0.403601 0.101912 1.000000
0.922171 0.096608 1.000000
1.000000 0.095486 1.000000
1.000000 0.095486 1.000000
1.000000 0.095486 1.000000
1.000000 0.095486 1.000000
0.000000 0.397531 1.000000
0.000000 0.397455 1.000000
0.094691 0.396381 1.000000
0.393327 0.393327 1.000000
0.911897 0.388023 1.000000
1.000000 0.386901 1.000000
1.000000 0.386901 1.000000
1.000000 0.386901 1.000000
1.000000 0.386901 1.000000
0.000000 0.903563 1.000000
0.000000 0.903487 1.000000
0.076850 0.902413 1.000000
0.375485 0.899359 1.000000
0.894055 0.894055 1.000000
1.000000 0.892933 1.000000
1.000000 0.892933 1.000000
1.000000 0.892933 1.000000
1.000000 0.892933 1.000000
0.000000 1.000000 1.000000
0.000000 1.000000 1.000000
0.073075 1.000000 1.000000
0.371710 1.000000 1.000000
0.890280 1.000000 1.000000
1.000000 1.000000 1.000000
1.000000 1.000000 1.000000
1.000000 1.000000 1.000000
1.000000 1.000000 1.000000
0.000000 1.000000 1.000000
0.000000 1.000000 1.000000
0.073075 1.000000 1.000000
0.371710 1.000000 1.000000
0.890280 1.000000 1.000000
1.000000 1.000000 1.000000
1.000000 1.000000 1.000000
1.000000 1.000000 1.000000
1.000000 1.000000 1.000000
0.000000 1.000000 1.000000
0.000000 1.000000 1.000000
0.073075 1.000000 1.000000
0.371710 1.000000 1.000000
0.890280 1.000000 1.000000
1.000000 1.000000 1.000000
1.000000 1.000000 1.000000
1.000000 1.000000 1.000000
1.000000 1.000000 1.000000
0.000000 1.000000 1.000000
0.000000 1.000000 1.000000
0.073075 1.000000 1.000000
0.371710 1.000000 1.000000
0.890280 1.000000 1.000000
1.000000 1.000000 1.000000
1.000000 1.000000 1.000000
1.000000 1.000000 1.000000
1.000000 1.000000 1.000000
