assets/presets/luts/logc3-rec709/lut.cube
TITLE "LogC3 to Rec.709"
LUT_3D_SIZE 5
0.000000 0.000000 0.000000
0.112445 0.000000 0.000000
0.929650 0.000000 0.000000
1.000000 0.000000 0.000000
1.000000 0.000000 0.000000
0.000000 0.109726 0.000000
0.108576 0.108576 0.000000
0.925781 0.100218 0.000000
1.000000 0.099096 0.000000
1.000000 0.099096 0.000000
0.000000 0.907173 0.000000
0.080460 0.906023 0.000000
0.897665 0.897665 0.000000
1.000000 0.896543 0.000000
1.000000 0.896543 0.000000
0.000000 1.000000 0.000000
0.076685 1.000000 0.000000
0.893890 1.000000 0.000000
1.000000 1.000000 0.000000
1.000000 1.000000 0.000000
0.000000 1.000000 0.000000
0.076685 1.000000 0.000000
0.893890 1.000000 0.000000
1.000000 1.000000 0.000000
1.000000 1.000000 0.000000
0.000000 0.000000 0.113204
0.112054 0.000000 0.112054
0.929259 0.000000 0.103696
1.000000 0.000000 0.102574
1.000000 0.000000 0.102574
0.000000 0.109336 0.109336
0.108186 0.108186 0.108186
0.925391 0.099828 0.099828
1.000000 0.098706 0.098706
1.000000 0.098706 0.098706
0.000000 0.906782 0.081219
0.080069 0.905632 0.080069
0.897274 0.897274 0.071711
1.000000 0.896152 0.070589
1.000000 0.896152 0.070589
0.000000 1.000000 0.077444
0.076294 1.000000 0.076294
0.893499 1.000000 0.067936
1.000000 1.000000 0.066814
1.000000 1.000000 0.066814
0.000000 1.000000 0.077444
0.076294 1.000000 0.076294
0.893499 1.000000 0.067936
1.000000 1.000000 0.066814
1.000000 1.000000 0.066814
0.000000 0.000000 0.935929
0.109216 0.000000 0.934779
0.926421 0.000000 0.926421
1.000000 0.000000 0.925299
1.000000 0.000000 0.925299
0.000000 0.106497 0.932060
0.105347 0.105347 0.930910
0.922552 0.096989 0.922552
1.000000 0.095867 0.921430
1.000000 0.095867 0.921430
0.000000 0.903944 0.903944
0.077231 0.902794 0.902794
0.894436 0.894436 0.894436
1.000000 0.893314 0.893314
1.000000 0.893314 0.893314
0.000000 1.000000 0.900169
0.073456 1.000000 0.899019
0.890661 1.000000 0.890661
1.000000 1.000000 0.889539
1.000000 1.000000 0.889539
0.000000 1.000000 0.900169
0.073456 1.000000 0.899019
0.890661 1.000000 0.890661
1.000000 1.000000 0.889539
1.000000 1.000000 0.889539
0.000000 0.000000 1.000000
0.108835 0.000000 1.000000
0.926040 0.000000 1.000000
1.000000 0.000000 1.000000
1.000000 0.000000 1.000000
0.000000 0.106116 1.000000
0.104966 0.104966 1.000000
0.922171 0.096608 1.000000
1.000000 0.095486 1.000000
1.000000 0.095486 1.000000
0.000000 0.903563 1.000000
0.076850 0.902413 1.000000
0.894055 0.894055 1.000000
1.000000 0.892933 1.000000
1.000000 0.892933 1.000000
0.000000 1.000000 1.000000
0.073075 1.000000 1.000000
0.890280 1.000000 1.000000
1.000000 1.000000 1.000000
1.000000 1.000000 1.000000
0.000000 1.000000 1.000000
0.073075 1.000000 1.000000
0.890280 1.000000 1.000000
1.000000 1.000000 1.000000
1.000000 1.000000 1.000000
0.000000 0.000000 1.000000
0.108835 0.000000 1.000000
0.926040 0.000000 1.000000
1.000000 0.000000 1.000000
1.000000 0.000000 1.000000
0.000000 0.106116 1.000000
0.104966 0.104966 1.000000
0.922171 0.096608 1.000000
1.000000 0.095486 1.000000
1.000000 0.095486 1.000000
0.000000 0.903563 1.000000
0.076850 0.902413 1.000000
0.894055 0.894055 1.000000
1.000000 0.892933 1.000000
1.000000 0.892933 1.000000
0.000000 1.000000 1.000000
0.073075 1.000000 1.000000
0.890280 1.000000 1.000000
1.000000 1.000000 1.000000
1.000000 1.000000 1.000000
0.000000 1.000000 1.000000
0.073075 1.000000 1.000000
0.890280 1.000000 1.000000
1.000000 1.000000 1.000000
1.000000 1.000000 1.000000
