assets/presets/luts/logc3-rec709/lut.cube
TITLE "LogC3 to Rec.709"
LUT_3D_SIZE 17
0.000000 0.000000 0.000000
0.000000 0.000000 0.000000
0.007417 0.000000 0.000000
0.043242 0.000000 0.000000
0.112445 0.000000 0.000000
0.228501 0.000000 0.000000
0.411080 0.000000 0.000000
0.664031 0.000000 0.000000
0.929650 0.000000 0.000000
1.000000 0.000000 0.000000
1.000000 0.000000 0.000000
1.000000 0.000000 0.000000
1.000000 0.000000 0.000000
1.000000 0.000000 0.000000
1.000000 0.000000 0.000000
1.000000 0.000000 0.000000
1.000000 0.000000 0.000000
0.000000 0.000000 0.000000
0.000000 0.000000 0.000000
0.007417 0.000000 0.000000
0.043242 0.000000 0.000000
0.112445 0.000000 0.000000
0.228501 0.000000 0.000000
0.411080 0.000000 0.000000
0.664031 0.000000 0.000000
0.929650 0.000000 0.000000
1.000000 0.000000 0.000000
1.000000 0.000000 0.000000
1.000000 0.000000 0.000000
1.000000 0.000000 0.000000
1.000000 0.000000 0.000000
1.000000 0.000000 0.000000
1.000000 0.000000 0.000000
1.000000 0.000000 0.000000
0.000000 0.007237 0.000000
0.000000 0.007237 0.000000
0.007162 0.007162 0.000000
0.042987 0.006795 0.000000
0.112190 0.006087 0.000000
0.228246 0.004900 0.000000
0.410825 0.003033 0.000000
0.663776 0.000446 0.000000
0.929395 0.000000 0.000000
1.000000 0.000000 0.000000
1.000000 0.000000 0.000000
1.000000 0.000000 0.000000
1.000000 0.000000 0.000000
1.000000 0.000000 0.000000
1.000000 0.000000 0.000000
1.000000 0.000000 0.000000
1.000000 0.000000 0.000000
0.000000 0.042197 0.000000
0.000000 0.042197 0.000000
0.005929 0.042121 0.000000
0.041755 0.041755 0.000000
0.110957 0.041047 0.000000
0.227013 0.039860 0.000000
0.409592 0.037993 0.000000
0.662543 0.035406 0.000000
0.928162 0.032689 0.000000
1.000000 0.031567 0.000000
1.000000 0.031567 0.000000
1.000000 0.031567 0.000000
1.000000 0.031567 0.000000
1.000000 0.031567 0.000000
1.000000 0.031567 0.000000
1.000000 0.031567 0.000000
1.000000 0.031567 0.000000
0.000000 0.109726 0.000000
0.000000 0.109726 0.000000
0.003548 0.109650 0.000000
0.039374 0.109284 0.000000
0.108576 0.108576 0.000000
0.224632 0.107389 0.000000
0.407211 0.105522 0.000000
0.660162 0.102935 0.000000
0.925781 0.100218 0.000000
1.000000 0.099096 0.000000
1.000000 0.099096 0.000000
1.000000 0.099096 0.000000
1.000000 0.099096 0.000000
1.000000 0.099096 0.000000
1.000000 0.099096 0.000000
1.000000 0.099096 0.000000
1.000000 0.099096 0.000000
0.000000 0.222976 0.000000
0.000000 0.222976 0.000000
0.000000 0.222901 0.000000
0.035381 0.222534 0.000000
0.104583 0.221826 0.000000
0.220640 0.220640 0.000000
0.403218 0.218772 0.000000
0.656169 0.216185 0.000000
0.921788 0.213469 0.000000
1.000000 0.212346 0.000000
1.000000 0.212346 0.000000
1.000000 0.212346 0.000000
1.000000 0.212346 0.000000
1.000000 0.212346 0.000000
1.000000 0.212346 0.000000
1.000000 0.212346 0.000000
1.000000 0.212346 0.000000
0.000000 0.401141 0.000000
0.000000 0.401141 0.000000
0.000000 0.401065 0.000000
0.029099 0.400699 0.000000
0.098301 0.399991 0.000000
0.214358 0.398804 0.000000
0.396937 0.396937 0.000000
0.649888 0.394350 0.000000
0.915507 0.391633 0.000000
1.000000 0.390511 0.000000
1.000000 0.390511 0.000000
1.000000 0.390511 0.000000
1.000000 0.390511 0.000000
1.000000 0.390511 0.000000
1.000000 0.390511 0.000000
1.000000 0.390511 0.000000
1.000000 0.390511 0.000000
0.000000 0.647976 0.000000
0.000000 0.647976 0.000000
0.000000 0.647900 0.000000
0.020396 0.647534 0.000000
0.089599 0.646826 0.000000
0.205655 0.645639 0.000000
0.388234 0.643772 0.000000
0.641185 0.641185 0.000000
0.906804 0.638468 0.000000
1.000000 0.637346 0.000000
1.000000 0.637346 0.000000
1.000000 0.637346 0.000000
1.000000 0.637346 0.000000
1.000000 0.637346 0.000000
1.000000 0.637346 0.000000
1.000000 0.637346 0.000000
1.000000 0.637346 0.000000
0.000000 0.907173 0.000000
0.000000 0.907173 0.000000
0.000000 0.907097 0.000000
0.011257 0.906731 0.000000
0.080460 0.906023 0.000000
0.196516 0.904836 0.000000
0.379095 0.902969 0.000000
0.632046 0.900382 0.000000
0.897665 0.897665 0.000000
1.000000 0.896543 0.000000
1.000000 0.896543 0.000000
1.000000 0.896543 0.000000
1.000000 0.896543 0.000000
1.000000 0.896543 0.000000
1.000000 0.896543 0.000000
1.000000 0.896543 0.000000
1.000000 0.896543 0.000000
0.000000 1.000000 0.000000
0.000000 1.000000 0.000000
0.000000 1.000000 0.000000
0.007482 1.000000 0.000000
0.076685 1.000000 0.000000
0.192741 1.000000 0.000000
0.375320 1.000000 0.000000
0.628271 1.000000 0.000000
0.893890 1.000000 0.000000
1.000000 1.000000 0.000000
1.000000 1.000000 0.000000
1.000000 1.000000 0.000000
1.000000 1.000000 0.000000
1.000000 1.000000 0.000000
1.000000 1.000000 0.000000
1.000000 1.000000 0.000000
1.000000 1.000000 0.000000
0.000000 1.000000 0.000000
0.000000 1.000000 0.000000
0.000000 1.000000 0.000000
0.007482 1.000000 0.000000
0.076685 1.000000 0.000000
0.192741 1.000000 0.000000
0.375320 1.000000 0.000000
0.628271 1.000000 0.000000
0.893890 1.000000 0.000000
1.000000 1.000000 0.000000
1.000000 1.000000 0.000000
1.000000 1.000000 0.000000
1.000000 1.000000 0.000000
1.000000 1.000000 0.000000
1.000000 1.000000 0.000000
1.000000 1.000000 0.000000
1.000000 1.000000 0.000000
0.000000 1.000000 0.000000
0.000000 1.000000 0.000000
0.000000 1.000000 0.000000
0.007482 1.000000 0.000000
0.076685 1.000000 0.000000
0.192741 1.000000 0.000000
0.375320 1.000000 0.000000
0.628271 1.000000 0.000000
0.893890 1.000000 0.000000
1.000000 1.000000 0.000000
1.000000 1.000000 0.000000
1.000000 1.000000 0.000000
1.000000 1.000000 0.000000
1.000000 1.000000 0.000000
1.000000 1.000000 0.000000
1.000000 1.000000 0.000000
1.000000 1.000000 0.000000
0.000000 1.000000 0.000000
0.000000 1.000000 0.000000
0.000000 1.000000 0.000000
0.007482 1.000000 0.000000
0.076685 1.000000 0.000000
0.192741 1.000000 0.000000
0.375320 1.000000 0.000000
0.628271 1.000000 0.000000
0.893890 1.000000 0.000000
1.000000 1.000000 0.000000
1.000000 1.000000 0.000000
1.000000 1.000000 0.000000
1.000000 1.000000 0.000000
1.000000 1.000000 0.000000
1.000000 1.000000 0.000000
1.000000 1.000000 0.000000
1.000000 1.000000 0.000000
0.000000 1.000000 0.000000
0.000000 1.000000 0.000000
0.000000 1.000000 0.000000
0.007482 1.000000 0.000000
0.076685 1.000000 0.000000
0.192741 1.000000 0.000000
0.375320 1.000000 0.000000
0.628271 1.000000 0.000000
0.893890 1.000000 0.000000
1.000000 1.000000 0.000000
1.000000 1.000000 0.000000
1.000000 1.000000 0.000000
1.000000 1.000000 0.000000
1.000000 1.000000 0.000000
1.000000 1.000000 0.000000
1.000000 1.000000 0.000000
1.000000 1.000000 0.000000
0.000000 1.000000 0.000000
0.000000 1.000000 0.000000
0.000000 1.000000 0.000000
0.007482 1.000000 0.000000
0.076685 1.000000 0.000000
0.192741 1.000000 0.000000
0.375320 1.000000 0.000000
0.628271 1.000000 0.000000
0.893890 1.000000 0.000000
1.000000 1.000000 0.000000
1.000000 1.000000 0.000000
1.000000 1.000000 0.000000
1.000000 1.000000 0.000000
1.000000 1.000000 0.000000
1.000000 1.000000 0.000000
1.000000 1.000000 0.000000
1.000000 1.000000 0.000000
0.000000 1.000000 0.000000
0.000000 1.000000 0.000000
0.000000 1.000000 0.000000
0.007482 1.000000 0.000000
0.076685 1.000000 0.000000
0.192741 1.000000 0.000000
0.375320 1.000000 0.000000
0.628271 1.000000 0.000000
0.893890 1.000000 0.000000
1.000000 1.000000 0.000000
1.000000 1.000000 0.000000
1.000000 1.000000 0.000000
1.000000 1.000000 0.000000
1.000000 1.000000 0.000000
1.000000 1.000000 0.000000
1.000000 1.000000 0.000000
1.000000 1.000000 0.000000
0.000000 1.000000 0.000000
0.000000 1.000000 0.000000
0.000000 1.000000 0.000000
0.007482 1.000000 0.000000
0.076685 1.000000 0.000000
0.192741 1.000000 0.000000
0.375320 1.000000 0.000000
0.628271 1.000000 0.000000
0.893890 1.000000 0.000000
1.000000 1.000000 0.000000
1.000000 1.000000 0.000000
1.000000 1.000000 0.000000
1.000000 1.000000 0.000000
1.000000 1.000000 0.000000
1.000000 1.000000 0.000000
1.000000 1.000000 0.000000
1.000000 1.000000 0.000000
0.000000 0.000000 0.000000
0.000000 0.000000 0.000000
0.007417 0.000000 0.000000
0.043242 0.000000 0.000000
0.112445 0.000000 0.000000
0.228501 0.000000 0.000000
0.411080 0.000000 0.000000
0.664031 0.000000 0.000000
0.929650 0.000000 0.000000
1.000000 0.000000 0.000000
1.000000 0.000000 0.000000
1.000000 0.000000 0.000000
1.000000 0.000000 0.000000
1.000000 0.000000 0.000000
1.000000 0.000000 0.000000
1.000000 0.000000 0.000000
1.000000 0.000000 0.000000
0.000000 0.000000 0.000000
0.000000 0.000000 0.000000
0.007417 0.000000 0.000000
0.043242 0.000000 0.000000
0.112445 0.000000 0.000000
0.228501 0.000000 0.000000
0.411080 0.000000 0.000000
0.664031 0.000000 0.000000
0.929650 0.000000 0.000000
1.000000 0.000000 0.000000
1.000000 0.000000 0.000000
1.000000 0.000000 0.000000
1.000000 0.000000 0.000000
1.000000 0.000000 0.000000
1.000000 0.000000 0.000000
1.000000 0.000000 0.000000
1.000000 0.000000 0.000000
0.000000 0.007237 0.000000
0.000000 0.007237 0.000000
0.007162 0.007162 0.000000
0.042987 0.006795 0.000000
0.112190 0.006087 0.000000
0.228246 0.004900 0.000000
0.410825 0.003033 0.000000
0.663776 0.000446 0.000000
0.929395 0.000000 0.000000
1.000000 0.000000 0.000000
1.000000 0.000000 0.000000
1.000000 0.000000 0.000000
1.000000 0.000000 0.000000
1.000000 0.000000 0.000000
1.000000 0.000000 0.000000
1.000000 0.000000 0.000000
1.000000 0.000000 0.000000
0.000000 0.042197 0.000000
0.000000 0.042197 0.000000
0.005929 0.042121 0.000000
0.041755 0.041755 0.000000
0.110957 0.041047 0.000000
0.227013 0.039860 0.000000
0.409592 0.037993 0.000000
0.662543 0.035406 0.000000
0.928162 0.032689 0.000000
1.000000 0.031567 0.000000
1.000000 0.031567 0.000000
1.000000 0.031567 0.000000
1.000000 0.031567 0.000000
1.000000 0.031567 0.000000
1.000000 0.031567 0.000000
1.000000 0.031567 0.000000
1.000000 0.031567 0.000000
0.000000 0.109726 0.000000
0.000000 0.109726 0.000000
0.003548 0.109650 0.000000
0.039374 0.109284 0.000000
0.108576 0.108576 0.000000
0.224632 0.107389 0.000000
0.407211 0.105522 0.000000
0.660162 0.102935 0.000000
0.925781 0.100218 0.000000
1.000000 0.099096 0.000000
1.000000 0.099096 0.000000
1.000000 0.099096 0.000000
1.000000 0.099096 0.000000
1.000000 0.099096 0.000000
1.000000 0.099096 0.000000
1.000000 0.099096 0.000000
1.000000 0.099096 0.000000
0.000000 0.222976 0.000000
0.000000 0.222976 0.000000
0.000000 0.222901 0.000000
0.035381 0.222534 0.000000
0.104583 0.221826 0.000000
0.220640 0.220640 0.000000
0.403218 0.218772 0.000000
0.656169 0.216185 0.000000
0.921788 0.213469 0.000000
1.000000 0.212346 0.000000
1.000000 0.212346 0.000000
1.000000 0.212346 0.000000
1.000000 0.212346 0.000000
1.000000 0.212346 0.000000
1.000000 0.212346 0.000000
1.000000 0.212346 0.000000
1.000000 0.212346 0.000000
0.000000 0.401141 0.000000
0.000000 0.401141 0.000000
0.000000 0.401065 0.000000
0.029099 0.400699 0.000000
0.098301 0.399991 0.000000
0.214358 0.398804 0.000000
0.396937 0.396937 0.000000
0.649888 0.394350 0.000000
0.915507 0.391633 0.000000
1.000000 0.390511 0.000000
1.000000 0.390511 0.000000
1.000000 0.390511 0.000000
1.000000 0.390511 0.000000
1.000000 0.390511 0.000000
1.000000 0.390511 0.000000
1.000000 0.390511 0.000000
1.000000 0.390511 0.000000
0.000000 0.647976 0.000000
0.000000 0.647976 0.000000
0.000000 0.647900 0.000000
0.020396 0.647534 0.000000
0.089599 0.646826 0.000000
0.205655 0.645639 0.000000
0.388234 0.643772 0.000000
0.641185 0.641185 0.000000
0.906804 0.638468 0.000000
1.000000 0.637346 0.000000
1.000000 0.637346 0.000000
1.000000 0.637346 0.000000
1.000000 0.637346 0.000000
1.000000 0.637346 0.000000
1.000000 0.637346 0.000000
1.000000 0.637346 0.000000
1.000000 0.637346 0.000000
0.000000 0.907173 0.000000
0.000000 0.907173 0.000000
0.000000 0.907097 0.000000
0.011257 0.906731 0.000000
0.080460 0.906023 0.000000
0.196516 0.904836 0.000000
0.379095 0.902969 0.000000
0.632046 0.900382 0.000000
0.897665 0.897665 0.000000
1.000000 0.896543 0.000000
1.000000 0.896543 0.000000
1.000000 0.896543 0.000000
1.000000 0.896543 0.000000
1.000000 0.896543 0.000000
1.000000 0.896543 0.000000
1.000000 0.896543 0.000000
1.000000 0.896543 0.000000
0.000000 1.000000 0.000000
0.000000 1.000000 0.000000
0.000000 1.000000 0.000000
0.007482 1.000000 0.000000
0.076685 1.000000 0.000000
0.192741 1.000000 0.000000
0.375320 1.000000 0.000000
0.628271 1.000000 0.000000
0.893890 1.000000 0.000000
1.000000 1.000000 0.000000
1.000000 1.000000 0.000000
1.000000 1.000000 0.000000
1.000000 1.000000 0.000000
1.000000 1.000000 0.000000
1.000000 1.000000 0.000000
1.000000 1.000000 0.000000
1.000000 1.000000 0.000000
0.000000 1.000000 0.000000
0.000000 1.000000 0.000000
0.000000 1.000000 0.000000
0.007482 1.000000 0.000000
0.076685 1.000000 0.000000
0.192741 1.000000 0.000000
0.375320 1.000000 0.000000
0.628271 1.000000 0.000000
0.893890 1.000000 0.000000
1.000000 1.000000 0.000000
1.000000 1.000000 0.000000
1.000000 1.000000 0.000000
1.000000 1.000000 0.000000
1.000000 1.000000 0.000000
1.000000 1.000000 0.000000
1.000000 1.000000 0.000000
1.000000 1.000000 0.000000
0.000000 1.000000 0.000000
0.000000 1.000000 0.000000
0.000000 1.000000 0.000000
0.007482 1.000000 0.000000
0.076685 1.000000 0.000000
0.192741 1.000000 0.000000
0.375320 1.000000 0.000000
0.628271 1.000000 0.000000
0.893890 1.000000 0.000000
1.000000 1.000000 0.000000
1.000000 1.000000 0.000000
1.000000 1.000000 0.000000
1.000000 1.000000 0.000000
1.000000 1.000000 0.000000
1.000000 1.000000 0.000000
1.000000 1.000000 0.000000
1.000000 1.000000 0.000000
0.000000 1.000000 0.000000
0.000000 1.000000 0.000000
0.000000 1.000000 0.000000
0.007482 1.000000 0.000000
0.076685 1.000000 0.000000
0.192741 1.000000 0.000000
0.375320 1.000000 0.000000
0.628271 1.000000 0.000000
0.893890 1.000000 0.000000
1.000000 1.000000 0.000000
1.000000 1.000000 0.000000
1.000000 1.000000 0.000000
1.000000 1.000000 0.000000
1.000000 1.000000 0.000000
1.000000 1.000000 0.000000
1.000000 1.000000 0.000000
1.000000 1.000000 0.000000
0.000000 1.000000 0.000000
0.000000 1.000000 0.000000
0.000000 1.000000 0.000000
0.007482 1.000000 0.000000
0.076685 1.000000 0.000000
0.192741 1.000000 0.000000
0.375320 1.000000 0.000000
0.628271 1.000000 0.000000
0.893890 1.000000 0.000000
1.000000 1.000000 0.000000
1.000000 1.000000 0.000000
1.000000 1.000000 0.000000
1.000000 1.000000 0.000000
1.000000 1.000000 0.000000
1.000000 1.000000 0.000000
1.000000 1.000000 0.000000
1.000000 1.000000 0.000000
0.000000 1.000000 0.000000
0.000000 1.000000 0.000000
0.000000 1.000000 0.000000
0.007482 1.000000 0.000000
0.076685 1.000000 0.000000
0.192741 1.000000 0.000000
0.375320 1.000000 0.000000
0.628271 1.000000 0.000000
0.893890 1.000000 0.000000
1.000000 1.000000 0.000000
1.000000 1.000000 0.000000
1.000000 1.000000 0.000000
1.000000 1.000000 0.000000
1.000000 1.000000 0.000000
1.000000 1.000000 0.000000
1.000000 1.000000 0.000000
1.000000 1.000000 0.000000
0.000000 1.000000 0.000000
0.000000 1.000000 0.000000
0.000000 1.000000 0.000000
0.007482 1.000000 0.000000
0.076685 1.000000 0.000000
0.192741 1.000000 0.000000
0.375320 1.000000 0.000000
0.628271 1.000000 0.000000
0.893890 1.000000 0.000000
1.000000 1.000000 0.000000
1.000000 1.000000 0.000000
1.000000 1.000000 0.000000
1.000000 1.000000 0.000000
1.000000 1.000000 0.000000
1.000000 1.000000 0.000000
1.000000 1.000000 0.000000
1.000000 1.000000 0.000000
0.000000 1.000000 0.000000
0.000000 1.000000 0.000000
0.000000 1.000000 0.000000
0.007482 1.000000 0.000000
0.076685 1.000000 0.000000
0.192741 1.000000 0.000000
0.375320 1.000000 0.000000
0.628271 1.000000 0.000000
0.893890 1.000000 0.000000
1.000000 1.000000 0.000000
1.000000 1.000000 0.000000
1.000000 1.000000 0.000000
1.000000 1.000000 0.000000
1.000000 1.000000 0.000000
1.000000 1.000000 0.000000
1.000000 1.000000 0.000000
1.000000 1.000000 0.000000
0.000000 0.000000 0.007467
0.000000 0.000000 0.007467
0.007391 0.000000 0.007391
0.043217 0.000000 0.007025
0.112419 0.000000 0.006317
0.228475 0.000000 0.005130
0.411054 0.000000 0.003263
0.664005 0.000000 0.000676
0.929624 0.000000 0.000000
1.000000 0.000000 0.000000
1.000000 0.000000 0.000000
1.000000 0.000000 0.000000
1.000000 0.000000 0.000000
1.000000 0.000000 0.000000
1.000000 0.000000 0.000000
1.000000 0.000000 0.000000
1.000000 0.000000 0.000000
0.000000 0.000000 0.007467
0.000000 0.000000 0.007467
0.007391 0.000000 0.007391
0.043217 0.000000 0.007025
0.112419 0.000000 0.006317
0.228475 0.000000 0.005130
0.411054 0.000000 0.003263
0.664005 0.000000 0.000676
0.929624 0.000000 0.000000
1.000000 0.000000 0.000000
1.000000 0.000000 0.000000
1.000000 0.000000 0.000000
1.000000 0.000000 0.000000
1.000000 0.000000 0.000000
1.000000 0.000000 0.000000
1.000000 0.000000 0.000000
1.000000 0.000000 0.000000
0.000000 0.007212 0.007212
0.000000 0.007212 0.007212
0.007136 0.007136 0.007136
0.042961 0.006769 0.006769
0.112164 0.006062 0.006062
0.228220 0.004875 0.004875
0.410799 0.003007 0.003007
0.663750 0.000420 0.000420
0.929369 0.000000 0.000000
1.000000 0.000000 0.000000
1.000000 0.000000 0.000000
1.000000 0.000000 0.000000
1.000000 0.000000 0.000000
1.000000 0.000000 0.000000
1.000000 0.000000 0.000000
1.000000 0.000000 0.000000
1.000000 0.000000 0.000000
0.000000 0.042171 0.005979
0.000000 0.042171 0.005979
0.005903 0.042095 0.005903
0.041729 0.041729 0.005537
0.110931 0.041021 0.004829
0.226988 0.039834 0.003642
0.409567 0.037967 0.001775
0.662517 0.035380 0.000000
0.928136 0.032663 0.000000
1.000000 0.031541 0.000000
1.000000 0.031541 0.000000
1.000000 0.031541 0.000000
1.000000 0.031541 0.000000
1.000000 0.031541 0.000000
1.000000 0.031541 0.000000
1.000000 0.031541 0.000000
1.000000 0.031541 0.000000
0.000000 0.109700 0.003598
0.000000 0.109700 0.003598
0.003522 0.109624 0.003522
0.039348 0.109258 0.003156
0.108550 0.108550 0.002448
0.224607 0.107363 0.001261
0.407186 0.105496 0.000000
0.660136 0.102909 0.000000
0.925756 0.100192 0.000000
1.000000 0.099070 0.000000
1.000000 0.099070 0.000000
1.000000 0.099070 0.000000
1.000000 0.099070 0.000000
1.000000 0.099070 0.000000
1.000000 0.099070 0.000000
1.000000 0.099070 0.000000
1.000000 0.099070 0.000000
0.000000 0.222951 0.000000
0.000000 0.222951 0.000000
0.000000 0.222875 0.000000
0.035355 0.222508 0.000000
0.104557 0.221801 0.000000
0.220614 0.220614 0.000000
0.403193 0.218746 0.000000
0.656143 0.216159 0.000000
0.921763 0.213443 0.000000
1.000000 0.212321 0.000000
1.000000 0.212321 0.000000
1.000000 0.212321 0.000000
1.000000 0.212321 0.000000
1.000000 0.212321 0.000000
1.000000 0.212321 0.000000
1.000000 0.212321 0.000000
1.000000 0.212321 0.000000
0.000000 0.401115 0.000000
0.000000 0.401115 0.000000
0.000000 0.401039 0.000000
0.029073 0.400673 0.000000
0.098276 0.399965 0.000000
0.214332 0.398778 0.000000
0.396911 0.396911 0.000000
0.649862 0.394324 0.000000
0.915481 0.391607 0.000000
1.000000 0.390485 0.000000
1.000000 0.390485 0.000000
1.000000 0.390485 0.000000
1.000000 0.390485 0.000000
1.000000 0.390485 0.000000
1.000000 0.390485 0.000000
1.000000 0.390485 0.000000
1.000000 0.390485 0.000000
0.000000 0.647950 0.000000
0.000000 0.647950 0.000000
0.000000 0.647874 0.000000
0.020370 0.647508 0.000000
0.089573 0.646800 0.000000
0.205629 0.645613 0.000000
0.388208 0.643746 0.000000
0.641159 0.641159 0.000000
0.906778 0.638442 0.000000
1.000000 0.637320 0.000000
1.000000 0.637320 0.000000
1.000000 0.637320 0.000000
1.000000 0.637320 0.000000
1.000000 0.637320 0.000000
1.000000 0.637320 0.000000
1.000000 0.637320 0.000000
1.000000 0.637320 0.000000
0.000000 0.907147 0.000000
0.000000 0.907147 0.000000
0.000000 0.907071 0.000000
0.011232 0.906705 0.000000
0.080434 0.905997 0.000000
0.196490 0.904810 0.000000
0.379069 0.902943 0.000000
0.632020 0.900356 0.000000
0.897639 0.897639 0.000000
1.000000 0.896517 0.000000
1.000000 0.896517 0.000000
1.000000 0.896517 0.000000
1.000000 0.896517 0.000000
1.000000 0.896517 0.000000
1.000000 0.896517 0.000000
1.000000 0.896517 0.000000
1.000000 0.896517 0.000000
0.000000 1.000000 0.000000
0.000000 1.000000 0.000000
0.000000 1.000000 0.000000
0.007457 1.000000 0.000000
0.076659 1.000000 0.000000
0.192715 1.000000 0.000000
0.375294 1.000000 0.000000
0.628245 1.000000 0.000000
0.893864 1.000000 0.000000
1.000000 1.000000 0.000000
1.000000 1.000000 0.000000
1.000000 1.000000 0.000000
1.000000 1.000000 0.000000
1.000000 1.000000 0.000000
1.000000 1.000000 0.000000
1.000000 1.000000 0.000000
1.000000 1.000000 0.000000
0.000000 1.000000 0.000000
0.000000 1.000000 0.000000
0.000000 1.000000 0.000000
0.007457 1.000000 0.000000
0.076659 1.000000 0.000000
0.192715 1.000000 0.000000
0.375294 1.000000 0.000000
0.628245 1.000000 0.000000
0.893864 1.000000 0.000000
1.000000 1.000000 0.000000
1.000000 1.000000 0.000000
1.000000 1.000000 0.000000
1.000000 1.000000 0.000000
1.000000 1.000000 0.000000
1.000000 1.000000 0.000000
1.000000 1.000000 0.000000
1.000000 1.000000 0.000000
0.000000 1.000000 0.000000
0.000000 1.000000 0.000000
0.000000 1.000000 0.000000
0.007457 1.000000 0.000000
0.076659 1.000000 0.000000
0.192715 1.000000 0.000000
0.375294 1.000000 0.000000
0.628245 1.000000 0.000000
0.893864 1.000000 0.000000
1.000000 1.000000 0.000000
1.000000 1.000000 0.000000
1.000000 1.000000 0.000000
1.000000 1.000000 0.000000
1.000000 1.000000 0.000000
1.000000 1.000000 0.000000
1.000000 1.000000 0.000000
1.000000 1.000000 0.000000
0.000000 1.000000 0.000000
0.000000 1.000000 0.000000
0.000000 1.000000 0.000000
0.007457 1.000000 0.000000
0.076659 1.000000 0.000000
0.192715 1.000000 0.000000
0.375294 1.000000 0.000000
0.628245 1.000000 0.000000
0.893864 1.000000 0.000000
1.000000 1.000000 0.000000
1.000000 1.000000 0.000000
1.000000 1.000000 0.000000
1.000000 1.000000 0.000000
1.000000 1.000000 0.000000
1.000000 1.000000 0.000000
1.000000 1.000000 0.000000
1.000000 1.000000 0.000000
0.000000 1.000000 0.000000
0.000000 1.000000 0.000000
0.000000 1.000000 0.000000
0.007457 1.000000 0.000000
0.076659 1.000000 0.000000
0.192715 1.000000 0.000000
0.375294 1.000000 0.000000
0.628245 1.000000 0.000000
0.893864 1.000000 0.000000
1.000000 1.000000 0.000000
1.000000 1.000000 0.000000
1.000000 1.000000 0.000000
1.000000 1.000000 0.000000
1.000000 1.000000 0.000000
1.000000 1.000000 0.000000
1.000000 1.000000 0.000000
1.000000 1.000000 0.000000
0.000000 1.000000 0.000000
0.000000 1.000000 0.000000
0.000000 1.000000 0.000000
0.007457 1.000000 0.000000
0.076659 1.000000 0.000000
0.192715 1.000000 0.000000
0.375294 1.000000 0.000000
0.628245 1.000000 0.000000
0.893864 1.000000 0.000000
1.000000 1.000000 0.000000
1.000000 1.000000 0.000000
1.000000 1.000000 0.000000
1.000000 1.000000 0.000000
1.000000 1.000000 0.000000
1.000000 1.000000 0.000000
1.000000 1.000000 0.000000
1.000000 1.000000 0.000000
0.000000 1.000000 0.000000
0.000000 1.000000 0.000000
0.000000 1.000000 0.000000
0.007457 1.000000 0.000000
0.076659 1.000000 0.000000
0.192715 1.000000 0.000000
0.375294 1.000000 0.000000
0.628245 1.000000 0.000000
0.893864 1.000000 0.000000
1.000000 1.000000 0.000000
1.000000 1.000000 0.000000
1.000000 1.000000 0.000000
1.000000 1.000000 0.000000
1.000000 1.000000 0.000000
1.000000 1.000000 0.000000
1.000000 1.000000 0.000000
1.000000 1.000000 0.000000
0.000000 1.000000 0.000000
0.000000 1.000000 0.000000
0.000000 1.000000 0.000000
0.007457 1.000000 0.000000
0.076659 1.000000 0.000000
0.192715 1.000000 0.000000
0.375294 1.000000 0.000000
0.628245 1.000000 0.000000
0.893864 1.000000 0.000000
1.000000 1.000000 0.000000
1.000000 1.000000 0.000000
1.000000 1.000000 0.000000
1.000000 1.000000 0.000000
1.000000 1.000000 0.000000
1.000000 1.000000 0.000000
1.000000 1.000000 0.000000
1.000000 1.000000 0.000000
0.000000 0.000000 0.043534
0.000000 0.000000 0.043534
0.007267 0.000000 0.043459
0.043092 0.000000 0.043092
0.112295 0.000000 0.042384
0.228351 0.000000 0.041197
0.410930 0.000000 0.039330
0.663881 0.000000 0.036743
0.929500 0.000000 0.034027
1.000000 0.000000 0.032904
1.000000 0.000000 0.032904
1.000000 0.000000 0.032904
1.000000 0.000000 0.032904
1.000000 0.000000 0.032904
1.000000 0.000000 0.032904
1.000000 0.000000 0.032904
1.000000 0.000000 0.032904
0.000000 0.000000 0.043534
0.000000 0.000000 0.043534
0.007267 0.000000 0.043459
