assets/presets/luts/warm-soft/lut.cube
TITLE "Warm Soft"
LUT_3D_SIZE 9
0.032568 0.029977 0.026738
0.165233 0.028118 0.024909
0.294380 0.026809 0.023630
0.421580 0.026027 0.022877
0.546833 0.025769 0.022650
0.670139 0.026038 0.022949
0.791499 0.026832 0.023773
0.910912 0.028152 0.025122
1.000000 0.029998 0.026998
0.026442 0.153952 0.020662
0.159183 0.152069 0.018841
0.289486 0.150366 0.018067
0.417978 0.149133 0.017970
0.544552 0.148413 0.018441
0.669187 0.148215 0.019453
0.791880 0.148540 0.020999
0.912629 0.149389 0.023074
1.000000 0.150764 0.025678
0.022008 0.277164 0.016281
0.153618 0.275647 0.014170
0.284015 0.273936 0.013201
0.413376 0.272423 0.013317
0.541085 0.271320 0.014240
0.666954 0.270697 0.015819
0.790923 0.270580 0.017991
0.912969 0.270977 0.020726
1.000000 0.271894 0.024009
0.019261 0.399704 0.013587
0.149546 0.398604 0.011245
0.279180 0.397157 0.009906
0.408630 0.395642 0.009789
0.537010 0.394333 0.010768
0.663847 0.393395 0.012629
0.788933 0.392902 0.015227
0.912173 0.392892 0.018478
1.000000 0.393383 0.022334
0.018203 0.521572 0.012581
0.147120 0.520900 0.010034
0.275654 0.519812 0.008370
0.404564 0.518495 0.007873
0.533028 0.517187 0.008605
0.660411 0.516089 0.010437
0.786328 0.515333 0.013199
0.910571 0.514994 0.016759
1.000000 0.515114 0.021028
0.018832 0.642768 0.013263
0.146367 0.642526 0.010522
0.273670 0.641833 0.008580
0.401686 0.640819 0.007709
0.529746 0.639669 0.008070
0.657210 0.638572 0.009649
0.783588 0.637687 0.012330
0.908555 0.637124 0.015973
1.000000 0.636955 0.020460
0.021150 0.763292 0.015633
0.147296 0.763482 0.012703
0.273307 0.763197 0.010515
0.400243 0.762539 0.009307
0.527570 0.761645 0.009277
0.654718 0.760679 0.010496
0.781175 0.759797 0.012921
0.906543 0.759126 0.016449
1.000000 0.758763 0.020961
0.025155 0.883143 0.019691
0.149909 0.883766 0.016576
0.274598 0.883897 0.014160
0.400351 0.883621 0.012650
0.526739 0.883044 0.012249
0.653275 0.882300 0.013075
0.779477 0.881528 0.015150
0.904923 0.880861 0.018421
1.000000 0.880406 0.022795
0.030849 1.000000 0.025437
0.154208 1.000000 0.022138
0.277557 1.000000 0.019509
0.402066 1.000000 0.017724
0.527385 1.000000 0.016981
0.653102 1.000000 0.017419
0.778785 1.000000 0.019104
0.904021 1.000000 0.022033
1.000000 1.000000 0.026149
0.031949 0.029379 0.151648
0.164703 0.027506 0.149695
0.294409 0.026131 0.147431
0.422167 0.025297 0.145541
0.547971 0.024995 0.144141
0.671826 0.025220 0.143252
0.793732 0.025972 0.142883
0.913690 0.027251 0.143036
1.000000 0.029056 0.143712
0.025801 0.153370 0.145475
0.158646 0.151471 0.143515
0.289676 0.149650 0.141767
0.418759 0.148355 0.140545
0.545896 0.147586 0.139849
0.671085 0.147342 0.139678
0.794328 0.147624 0.140033
0.915624 0.148431 0.140914
1.000000 0.149764 0.142320
0.020994 0.276820 0.139838
0.152497 0.275359 0.137490
0.283665 0.273497 0.135745
0.413900 0.271809 0.135022
0.542325 0.270591 0.134977
0.668832 0.269885 0.135501
0.793402 0.269701 0.136567
0.916030 0.270039 0.138168
1.000000 0.270903 0.140298
0.017898 0.399606 0.135736
0.148026 0.398577 0.133155
0.278113 0.397067 0.131115
0.408466 0.395363 0.130203
0.537762 0.393864 0.130370
0.665401 0.392776 0.131343
0.791202 0.392169 0.132973
0.915104 0.392066 0.135197
1.000000 0.392478 0.137985
0.016502 0.521720 0.133291
0.145244 0.521124 0.130508
0.274032 0.520022 0.128233
0.403652 0.518574 0.126949
0.533051 0.517068 0.126888
0.661366 0.515774 0.127919
0.788135 0.514850 0.129830
0.913151 0.514373 0.132478
1.000000 0.514379 0.135779
0.016799 0.643161 0.132523
0.144149 0.642998 0.129550
0.271591 0.642318 0.127067
0.400129 0.641224 0.125452
0.529009 0.639910 0.125013
0.657420 0.638612 0.125802
0.784738 0.637528 0.127686
0.910586 0.636787 0.130498
1.000000 0.636464 0.134108
0.018787 0.763930 0.133438
0.144742 0.764199 0.130279
0.270822 0.763944 0.127601
0.398138 0.763242 0.125704
0.526141 0.762227 0.124889
0.654162 0.761082 0.125308
0.781571 0.759996 0.126943
0.907885 0.759125 0.129677
1.000000 0.758577 0.133370
0.022464 0.884026 0.136038
0.147023 0.884729 0.132697
0.271733 0.884900 0.129830
0.397764 0.884606 0.127683
0.524698 0.883943 0.126527
0.652000 0.883051 0.126554
0.779105 0.882092 0.127831
0.905506 0.881220 0.130312
1.000000 0.880563 0.133893
0.027829 1.000000 0.140325
0.150992 1.000000 0.136802
0.274327 1.000000 0.133751
0.399041 1.000000 0.131373
0.524799 1.000000 0.129912
0.651174 1.000000 0.129566
0.777678 1.000000 0.130450
0.903834 1.000000 0.132583
1.000000 1.000000 0.135909
0.031483 0.028936 0.275939
0.163562 0.027187 0.274742
0.293522 0.025733 0.272518
0.421831 0.024800 0.269982
0.548220 0.024419 0.267645
0.672654 0.024579 0.265699
0.795132 0.025273 0.264212
0.915658 0.026499 0.263216
1.000000 0.028255 0.262725
0.025878 0.152649 0.270924
0.157991 0.150867 0.269955
0.289179 0.149022 0.267983
0.418828 0.147662 0.265739
0.546528 0.146842 0.263885
0.672275 0.146553 0.262524
0.796071 0.146791 0.261676
0.917920 0.147556 0.261348
1.000000 0.148848 0.261543
0.020861 0.276166 0.265240
0.151807 0.274783 0.263754
0.283149 0.272892 0.261787
0.414120 0.271085 0.260080
0.543145 0.269803 0.258900
0.670223 0.269046 0.258246
0.795354 0.268815 0.258118
0.918538 0.269110 0.258515
1.000000 0.269931 0.259438
0.017352 0.399167 0.260225
0.146965 0.398244 0.258117
0.276985 0.396781 0.255791
0.408140 0.394919 0.254090
0.538316 0.393244 0.253407
0.666682 0.392040 0.253401
0.793129 0.391348 0.253965
0.917640 0.391176 0.255073
1.000000 0.391529 0.256714
0.015551 0.521525 0.256554
0.143833 0.521038 0.254036
0.272491 0.520003 0.251488
0.402594 0.518484 0.249485
0.532913 0.516785 0.248620
0.662152 0.515299 0.248829
0.789732 0.514226 0.249841
0.915472 0.513632 0.251511
1.000000 0.513543 0.253774
0.015465 0.643215 0.254443
0.142398 0.643161 0.251617
0.269685 0.642553 0.248874
0.398500 0.641441 0.246628
0.528111 0.639991 0.245391
0.657470 0.638492 0.245378
0.785730 0.637209 0.246451
0.912439 0.636300 0.248402
1.000000 0.635837 0.251089
0.017086 0.764234 0.253961
0.142657 0.764611 0.250877
0.268567 0.764431 0.247948
0.396040 0.763739 0.245491
0.524584 0.762640 0.243919
0.653443 0.761327 0.243529
0.781810 0.760037 0.244364
0.909075 0.758965 0.246291
1.000000 0.758237 0.249144
0.020406 0.884580 0.255137
0.144605 0.885388 0.251821
0.269136 0.885637 0.248710
0.395250 0.885369 0.246056
0.522581 0.884659 0.244197
0.650576 0.883641 0.243428
0.778569 0.882500 0.243896
0.905934 0.881422 0.245578
1.000000 0.880563 0.248355
0.025422 1.000000 0.257983
0.148242 1.000000 0.254451
0.271393 1.000000 0.251160
0.396138 1.000000 0.248316
0.522191 1.000000 0.246203
0.649127 1.000000 0.245091
0.776413 1.000000 0.245166
0.903484 1.000000 0.246492
1.000000 1.000000 0.249019
0.031180 0.028655 0.398144
0.162375 0.027087 0.397761
0.292025 0.025661 0.396169
0.420604 0.024640 0.393717
0.547503 0.024149 0.390955
0.672513 0.024212 0.388278
0.795579 0.024823 0.385891
0.916690 0.025976 0.383895
1.000000 0.027665 0.382342
0.026281 0.152025 0.394443
0.157488 0.150427 0.394327
0.288043 0.148696 0.393089
0.417974 0.147253 0.390839
0.546230 0.146335 0.388311
0.672560 0.145968 0.386000
0.796936 0.146142 0.384086
0.919356 0.146851 0.382637
1.000000 0.148090 0.381680
0.021500 0.275387 0.389602
0.151851 0.274063 0.389283
0.282478 0.272287 0.388281
0.413657 0.270448 0.386275
0.543249 0.269103 0.384051
0.670889 0.268297 0.382233
0.796577 0.268021 0.380911
0.920315 0.268273 0.380105
1.000000 0.269052 0.379818
0.017754 0.398461 0.384562
0.146789 0.397597 0.383565
0.276265 0.396215 0.382051
0.407649 0.394313 0.380061
0.538562 0.392519 0.378396
0.667528 0.391250 0.377258
0.794548 0.390507 0.376646
0.919621 0.390289 0.376560
1.000000 0.390597 0.376999
0.015548 0.521007 0.380220
0.143243 0.520611 0.378538
0.271403 0.519680 0.376423
0.401474 0.518203 0.374094
0.532613 0.516341 0.372437
0.662731 0.514680 0.371795
0.791036 0.513489 0.371828
0.917424 0.512811 0.372433
1.000000 0.512653 0.373581
0.015037 0.642927 0.377092
0.141407 0.642978 0.374876
0.268250 0.642479 0.372367
0.396957 0.641429 0.369824
0.527074 0.639902 0.367857
0.657359 0.638209 0.367040
0.786541 0.636735 0.367290
0.914060 0.635675 0.368342
1.000000 0.635096 0.370051
0.016244 0.764189 0.375416
0.141286 0.764677 0.372782
0.266794 0.764605 0.369977
0.394127 0.763983 0.367242
0.522968 0.762860 0.365027
0.652569 0.761408 0.363836
0.781887 0.759916 0.363870
0.910092 0.758646 0.364986
1.000000 0.757749 0.366977
0.019167 0.884783 0.375302
0.142869 0.885705 0.372322
0.267029 0.886058 0.369268
0.392985 0.885864 0.366348
0.520489 0.885160 0.363918
0.649039 0.884055 0.362389
0.777875 0.882744 0.362047
0.906199 0.881462 0.362929
1.000000 0.880402 0.364899
0.023799 1.000000 0.376802
0.146152 1.000000 0.373523
0.268954 1.000000 0.370243
0.393531 1.000000 0.367142
0.519678 1.000000 0.364513
0.647024 1.000000 0.362692
0.775011 1.000000 0.361970
0.902974 1.000000 0.362487
1.000000 1.000000 0.364215
0.031038 0.028536 0.518264
0.161297 0.027165 0.518695
0.290322 0.025846 0.517879
0.418778 0.024808 0.515952
0.545949 0.024227 0.513291
0.671432 0.024178 0.510321
0.795051 0.024683 0.507359
0.916743 0.025740 0.504603
1.000000 0.027344 0.502168
0.026887 0.151549 0.515904
0.157147 0.150149 0.516612
0.286839 0.148593 0.516179
0.416488 0.147172 0.514544
0.545032 0.146163 0.512070
0.671880 0.145688 0.509311
0.796833 0.145765 0.506652
0.919840 0.146391 0.504292
1.000000 0.147558 0.502328
0.022600 0.274648 0.512209
0.152220 0.273442 0.512884
0.281949 0.271848 0.512722
0.412527 0.270115 0.511437
0.542427 0.268683 0.509161
0.670628 0.267781 0.506642
0.796899 0.267429 0.504357
0.921215 0.267618 0.502477
1.000000 0.268340 0.501065
0.018928 0.397637 0.507796
0.147393 0.396821 0.508005
0.276283 0.395496 0.507647
0.406967 0.393707 0.506603
0.538133 0.391875 0.504566
0.667667 0.390545 0.502365
0.795248 0.389753 0.500583
0.920876 0.389491 0.499301
1.000000 0.389756 0.498535
0.016479 0.520257 0.503439
0.143603 0.519912 0.502932
0.271191 0.519042 0.501901
0.400726 0.517646 0.500346
0.532148 0.515735 0.498338
0.663001 0.513954 0.496714
0.791910 0.512698 0.495618
0.918871 0.511968 0.495048
1.000000 0.511764 0.495004
0.015581 0.642344 0.499790
0.141360 0.642470 0.498574
0.267624 0.642062 0.496873
0.395843 0.641116 0.494728
0.525964 0.639625 0.492399
0.657084 0.637763 0.490787
0.787144 0.636115 0.490185
0.915389 0.634939 0.490258
1.000000 0.634274 0.490903
0.016362 0.763819 0.497265
0.140813 0.764401 0.495446
0.265769 0.764433 0.493225
0.392669 0.763919 0.490698
0.521424 0.762854 0.488161
0.651553 0.761319 0.486232
0.781802 0.759632 0.485462
0.910928 0.758171 0.485755
1.000000 0.757125 0.486845
0.018857 0.884646 0.496100
0.141985 0.885672 0.493780
0.265627 0.886136 0.491153
0.391190 0.886048 0.488338
0.518571 0.885411 0.485611
0.647435 0.884278 0.483428
0.777025 0.882825 0.482284
0.906303 0.881340 0.482365
1.000000 0.880082 0.483523
0.023072 1.000000 0.496424
0.144872 1.000000 0.493682
0.267189 1.000000 0.490719
0.391403 1.000000 0.487660
0.517405 1.000000 0.484749
0.644939 1.000000 0.482347
0.773493 1.000000 0.480861
0.902305 1.000000 0.480568
1.000000 1.000000 0.481496
0.031059 0.028580 0.636298
0.160361 0.027411 0.637541
0.288616 0.026240 0.637530
0.416654 0.025255 0.636312
0.543803 0.024634 0.634102
0.669558 0.024494 0.631241
0.793620 0.024888 0.628070
0.915841 0.025834 0.624853
1.000000 0.027334 0.621776
0.027670 0.151230 0.635288
0.156969 0.150034 0.636812
0.285739 0.148670 0.637184
0.414779 0.147352 0.636321
0.543220 0.146323 0.634356
0.670354 0.145754 0.631677
0.795786 0.145721 0.628706
0.919350 0.146241 0.625757
1.000000 0.147312 0.623023
0.023998 0.274020 0.632846
0.152791 0.272968 0.634426
0.281581 0.271571 0.635077
0.411308 0.270010 0.634596
0.540953 0.268594 0.632918
0.669460 0.267598 0.630423
0.796255 0.267138 0.627668
0.921150 0.267231 0.625028
1.000000 0.267872 0.622695
0.020642 0.396818 0.629396
0.148461 0.396084 0.630695
0.276628 0.394874 0.631319
0.406411 0.393269 0.631114
0.537011 0.391534 0.629782
0.666879 0.390114 0.627483
0.795024 0.389228 0.624974
0.921236 0.388891 0.622716
1.000000 0.389093 0.620870
0.018180 0.519392 0.625532
0.144741 0.519091 0.626243
0.271767 0.518267 0.626406
0.400717 0.516929 0.626008
0.531457 0.515127 0.624923
0.662608 0.513303 0.622857
0.792083 0.511987 0.620680
0.919604 0.511209 0.618935
1.000000 0.510961 0.617693
0.017036 0.641553 0.621873
0.142249 0.641726 0.621855
0.267949 0.641369 0.621308
0.395595 0.640486 0.620236
0.525189 0.639077 0.618638
0.656645 0.637157 0.616618
0.787439 0.635390 0.615035
0.916289 0.634147 0.613981
1.000000 0.633430 0.613453
0.017448 0.763180 0.618925
0.141313 0.763827 0.618187
0.265684 0.763935 0.616943
0.392007 0.763512 0.615206
0.520286 0.762552 0.613032
0.650455 0.761045 0.610707
0.781554 0.759186 0.609139
0.911554 0.757552 0.608578
1.000000 0.756389 0.608690
0.019525 0.884205 0.617039
0.142058 0.885312 0.615657
0.265117 0.885870 0.613822
0.390132 0.885888 0.611573
0.517090 0.885358 0.609030
0.645892 0.884278 0.606499
0.776032 0.882737 0.604610
0.906243 0.881056 0.603887
1.000000 0.879608 0.604221
0.023310 1.000000 0.616435
0.144519 1.000000 0.614496
0.266270 1.000000 0.612172
0.389970 1.000000 0.609524
0.515589 1.000000 0.606700
0.643016 1.000000 0.603982
0.771903 1.000000 0.601831
0.901480 1.000000 0.600735
1.000000 1.000000 0.600863
0.031243 0.028786 0.752246
0.159579 0.027822 0.754301
0.286990 0.026820 0.755100
0.414427 0.025935 0.754657
0.541302 0.025332 0.753086
0.667095 0.025140 0.750623
0.791429 0.025442 0.747567
0.914070 0.026278 0.744199
1.000000 0.027666 0.740746
0.028623 0.151071 0.752590
0.156952 0.150080 0.754927
0.284780 0.148916 0.756102
0.413058 0.147743 0.756042
0.541096 0.146763 0.754780
0.668223 0.146152 0.752537
0.793938 0.146025 0.749659
0.917951 0.146434 0.746485
1.000000 0.147396 0.743278
0.025626 0.273529 0.751445
0.153538 0.272652 0.753890
0.281377 0.271456 0.755347
0.410186 0.270086 0.755671
0.539238 0.268769 0.754760
0.667662 0.267748 0.752759
0.794757 0.267193 0.750061
0.920137 0.267175 0.747091
1.000000 0.267711 0.744155
0.022737 0.396074 0.749123
0.149826 0.395457 0.751415
0.277174 0.394401 0.752932
0.406018 0.392992 0.753539
0.535777 0.391426 0.753010
0.665418 0.390016 0.751290
0.793887 0.389034 0.748776
0.920628 0.388589 0.746025
1.000000 0.388697 0.743404
0.020469 0.518508 0.746072
0.146423 0.518272 0.747926
0.272811 0.517530 0.749167
0.401038 0.516307 0.749752
0.530875 0.514689 0.749504
0.661495 0.512953 0.748125
0.791328 0.511546 0.745804
0.919418 0.510675 0.743307
1.000000 0.510353 0.741076
0.019261 0.640648 0.742817
0.143914 0.640864 0.744024
0.269058 0.640550 0.744682
0.396143 0.639713 0.744804
0.525153 0.638361 0.744367
0.655948 0.636547 0.743240
0.787080 0.634731 0.741148
0.916496 0.633430 0.738996
1.000000 0.632666 0.737289
0.019425 0.762349 0.739863
0.142728 0.763041 0.740334
0.266539 0.763196 0.740271
0.392296 0.762826 0.739682
0.520001 0.761929 0.738568
0.649653 0.760507 0.736929
0.781139 0.758579 0.734900
0.911875 0.756825 0.733358
1.000000 0.755596 0.732346
0.021149 0.883515 0.737622
0.143101 0.884681 0.737367
0.265580 0.885304 0.736594
0.390010 0.885398 0.735311
0.516393 0.884962 0.733537
0.644731 0.883987 0.731337
0.774946 0.882466 0.729017
0.906021 0.880609 0.727495
1.000000 0.878988 0.726973
0.024526 1.000000 0.736394
0.145142 1.000000 0.735471
0.266305 1.000000 0.734066
0.389424 1.000000 0.732198
0.514498 1.000000 0.729920
0.641514 1.000000 0.727361
0.770361 1.000000 0.724840
0.900509 1.000000 0.722991
1.000000 1.000000 0.722315
0.031588 0.029154 0.866109
0.158953 0.028397 0.868974
0.285481 0.027576 0.870582
0.412206 0.026822 0.870940
0.538622 0.026282 0.870099
0.664240 0.026084 0.868214
0.788652 0.026326 0.865518
0.911564 0.027070 0.862268
1.000000 0.028349 0.858705
0.029743 0.151072 0.867808
0.157098 0.150289 0.870955
0.283973 0.149328 0.872932
0.411413 0.148322 0.873683
0.538861 0.147439 0.873193
0.665726 0.146843 0.871581
0.791492 0.146662 0.869089
0.915786 0.146977 0.866017
1.000000 0.147828 0.862645
0.027453 0.273187 0.867983
0.154455 0.272495 0.871272
0.281334 0.271504 0.873531
0.409202 0.270332 0.874659
0.537503 0.269157 0.874551
0.665539 0.268182 0.873244
0.792641 0.267582 0.870969
0.918316 0.267469 0.868075
1.000000 0.267893 0.864899
0.025126 0.395443 0.866873
0.151420 0.394968 0.870096
0.277896 0.394085 0.872466
0.405786 0.392878 0.873879
0.534633 0.391502 0.874156
0.663698 0.390186 0.873197
0.792104 0.389174 0.871160
0.919158 0.388633 0.868445
1.000000 0.388631 0.865475
0.023204 0.517673 0.864824
0.148487 0.517530 0.867736
0.274152 0.516903 0.869958
0.401559 0.515834 0.871435
0.530455 0.514414 0.871999
0.660246 0.512843 0.871421
0.789881 0.511438 0.869660
0.918311 0.510470 0.867127
1.000000 0.510041 0.864382
0.022105 0.639709 0.862266
0.146170 0.639982 0.864645
0.270714 0.639732 0.866434
0.397163 0.638976 0.867636
0.525450 0.637739 0.868181
0.655341 0.636110 0.867891
0.785979 0.634373 0.866465
0.915776 0.632978 0.864124
1.000000 0.632123 0.861640
0.022172 0.761405 0.859654
0.144916 0.762139 0.861353
0.268174 0.762336 0.862501
0.393377 0.762009 0.863118
0.520521 0.761159 0.863199
0.649591 0.759792 0.862722
0.780442 0.757966 0.861554
0.911550 0.756159 0.859438
1.000000 0.754874 0.857314
0.023647 0.882645 0.857410
0.145039 0.883856 0.858370
0.266961 0.884523 0.858790
0.390830 0.884665 0.858684
0.516647 0.884282 0.858053
0.644410 0.883372 0.856897
0.774120 0.881937 0.855217
0.905632 0.880002 0.853185
1.000000 0.878261 0.851684
0.026682 1.000000 0.855878
0.146723 1.000000 0.856108
0.267312 1.000000 0.855811
0.389850 1.000000 0.854999
0.514339 1.000000 0.853677
0.640781 1.000000 0.851867
0.769178 1.000000 0.849641
0.899437 1.000000 0.847329
1.000000 1.000000 0.845853
0.032096 0.029685 0.977887
0.158487 0.029136 0.981560
0.284108 0.028503 0.983977
0.410050 0.027900 0.985143
0.535879 0.027456 0.985076
0.661148 0.027292 0.983873
0.785456 0.027512 0.981705
0.908474 0.028191 0.978787
1.000000 0.029378 0.975345
0.031026 0.151235 0.980941
0.157406 0.150661 0.984899
0.283323 0.149903 0.987676
0.409883 0.149077 0.989236
0.536626 0.148323 0.989546
0.663042 0.147787 0.988660
0.788644 0.147597 0.986738
0.913026 0.147851 0.984016
1.000000 0.148609 0.980751
0.029466 0.272999 0.982448
0.155537 0.272500 0.986570
0.281454 0.271713 0.989630
0.408370 0.270744 0.991559
0.535838 0.269735 0.992261
0.663296 0.268854 0.991724
0.790149 0.268265 0.990072
0.915886 0.268096 0.987552
1.000000 0.268425 0.984464
0.027759 0.394943 0.982597
0.153213 0.394628 0.986714
0.278787 0.393929 0.989918
0.405717 0.392927 0.992133
0.533626 0.391748 0.993213
0.661948 0.390572 0.993056
0.789982 0.389601 0.991706
0.917059 0.389012 0.989399
1.000000 0.388913 0.986489
0.026291 0.516926 0.981665
0.150843 0.516900 0.985568
0.275722 0.516414 0.988710
0.402256 0.515518 0.991039
0.530198 0.514300 0.992408
0.659082 0.512918 0.992637
0.788158 0.511603 0.991631
0.916545 0.510601 0.989558
1.000000 0.510074 0.986827
0.025444 0.638798 0.979999
0.148873 0.639148 0.983481
0.272754 0.638990 0.986315
0.398480 0.638349 0.988498
0.525946 0.637266 0.989935
0.654895 0.635835 0.990455
0.784717 0.634260 0.989830
0.914345 0.632861 0.988027
1.000000 0.631906 0.985478
0.025561 0.760417 0.977994
0.147727 0.761203 0.980883
0.270404 0.761455 0.983190
0.395008 0.761192 0.984940
0.521516 0.760421 0.986102
0.649864 0.759171 0.986608
0.779808 0.757530 0.986275
0.910463 0.755793 0.984802
1.000000 0.754411 0.982443
0.026915 0.881663 0.976046
0.147749 0.882915 0.978236
0.269120 0.883624 0.979870
0.392437 0.883808 0.980976
0.517698 0.883468 0.981552
0.644901 0.882604 0.981592
0.774030 0.881224 0.981076
0.904936 0.879386 0.979866
1.000000 0.877589 0.977728
0.029702 1.000000 0.974512
0.149182 1.000000 0.975962
0.269216 1.000000 0.976865
0.391197 1.000000 0.977243
0.515124 1.000000 0.977096
0.640999 1.000000 0.976423
0.768820 1.000000 0.975225
0.898590 1.000000 0.973504
1.000000 1.000000 0.971473
