assets/presets/luts/warm-soft/lut.cube
TITLE "Warm Soft"
LUT_3D_SIZE 5
0.032568 0.029977 0.026738
0.294380 0.026809 0.023630
0.546833 0.025769 0.022650
0.791499 0.026832 0.023773
1.000000 0.029998 0.026998
0.022008 0.277164 0.016281
0.284015 0.273936 0.013201
0.541085 0.271320 0.014240
0.790923 0.270580 0.017991
1.000000 0.271894 0.024009
0.018203 0.521572 0.012581
0.275654 0.519812 0.008370
0.533028 0.517187 0.008605
0.786328 0.515333 0.013199
1.000000 0.515114 0.021028
0.021150 0.763292 0.015633
0.273307 0.763197 0.010515
0.527570 0.761645 0.009277
0.781175 0.759797 0.012921
1.000000 0.758763 0.020961
0.030849 1.000000 0.025437
0.277557 1.000000 0.019509
0.527385 1.000000 0.016981
0.778785 1.000000 0.019104
1.000000 1.000000 0.026149
0.031483 0.028936 0.275939
0.293522 0.025733 0.272518
0.548220 0.024419 0.267645
0.795132 0.025273 0.264212
1.000000 0.028255 0.262725
0.020861 0.276166 0.265240
0.283149 0.272892 0.261787
0.543145 0.269803 0.258900
0.795354 0.268815 0.258118
1.000000 0.269931 0.259438
0.015551 0.521525 0.256554
0.272491 0.520003 0.251488
0.532913 0.516785 0.248620
0.789732 0.514226 0.249841
1.000000 0.513543 0.253774
0.017086 0.764234 0.253961
0.268567 0.764431 0.247948
0.524584 0.762640 0.243919
0.781810 0.760037 0.244364
1.000000 0.758237 0.249144
0.025422 1.000000 0.257983
0.271393 1.000000 0.251160
0.522191 1.000000 0.246203
0.776413 1.000000 0.245166
1.000000 1.000000 0.249019
0.031038 0.028536 0.518264
0.290322 0.025846 0.517879
0.545949 0.024227 0.513291
0.795051 0.024683 0.507359
1.000000 0.027344 0.502168
0.022600 0.274648 0.512209
0.281949 0.271848 0.512722
0.542427 0.268683 0.509161
0.796899 0.267429 0.504357
1.000000 0.268340 0.501065
0.016479 0.520257 0.503439
0.271191 0.519042 0.501901
0.532148 0.515735 0.498338
0.791910 0.512698 0.495618
1.000000 0.511764 0.495004
0.016362 0.763819 0.497265
0.265769 0.764433 0.493225
0.521424 0.762854 0.488161
0.781802 0.759632 0.485462
1.000000 0.757125 0.486845
0.023072 1.000000 0.496424
0.267189 1.000000 0.490719
0.517405 1.000000 0.484749
0.773493 1.000000 0.480861
1.000000 1.000000 0.481496
0.031243 0.028786 0.752246
0.286990 0.026820 0.755100
0.541302 0.025332 0.753086
0.791429 0.025442 0.747567
1.000000 0.027666 0.740746
0.025626 0.273529 0.751445
0.281377 0.271456 0.755347
0.539238 0.268769 0.754760
0.794757 0.267193 0.750061
1.000000 0.267711 0.744155
0.020469 0.518508 0.746072
0.272811 0.517530 0.749167
0.530875 0.514689 0.749504
0.791328 0.511546 0.745804
1.000000 0.510353 0.741076
0.019425 0.762349 0.739863
0.266539 0.763196 0.740271
0.520001 0.761929 0.738568
0.781139 0.758579 0.734900
1.000000 0.755596 0.732346
0.024526 1.000000 0.736394
0.266305 1.000000 0.734066
0.514498 1.000000 0.729920
0.770361 1.000000 0.724840
1.000000 1.000000 0.722315
0.032096 0.029685 0.977887
0.284108 0.028503 0.983977
0.535879 0.027456 0.985076
0.785456 0.027512 0.981705
1.000000 0.029378 0.975345
0.029466 0.272999 0.982448
0.281454 0.271713 0.989630
0.535838 0.269735 0.992261
0.790149 0.268265 0.990072
1.000000 0.268425 0.984464
0.026291 0.516926 0.981665
0.275722 0.516414 0.988710
0.530198 0.514300 0.992408
0.788158 0.511603 0.991631
1.000000 0.510074 0.986827
0.025561 0.760417 0.977994
0.270404 0.761455 0.983190
0.521516 0.760421 0.986102
0.779808 0.757530 0.986275
1.000000 0.754411 0.982443
0.029702 1.000000 0.974512
0.269216 1.000000 0.976865
0.515124 1.000000 0.977096
0.768820 1.000000 0.975225
1.000000 1.000000 0.971473
