assets/presets/luts/warm-soft/lut.cube
TITLE "Warm Soft"
LUT_3D_SIZE 17
0.032568 0.029977 0.026738
0.099929 0.028969 0.025745
0.165233 0.028118 0.024909
0.230050 0.027398 0.024204
0.294380 0.026809 0.023630
0.358223 0.026352 0.023188
0.421580 0.026027 0.022877
0.484450 0.025832 0.022698
0.546833 0.025769 0.022650
0.608730 0.025838 0.022734
0.670139 0.026038 0.022949
0.731063 0.026370 0.023295
0.791499 0.026832 0.023773
0.851449 0.027427 0.024382
0.910912 0.028152 0.025122
0.969888 0.029009 0.025994
1.000000 0.029998 0.026998
0.029292 0.092093 0.023486
0.096686 0.091076 0.022496
0.162279 0.090126 0.021786
0.227419 0.089293 0.021245
0.292079 0.088589 0.020845
0.356255 0.088015 0.020581
0.419945 0.087572 0.020451
0.483149 0.087260 0.020453
0.545867 0.087080 0.020587
0.608098 0.087030 0.020853
0.669842 0.087112 0.021251
0.731100 0.087326 0.021780
0.791872 0.087671 0.022442
0.852156 0.088147 0.023234
0.911955 0.088754 0.024158
0.971266 0.089493 0.025214
1.000000 0.090364 0.026401
0.026442 0.153952 0.020662
0.093558 0.153024 0.019597
0.159183 0.152069 0.018841
0.224542 0.151166 0.018354
0.289486 0.150366 0.018067
0.353969 0.149687 0.017945
0.417978 0.149133 0.017970
0.481507 0.148708 0.018137
0.544552 0.148413 0.018441
0.607112 0.148249 0.018880
0.669187 0.148215 0.019453
0.730777 0.148312 0.020159
0.791880 0.148540 0.020999
0.852498 0.148899 0.021970
0.912629 0.149389 0.023074
0.972273 0.150011 0.024310
1.000000 0.150764 0.025678
0.024014 0.215642 0.018261
0.090797 0.214819 0.017135
0.156239 0.213928 0.016286
0.221626 0.213023 0.015742
0.286740 0.212171 0.015471
0.351466 0.211412 0.015420
0.415754 0.210764 0.015552
0.479581 0.210238 0.015847
0.542936 0.209836 0.016294
0.605813 0.209562 0.016886
0.668209 0.209416 0.017618
0.730123 0.209401 0.018489
0.791553 0.209515 0.019495
0.852498 0.209759 0.020637
0.912958 0.210135 0.021914
0.972932 0.210641 0.023323
1.000000 0.211278 0.024867
0.022008 0.277164 0.016281
0.088446 0.276449 0.015102
0.153618 0.275647 0.014170
0.218876 0.274789 0.013532
0.284015 0.273936 0.013201
0.348880 0.273136 0.013143
0.413376 0.272423 0.013317
0.477454 0.271814 0.013690
0.541085 0.271320 0.014240
0.604255 0.270946 0.014953
0.666954 0.270697 0.015819
0.729178 0.270575 0.016833
0.790923 0.270580 0.017991
0.852187 0.270714 0.019289
0.912969 0.270977 0.020726
0.973267 0.271370 0.022299
1.000000 0.271894 0.024009
0.020423 0.338518 0.014723
0.086513 0.337912 0.013495
0.151380 0.337207 0.012492
0.216418 0.336424 0.011760
0.281461 0.335609 0.011336
0.346349 0.334809 0.011217
0.410963 0.334062 0.011371
0.475223 0.333397 0.011766
0.539080 0.332830 0.012371
0.602504 0.332373 0.013165
0.665478 0.332032 0.014132
0.727990 0.331812 0.015262
0.790033 0.331716 0.016547
0.851602 0.331745 0.017982
0.912694 0.331902 0.019562
0.973307 0.332187 0.021285
1.000000 0.332600 0.023149
0.019261 0.399704 0.013587
0.085000 0.399207 0.012311
0.149546 0.398604 0.011245
0.214317 0.397909 0.010428
0.279180 0.397157 0.009906
0.343993 0.396388 0.009697
0.408630 0.395642 0.009789
0.472992 0.394949 0.010156
0.537010 0.394333 0.010768
0.600639 0.393812 0.011599
0.663847 0.393395 0.012629
0.726616 0.393090 0.013842
0.788933 0.392902 0.015227
0.850787 0.392836 0.016774
0.912173 0.392892 0.018478
0.973087 0.393074 0.020332
1.000000 0.393383 0.022334
0.018521 0.460722 0.012873
0.083908 0.460335 0.011550
0.148124 0.459836 0.010427
0.212602 0.459236 0.009533
0.277233 0.458562 0.008918
0.341897 0.457847 0.008611
0.406473 0.457127 0.008616
0.470856 0.456434 0.008919
0.534965 0.455795 0.009497
0.598739 0.455231 0.010325
0.662134 0.454756 0.011379
0.725121 0.454382 0.012640
0.787678 0.454116 0.014092
0.849791 0.453964 0.015724
0.911449 0.453930 0.017526
0.972646 0.454016 0.019490
1.000000 0.454226 0.021611
0.018203 0.521572 0.012581
0.083237 0.521294 0.011211
0.147120 0.520900 0.010034
0.211288 0.520399 0.009071
0.275654 0.519812 0.008370
0.340116 0.519168 0.007965
0.404564 0.518495 0.007873
0.468898 0.517826 0.008091
0.533028 0.517187 0.008605
0.596884 0.516602 0.009395
0.660411 0.516089 0.010437
0.723569 0.515663 0.011711
0.786328 0.515333 0.013199
0.848667 0.515108 0.014886
0.910571 0.514994 0.016759
0.972027 0.514995 0.018809
1.000000 0.515114 0.021028
0.018307 0.582254 0.012711
0.082988 0.582086 0.011295
0.146533 0.581797 0.010066
0.210383 0.581397 0.009038
0.274463 0.580904 0.008258
0.338686 0.580339 0.007761
0.402957 0.579730 0.007570
0.467181 0.579102 0.007693
0.531270 0.578484 0.008124
0.595146 0.577900 0.008849
0.658748 0.577369 0.009850
0.722027 0.576908 0.011105
0.784944 0.576531 0.012598
0.847472 0.576248 0.014310
0.909588 0.576066 0.016227
0.971277 0.575992 0.018337
1.000000 0.576030 0.020629
0.018832 0.642768 0.013263
0.083161 0.642709 0.011801
0.146367 0.642526 0.010522
0.209891 0.642229 0.009434
0.273670 0.641833 0.008580
0.337630 0.641356 0.007996
0.401686 0.640819 0.007709
0.465754 0.640249 0.007732
0.529746 0.639669 0.008070
0.593587 0.639103 0.008713
0.657210 0.638572 0.009649
0.720558 0.638095 0.010861
0.783588 0.637687 0.012330
0.846262 0.637360 0.014039
0.908555 0.637124 0.015973
0.970444 0.636987 0.018117
1.000000 0.636955 0.020460
0.019780 0.703114 0.014237
0.083756 0.703165 0.012729
0.146621 0.703088 0.011401
0.209815 0.702895 0.010256
0.273283 0.702598 0.009333
0.336961 0.702212 0.008668
0.400776 0.701757 0.008288
0.464649 0.701254 0.008214
0.528502 0.700726 0.008453
0.592259 0.700194 0.009004
0.655851 0.699681 0.009860
0.719220 0.699204 0.011007
0.782314 0.698782 0.012430
0.845093 0.698427 0.014111
0.907523 0.698151 0.016036
0.969579 0.697963 0.018190
1.000000 0.697872 0.020559
0.021150 0.763292 0.015633
0.084772 0.763452 0.014080
0.147296 0.763482 0.012703
0.210157 0.763393 0.011503
0.273307 0.763197 0.010515
0.336691 0.762907 0.009773
0.400243 0.762539 0.009307
0.463894 0.762112 0.009137
0.527570 0.761645 0.009277
0.591201 0.761161 0.009730
0.654718 0.760679 0.010496
0.718061 0.760219 0.011563
0.781175 0.759797 0.012921
0.844015 0.759428 0.014555
0.906543 0.759126 0.016449
0.968728 0.758902 0.018589
1.000000 0.758763 0.020961
0.022942 0.823301 0.017451
0.086210 0.823572 0.015852
0.148392 0.823708 0.014428
0.210917 0.823724 0.013174
0.273745 0.823631 0.012124
0.336824 0.823438 0.011310
0.400099 0.823161 0.010761
0.463505 0.822816 0.010500
0.526976 0.822420 0.010542
0.590446 0.821994 0.010897
0.653849 0.821555 0.011566
0.717124 0.821124 0.012544
0.780216 0.820716 0.013824
0.843076 0.820349 0.015393
0.905662 0.820035 0.017237
0.967939 0.819786 0.019344
1.000000 0.819613 0.021698
0.025155 0.883143 0.019691
0.088070 0.883523 0.018047
0.149909 0.883766 0.016576
0.212098 0.883888 0.015270
0.274598 0.883897 0.014160
0.337366 0.883804 0.013278
0.400351 0.883621 0.012650
0.463495 0.883363 0.012302
0.526739 0.883044 0.012249
0.590019 0.882684 0.012505
0.653275 0.882300 0.013075
0.716446 0.881909 0.013958
0.779477 0.881528 0.015150
0.842318 0.881174 0.016641
0.904923 0.880861 0.018421
0.967255 0.880601 0.020477
1.000000 0.880406 0.022795
0.027791 0.942817 0.022353
0.090353 0.943306 0.020663
0.151848 0.943656 0.019146
0.213698 0.943884 0.017789
0.275869 0.943997 0.016622
0.338320 0.944005 0.015674
0.401005 0.943918 0.014972
0.463874 0.943750 0.014540
0.526871 0.943514 0.014396
0.589939 0.943227 0.014555
0.653019 0.942905 0.015026
0.716055 0.942564 0.015811
0.778991 0.942221 0.016909
0.841776 0.941892 0.018313
0.904365 0.941592 0.020016
0.966716 0.941332 0.022006
1.000000 0.941127 0.024273
0.030849 1.000000 0.025437
0.093057 1.000000 0.023702
0.154208 1.000000 0.022138
0.215719 1.000000 0.020731
0.277557 1.000000 0.019509
0.339687 1.000000 0.018498
0.402066 1.000000 0.017724
0.464649 1.000000 0.017212
0.527385 1.000000 0.016981
0.590221 1.000000 0.017046
0.653102 1.000000 0.017419
0.715975 1.000000 0.018104
0.778785 1.000000 0.019104
0.841483 1.000000 0.020416
0.904021 1.000000 0.022033
0.966358 1.000000 0.023947
1.000000 1.000000 0.026149
0.032243 0.029661 0.088720
0.099642 0.028648 0.087674
0.165084 0.027781 0.086586
0.230038 0.027049 0.085598
0.294504 0.026449 0.084734
0.358483 0.025981 0.083998
0.421975 0.025646 0.083392
0.484979 0.025441 0.082916
0.547497 0.025368 0.082572
0.609528 0.025427 0.082359
0.671073 0.025617 0.082277
0.732130 0.025938 0.082326
0.792701 0.026391 0.082507
0.852785 0.026976 0.082819
0.912382 0.027691 0.083262
0.971492 0.028538 0.083836
1.000000 0.029517 0.084542
0.028958 0.091785 0.085426
0.096394 0.090761 0.084380
0.162167 0.089781 0.083430
0.227453 0.088933 0.082611
0.292253 0.088217 0.081924
0.356566 0.087632 0.081368
0.420392 0.087178 0.080944
0.483731 0.086856 0.080651
0.546584 0.086665 0.080489
0.608950 0.086605 0.080459
0.670829 0.086677 0.080561
0.732222 0.086880 0.080793
0.793128 0.087215 0.081157
0.853547 0.087681 0.081653
0.913479 0.088279 0.082280
0.972925 0.089008 0.083038
1.000000 0.089868 0.083928
0.026016 0.153703 0.082285
0.093115 0.152787 0.081148
0.158938 0.151793 0.080199
0.224511 0.150847 0.079504
0.289632 0.150019 0.078978
0.354274 0.149319 0.078595
0.418432 0.148748 0.078348
0.482104 0.148309 0.078235
0.545291 0.148001 0.078254
0.607990 0.147824 0.078406
0.670204 0.147778 0.078689
0.731930 0.147863 0.079104
0.793171 0.148080 0.079651
0.853924 0.148429 0.080330
0.914191 0.148908 0.081140
0.973971 0.149519 0.082081
1.000000 0.150262 0.083155
0.023503 0.215453 0.079533
0.090253 0.214648 0.078340
0.155815 0.213739 0.077314
0.221427 0.212786 0.076574
0.286766 0.211887 0.076102
0.351691 0.211092 0.075831
0.416156 0.210416 0.075724
0.480146 0.209866 0.075766
0.543656 0.209445 0.075949
0.606683 0.209154 0.076269
0.669225 0.208993 0.076725
0.731282 0.208963 0.077315
0.792854 0.209063 0.078039
0.853939 0.209295 0.078895
0.914539 0.209658 0.079884
0.974652 0.210152 0.081005
1.000000 0.210777 0.082258
0.021414 0.277036 0.077196
0.087813 0.276340 0.075953
0.153054 0.275532 0.074866
0.218491 0.274641 0.074033
0.283862 0.273739 0.073506
0.348956 0.272891 0.073250
0.413663 0.272136 0.073214
0.477932 0.271493 0.073361
0.541740 0.270971 0.073672
0.605076 0.270573 0.074135
0.667934 0.270303 0.074743
0.730312 0.270161 0.075492
0.792207 0.270149 0.076379
0.853619 0.270267 0.077402
0.914546 0.270515 0.078561
0.974988 0.270894 0.079854
1.000000 0.271404 0.081281
0.019748 0.338451 0.075279
0.085795 0.337864 0.073989
0.150701 0.337162 0.072849
0.215872 0.336358 0.071931
0.281120 0.335501 0.071310
0.346242 0.334651 0.070995
0.411088 0.333856 0.070953
0.475566 0.333147 0.071142
0.539624 0.332542 0.071530
0.603235 0.332052 0.072095
0.666386 0.331683 0.072824
0.729066 0.331438 0.073706
0.791271 0.331319 0.074736
0.852998 0.331328 0.075909
0.914244 0.331466 0.077224
0.975007 0.331733 0.078677
1.000000 0.332130 0.080267
0.018504 0.399698 0.073784
0.084198 0.399220 0.072446
0.148765 0.398624 0.071257
0.213634 0.397917 0.070267
0.278667 0.397134 0.069551
0.343697 0.396321 0.069145
0.408569 0.395524 0.069041
0.473164 0.394781 0.069212
0.537404 0.394120 0.069621
0.601242 0.393558 0.070241
0.664646 0.393105 0.071050
0.727601 0.392768 0.072033
0.790094 0.392552 0.073178
0.852118 0.392460 0.074479
0.913668 0.392493 0.075930
0.974742 0.392654 0.077526
1.000000 0.392942 0.079265
0.017683 0.460776 0.072709
0.083024 0.460408 0.071326
0.147248 0.459918 0.070089
0.211798 0.459313 0.069036
0.276568 0.458617 0.068234
0.341422 0.457866 0.067729
0.406222 0.457099 0.067536
0.470841 0.456356 0.067645
0.535184 0.455667 0.068027
0.599183 0.455056 0.068654
0.662792 0.454538 0.069500
0.725981 0.454126 0.070545
0.788731 0.453825 0.071774
0.851028 0.453642 0.073173
0.912863 0.453579 0.074736
0.974231 0.453640 0.076455
1.000000 0.453826 0.078325
0.017284 0.521686 0.072057
0.082271 0.521429 0.070628
0.146153 0.521045 0.069344
0.210375 0.520543 0.068232
0.274853 0.519942 0.067353
0.339479 0.519268 0.066754
0.404132 0.518555 0.066464
0.468693 0.517837 0.066485
0.533059 0.517148 0.066805
0.597150 0.516513 0.067398
0.660904 0.515953 0.068241
0.724280 0.515482 0.069310
0.787247 0.515112 0.070586
0.849784 0.514850 0.072054
0.911878 0.514702 0.073701
0.973517 0.514673 0.075518
1.000000 0.514763 0.077497
0.017307 0.582429 0.071826
0.081941 0.582281 0.070351
0.145478 0.582004 0.069022
0.209367 0.581607 0.067855
0.273537 0.581104 0.066905
0.337901 0.580517 0.066220
0.402355 0.579872 0.065832
0.466792 0.579202 0.065757
0.531110 0.578535 0.065991
0.595223 0.577900 0.066522
0.659061 0.577319 0.067327
0.722569 0.576810 0.068384
0.785707 0.576388 0.069673
0.848446 0.576063 0.071176
0.910766 0.575842 0.072878
0.972650 0.575732 0.074766
1.000000 0.575737 0.076831
0.017752 0.643003 0.072017
0.082032 0.642965 0.070497
0.145226 0.642795 0.069122
0.208778 0.642503 0.067903
0.272630 0.642101 0.066888
0.336710 0.641606 0.066123
0.400928 0.641042 0.065642
0.465190 0.640433 0.065467
0.529401 0.639808 0.065607
0.593474 0.639193 0.066054
0.657333 0.638612 0.066796
0.720917 0.638085 0.067812
0.784177 0.637628 0.069083
0.847075 0.637255 0.070591
0.909583 0.636976 0.072318
0.971679 0.636799 0.074249
1.000000 0.636729 0.076374
0.018619 0.703409 0.072630
0.082546 0.703481 0.071065
0.145395 0.703418 0.069645
0.208608 0.703232 0.068375
0.272136 0.702932 0.067299
0.335916 0.702534 0.066459
0.399873 0.702056 0.065891
0.463922 0.701521 0.065620
0.527979 0.700951 0.065660
0.591958 0.700374 0.066015
0.655784 0.699811 0.066675
0.719389 0.699284 0.067627
0.782719 0.698811 0.068854
0.845729 0.698407 0.070339
0.908385 0.698084 0.072063
0.970658 0.697852 0.074011
1.000000 0.697719 0.076171
0.019908 0.763648 0.073664
0.083481 0.763829 0.072054
0.145985 0.763873 0.070589
0.208859 0.763793 0.069270
0.272058 0.763597 0.068136
0.335528 0.763298 0.067227
0.399205 0.762911 0.066576
0.463014 0.762456 0.066213
0.526879 0.761954 0.066156
0.590720 0.761427 0.066411
0.654463 0.760898 0.066979
0.718039 0.760388 0.067852
0.781390 0.759915 0.069015
0.844467 0.759496 0.070453
0.907227 0.759145 0.072150
0.969638 0.758874 0.074090
1.000000 0.758690 0.076259
0.021620 0.823718 0.075121
0.084839 0.824008 0.073466
0.146998 0.824160 0.071956
0.209530 0.824186 0.070588
0.272397 0.824095 0.069399
0.335550 0.823897 0.068424
0.398934 0.823605 0.067696
0.462483 0.823236 0.067246
0.526127 0.822809 0.067092
0.589793 0.822344 0.067249
0.653412 0.821862 0.067720
0.716914 0.821383 0.068502
0.780241 0.820925 0.069586
0.843338 0.820507 0.070960
0.906160 0.820142 0.072609
0.968669 0.819844 0.074519
1.000000 0.819624 0.076674
0.023753 0.883620 0.077000
0.086618 0.884020 0.075299
0.148432 0.884279 0.073745
0.210622 0.884411 0.072330
0.273154 0.884425 0.071086
0.335986 0.884329 0.070048
0.399066 0.884135 0.069249
0.462338 0.883857 0.068715
0.525739 0.883511 0.068469
0.589203 0.883117 0.068528
0.652662 0.882692 0.068900
0.716052 0.882255 0.069586
0.779313 0.881827 0.070581
0.842388 0.881422 0.071877
0.905231 0.881058 0.073462
0.967799 0.880748 0.075322
1.000000 0.880503 0.077444
0.026308 0.943354 0.079300
0.088820 0.943864 0.077555
0.150288 0.944230 0.075956
0.212136 0.944469 0.074493
0.274331 0.944588 0.073197
0.336837 0.944595 0.072100
0.399607 0.944500 0.071231
0.462590 0.944316 0.070618
0.525731 0.944057 0.070285
0.588968 0.943739 0.070249
0.652239 0.943379 0.070522
0.715484 0.942997 0.071109
0.778641 0.942608 0.072009
0.841657 0.942230 0.073217
0.904482 0.941879 0.074725
0.967070 0.941569 0.076520
1.000000 0.941313 0.078592
0.029286 1.000000 0.082023
0.091443 1.000000 0.080232
0.152566 1.000000 0.078590
0.214071 1.000000 0.077080
0.275929 1.000000 0.075733
0.338104 1.000000 0.074577
0.400558 1.000000 0.073642
0.463244 1.000000 0.072954
0.526110 1.000000 0.072537
0.589102 1.000000 0.072410
0.652163 1.000000 0.072586
0.715233 1.000000 0.073073
0.778256 1.000000 0.073875
0.841178 1.000000 0.074990
0.903949 1.000000 0.076411
0.966521 1.000000 0.078130
1.000000 1.000000 0.080136
0.031949 0.029379 0.151648
0.099187 0.028394 0.150788
0.164703 0.027506 0.149695
0.229797 0.026750 0.148535
0.294409 0.026131 0.147431
0.358532 0.025647 0.146428
0.422167 0.025297 0.145541
0.485313 0.025080 0.144778
0.547971 0.024995 0.144141
0.610142 0.025042 0.143632
0.671826 0.025220 0.143252
0.733022 0.025530 0.143002
0.793732 0.025972 0.142883
0.853955 0.026546 0.142894
0.913690 0.027251 0.143036
0.972939 0.028088 0.143308
1.000000 0.029056 0.143712
0.028798 0.091434 0.148641
0.096054 0.090438 0.147841
0.161884 0.089450 0.146808
0.227312 0.088587 0.145726
0.292252 0.087858 0.144747
0.356704 0.087261 0.143893
0.420668 0.086797 0.143167
0.484146 0.086464 0.142572
0.547136 0.086263 0.142107
0.609640 0.086193 0.141774
0.671657 0.086255 0.141571
0.733187 0.086448 0.141500
0.794230 0.086773 0.141560
0.854787 0.087229 0.141751
0.914857 0.087816 0.142074
0.974440 0.088535 0.142528
1.000000 0.089385 0.143113
0.025801 0.153370 0.145475
0.092761 0.152476 0.144543
0.158646 0.151471 0.143515
0.224404 0.150495 0.142575
0.289676 0.149650 0.141767
0.354461 0.148937 0.141090
0.418759 0.148355 0.140545
0.482571 0.147905 0.140131
0.545896 0.147586 0.139849
0.608734 0.147398 0.139698
0.671085 0.147342 0.139678
0.732950 0.147417 0.139790
0.794328 0.147624 0.140033
0.855219 0.147962 0.140408
0.915624 0.148431 0.140914
0.975541 0.149032 0.141551
1.000000 0.149764 0.142320
0.023183 0.215176 0.142486
0.089807 0.214397 0.141401
0.155365 0.213498 0.140290
0.221183 0.212504 0.139352
0.286742 0.211561 0.138667
0.351848 0.210736 0.138151
0.416475 0.210039 0.137778
0.480618 0.209473 0.137542
0.544276 0.209036 0.137439
0.607447 0.208731 0.137468
0.670132 0.208558 0.137630
0.732331 0.208515 0.137924
0.794043 0.208604 0.138350
0.855269 0.208824 0.138907
0.916008 0.209176 0.139596
0.976260 0.209659 0.140417
1.000000 0.210273 0.141369
0.020994 0.276820 0.139838
0.087280 0.276151 0.138653
0.152497 0.275359 0.137490
0.218062 0.274448 0.136473
0.283665 0.273497 0.135745
0.348990 0.272601 0.135284
0.413900 0.271809 0.135022
0.478350 0.271137 0.134925
0.542325 0.270591 0.134977
0.605820 0.270173 0.135170
0.668832 0.269885 0.135501
0.731360 0.269727 0.135967
0.793402 0.269701 0.136567
0.854959 0.269804 0.137301
0.916030 0.270039 0.138168
0.976615 0.270406 0.139167
1.000000 0.270903 0.140298
0.019233 0.338297 0.137583
0.085178 0.337738 0.136323
0.150051 0.337052 0.135111
0.215298 0.336242 0.134032
0.280732 0.335350 0.133211
0.346093 0.334450 0.132695
0.411174 0.333605 0.132450
0.475866 0.332854 0.132424
0.540120 0.332214 0.132581
0.603912 0.331695 0.132902
0.667233 0.331301 0.133374
0.730077 0.331034 0.133992
0.792440 0.330896 0.134751
0.854320 0.330887 0.135648
0.915717 0.331008 0.136682
0.976629 0.331260 0.137851
1.000000 0.331642 0.139154
0.017898 0.399606 0.135736
0.083498 0.399156 0.134413
0.148026 0.398577 0.133155
0.212940 0.397872 0.132022
0.278113 0.397067 0.131115
0.343355 0.396211 0.130506
0.408466 0.395363 0.130203
0.473299 0.394570 0.130171
0.537762 0.393864 0.130370
0.601805 0.393263 0.130768
0.665401 0.392776 0.131343
0.728537 0.392411 0.132081
0.791202 0.392169 0.132973
0.853392 0.392054 0.134013
0.915104 0.392066 0.135197
0.976335 0.392208 0.136521
1.000000 0.392478 0.137985
0.016989 0.460747 0.134305
0.082240 0.460406 0.132924
0.146424 0.459934 0.131621
0.210999 0.459335 0.130437
0.275872 0.458626 0.129458
0.340903 0.457842 0.128753
0.405925 0.457030 0.128359
0.470786 0.456235 0.128267
0.535368 0.455496 0.128448
0.599594 0.454838 0.128868
0.663416 0.454279 0.129498
0.726806 0.453829 0.130316
0.789745 0.453496 0.131309
0.852223 0.453284 0.132464
0.914232 0.453195 0.133775
0.975767 0.453232 0.135235
1.000000 0.453396 0.136842
0.016502 0.521720 0.133291
0.081405 0.521488 0.131856
0.145244 0.521124 0.130508
0.209477 0.520630 0.129277
0.274032 0.520022 0.128233
0.338802 0.519325 0.127442
0.403652 0.518574 0.126949
0.468443 0.517809 0.126769
0.533051 0.517068 0.126888
0.597381 0.516382 0.127281
0.661366 0.515774 0.127919
0.724960 0.515259 0.128775
0.788135 0.514850 0.129830
0.850869 0.514553 0.131068
0.913151 0.514373 0.132478
0.974971 0.514314 0.134050
1.000000 0.514379 0.135779
0.016439 0.582525 0.132697
0.080992 0.582402 0.131210
0.144485 0.582145 0.129818
0.208376 0.581758 0.128540
0.272604 0.581253 0.127436
0.337084 0.580650 0.126567
0.401708 0.579976 0.125980
0.466355 0.579263 0.125702
0.530908 0.578547 0.125736
0.595263 0.577860 0.126067
0.659340 0.577228 0.126671
0.723080 0.576671 0.127524
0.786441 0.576203 0.128604
0.849393 0.575837 0.129890
0.911916 0.575578 0.131367
0.973994 0.575434 0.133024
1.000000 0.575408 0.134851
0.016799 0.643161 0.132523
0.081001 0.643148 0.130986
0.144149 0.642998 0.129550
0.207696 0.642718 0.128226
0.271591 0.642318 0.127067
0.335765 0.641813 0.126126
0.400129 0.641224 0.125452
0.464579 0.640580 0.125076
0.529009 0.639910 0.125013
0.593318 0.639245 0.125260
0.657420 0.638612 0.125802
0.721244 0.638034 0.126618
0.784738 0.637528 0.127686
0.847862 0.637109 0.128985
0.910586 0.636787 0.130498
0.972891 0.636570 0.132210
1.000000 0.636464 0.134108
0.017582 0.703629 0.132770
0.081432 0.703725 0.131184
0.144235 0.703683 0.129704
0.207437 0.703510 0.128334
0.270997 0.703215 0.127122
0.334854 0.702810 0.126116
0.398935 0.702314 0.125361
0.463151 0.701749 0.124892
0.527408 0.701141 0.124730
0.591612 0.700517 0.124882
0.655675 0.699903 0.125341
0.719522 0.699324 0.126094
0.783093 0.698800 0.127121
0.846339 0.698347 0.128403
0.909223 0.697977 0.129921
0.971716 0.697701 0.131658
1.000000 0.697527 0.133600
0.018787 0.763930 0.133438
0.082285 0.764135 0.131804
0.144742 0.764199 0.130279
0.207601 0.764133 0.128864
0.270822 0.763944 0.127601
0.334355 0.763642 0.126534
0.398138 0.763242 0.125704
0.462094 0.762763 0.125147
0.526141 0.762227 0.124889
0.590191 0.761659 0.124941
0.654162 0.761082 0.125308
0.717977 0.760521 0.125979
0.781571 0.759996 0.126943
0.844888 0.759526 0.128181
0.907885 0.759125 0.129677
0.970526 0.758806 0.131411
1.000000 0.758577 0.133370
0.020414 0.824062 0.134527
0.083560 0.824377 0.132846
0.145672 0.824548 0.131277
0.208185 0.824589 0.129817
0.271067 0.824506 0.128504
0.334272 0.824308 0.127378
0.397746 0.824007 0.126479
0.461424 0.823619 0.125840
0.525231 0.823163 0.125488
0.589092 0.822661 0.125442
0.652926 0.822135 0.125710
0.716660 0.821607 0.126291
0.780226 0.821099 0.127175
0.843565 0.820628 0.128349
0.906629 0.820212 0.129799
0.969375 0.819864 0.131507
1.000000 0.819595 0.133457
0.022464 0.884026 0.136038
0.085258 0.884450 0.134309
0.147023 0.884729 0.132697
0.209192 0.884877 0.131192
0.271733 0.884900 0.129830
0.334606 0.884806 0.128649
0.397764 0.884606 0.127683
0.461149 0.884313 0.126966
0.524698 0.883943 0.126527
0.588339 0.883516 0.126385
0.652000 0.883051 0.126554
0.715611 0.882570 0.127037
0.779105 0.882092 0.127831
0.842421 0.881636 0.128927
0.905506 0.881220 0.130312
0.968315 0.880858 0.131973
1.000000 0.880563 0.133893
0.024935 0.943822 0.137971
0.087377 0.944356 0.136195
0.148797 0.944742 0.134538
0.210621 0.944997 0.132989
0.272819 0.945127 0.131579
0.335358 0.945137 0.130343
0.398195 0.945039 0.129315
0.461278 0.944843 0.128525
0.524551 0.944564 0.128002
0.587950 0.944217 0.127769
0.651410 0.943823 0.127840
0.714863 0.943398 0.128223
0.778245 0.942963 0.128921
0.841496 0.942536 0.129928
0.904561 0.942134 0.131236
0.967392 0.941772 0.132832
1.000000 0.941464 0.134704
0.027829 1.000000 0.140325
0.089918 1.000000 0.138503
0.150992 1.000000 0.136802
0.212471 1.000000 0.135208
0.274327 1.000000 0.133751
0.336530 1.000000 0.132462
0.399041 1.000000 0.131373
0.461814 1.000000 0.130514
0.524799 1.000000 0.129912
0.587939 1.000000 0.129590
0.651174 1.000000 0.129566
0.714441 1.000000 0.129851
0.777678 1.000000 0.130450
0.840828 1.000000 0.131363
0.903834 1.000000 0.132583
0.966647 1.000000 0.134102
1.000000 1.000000 0.135909
0.031696 0.029137 0.214054
0.098714 0.028197 0.213400
0.164161 0.027314 0.212459
0.229329 0.026534 0.211309
0.294071 0.025889 0.210091
0.358339 0.025381 0.208900
0.422121 0.025010 0.207784
0.485413 0.024775 0.206768
0.548217 0.024674 0.205864
0.610531 0.024706 0.205079
0.672358 0.024870 0.204417
0.733696 0.025167 0.203881
0.794547 0.025597 0.203471
0.854910 0.026158 0.203189
0.914786 0.026851 0.203037
0.974175 0.027676 0.203013
1.000000 0.028632 0.203120
0.028722 0.091106 0.211376
0.095748 0.090157 0.210792
0.161431 0.089195 0.209937
