assets/presets/luts/night-city/lut.cube
TITLE "Night City"
LUT_3D_SIZE 9
0.000000 0.000000 0.000000
0.051889 0.000000 0.000000
0.185670 0.000000 0.000000
0.320658 0.000000 0.000000
0.456220 0.000000 0.000000
0.592511 0.000000 0.000000
0.729304 0.000000 0.000000
0.866434 0.000000 0.000000
1.000000 0.000000 0.000000
0.000000 0.058309 0.000000
0.038096 0.059294 0.000000
0.184425 0.056477 0.000000
0.319049 0.055894 0.000000
0.454465 0.055529 0.000000
0.590709 0.055118 0.000000
0.727477 0.054676 0.000000
0.864587 0.054223 0.000000
1.000000 0.053764 0.000000
0.000000 0.190428 0.000000
0.043714 0.191129 0.000000
0.176219 0.195004 0.000000
0.333505 0.190587 0.000000
0.478890 0.186863 0.000000
0.616874 0.185422 0.000000
0.752216 0.185002 0.000000
0.887458 0.184831 0.000000
1.000000 0.184696 0.000000
0.000000 0.323334 0.000000
0.050268 0.324186 0.000000
0.180040 0.326754 0.000000
0.318153 0.331169 0.000000
0.477614 0.327014 0.000000
0.630594 0.321654 0.000000
0.775344 0.318170 0.000000
0.915326 0.316124 0.000000
1.000000 0.314967 0.000000
0.000000 0.456621 0.000000
0.057443 0.457508 0.000000
0.189622 0.458571 0.000000
0.316957 0.464333 0.000000
0.461396 0.467304 0.000000
0.621659 0.463286 0.000000
0.778891 0.457246 0.000000
0.928774 0.452260 0.000000
1.000000 0.448591 0.000000
0.000000 0.589884 0.000000
0.065338 0.590689 0.000000
0.198053 0.591474 0.000000
0.326235 0.595078 0.000000
0.457323 0.600940 0.000000
0.605542 0.602527 0.000000
0.765597 0.598355 0.000000
0.924312 0.591900 0.000000
1.000000 0.585807 0.000000
0.000000 0.722718 0.000000
0.073506 0.723324 0.000000
0.206015 0.723868 0.000000
0.336522 0.725354 0.000000
0.462454 0.730887 0.000000
0.597362 0.735549 0.000000
0.746991 0.735943 0.000000
0.905977 0.731439 0.000000
1.000000 0.724718 0.000000
0.000000 0.854716 0.000000
0.080459 0.855007 0.000000
0.212320 0.855191 0.000000
0.343765 0.855318 0.000000
0.469451 0.858981 0.000000
0.596772 0.864511 0.000000
0.734639 0.868177 0.000000
0.885417 0.868005 0.000000
1.000000 0.863650 0.000000
0.000000 0.985492 0.000000
0.085082 0.985492 0.000000
0.216549 0.985492 0.000000
0.347996 0.985492 0.000000
0.476464 0.987164 0.000000
0.601155 0.992309 0.000000
0.731100 0.997577 0.000000
0.871409 1.000000 0.000000
1.000000 1.000000 0.000000
0.000000 0.000000 0.125008
0.051093 0.000000 0.148219
0.214543 0.000000 0.149052
0.352593 0.000000 0.133010
0.487671 0.000000 0.123259
0.622723 0.000000 0.116395
0.758067 0.000000 0.110824
0.893703 0.000000 0.105879
1.000000 0.000000 0.101255
0.000000 0.058445 0.114588
0.039079 0.058911 0.113448
0.187092 0.054114 0.116704
0.322605 0.054201 0.109533
0.458372 0.054022 0.105234
0.594440 0.053793 0.101391
0.730881 0.053518 0.097598
0.867823 0.053158 0.093716
1.000000 0.052756 0.089754
0.000000 0.190659 0.109346
0.044300 0.191380 0.107422
0.175711 0.193285 0.096424
0.325312 0.189935 0.084554
0.461136 0.189311 0.086734
0.596752 0.189157 0.085199
0.733044 0.188952 0.082369
0.869773 0.188673 0.079020
1.000000 0.188328 0.075396
0.000000 0.323620 0.102111
0.050956 0.324481 0.099815
0.183327 0.325391 0.097389
0.317208 0.329682 0.057154
0.475234 0.325111 0.033591
0.621704 0.321188 0.037704
0.760719 0.319471 0.041976
0.896707 0.318828 0.044395
1.000000 0.318501 0.044837
0.000000 0.456923 0.093964
0.058160 0.457807 0.091590
0.190681 0.458706 0.089062
0.319898 0.461948 0.073030
0.460534 0.465798 0.017163
0.620665 0.461279 0.000000
0.774207 0.455667 0.000000
0.919505 0.451810 0.000000
1.000000 0.449342 0.000000
0.000000 0.590162 0.085449
0.066148 0.590953 0.082944
0.198861 0.591720 0.080391
0.330554 0.592970 0.075427
0.458498 0.598781 0.035536
0.604605 0.600918 0.000000
0.764756 0.596297 0.000000
0.921343 0.589839 0.000000
1.000000 0.584369 0.000000
0.000000 0.722932 0.076965
0.074262 0.723513 0.074738
0.206727 0.724027 0.072604
0.339033 0.724443 0.070679
0.465782 0.728312 0.049499
0.597354 0.733490 0.000000
0.745702 0.734157 0.000000
0.904876 0.729302 0.000000
1.000000 0.722447 0.000000
0.000000 0.854827 0.069981
0.081017 0.855081 0.068461
0.212792 0.855223 0.067187
0.344308 0.855244 0.066216
0.473242 0.856691 0.058443
0.598734 0.862013 0.022408
0.734069 0.866205 0.000000
0.884091 0.866210 0.000000
1.000000 0.861561 0.000000
0.000000 0.985492 0.065851
0.085484 0.985492 0.064962
0.216946 0.985492 0.064051
0.348383 0.985492 0.063159
0.479340 0.985723 0.061304
0.604418 0.989794 0.038611
0.732118 0.995262 0.000000
0.870493 0.998677 0.000000
1.000000 0.998269 0.000000
0.000000 0.000000 0.260854
0.044771 0.000000 0.283692
0.211275 0.000000 0.310776
0.375367 0.000000 0.306010
0.518099 0.000000 0.287052
0.655274 0.000000 0.272213
0.791091 0.000000 0.260973
0.926625 0.000000 0.251979
1.000000 0.000000 0.244379
0.000000 0.058598 0.244428
0.038824 0.058865 0.247499
0.189030 0.050894 0.276146
0.351113 0.042944 0.270701
0.490270 0.043013 0.254277
0.626258 0.043498 0.243839
0.761917 0.043857 0.236272
0.897670 0.044096 0.230101
1.000000 0.044249 0.224684
0.000000 0.190906 0.238936
0.044921 0.191647 0.236961
0.177055 0.192464 0.234839
0.322732 0.189158 0.234262
0.458598 0.189344 0.228421
0.594841 0.189288 0.224156
0.731558 0.189081 0.220125
0.868763 0.188726 0.216105
1.000000 0.188292 0.212023
0.000000 0.323920 0.231560
0.051673 0.324788 0.229243
0.184054 0.325702 0.226806
0.316351 0.328102 0.209984
0.467671 0.324223 0.199309
0.604384 0.323333 0.202145
0.740057 0.323135 0.201188
0.876392 0.322883 0.198634
1.000000 0.322515 0.195436
0.000000 0.457234 0.223381
0.058918 0.458115 0.220988
0.191478 0.459005 0.218437
0.324060 0.459902 0.215693
0.459649 0.464236 0.169790
0.618359 0.459243 0.147756
0.765456 0.455000 0.151870
0.904904 0.452882 0.156658
1.000000 0.451843 0.159929
0.000000 0.590445 0.214815
0.066986 0.591219 0.212318
0.199694 0.591966 0.209788
0.332362 0.592647 0.207349
0.460930 0.596297 0.186705
0.603621 0.599242 0.130413
0.763502 0.594080 0.102578
0.916266 0.588053 0.102864
1.000000 0.583705 0.109348
0.000000 0.723144 0.206415
0.075031 0.723698 0.204240
0.207446 0.724180 0.202173
0.339689 0.724560 0.200328
0.470049 0.725779 0.194244
0.597941 0.731147 0.152678
0.744365 0.732306 0.096570
0.903667 0.727019 0.066078
1.000000 0.720221 0.061576
0.000000 0.854929 0.199665
0.081566 0.855144 0.198240
0.213246 0.855241 0.197077
0.344724 0.855244 0.196151
0.476176 0.855256 0.195186
0.601890 0.859178 0.172349
0.733813 0.864016 0.122103
0.882723 0.864356 0.066308
1.000000 0.859348 0.033198
0.000000 0.985492 0.195786
0.085898 0.985492 0.194899
0.217354 0.985492 0.193993
0.348778 0.985492 0.193111
0.480159 0.985492 0.192261
0.608540 0.987189 0.183308
0.734053 0.992562 0.146225
0.869725 0.996599 0.092266
1.000000 0.996414 0.037326
0.000000 0.000000 0.396657
0.042175 0.000000 0.418719
0.199835 0.000000 0.451430
0.372171 0.000000 0.469441
0.535917 0.000000 0.461969
0.681947 0.000000 0.442185
0.821499 0.000000 0.424384
0.958679 0.000000 0.409794
1.000000 0.000000 0.397735
0.000000 0.058784 0.375082
0.038745 0.058675 0.382601
0.182112 0.052576 0.413225
0.350835 0.039948 0.434906
0.513213 0.032445 0.425395
0.656162 0.031804 0.405856
0.793921 0.032321 0.390716
0.930209 0.032958 0.379162
1.000000 0.033521 0.369900
0.000000 0.191160 0.368506
0.045556 0.191919 0.366483
0.177061 0.192491 0.368854
0.330636 0.184054 0.396016
0.488710 0.178178 0.384950
0.626737 0.178709 0.369680
0.762669 0.179296 0.360101
0.898447 0.179669 0.353066
1.000000 0.179876 0.347187
0.000000 0.324222 0.361000
0.052395 0.325098 0.358667
0.184783 0.326015 0.356221
0.317169 0.326934 0.353788
0.459327 0.324998 0.350872
0.595703 0.324955 0.346335
0.732942 0.324611 0.342166
0.870713 0.324086 0.337984
1.000000 0.323455 0.333825
0.000000 0.457545 0.352799
0.059691 0.458420 0.350377
0.192286 0.459301 0.347808
0.324959 0.460149 0.345212
0.458772 0.462664 0.322427
0.611361 0.458160 0.313382
0.748906 0.456782 0.317000
0.884311 0.456301 0.317160
1.000000 0.455775 0.315598
0.000000 0.590722 0.344183
0.067824 0.591480 0.341699
0.200523 0.592205 0.339196
0.333168 0.592861 0.336797
0.465054 0.593809 0.332811
0.602620 0.597552 0.283314
0.760900 0.591912 0.264463
0.907330 0.587203 0.269825
1.000000 0.584546 0.276176
0.000000 0.723348 0.335882
0.075784 0.723872 0.333763
0.208145 0.724321 0.331767
0.340320 0.724665 0.330006
0.472271 0.724892 0.328521
0.599610 0.728547 0.304943
0.743035 0.730450 0.250027
0.902036 0.724665 0.225360
1.000000 0.718364 0.227038
0.000000 0.855017 0.329382
0.082084 0.855192 0.328056
0.213667 0.855244 0.327006
0.345141 0.855244 0.326087
0.476612 0.855244 0.325169
0.605946 0.856479 0.318287
0.734105 0.861683 0.275472
0.881355 0.862497 0.219828
1.000000 0.857055 0.190803
0.000000 0.985492 0.325722
0.086311 0.985492 0.324837
0.217757 0.985492 0.323938
0.349169 0.985492 0.323066
0.480531 0.985492 0.322230
0.611718 0.985550 0.321200
0.736963 0.989732 0.296635
0.869239 0.994436 0.245999
1.000000 0.994556 0.191010
0.000000 0.000000 0.532418
0.040761 0.000000 0.553902
0.192620 0.000000 0.587857
0.359656 0.000000 0.614769
0.533239 0.000000 0.626377
0.696608 0.000000 0.617174
0.844971 0.000000 0.597193
0.986663 0.000000 0.577715
1.000000 0.000000 0.560771
0.000000 0.058928 0.507758
0.038740 0.058461 0.517858
0.179216 0.053274 0.548339
0.339724 0.042347 0.577675
0.512915 0.029346 0.591052
0.674926 0.022241 0.579629
0.820653 0.020952 0.559089
0.960415 0.021212 0.541150
1.000000 0.021857 0.526528
0.000000 0.191421 0.498059
0.046199 0.192197 0.496002
0.177240 0.192378 0.503807
0.322711 0.186052 0.534075
0.493380 0.173463 0.552513
0.652058 0.167721 0.538610
0.793466 0.167643 0.519499
0.930769 0.168294 0.505248
1.000000 0.168923 0.494351
0.000000 0.324528 0.490434
0.053119 0.325408 0.488086
0.185512 0.326327 0.485636
0.317280 0.326935 0.488090
0.474413 0.317716 0.513268
0.626770 0.314042 0.497643
0.763996 0.314623 0.484282
0.900124 0.315008 0.475797
1.000000 0.315120 0.469396
0.000000 0.457854 0.482205
0.060477 0.458722 0.479758
0.193103 0.459594 0.477175
0.325793 0.460428 0.474580
0.458506 0.461213 0.472014
0.597605 0.460169 0.468210
0.735358 0.459469 0.464225
0.873303 0.458606 0.460363
1.000000 0.457630 0.456684
0.000000 0.590994 0.473554
0.068660 0.591733 0.471088
0.201345 0.592436 0.468615
0.333963 0.593066 0.466261
0.466474 0.593612 0.464063
0.601612 0.595840 0.436297
0.753795 0.590649 0.430482
0.890887 0.588676 0.435690
1.000000 0.587717 0.437770
0.000000 0.723541 0.465367
0.076520 0.724036 0.463309
0.208822 0.724450 0.461389
0.340926 0.724755 0.459717
0.472791 0.724941 0.458334
0.603094 0.725762 0.453484
0.741722 0.728585 0.403536
0.899011 0.722396 0.387904
1.000000 0.717460 0.394299
0.000000 0.855092 0.459131
0.082570 0.855224 0.457909
0.214083 0.855244 0.456942
0.345557 0.855244 0.456022
0.477025 0.855244 0.455108
0.608472 0.855244 0.454208
0.735413 0.859118 0.428133
0.879991 0.860630 0.373401
1.000000 0.854700 0.350411
0.000000 0.985492 0.455658
0.086721 0.985492 0.454778
0.218157 0.985492 0.453887
0.349553 0.985492 0.453025
0.480895 0.985492 0.452205
0.612169 0.985492 0.451435
0.740854 0.986977 0.443398
0.869249 0.992138 0.399594
1.000000 0.992692 0.344746
0.000000 0.000000 0.668138
0.039857 0.000000 0.689199
0.188018 0.000000 0.723243
0.349533 0.000000 0.753913
0.521038 0.000000 0.775222
0.694487 0.000000 0.782252
0.857517 0.000000 0.771796
1.000000 0.000000 0.751833
1.000000 0.000000 0.731417
0.000000 0.058980 0.641412
0.038777 0.058245 0.653152
0.177759 0.053573 0.683280
0.332284 0.044224 0.714902
0.501177 0.031504 0.738400
0.674922 0.019005 0.746061
0.836562 0.012194 0.733504
0.984307 0.010378 0.712728
1.000000 0.010283 0.693210
0.000000 0.191688 0.627595
0.046391 0.192478 0.626885
0.177468 0.192245 0.638879
0.319452 0.186969 0.669139
0.482087 0.175813 0.697109
0.655744 0.163196 0.707235
0.814512 0.157524 0.692393
0.958700 0.156769 0.671847
1.000000 0.157171 0.654523
0.000000 0.324835 0.619862
0.053847 0.325720 0.617503
0.186238 0.326640 0.615056
0.317555 0.326817 0.623102
0.465223 0.319898 0.653412
0.637237 0.307331 0.667963
0.791506 0.303255 0.650477
0.931734 0.303373 0.632407
1.000000 0.303852 0.619328
0.000000 0.458161 0.611601
0.061275 0.459022 0.609133
0.193927 0.459882 0.606541
0.326629 0.460700 0.603950
0.458835 0.461051 0.607018
0.619627 0.450975 0.628578
0.765622 0.449184 0.610832
0.902191 0.449395 0.600028
1.000000 0.449255 0.593257
0.000000 0.591260 0.602930
0.069493 0.591980 0.600485
0.202159 0.592659 0.598048
0.334745 0.593262 0.595743
0.467211 0.593777 0.593607
0.599527 0.594191 0.591674
0.737323 0.592985 0.588250
0.874709 0.591692 0.585293
1.000000 0.590262 0.582678
0.000000 0.723725 0.594872
0.077237 0.724188 0.592879
0.209477 0.724567 0.591039
0.341504 0.724832 0.589461
0.473280 0.724975 0.588184
0.604797 0.724997 0.587213
0.740457 0.726685 0.557243
0.891487 0.721067 0.554377
1.000000 0.718859 0.560427
0.000000 0.855152 0.588916
0.083022 0.855242 0.587802
0.214499 0.855244 0.586878
0.345973 0.855244 0.585959
0.477435 0.855244 0.585048
0.608872 0.855244 0.584156
0.738549 0.856314 0.577765
0.878646 0.858744 0.527092
1.000000 0.852451 0.513269
0.000000 0.985492 0.585595
0.087128 0.985492 0.584720
0.218552 0.985492 0.583838
0.349932 0.985492 0.582989
0.481252 0.985492 0.582185
0.612499 0.985492 0.581436
0.743659 0.985492 0.580752
0.870193 0.989616 0.552622
1.000000 0.990817 0.498564
0.000000 0.000000 0.803817
0.039227 0.000000 0.824564
0.184905 0.000000 0.858342
0.342077 0.000000 0.890696
0.509468 0.000000 0.917130
0.683055 0.000000 0.933767
0.855911 0.000000 0.937380
1.000000 0.000000 0.925966
1.000000 0.000000 0.906109
0.000000 0.058967 0.775572
0.038844 0.058031 0.788453
0.176942 0.053690 0.818244
0.327495 0.045484 0.850528
0.491042 0.033914 0.878603
0.663711 0.020690 0.896798
0.836874 0.008831 0.900445
0.998187 0.002234 0.887156
1.000000 0.000000 0.866466
0.000000 0.191969 0.757405
0.046332 0.192691 0.759256
0.177718 0.192106 0.773984
0.317899 0.187411 0.803914
0.474114 0.177877 0.834792
0.644448 0.165069 0.856608
0.817796 0.153083 0.861376
0.976733 0.147426 0.845996
1.000000 0.146074 0.824908
0.000000 0.325145 0.749285
0.054575 0.326032 0.746918
0.186507 0.326950 0.745837
0.317869 0.326684 0.758173
0.461308 0.321003 0.788682
0.626167 0.309339 0.815323
0.799714 0.297108 0.821732
0.955054 0.292683 0.803998
1.000000 0.292124 0.784070
0.000000 0.458466 0.740989
0.062083 0.459318 0.738503
0.194757 0.460165 0.735907
0.327466 0.460967 0.733327
0.459239 0.460846 0.742154
0.609719 0.452912 0.772609
0.781727 0.440565 0.782522
0.931271 0.437703 0.763575
1.000000 0.437572 0.747732
0.000000 0.591519 0.732311
0.070321 0.592218 0.729893
0.202964 0.592873 0.727496
0.335514 0.593447 0.725244
0.467930 0.593930 0.723175
0.599905 0.593695 0.728217
0.761612 0.583242 0.745460
0.902998 0.582013 0.729515
1.000000 0.581498 0.721522
0.000000 0.723898 0.724399
0.077935 0.724329 0.722475
0.210107 0.724670 0.720720
0.342053 0.724895 0.719240
0.473734 0.724993 0.718074
0.605213 0.724997 0.717148
0.736855 0.724965 0.716047
0.874170 0.723418 0.713225
1.000000 0.721970 0.710843
0.000000 0.855198 0.718737
0.083443 0.855244 0.717732
0.214916 0.855244 0.716813
0.346387 0.855244 0.715896
0.477843 0.855244 0.714990
0.609268 0.855244 0.714107
0.740648 0.855244 0.713258
0.877368 0.856797 0.681178
1.000000 0.851171 0.679909
0.000000 0.985492 0.715534
0.087532 0.985492 0.714665
0.218942 0.985492 0.713793
0.350303 0.985492 0.712959
0.481600 0.985492 0.712172
0.612820 0.985492 0.711443
0.743947 0.985492 0.710784
0.872918 0.986816 0.703127
1.000000 0.988915 0.652555
0.000000 0.000000 0.939458
0.038763 0.000000 0.959964
0.182692 0.000000 0.993372
0.336556 0.000000 1.000000
0.500000 0.000000 1.000000
0.670919 0.000000 1.000000
0.845372 0.000000 1.000000
1.000000 0.000000 1.000000
1.000000 0.000000 1.000000
0.000000 0.058910 0.910019
0.038937 0.057822 0.923747
0.176462 0.053713 0.953248
0.324285 0.046337 0.985613
0.483427 0.035874 1.000000
0.652297 0.023215 1.000000
0.826524 0.010018 1.000000
0.998771 0.000000 1.000000
1.000000 0.000000 1.000000
0.000000 0.192259 0.888443
0.046259 0.192831 0.892461
0.177982 0.191967 0.909101
0.317086 0.187635 0.938703
0.468984 0.179294 0.970515
0.633914 0.167558 0.997613
0.807403 0.154349 1.000000
0.979900 0.143008 1.000000
1.000000 0.137339 0.999397
0.000000 0.325456 0.878704
0.055303 0.326345 0.876336
0.186501 0.327184 0.878176
0.318205 0.326544 0.893258
0.459498 0.321533 0.923449
0.617544 0.311513 0.953795
0.789446 0.298382 0.973836
0.962014 0.286876 0.975327
1.000000 0.282150 0.957781
0.000000 0.458768 0.870369
0.062900 0.459610 0.867870
0.195591 0.460443 0.865275
0.327842 0.461225 0.864096
0.459640 0.460632 0.877309
0.604804 0.454184 0.908422
0.771620 0.441783 0.933822
0.943451 0.430048 0.936754
1.000000 0.426357 0.918293
0.000000 0.591771 0.861701
0.071142 0.592449 0.859313
0.203758 0.593077 0.856961
0.336267 0.593622 0.854767
0.468626 0.594071 0.852775
0.600086 0.593355 0.863631
0.752462 0.584226 0.894689
0.922323 0.572182 0.901421
1.000000 0.569542 0.883729
0.000000 0.724060 0.853948
0.078611 0.724457 0.852098
0.210711 0.724760 0.850432
0.342571 0.724943 0.849055
0.474156 0.724997 0.848003
0.605630 0.724997 0.847084
0.737159 0.724154 0.854343
0.898586 0.713716 0.868585
1.000000 0.712670 0.853987
0.000000 0.855228 0.848596
0.083858 0.855244 0.847669
0.215332 0.855244 0.846749
0.346800 0.855244 0.845834
0.478246 0.855244 0.844935
0.609658 0.855244 0.844062
0.741021 0.855244 0.843226
0.872808 0.855152 0.841911
1.000000 0.853581 0.839308
0.000000 0.985492 0.845475
0.087931 0.985492 0.844614
0.219327 0.985492 0.843753
0.350667 0.985492 0.842933
0.481940 0.985492 0.842165
0.613129 0.985492 0.841459
0.744222 0.985492 0.840826
0.875203 0.985492 0.840276
1.000000 0.986933 0.807098
0.000000 0.000000 1.000000
0.038414 0.000000 1.000000
0.181060 0.000000 1.000000
0.332383 0.000000 1.000000
0.492455 0.000000 1.000000
0.660166 0.000000 1.000000
0.833171 0.000000 1.000000
1.000000 0.000000 1.000000
1.000000 0.000000 1.000000
0.000000 0.058826 1.000000
0.039052 0.057620 1.000000
0.176183 0.053683 1.000000
0.322048 0.046929 1.000000
0.477753 0.037395 1.000000
0.642733 0.025571 1.000000
0.814657 0.012437 1.000000
0.989331 0.000000 1.000000
1.000000 0.000000 1.000000
0.000000 0.192514 1.000000
0.046225 0.192912 1.000000
0.178256 0.191828 1.000000
0.316649 0.187743 1.000000
0.465569 0.180267 1.000000
0.625892 0.169637 1.000000
0.795847 0.156841 1.000000
0.970626 0.143695 1.000000
1.000000 0.132916 1.000000
0.000000 0.325767 1.000000
0.055730 0.326667 1.000000
0.186490 0.327335 1.000000
0.318558 0.326399 1.000000
0.458589 0.321795 1.000000
0.611983 0.313022 1.000000
0.778582 0.300834 1.000000
0.952977 0.287433 1.000000
1.000000 0.276562 1.000000
0.000000 0.459067 0.999743
0.063725 0.459897 0.997236
0.196427 0.460715 0.994646
0.327938 0.461395 0.996489
0.460036 0.460410 1.000000
0.602493 0.454758 1.000000
0.762079 0.443989 1.000000
0.934566 0.430420 1.000000
1.000000 0.419353 1.000000
0.000000 0.592017 0.991100
0.071956 0.592671 0.988747
0.204540 0.593272 0.986444
0.337003 0.593785 0.984312
0.468813 0.594194 0.983902
0.600256 0.592995 0.999089
0.746222 0.585586 1.000000
0.913393 0.572424 1.000000
1.000000 0.560973 1.000000
0.000000 0.724210 0.983522
0.079264 0.724573 0.981750
0.211287 0.724836 0.980178
0.343058 0.724976 0.978907
0.474572 0.724997 0.977939
0.606037 0.724997 0.977040
0.737017 0.723747 0.989944
0.890698 0.713894 1.000000
1.000000 0.702363 1.000000
0.000000 0.855243 0.978495
0.084274 0.855244 0.977604
0.215748 0.855244 0.976685
0.347210 0.855244 0.975774
0.478646 0.855244 0.974883
0.610043 0.855244 0.974022
0.741385 0.855244 0.973201
0.873128 0.854159 0.981805
1.000000 0.844088 0.993052
0.000000 0.985492 0.975418
0.088326 0.985492 0.974565
0.219705 0.985492 0.973718
0.351024 0.985492 0.972914
0.482269 0.985492 0.972166
0.613428 0.985492 0.971483
0.744484 0.985492 0.970877
0.875424 0.985492 0.970358
1.000000 0.985336 0.969040
