assets/presets/luts/night-city/lut.cube
TITLE "Night City"
LUT_3D_SIZE 17
0.000000 0.000000 0.000000
0.000000 0.000000 0.000000
0.051889 0.000000 0.000000
0.118555 0.000000 0.000000
0.185670 0.000000 0.000000
0.253075 0.000000 0.000000
0.320658 0.000000 0.000000
0.388364 0.000000 0.000000
0.456220 0.000000 0.000000
0.524287 0.000000 0.000000
0.592511 0.000000 0.000000
0.660858 0.000000 0.000000
0.729304 0.000000 0.000000
0.797833 0.000000 0.000000
0.866434 0.000000 0.000000
0.935097 0.000000 0.000000
1.000000 0.000000 0.000000
0.000000 0.000000 0.000000
0.000000 0.000000 0.000000
0.038082 0.000000 0.000000
0.107189 0.000000 0.000000
0.175516 0.000000 0.000000
0.243911 0.000000 0.000000
0.312365 0.000000 0.000000
0.380873 0.000000 0.000000
0.449430 0.000000 0.000000
0.518034 0.000000 0.000000
0.586681 0.000000 0.000000
0.655367 0.000000 0.000000
0.724091 0.000000 0.000000
0.792849 0.000000 0.000000
0.861639 0.000000 0.000000
0.930456 0.000000 0.000000
0.999298 0.000000 0.000000
0.000000 0.058309 0.000000
0.000000 0.058506 0.000000
0.038096 0.059294 0.000000
0.113952 0.057965 0.000000
0.184425 0.056477 0.000000
0.251764 0.056087 0.000000
0.319049 0.055894 0.000000
0.386628 0.055716 0.000000
0.454465 0.055529 0.000000
0.522506 0.055328 0.000000
0.590709 0.055118 0.000000
0.659041 0.054899 0.000000
0.727477 0.054676 0.000000
0.795998 0.054450 0.000000
0.864587 0.054223 0.000000
0.933233 0.053994 0.000000
1.000000 0.053764 0.000000
0.000000 0.124245 0.000000
0.000000 0.124516 0.000000
0.040964 0.124827 0.000000
0.106256 0.127144 0.000000
0.184665 0.125555 0.000000
0.260280 0.122910 0.000000
0.331237 0.121430 0.000000
0.399918 0.120709 0.000000
0.467530 0.120405 0.000000
0.534977 0.120257 0.000000
0.602547 0.120156 0.000000
0.670260 0.120070 0.000000
0.738112 0.119986 0.000000
0.806087 0.119896 0.000000
0.874171 0.119798 0.000000
0.942348 0.119690 0.000000
1.000000 0.119570 0.000000
0.000000 0.190428 0.000000
0.000000 0.190759 0.000000
0.043714 0.191129 0.000000
0.108036 0.192640 0.000000
0.176219 0.195004 0.000000
0.255264 0.193522 0.000000
0.333505 0.190587 0.000000
0.407620 0.188335 0.000000
0.478890 0.186863 0.000000
0.548415 0.185953 0.000000
0.616874 0.185422 0.000000
0.684670 0.185145 0.000000
0.752216 0.185002 0.000000
0.819805 0.184906 0.000000
0.887458 0.184831 0.000000
0.955184 0.184764 0.000000
1.000000 0.184696 0.000000
0.000000 0.256808 0.000000
0.000000 0.257185 0.000000
0.046855 0.257599 0.000000
0.112546 0.258255 0.000000
0.175959 0.261243 0.000000
0.246987 0.263039 0.000000
0.326272 0.261645 0.000000
0.405786 0.258729 0.000000
0.482094 0.256050 0.000000
0.555565 0.253999 0.000000
0.626990 0.252517 0.000000
0.696993 0.251476 0.000000
0.766007 0.250762 0.000000
0.834360 0.250289 0.000000
0.902264 0.249992 0.000000
0.969921 0.249811 0.000000
1.000000 0.249668 0.000000
0.000000 0.323334 0.000000
0.000000 0.323742 0.000000
0.050268 0.324186 0.000000
0.116442 0.324636 0.000000
0.180040 0.326754 0.000000
0.245242 0.329853 0.000000
0.318153 0.331169 0.000000
0.397519 0.329827 0.000000
0.477614 0.327014 0.000000
0.555378 0.324117 0.000000
0.630594 0.321654 0.000000
0.703751 0.319691 0.000000
0.775344 0.318170 0.000000
0.845770 0.317006 0.000000
0.915326 0.316124 0.000000
0.984229 0.315461 0.000000
1.000000 0.314967 0.000000
0.000000 0.389955 0.000000
0.000000 0.390381 0.000000
0.053836 0.390839 0.000000
0.120033 0.391299 0.000000
0.184971 0.392472 0.000000
0.247998 0.395588 0.000000
0.315282 0.398354 0.000000
0.389490 0.399293 0.000000
0.468970 0.397964 0.000000
0.549449 0.395248 0.000000
0.628338 0.392240 0.000000
0.704983 0.389482 0.000000
0.779623 0.387130 0.000000
0.852622 0.385183 0.000000
0.924314 0.383593 0.000000
0.994974 0.382302 0.000000
1.000000 0.381254 0.000000
0.000000 0.456621 0.000000
0.000000 0.457050 0.000000
0.057443 0.457508 0.000000
0.123665 0.457963 0.000000
0.189622 0.458571 0.000000
0.252690 0.461100 0.000000
0.316957 0.464333 0.000000
0.386158 0.466687 0.000000
0.461396 0.467304 0.000000
0.541001 0.465940 0.000000
0.621659 0.463286 0.000000
0.701240 0.460218 0.000000
0.778891 0.457246 0.000000
0.854655 0.454577 0.000000
0.928774 0.452260 0.000000
1.000000 0.450277 0.000000
1.000000 0.448591 0.000000
0.000000 0.523281 0.000000
0.000000 0.523699 0.000000
0.061264 0.524141 0.000000
0.127581 0.524576 0.000000
0.193915 0.525001 0.000000
0.258058 0.526695 0.000000
0.321089 0.529803 0.000000
0.386912 0.532826 0.000000
0.457619 0.534762 0.000000
0.533570 0.535086 0.000000
0.613193 0.533651 0.000000
0.693853 0.531022 0.000000
0.773796 0.527908 0.000000
0.852111 0.524767 0.000000
0.928667 0.521833 0.000000
1.000000 0.519195 0.000000
1.000000 0.516862 0.000000
0.000000 0.589884 0.000000
0.000000 0.590278 0.000000
0.065338 0.590689 0.000000
0.131695 0.591088 0.000000
0.198053 0.591474 0.000000
0.263349 0.592423 0.000000
0.326235 0.595078 0.000000
0.390082 0.598253 0.000000
0.457323 0.600940 0.000000
0.529147 0.602476 0.000000
0.605542 0.602527 0.000000
0.685071 0.600997 0.000000
0.765597 0.598355 0.000000
0.845643 0.595187 0.000000
0.924312 0.591900 0.000000
1.000000 0.588737 0.000000
1.000000 0.585807 0.000000
0.000000 0.656380 0.000000
0.003129 0.656735 0.000000
0.069481 0.657100 0.000000
0.135822 0.657449 0.000000
0.202148 0.657780 0.000000
0.268159 0.658246 0.000000
0.331537 0.660268 0.000000
0.394411 0.663254 0.000000
0.459276 0.666238 0.000000
0.527655 0.668544 0.000000
0.600236 0.669713 0.000000
0.676840 0.669517 0.000000
0.756166 0.667872 0.000000
0.836432 0.665183 0.000000
0.916378 0.661943 0.000000
0.995177 0.658515 0.000000
1.000000 0.655135 0.000000
0.000000 0.722718 0.000000
0.007209 0.723020 0.000000
0.073506 0.723324 0.000000
0.139776 0.723607 0.000000
0.206015 0.723868 0.000000
0.272216 0.724106 0.000000
0.336522 0.725354 0.000000
0.399139 0.727906 0.000000
0.462454 0.730887 0.000000
0.528179 0.733606 0.000000
0.597362 0.735549 0.000000
0.670389 0.736381 0.000000
0.746991 0.735943 0.000000
0.825999 0.734170 0.000000
0.905977 0.731439 0.000000
0.985855 0.728182 0.000000
1.000000 0.724718 0.000000
0.000000 0.788846 0.000000
0.011040 0.789082 0.000000
0.077227 0.789310 0.000000
0.143371 0.789513 0.000000
0.209468 0.789689 0.000000
0.275511 0.789837 0.000000
0.340715 0.790374 0.000000
0.403547 0.792342 0.000000
0.465995 0.795074 0.000000
0.529805 0.797901 0.000000
0.596239 0.800309 0.000000
0.666067 0.801936 0.000000
0.739504 0.802531 0.000000
0.816246 0.801976 0.000000
0.895233 0.800212 0.000000
0.975171 0.797547 0.000000
1.000000 0.794352 0.000000
0.000000 0.854716 0.000000
0.014437 0.854870 0.000000
0.080459 0.855007 0.000000
0.146422 0.855115 0.000000
0.212320 0.855191 0.000000
0.278149 0.855234 0.000000
0.343765 0.855318 0.000000
0.407216 0.856614 0.000000
0.469451 0.858981 0.000000
0.532197 0.861787 0.000000
0.596772 0.864511 0.000000
0.664086 0.866741 0.000000
0.734639 0.868177 0.000000
0.808524 0.868627 0.000000
0.885417 0.868005 0.000000
0.964352 0.866254 0.000000
1.000000 0.863650 0.000000
0.000000 0.920275 0.000000
0.017214 0.920334 0.000000
0.083016 0.920365 0.000000
0.148757 0.920368 0.000000
0.214493 0.920368 0.000000
0.280231 0.920368 0.000000
0.345967 0.920368 0.000000
0.410468 0.921038 0.000000
0.473023 0.922987 0.000000
0.535282 0.925631 0.000000
0.598583 0.928464 0.000000
0.663933 0.931071 0.000000
0.732008 0.933125 0.000000
0.803148 0.934388 0.000000
0.877368 0.934713 0.000000
0.954337 0.934034 0.000000
1.000000 0.932299 0.000000
0.000000 0.985492 0.000000
0.019345 0.985492 0.000000
0.085082 0.985492 0.000000
0.150817 0.985492 0.000000
0.216549 0.985492 0.000000
0.282276 0.985492 0.000000
0.347996 0.985492 0.000000
0.413296 0.985709 0.000000
0.476464 0.987164 0.000000
0.538643 0.989526 0.000000
0.601155 0.992309 0.000000
0.665049 0.995105 0.000000
0.731100 0.997577 0.000000
0.799810 0.999462 0.000000
0.871409 1.000000 0.000000
0.945856 1.000000 0.000000
1.000000 1.000000 0.000000
0.000000 0.000000 0.057068
0.000000 0.000000 0.063241
0.057702 0.000000 0.077163
0.133490 0.000000 0.070148
0.201576 0.000000 0.062630
0.268836 0.000000 0.057745
0.336092 0.000000 0.054230
0.403469 0.000000 0.051430
0.470976 0.000000 0.049024
0.538600 0.000000 0.046844
0.606323 0.000000 0.044795
0.674133 0.000000 0.042823
0.742017 0.000000 0.040894
0.809967 0.000000 0.038987
0.877974 0.000000 0.037088
0.946032 0.000000 0.035189
1.000000 0.000000 0.033283
0.000000 0.000000 0.051107
0.000000 0.000000 0.050903
0.042502 0.000000 0.057903
0.120096 0.000000 0.056063
0.187847 0.000000 0.051467
0.255406 0.000000 0.048703
0.323067 0.000000 0.046560
0.390833 0.000000 0.044666
0.458684 0.000000 0.042879
0.526604 0.000000 0.041135
0.594581 0.000000 0.039402
0.662637 0.000000 0.037660
0.730840 0.000000 0.035883
0.799165 0.000000 0.034069
0.867587 0.000000 0.032220
0.936088 0.000000 0.030338
1.000000 0.000000 0.028425
0.000000 0.058373 0.049656
0.000000 0.058579 0.049109
0.038909 0.058822 0.048459
0.106393 0.058669 0.046790
0.175413 0.058103 0.045006
0.243794 0.057731 0.043470
0.312324 0.057352 0.041831
0.380939 0.056981 0.040124
0.449613 0.056622 0.038362
0.518335 0.056275 0.036552
0.587098 0.055940 0.034701
0.655894 0.055617 0.032812
0.724720 0.055305 0.030889
0.793571 0.055002 0.028938
0.862444 0.054708 0.026962
0.931335 0.054421 0.024964
1.000000 0.054140 0.022949
0.000000 0.124335 0.047423
0.000000 0.124612 0.046682
0.041203 0.124929 0.045838
0.106349 0.126130 0.038615
0.183285 0.124627 0.023709
0.254706 0.123013 0.026364
0.322596 0.122562 0.028104
0.390022 0.122414 0.028403
0.457680 0.122304 0.027817
0.525566 0.122190 0.026756
0.593642 0.122061 0.025411
0.661871 0.121918 0.023882
0.730220 0.121761 0.022226
0.798664 0.121592 0.020480
0.867185 0.121414 0.018669
0.935765 0.121227 0.016810
1.000000 0.121031 0.014917
0.000000 0.190539 0.044543
0.000000 0.190875 0.043647
0.043995 0.191250 0.042647
0.109941 0.191685 0.041411
0.175843 0.194226 0.019627
0.254730 0.192575 0.001298
0.330827 0.189926 0.001212
0.402357 0.188372 0.003860
0.471514 0.187579 0.006070
0.539471 0.187225 0.007546
0.607007 0.187082 0.008255
0.674617 0.186994 0.008243
0.742335 0.186927 0.007749
0.810164 0.186861 0.006923
0.878097 0.186788 0.005860
0.946121 0.186703 0.004625
1.000000 0.186603 0.003241
0.000000 0.256934 0.041151
0.000000 0.257315 0.040137
0.047167 0.257733 0.039022
0.113289 0.258161 0.037881
0.177330 0.260088 0.028138
0.246545 0.262306 0.000382
0.325895 0.260757 0.000000
0.404342 0.257842 0.000000
0.478810 0.255549 0.000000
0.550440 0.254007 0.000000
0.620270 0.253023 0.000000
0.688967 0.252423 0.000000
0.756943 0.252083 0.000000
0.824557 0.251906 0.000000
0.892198 0.251783 0.000000
0.959922 0.251681 0.000000
1.000000 0.251586 0.000000
0.000000 0.323472 0.037383
0.000000 0.323882 0.036288
0.050600 0.324328 0.035098
0.116777 0.324780 0.033894
0.182112 0.325717 0.030417
0.245894 0.328832 0.009981
0.317692 0.330452 0.000000
0.397165 0.328979 0.000000
0.476733 0.326067 0.000000
0.553227 0.323356 0.000000
0.626978 0.321239 0.000000
0.698719 0.319674 0.000000
0.769045 0.318543 0.000000
0.838378 0.317739 0.000000
0.907010 0.317177 0.000000
0.975138 0.316794 0.000000
1.000000 0.316538 0.000000
0.000000 0.390099 0.033373
0.000000 0.390526 0.032235
0.054177 0.390985 0.031011
0.120374 0.391445 0.029784
0.186522 0.391929 0.028455
0.249707 0.394413 0.016032
0.315520 0.397433 0.000000
0.389043 0.398578 0.000000
0.468649 0.397134 0.000000
0.548891 0.394289 0.000000
0.626893 0.391348 0.000000
0.702382 0.388813 0.000000
0.775808 0.386761 0.000000
0.847643 0.385139 0.000000
0.918270 0.383870 0.000000
0.987980 0.382881 0.000000
1.000000 0.382109 0.000000
0.000000 0.456767 0.029257
0.000000 0.457196 0.028113
0.057787 0.457653 0.026888
0.124021 0.458106 0.025640
0.190287 0.458555 0.024372
0.254811 0.460028 0.018091
0.318170 0.463206 0.000000
0.386180 0.465824 0.000000
0.460979 0.466577 0.000000
0.540699 0.465111 0.000000
0.621250 0.462326 0.000000
0.700209 0.459255 0.000000
0.776947 0.456417 0.000000
0.851685 0.453968 0.000000
0.924766 0.451911 0.000000
0.996510 0.450203 0.000000
1.000000 0.448789 0.000000
0.000000 0.523424 0.025097
0.000000 0.523840 0.023907
0.061640 0.524280 0.022620
0.127963 0.524712 0.021325
0.194302 0.525134 0.020026
0.260002 0.525898 0.017163
0.322963 0.528611 0.002949
0.387705 0.531764 0.000000
0.457494 0.533926 0.000000
0.533153 0.534339 0.000000
0.612875 0.532812 0.000000
0.693492 0.530056 0.000000
0.772999 0.526899 0.000000
0.850583 0.523830 0.000000
0.926284 0.521051 0.000000
1.000000 0.518611 0.000000
1.000000 0.516497 0.000000
0.000000 0.590019 0.020767
0.000000 0.590410 0.019553
0.065729 0.590817 0.018258
0.132086 0.591212 0.016971
0.198444 0.591593 0.015696
0.264730 0.591993 0.014299
0.328366 0.593955 0.005058
0.391547 0.597057 0.000000
0.457785 0.599923 0.000000
0.528900 0.601642 0.000000
0.605091 0.601752 0.000000
0.684702 0.600134 0.000000
0.765209 0.597372 0.000000
0.844952 0.594142 0.000000
0.923059 0.590882 0.000000
0.999413 0.587819 0.000000
1.000000 0.585036 0.000000
0.000000 0.656502 0.016421
0.003520 0.656852 0.015237
0.069868 0.657213 0.013988
0.136205 0.657556 0.012763
0.202525 0.657881 0.011568
0.268823 0.658186 0.010408
0.333577 0.659316 0.005388
0.396302 0.662020 0.000000
0.460323 0.665080 0.000000
0.527836 0.667566 0.000000
0.599871 0.668873 0.000000
0.676322 0.668702 0.000000
0.755701 0.666973 0.000000
0.835956 0.664173 0.000000
0.915690 0.660862 0.000000
0.994052 0.657430 0.000000
1.000000 0.654115 0.000000
0.000000 0.722822 0.012246
0.007584 0.723118 0.011142
0.073873 0.723416 0.009995
0.140133 0.723693 0.008889
0.206361 0.723946 0.007829
0.272550 0.724176 0.006819
0.338129 0.724682 0.004548
0.401091 0.726781 0.000000
0.463893 0.729687 0.000000
0.528822 0.732509 0.000000
0.597298 0.734593 0.000000
0.669896 0.735517 0.000000
0.746371 0.735081 0.000000
0.825429 0.733234 0.000000
0.905430 0.730413 0.000000
0.985182 0.727091 0.000000
1.000000 0.723615 0.000000
0.000000 0.788929 0.008427
0.011382 0.789157 0.007455
0.077556 0.789377 0.006465
0.143685 0.789572 0.005533
0.209765 0.789739 0.004663
0.275790 0.789878 0.003860
0.341697 0.790017 0.003001
0.405332 0.791379 0.000000
0.467631 0.793892 0.000000
0.530833 0.796722 0.000000
0.596576 0.799244 0.000000
0.665840 0.800993 0.000000
0.738953 0.801662 0.000000
0.815617 0.801109 0.000000
0.894650 0.799280 0.000000
0.974611 0.796530 0.000000
1.000000 0.793270 0.000000
0.000000 0.854771 0.005151
0.014728 0.854917 0.004362
0.080732 0.855045 0.003585
0.146675 0.855142 0.002881
0.212552 0.855208 0.002256
0.278358 0.855241 0.001715
0.344100 0.855244 0.001248
0.408694 0.855863 0.000000
0.471160 0.857894 0.000000
0.533561 0.860615 0.000000
0.597540 0.863391 0.000000
0.664244 0.865728 0.000000
0.734327 0.867262 0.000000
0.807947 0.867766 0.000000
0.884775 0.867136 0.000000
0.963744 0.865324 0.000000
1.000000 0.862642 0.000000
0.000000 0.920299 0.002602
0.017437 0.920348 0.002049
0.083216 0.920368 0.001539
0.148951 0.920368 0.001081
0.214688 0.920368 0.000621
0.280425 0.920368 0.000161
0.346161 0.920368 0.000000
0.411548 0.920549 0.000000
0.474660 0.922055 0.000000
0.536829 0.924516 0.000000
0.599690 0.927332 0.000000
0.664474 0.930006 0.000000
0.732016 0.932153 0.000000
0.802760 0.933495 0.000000
0.876758 0.933857 0.000000
0.953669 0.933164 0.000000
1.000000 0.931371 0.000000
0.000000 0.985492 0.000883
0.019539 0.985492 0.000453
0.085276 0.985492 0.000000
0.151011 0.985492 0.000000
0.216741 0.985492 0.000000
0.282466 0.985492 0.000000
0.348184 0.985492 0.000000
0.413883 0.985497 0.000000
0.477892 0.986420 0.000000
0.540234 0.988512 0.000000
0.602489 0.991204 0.000000
0.665914 0.994016 0.000000
0.731442 0.996558 0.000000
0.799688 0.998523 0.000000
0.870947 0.999694 0.000000
0.945204 0.999937 0.000000
1.000000 0.999195 0.000000
0.000000 0.000000 0.125008
0.000000 0.000000 0.130679
0.051093 0.000000 0.148219
0.137456 0.000000 0.156175
0.214543 0.000000 0.149052
0.284479 0.000000 0.140014
0.352593 0.000000 0.133010
0.420191 0.000000 0.127607
0.487671 0.000000 0.123259
0.555166 0.000000 0.119598
0.622723 0.000000 0.116395
0.690357 0.000000 0.113502
0.758067 0.000000 0.110824
0.825852 0.000000 0.108298
0.893703 0.000000 0.105879
0.961616 0.000000 0.103538
1.000000 0.000000 0.101255
0.000000 0.000000 0.116408
0.000000 0.000000 0.117690
0.041537 0.000000 0.131972
0.125867 0.000000 0.141266
0.202010 0.000000 0.133620
0.271248 0.000000 0.125896
0.339196 0.000000 0.120523
0.406875 0.000000 0.116511
0.474533 0.000000 0.113261
0.542239 0.000000 0.110458
0.610009 0.000000 0.107928
0.677845 0.000000 0.105572
0.745739 0.000000 0.103328
0.813688 0.000000 0.101158
0.881683 0.000000 0.099038
0.949720 0.000000 0.096952
1.000000 0.000000 0.094890
0.000000 0.058445 0.114588
0.000000 0.058659 0.114019
0.039079 0.058911 0.113448
0.110349 0.056874 0.119403
0.187092 0.054114 0.116704
0.254881 0.054215 0.112323
0.322605 0.054201 0.109533
0.390440 0.054125 0.107275
0.458372 0.054022 0.105234
0.526378 0.053909 0.103291
0.594440 0.053793 0.101391
0.662582 0.053671 0.099504
0.730881 0.053518 0.097598
0.799305 0.053345 0.095668
0.867823 0.053158 0.093716
0.936414 0.052961 0.091743
1.000000 0.052756 0.089754
0.000000 0.124434 0.112283
0.000000 0.124718 0.111525
0.041464 0.125041 0.110663
0.107386 0.125383 0.109752
0.176008 0.125130 0.107018
0.244951 0.124707 0.105251
0.313345 0.124455 0.103602
0.381942 0.124177 0.101807
0.450645 0.123891 0.099939
0.519413 0.123606 0.098024
0.588226 0.123323 0.096074
0.657073 0.123045 0.094095
0.725944 0.122770 0.092095
0.794835 0.122499 0.090078
0.863740 0.122230 0.088048
0.932654 0.121963 0.086010
1.000000 0.121696 0.083968
0.000000 0.190659 0.109346
0.000000 0.191000 0.108436
0.044300 0.191380 0.107422
0.110343 0.191774 0.106372
0.175711 0.193285 0.096424
0.253384 0.191593 0.082130
0.325312 0.189935 0.084554
0.393605 0.189438 0.086301
0.461136 0.189311 0.086734
0.528845 0.189235 0.086220
0.596752 0.189157 0.085199
0.664829 0.189064 0.083878
0.733044 0.188952 0.082369
0.801367 0.188821 0.080736
0.869773 0.188673 0.079020
0.938251 0.188509 0.077242
1.000000 0.188328 0.075396
0.000000 0.257072 0.105910
0.000000 0.257456 0.104885
0.047503 0.257877 0.103761
0.113633 0.258308 0.102612
0.179442 0.258936 0.100578
0.246115 0.261509 0.076819
0.325352 0.259754 0.059010
0.401638 0.257114 0.058725
0.473457 0.255519 0.061274
0.542865 0.254676 0.063498
0.611008 0.254278 0.065044
0.678581 0.254116 0.065910
0.746187 0.254018 0.066042
0.813923 0.253940 0.065645
0.881797 0.253861 0.064876
0.949799 0.253770 0.063837
1.000000 0.253663 0.062600
0.000000 0.323620 0.102111
0.000000 0.324033 0.101010
0.050956 0.324481 0.099815
0.117138 0.324934 0.098607
0.183327 0.325391 0.097389
0.247155 0.327634 0.085458
0.317208 0.329682 0.057154
0.396765 0.328027 0.037531
0.475234 0.325111 0.033591
0.549854 0.322786 0.035151
0.621704 0.321188 0.037704
0.691776 0.320139 0.040070
0.760719 0.319471 0.041976
0.828936 0.319063 0.043406
0.896707 0.318828 0.044395
0.964429 0.318654 0.044838
1.000000 0.318501 0.044837
0.000000 0.390254 0.098084
0.000000 0.390682 0.096944
0.054541 0.391141 0.095718
0.120738 0.391601 0.094491
0.186934 0.392061 0.093267
0.251905 0.393233 0.088569
0.316084 0.396372 0.066764
0.388571 0.397810 0.037381
0.468314 0.396213 0.016691
0.548009 0.393264 0.009532
0.624692 0.390509 0.009266
0.698648 0.388329 0.011277
0.770581 0.386687 0.013827
0.841068 0.385473 0.016295
0.910522 0.384582 0.018471
0.979232 0.383931 0.020309
1.000000 0.383456 0.021824
0.000000 0.456923 0.093964
0.000000 0.457351 0.092822
0.058160 0.457807 0.091590
0.124405 0.458259 0.090335
0.190681 0.458706 0.089062
0.256772 0.459256 0.087296
0.319898 0.461948 0.073030
0.386370 0.464855 0.046730
0.460534 0.465798 0.017163
0.540387 0.464199 0.000000
0.620665 0.461279 0.000000
0.698685 0.458276 0.000000
0.774207 0.455667 0.000000
0.847661 0.453529 0.000000
0.919505 0.451810 0.000000
0.990111 0.450439 0.000000
1.000000 0.449342 0.000000
0.000000 0.523576 0.089790
0.000000 0.523991 0.088595
0.062045 0.524428 0.087305
0.128374 0.524857 0.086008
0.194718 0.525275 0.084709
0.261071 0.525683 0.083414
0.325218 0.527399 0.075556
0.388872 0.530564 0.054670
0.457450 0.533002 0.026335
0.532704 0.533538 0.000000
0.612546 0.531891 0.000000
0.693025 0.528997 0.000000
0.771861 0.525838 0.000000
0.848476 0.522908 0.000000
0.923087 0.520357 0.000000
0.996024 0.518189 0.000000
1.000000 0.516363 0.000000
0.000000 0.590162 0.085449
0.000000 0.590549 0.084237
0.066148 0.590953 0.082944
0.132505 0.591343 0.081660
0.198861 0.591720 0.080391
0.265210 0.592080 0.079142
0.330554 0.592970 0.075427
0.393433 0.595753 0.060028
0.458498 0.598781 0.035536
0.528685 0.600730 0.006395
0.604605 0.600918 0.000000
0.684316 0.599193 0.000000
0.764756 0.596297 0.000000
0.844019 0.593023 0.000000
0.921343 0.589839 0.000000
0.996771 0.586938 0.000000
1.000000 0.584369 0.000000
0.000000 0.656631 0.081113
0.003937 0.656977 0.079934
0.070282 0.657331 0.078693
0.136613 0.657668 0.077478
0.202927 0.657987 0.076294
0.269216 0.658285 0.075146
0.335268 0.658672 0.073572
0.398514 0.660749 0.063233
0.461739 0.663775 0.043261
0.528191 0.666458 0.016863
0.599505 0.667949 0.000000
0.675762 0.667828 0.000000
0.755224 0.666000 0.000000
0.835447 0.663072 0.000000
0.914836 0.659695 0.000000
0.992557 0.656293 0.000000
1.000000 0.653096 0.000000
0.000000 0.722932 0.076965
0.007982 0.723222 0.075872
0.074262 0.723513 0.074738
0.140512 0.723782 0.073647
0.206727 0.724027 0.072604
0.272902 0.724248 0.071613
0.339033 0.724443 0.070679
0.403259 0.725657 0.064907
0.465782 0.728312 0.049499
0.529798 0.731216 0.026833
0.597354 0.733490 0.000000
0.669377 0.734562 0.000000
0.745702 0.734157 0.000000
0.824855 0.732232 0.000000
0.904876 0.729302 0.000000
0.984409 0.725913 0.000000
1.000000 0.722447 0.000000
0.000000 0.789014 0.073193
0.011743 0.789234 0.072237
0.077903 0.789446 0.071266
0.144016 0.789632 0.070354
0.210078 0.789789 0.069506
0.276083 0.789918 0.068727
0.342028 0.790016 0.068021
0.407143 0.790492 0.065586
0.469717 0.792542 0.054595
0.532323 0.795309 0.035995
0.597196 0.797970 0.011715
0.665698 0.799904 0.000000
0.738372 0.800706 0.000000
0.814947 0.800183 0.000000
0.894066 0.798284 0.000000
0.974060 0.795435 0.000000
1.000000 0.792103 0.000000
0.000000 0.854827 0.069981
0.015033 0.854964 0.069214
0.081017 0.855081 0.068461
0.146938 0.855168 0.067784
0.212792 0.855223 0.067187
0.278572 0.855244 0.066675
0.344308 0.855244 0.066216
0.409927 0.855305 0.065500
0.473242 0.856691 0.058443
0.535451 0.859197 0.043549
0.598734 0.862013 0.022408
0.664635 0.864504 0.000000
0.734069 0.866205 0.000000
0.807332 0.866818 0.000000
0.884091 0.866210 0.000000
0.963137 0.864335 0.000000
1.000000 0.861561 0.000000
0.000000 0.920320 0.067517
0.017667 0.920359 0.066990
0.083423 0.920368 0.066507
0.149159 0.920368 0.066048
0.214896 0.920368 0.065589
0.280633 0.920368 0.065129
0.346368 0.920368 0.064671
0.412098 0.920368 0.064216
0.476520 0.921078 0.060577
0.538909 0.923169 0.049215
0.601332 0.925907 0.031334
0.665395 0.928669 0.008347
0.732211 0.930972 0.000000
0.802401 0.932460 0.000000
0.876101 0.932915 0.000000
0.952958 0.932238 0.000000
1.000000 0.930388 0.000000
0.000000 0.985492 0.065851
0.019748 0.985492 0.065421
0.085484 0.985492 0.064962
0.151217 0.985492 0.064505
0.216946 0.985492 0.064051
0.282669 0.985492 0.063602
0.348383 0.985492 0.063159
0.414087 0.985492 0.062724
0.479340 0.985723 0.061304
0.542301 0.987301 0.053264
0.604418 0.989794 0.038611
0.667290 0.992609 0.018504
0.732118 0.995262 0.000000
0.799712 0.997376 0.000000
0.870493 0.998677 0.000000
0.944498 0.998999 0.000000
1.000000 0.998269 0.000000
0.000000 0.000000 0.192937
0.000000 0.000000 0.198354
0.047117 0.000000 0.216164
0.130963 0.000000 0.230271
0.217205 0.000000 0.234761
0.295049 0.000000 0.227675
0.366498 0.000000 0.218066
0.435628 0.000000 0.209728
0.503830 0.000000 0.202847
0.571651 0.000000 0.197114
0.639327 0.000000 0.192227
0.706967 0.000000 0.187960
0.774623 0.000000 0.184147
0.842318 0.000000 0.180673
0.910064 0.000000 0.177455
0.977863 0.000000 0.174433
1.000000 0.000000 0.171563
0.000000 0.000000 0.182918
0.000000 0.000000 0.185106
0.040043 0.000000 0.199648
