assets/presets/luts/night-city/lut.cube
TITLE "Night City"
LUT_3D_SIZE 5
0.000000 0.000000 0.000000
0.185670 0.000000 0.000000
0.456220 0.000000 0.000000
0.729304 0.000000 0.000000
1.000000 0.000000 0.000000
0.000000 0.190428 0.000000
0.176219 0.195004 0.000000
0.478890 0.186863 0.000000
0.752216 0.185002 0.000000
1.000000 0.184696 0.000000
0.000000 0.456621 0.000000
0.189622 0.458571 0.000000
0.461396 0.467304 0.000000
0.778891 0.457246 0.000000
1.000000 0.448591 0.000000
0.000000 0.722718 0.000000
0.206015 0.723868 0.000000
0.462454 0.730887 0.000000
0.746991 0.735943 0.000000
1.000000 0.724718 0.000000
0.000000 0.985492 0.000000
0.216549 0.985492 0.000000
0.476464 0.987164 0.000000
0.731100 0.997577 0.000000
1.000000 1.000000 0.000000
0.000000 0.000000 0.260854
0.211275 0.000000 0.310776
0.518099 0.000000 0.287052
0.791091 0.000000 0.260973
1.000000 0.000000 0.244379
0.000000 0.190906 0.238936
0.177055 0.192464 0.234839
0.458598 0.189344 0.228421
0.731558 0.189081 0.220125
1.000000 0.188292 0.212023
0.000000 0.457234 0.223381
0.191478 0.459005 0.218437
0.459649 0.464236 0.169790
0.765456 0.455000 0.151870
1.000000 0.451843 0.159929
0.000000 0.723144 0.206415
0.207446 0.724180 0.202173
0.470049 0.725779 0.194244
0.744365 0.732306 0.096570
1.000000 0.720221 0.061576
0.000000 0.985492 0.195786
0.217354 0.985492 0.193993
0.480159 0.985492 0.192261
0.734053 0.992562 0.146225
1.000000 0.996414 0.037326
0.000000 0.000000 0.532418
0.192620 0.000000 0.587857
0.533239 0.000000 0.626377
0.844971 0.000000 0.597193
1.000000 0.000000 0.560771
0.000000 0.191421 0.498059
0.177240 0.192378 0.503807
0.493380 0.173463 0.552513
0.793466 0.167643 0.519499
1.000000 0.168923 0.494351
0.000000 0.457854 0.482205
0.193103 0.459594 0.477175
0.458506 0.461213 0.472014
0.735358 0.459469 0.464225
1.000000 0.457630 0.456684
0.000000 0.723541 0.465367
0.208822 0.724450 0.461389
0.472791 0.724941 0.458334
0.741722 0.728585 0.403536
1.000000 0.717460 0.394299
0.000000 0.985492 0.455658
0.218157 0.985492 0.453887
0.480895 0.985492 0.452205
0.740854 0.986977 0.443398
1.000000 0.992692 0.344746
0.000000 0.000000 0.803817
0.184905 0.000000 0.858342
0.509468 0.000000 0.917130
0.855911 0.000000 0.937380
1.000000 0.000000 0.906109
0.000000 0.191969 0.757405
0.177718 0.192106 0.773984
0.474114 0.177877 0.834792
0.817796 0.153083 0.861376
1.000000 0.146074 0.824908
0.000000 0.458466 0.740989
0.194757 0.460165 0.735907
0.459239 0.460846 0.742154
0.781727 0.440565 0.782522
1.000000 0.437572 0.747732
0.000000 0.723898 0.724399
0.210107 0.724670 0.720720
0.473734 0.724993 0.718074
0.736855 0.724965 0.716047
1.000000 0.721970 0.710843
0.000000 0.985492 0.715534
0.218942 0.985492 0.713793
0.481600 0.985492 0.712172
0.743947 0.985492 0.710784
1.000000 0.988915 0.652555
0.000000 0.000000 1.000000
0.181060 0.000000 1.000000
0.492455 0.000000 1.000000
0.833171 0.000000 1.000000
1.000000 0.000000 1.000000
0.000000 0.192514 1.000000
0.178256 0.191828 1.000000
0.465569 0.180267 1.000000
0.795847 0.156841 1.000000
1.000000 0.132916 1.000000
0.000000 0.459067 0.999743
0.196427 0.460715 0.994646
0.460036 0.460410 1.000000
0.762079 0.443989 1.000000
1.000000 0.419353 1.000000
0.000000 0.724210 0.983522
0.211287 0.724836 0.980178
0.474572 0.724997 0.977939
0.737017 0.723747 0.989944
1.000000 0.702363 1.000000
0.000000 0.985492 0.975418
0.219705 0.985492 0.973718
0.482269 0.985492 0.972166
0.744484 0.985492 0.970877
1.000000 0.985336 0.969040
