assets/presets/luts/cool-punch/lut.cube
TITLE "Cool Punch"
LUT_3D_SIZE 5
0.000000 0.000000 0.000000
0.162848 0.000000 0.000000
0.549710 0.000000 0.000000
0.878726 0.000000 0.000000
1.000000 0.000000 0.000000
0.000000 0.149774 0.000000
0.129331 0.140311 0.000000
0.525649 0.132528 0.000000
0.880764 0.131041 0.000000
1.000000 0.136493 0.000000
0.000000 0.534617 0.000000
0.107240 0.528993 0.000000
0.490327 0.518304 0.000000
0.868740 0.510684 0.000000
1.000000 0.510890 0.000000
0.000000 0.886498 0.000000
0.107218 0.888479 0.000000
0.472059 0.885651 0.000000
0.855720 0.881326 0.000000
1.000000 0.879097 0.000000
0.000000 1.000000 0.000000
0.127300 1.000000 0.000000
0.484624 1.000000 0.000000
0.854210 1.000000 0.000000
1.000000 1.000000 0.000000
0.000000 0.000000 0.192335
0.158765 0.000000 0.182439
0.556476 0.000000 0.164872
0.891109 0.000000 0.152016
1.000000 0.000000 0.146076
0.000000 0.146242 0.157321
0.125587 0.136992 0.148358
0.536711 0.127448 0.137990
0.896099 0.125051 0.134956
1.000000 0.129648 0.139135
0.000000 0.535133 0.130823
0.096519 0.531060 0.116026
0.487898 0.517520 0.106552
0.880500 0.505739 0.110136
1.000000 0.503169 0.122860
0.000000 0.890493 0.127381
0.091315 0.893530 0.109332
0.453425 0.890205 0.096805
0.856335 0.883418 0.097157
1.000000 0.878323 0.111370
0.000000 1.000000 0.146005
0.108485 1.000000 0.126630
0.453781 1.000000 0.110480
0.843248 1.000000 0.106138
1.000000 1.000000 0.117029
0.000000 0.000000 0.608840
0.146295 0.000000 0.613166
0.541321 0.000000 0.595565
0.888699 0.000000 0.567618
1.000000 0.000000 0.540676
0.000000 0.140949 0.590472
0.122973 0.133679 0.599348
0.530261 0.124505 0.587747
0.899580 0.121026 0.564430
1.000000 0.124721 0.546000
0.000000 0.528367 0.555121
0.094419 0.525813 0.554056
0.481726 0.512684 0.542453
0.887062 0.498169 0.526777
1.000000 0.494206 0.521325
0.000000 0.889228 0.531126
0.084179 0.893650 0.516093
0.435866 0.891370 0.493628
0.854152 0.882932 0.477587
1.000000 0.875114 0.482397
0.000000 1.000000 0.535186
0.095737 1.000000 0.510458
0.427635 1.000000 0.482189
0.829306 1.000000 0.460824
1.000000 1.000000 0.460276
0.000000 0.000000 0.919729
0.134714 0.000000 0.931508
0.514378 0.000000 0.930383
0.873207 0.000000 0.918556
1.000000 0.000000 0.901222
0.000000 0.137575 0.926260
0.122983 0.133084 0.940223
0.512889 0.126159 0.942950
0.889850 0.121959 0.934576
1.000000 0.124143 0.919780
0.000000 0.519256 0.918580
0.102331 0.518162 0.931270
0.478431 0.507769 0.936373
0.882469 0.493930 0.930936
1.000000 0.488218 0.918354
0.000000 0.884131 0.906459
0.089759 0.889351 0.912451
0.433186 0.887964 0.912422
0.849517 0.879817 0.906294
1.000000 0.870131 0.896595
0.000000 1.000000 0.901222
0.095972 1.000000 0.898582
0.415999 1.000000 0.889839
0.816026 1.000000 0.875776
1.000000 1.000000 0.864539
0.000000 0.000000 1.000000
0.127300 0.000000 1.000000
0.486393 0.000000 1.000000
0.854210 0.000000 1.000000
1.000000 0.000000 1.000000
0.000000 0.136697 1.000000
0.125615 0.135192 1.000000
0.496586 0.131035 1.000000
0.872497 0.127804 1.000000
1.000000 0.129121 1.000000
0.000000 0.511904 1.000000
0.115127 0.513214 1.000000
0.479156 0.506857 1.000000
0.871277 0.496561 1.000000
1.000000 0.489932 1.000000
0.000000 0.879097 1.000000
0.106063 0.883579 1.000000
0.447079 0.883114 1.000000
0.847672 0.876615 1.000000
1.000000 0.867456 1.000000
0.000000 1.000000 1.000000
0.110109 1.000000 1.000000
0.426664 1.000000 1.000000
0.814632 1.000000 1.000000
1.000000 1.000000 1.000000
