assets/presets/luts/cool-punch/lut.cube
TITLE "Cool Punch"
LUT_3D_SIZE 17
0.000000 0.000000 0.000000
0.002540 0.000000 0.000000
0.034983 0.000000 0.000000
0.089989 0.000000 0.000000
0.162848 0.000000 0.000000
0.249789 0.000000 0.000000
0.346488 0.000000 0.000000
0.448108 0.000000 0.000000
0.549710 0.000000 0.000000
0.646762 0.000000 0.000000
0.735549 0.000000 0.000000
0.813408 0.000000 0.000000
0.878726 0.000000 0.000000
0.930759 0.000000 0.000000
0.969274 0.000000 0.000000
0.995637 0.000000 0.000000
1.000000 0.000000 0.000000
0.000000 0.001890 0.000000
0.000645 0.001341 0.000000
0.029732 0.000860 0.000000
0.083101 0.000505 0.000000
0.155260 0.000263 0.000000
0.242333 0.000113 0.000000
0.339894 0.000033 0.000000
0.442937 0.000003 0.000000
0.546293 0.000000 0.000000
0.645176 0.000000 0.000000
0.735643 0.000017 0.000000
0.814853 0.000075 0.000000
0.881081 0.000195 0.000000
0.933519 0.000400 0.000000
0.971885 0.000711 0.000000
0.995637 0.001133 0.000000
1.000000 0.001133 0.000000
0.000000 0.030942 0.000000
0.000000 0.029534 0.000000
0.024585 0.028002 0.000000
0.075721 0.026566 0.000000
0.146673 0.025325 0.000000
0.233465 0.024308 0.000000
0.331587 0.023517 0.000000
0.435874 0.022948 0.000000
0.540929 0.022598 0.000000
0.641700 0.022465 0.000000
0.733990 0.022547 0.000000
0.814754 0.022845 0.000000
0.882126 0.023364 0.000000
0.935223 0.024109 0.000000
0.973702 0.025089 0.000000
0.996718 0.026313 0.000000
1.000000 0.026869 0.000000
0.000000 0.081477 0.000000
0.000000 0.079674 0.000000
0.020167 0.077583 0.000000
0.068612 0.075435 0.000000
0.137784 0.073418 0.000000
0.223777 0.071647 0.000000
0.322048 0.070174 0.000000
0.427301 0.069019 0.000000
0.533915 0.068190 0.000000
0.636560 0.067689 0.000000
0.730764 0.067517 0.000000
0.813246 0.067677 0.000000
0.881977 0.068170 0.000000
0.935970 0.069001 0.000000
0.974819 0.070176 0.000000
0.997492 0.071701 0.000000
1.000000 0.073124 0.000000
0.000000 0.149774 0.000000
0.000000 0.147837 0.000000
0.016653 0.145479 0.000000
0.062353 0.142904 0.000000
0.129331 0.140311 0.000000
0.213985 0.137882 0.000000
0.311901 0.135734 0.000000
0.417727 0.133938 0.000000
0.525649 0.132528 0.000000
0.630062 0.131525 0.000000
0.726195 0.130939 0.000000
0.810504 0.130775 0.000000
0.880764 0.131041 0.000000
0.935867 0.131739 0.000000
0.975327 0.132876 0.000000
0.997950 0.134458 0.000000
1.000000 0.136493 0.000000
0.000000 0.233071 0.000000
0.000000 0.231232 0.000000
0.013997 0.228869 0.000000
0.057186 0.226152 0.000000
0.121846 0.223261 0.000000
0.204763 0.220390 0.000000
0.301823 0.217708 0.000000
0.407754 0.215334 0.000000
0.516627 0.213347 0.000000
0.622590 0.211796 0.000000
0.720571 0.210710 0.000000
0.806739 0.210108 0.000000
0.878643 0.210003 0.000000
0.935025 0.210405 0.000000
0.975306 0.211322 0.000000
0.998166 0.212760 0.000000
1.000000 0.214726 0.000000
0.000000 0.327929 0.000000
0.000000 0.326390 0.000000
0.012104 0.324257 0.000000
0.053156 0.321666 0.000000
0.115608 0.318768 0.000000
0.196607 0.315742 0.000000
0.292418 0.312768 0.000000
0.397988 0.310001 0.000000
0.507389 0.307557 0.000000
0.614589 0.305520 0.000000
0.714236 0.303947 0.000000
0.802204 0.302875 0.000000
0.875793 0.302332 0.000000
0.933565 0.302336 0.000000
0.974838 0.302901 0.000000
0.998192 0.304038 0.000000
1.000000 0.305756 0.000000
0.000000 0.430064 0.000000
0.000000 0.428980 0.000000
0.010885 0.427267 0.000000
0.050235 0.425029 0.000000
0.110729 0.422386 0.000000
0.189816 0.419491 0.000000
0.284147 0.416511 0.000000
0.388968 0.413609 0.000000
0.498466 0.410923 0.000000
0.606525 0.408564 0.000000
0.707567 0.406615 0.000000
0.797185 0.405137 0.000000
0.872416 0.404173 0.000000
0.931626 0.403756 0.000000
0.974004 0.403909 0.000000
0.998063 0.404649 0.000000
1.000000 0.405990 0.000000
0.000000 0.534617 0.000000
0.000000 0.534076 0.000000
0.010279 0.532907 0.000000
0.048384 0.531181 0.000000
0.107240 0.528993 0.000000
0.184554 0.526467 0.000000
0.277322 0.523745 0.000000
0.381118 0.520977 0.000000
0.490327 0.518304 0.000000
0.598848 0.515847 0.000000
0.700952 0.513709 0.000000
0.791989 0.511967 0.000000
0.868740 0.510684 0.000000
0.929359 0.509903 0.000000
0.972895 0.509661 0.000000
0.997805 0.509984 0.000000
1.000000 0.510890 0.000000
0.000000 0.636634 0.000000
0.000000 0.636644 0.000000
0.010249 0.636060 0.000000
0.047569 0.634923 0.000000
0.105142 0.633307 0.000000
0.180900 0.631308 0.000000
0.272138 0.629040 0.000000
0.374747 0.626629 0.000000
0.483356 0.624203 0.000000
0.591961 0.621881 0.000000
0.694763 0.619768 0.000000
0.786926 0.617951 0.000000
0.865000 0.616504 0.000000
0.926929 0.615483 0.000000
0.971608 0.614932 0.000000
0.997447 0.614888 0.000000
1.000000 0.615375 0.000000
0.000000 0.731583 0.000000
0.000000 0.732078 0.000000
0.010795 0.732038 0.000000
0.047779 0.731481 0.000000
0.104431 0.730463 0.000000
0.178897 0.729056 0.000000
0.268716 0.727347 0.000000
0.370071 0.725436 0.000000
0.477851 0.723428 0.000000
0.586202 0.721428 0.000000
0.689335 0.719533 0.000000
0.782293 0.717829 0.000000
0.861434 0.716392 0.000000
0.924506 0.715283 0.000000
0.970250 0.714554 0.000000
0.997019 0.714244 0.000000
1.000000 0.714387 0.000000
0.000000 0.815763 0.000000
0.000000 0.816619 0.000000
0.011952 0.817016 0.000000
0.049022 0.816956 0.000000
0.105116 0.816480 0.000000
0.178572 0.815642 0.000000
0.267134 0.814506 0.000000
0.367239 0.813145 0.000000
0.474031 0.811641 0.000000
0.581845 0.810077 0.000000
0.684959 0.808535 0.000000
0.778362 0.807092 0.000000
0.858271 0.805816 0.000000
0.922262 0.804768 0.000000
0.968929 0.803999 0.000000
0.996565 0.803551 0.000000
1.000000 0.803461 0.000000
0.000000 0.886498 0.000000
0.000000 0.887549 0.000000
0.013784 0.888229 0.000000
0.051335 0.888529 0.000000
0.107218 0.888479 0.000000
0.179953 0.888119 0.000000
0.267448 0.887491 0.000000
0.366355 0.886649 0.000000
0.472059 0.885651 0.000000
0.579100 0.884558 0.000000
0.681873 0.883433 0.000000
0.775370 0.882336 0.000000
0.855720 0.881326 0.000000
0.920364 0.880453 0.000000
0.967759 0.879764 0.000000
0.996131 0.879299 0.000000
1.000000 0.879097 0.000000
0.000000 0.942040 0.000000
0.000000 0.943097 0.000000
0.016388 0.943876 0.000000
0.054779 0.944364 0.000000
0.110782 0.944584 0.000000
0.183077 0.944561 0.000000
0.269705 0.944326 0.000000
0.367496 0.943911 0.000000
0.472055 0.943356 0.000000
0.578131 0.942702 0.000000
0.680269 0.941990 0.000000
0.773516 0.941265 0.000000
0.853967 0.940568 0.000000
0.918964 0.939939 0.000000
0.966847 0.939414 0.000000
0.995771 0.939026 0.000000
1.000000 0.938924 0.000000
0.000000 0.981077 0.000000
0.000049 0.981920 0.000000
0.019888 0.982582 0.000000
0.059440 0.983054 0.000000
0.115869 0.983353 0.000000
0.187994 0.983495 0.000000
0.273953 0.983497 0.000000
0.370724 0.983380 0.000000
0.474106 0.983163 0.000000
0.579057 0.982870 0.000000
0.680295 0.982523 0.000000
0.772964 0.982148 0.000000
0.853169 0.981770 0.000000
0.918196 0.981413 0.000000
0.966293 0.981100 0.000000
0.995637 0.980956 0.000000
1.000000 0.980956 0.000000
0.000000 1.000000 0.000000
0.000582 1.000000 0.000000
0.024032 1.000000 0.000000
0.065429 1.000000 0.000000
0.122566 1.000000 0.000000
0.194768 1.000000 0.000000
0.280245 1.000000 0.000000
0.376092 1.000000 0.000000
0.478278 1.000000 0.000000
0.581967 1.000000 0.000000
0.682061 1.000000 0.000000
0.773836 1.000000 0.000000
0.853452 1.000000 0.000000
0.918174 1.000000 0.000000
0.966180 1.000000 0.000000
0.995637 1.000000 0.000000
1.000000 1.000000 0.000000
0.000000 1.000000 0.000000
0.000582 1.000000 0.000000
0.024032 1.000000 0.000000
0.067372 1.000000 0.000000
0.127300 1.000000 0.000000
0.201953 1.000000 0.000000
0.288641 1.000000 0.000000
0.383649 1.000000 0.000000
0.484624 1.000000 0.000000
0.586923 1.000000 0.000000
0.685645 1.000000 0.000000
0.776009 1.000000 0.000000
0.854210 1.000000 0.000000
0.918243 1.000000 0.000000
0.966180 1.000000 0.000000
0.995637 1.000000 0.000000
1.000000 1.000000 0.000000
0.000000 0.000000 0.005143
0.002292 0.000000 0.004358
0.034630 0.000000 0.003485
0.089931 0.000000 0.002732
0.163359 0.000000 0.002125
0.251071 0.000000 0.001653
0.348654 0.000000 0.001299
0.451162 0.000000 0.001045
0.553545 0.000000 0.000879
0.651177 0.000000 0.000787
0.740283 0.000000 0.000763
0.818169 0.000000 0.000805
0.883220 0.000000 0.000917
0.934703 0.000000 0.001107
0.972371 0.000000 0.001387
0.995637 0.000000 0.001769
1.000000 0.000000 0.001769
0.000000 0.001675 0.002545
0.000493 0.001152 0.001943
0.029501 0.000682 0.001360
0.083223 0.000351 0.000919
0.155999 0.000139 0.000599
0.243887 0.000025 0.000379
0.342369 0.000000 0.000239
0.446324 0.000000 0.000159
0.550468 0.000000 0.000125
0.649920 0.000000 0.000129
0.740672 0.000000 0.000170
0.819858 0.000000 0.000261
0.885753 0.000064 0.000415
0.937563 0.000218 0.000653
0.974989 0.000479 0.000994
0.997155 0.000867 0.001462
1.000000 0.001133 0.001769
0.000000 0.030468 0.000705
0.000000 0.029104 0.000292
0.024081 0.027519 0.000035
0.075614 0.026001 0.000000
0.147274 0.024711 0.000000
0.234968 0.023662 0.000000
0.334088 0.022846 0.000000
0.439353 0.022256 0.000000
0.545245 0.021885 0.000000
0.646611 0.021729 0.000000
0.739191 0.021788 0.000000
0.819912 0.022061 0.000000
0.886917 0.022552 0.000031
0.939333 0.023266 0.000223
0.976801 0.024211 0.000563
0.998185 0.025397 0.001066
1.000000 0.026836 0.001753
0.000000 0.080976 0.000000
0.000000 0.079239 0.000000
0.019383 0.077125 0.000000
0.067956 0.074849 0.000000
0.137826 0.072690 0.000000
0.224812 0.070808 0.000000
0.324200 0.069252 0.000000
0.430549 0.068031 0.000000
0.538103 0.067147 0.000000
0.641426 0.066597 0.000000
0.735975 0.066380 0.000000
0.818442 0.066495 0.000000
0.886808 0.066944 0.000000
0.940103 0.067730 0.000000
0.977900 0.068857 0.000180
0.998818 0.070334 0.000649
1.000000 0.072169 0.001362
0.000000 0.149392 0.000000
0.000000 0.147538 0.000000
0.015706 0.145189 0.000000
0.061186 0.142507 0.000000
0.128617 0.139731 0.000000
0.214219 0.137108 0.000000
0.313333 0.134793 0.000000
0.420391 0.132859 0.000000
0.529403 0.131336 0.000000
0.634631 0.130237 0.000000
0.731219 0.129566 0.000000
0.815595 0.129327 0.000000
0.885540 0.129521 0.000000
0.939966 0.130151 0.000000
0.978370 0.131222 0.000000
0.999164 0.132738 0.000278
1.000000 0.134707 0.000957
0.000000 0.232931 0.000000
0.000000 0.231188 0.000000
0.012940 0.228859 0.000000
0.055631 0.226072 0.000000
0.120421 0.223009 0.000000
0.204073 0.219908 0.000000
0.302285 0.216989 0.000000
0.409531 0.214400 0.000000
0.519646 0.212226 0.000000
0.626596 0.210514 0.000000
0.725195 0.209288 0.000000
0.811562 0.208564 0.000000
0.883250 0.208349 0.000000
0.939022 0.208649 0.000000
0.978286 0.209470 0.000000
0.999307 0.210817 0.000027
1.000000 0.212697 0.000586
0.000000 0.328119 0.000000
0.000000 0.326689 0.000000
0.010957 0.324609 0.000000
0.051295 0.321984 0.000000
0.113585 0.318948 0.000000
0.195033 0.315701 0.000000
0.291827 0.312463 0.000000
0.398694 0.309426 0.000000
0.509437 0.306730 0.000000
0.617793 0.304465 0.000000
0.718246 0.302690 0.000000
0.806589 0.301440 0.000000
0.880108 0.300737 0.000000
0.937383 0.300597 0.000000
0.977719 0.301030 0.000000
0.999295 0.302044 0.000000
1.000000 0.303647 0.000289
0.000000 0.430633 0.000000
0.000000 0.429664 0.000000
0.009651 0.428021 0.000000
0.048114 0.425777 0.000000
0.108203 0.423036 0.000000
0.187456 0.419955 0.000000
0.282533 0.416724 0.000000
0.388536 0.413537 0.000000
0.499400 0.410562 0.000000
0.608743 0.407926 0.000000
0.710777 0.405721 0.000000
0.800969 0.404011 0.000000
0.876313 0.402837 0.000000
0.935178 0.402231 0.000000
0.976743 0.402211 0.000000
0.999152 0.402793 0.000000
1.000000 0.403988 0.000091
0.000000 0.535561 0.000000
0.000000 0.535137 0.000000
0.008946 0.534046 0.000000
0.046021 0.532336 0.000000
0.104275 0.530088 0.000000
0.181503 0.527420 0.000000
0.274767 0.524484 0.000000
0.379570 0.521452 0.000000
0.490094 0.518488 0.000000
0.599969 0.515737 0.000000
0.703223 0.513313 0.000000
0.795033 0.511302 0.000000
0.872099 0.509770 0.000000
0.932557 0.508762 0.000000
0.975441 0.508311 0.000000
0.998884 0.508442 0.000000
1.000000 0.509172 0.000002
0.000000 0.637897 0.000000
0.000000 0.638020 0.000000
0.008797 0.637516 0.000000
0.044966 0.636411 0.000000
0.101773 0.634764 0.000000
0.177231 0.632666 0.000000
0.268729 0.630232 0.000000
0.372147 0.627599 0.000000
0.481966 0.624912 0.000000
0.591938 0.622309 0.000000
0.696005 0.619910 0.000000
0.789122 0.617814 0.000000
0.867719 0.616101 0.000000
0.929690 0.614830 0.000000
0.973907 0.614047 0.000000
0.998500 0.613787 0.000000
1.000000 0.614076 0.000000
0.000000 0.733066 0.000000
0.000000 0.733663 0.000000
0.009193 0.733700 0.000000
0.044924 0.733183 0.000000
0.100676 0.732157 0.000000
0.174659 0.730687 0.000000
0.264528 0.728858 0.000000
0.366495 0.726775 0.000000
0.475352 0.724554 0.000000
0.585038 0.722311 0.000000
0.689508 0.720157 0.000000
0.783572 0.718190 0.000000
0.863434 0.716494 0.000000
0.926759 0.715136 0.000000
0.972246 0.714170 0.000000
0.998017 0.713638 0.000000
1.000000 0.713574 0.000000
0.000000 0.817339 0.000000
0.000000 0.818281 0.000000
0.010160 0.818746 0.000000
0.045896 0.818727 0.000000
0.100973 0.818257 0.000000
0.173795 0.817383 0.000000
0.262224 0.816167 0.000000
0.362758 0.814683 0.000000
0.470486 0.813018 0.000000
0.579573 0.811262 0.000000
0.684058 0.809507 0.000000
0.778689 0.807838 0.000000
0.859497 0.806333 0.000000
0.923949 0.805058 0.000000
0.970575 0.804068 0.000000
0.997472 0.803410 0.000000
1.000000 0.803119 0.000000
0.000000 0.888025 0.000000
0.000000 0.889142 0.000000
0.011760 0.889877 0.000000
0.047908 0.890213 0.000000
0.102677 0.890175 0.000000
0.174649 0.889797 0.000000
0.261856 0.889121 0.000000
0.361029 0.888198 0.000000
0.467533 0.887088 0.000000
0.575772 0.885856 0.000000
0.679923 0.884571 0.000000
0.774737 0.883299 0.000000
0.856143 0.882104 0.000000
0.921443 0.881044 0.000000
0.969014 0.880168 0.000000
0.996909 0.879521 0.000000
1.000000 0.879137 0.000087
0.000000 0.943369 0.000000
0.000000 0.944471 0.000000
0.014084 0.945287 0.000000
0.051016 0.945801 0.000000
0.105821 0.946032 0.000000
0.177246 0.946002 0.000000
0.263455 0.945740 0.000000
0.361373 0.945278 0.000000
0.466607 0.944653 0.000000
0.573802 0.943909 0.000000
0.677308 0.943091 0.000000
0.771940 0.942245 0.000000
0.853579 0.941417 0.000000
0.919412 0.940650 0.000000
0.967680 0.939985 0.000000
0.996387 0.939456 0.000000
1.000000 0.939094 0.000413
0.000000 0.982038 0.000808
0.000000 0.982898 0.000164
0.017251 0.983575 0.000000
0.055299 0.984057 0.000000
0.110460 0.984360 0.000000
0.181625 0.984498 0.000000
0.267059 0.984487 0.000000
0.363840 0.984347 0.000000
0.467789 0.984096 0.000000
0.573785 0.983757 0.000000
0.676373 0.983355 0.000000
0.770475 0.982914 0.000000
0.851981 0.982462 0.000000
0.918006 0.982024 0.000000
0.966687 0.981626 0.000000
0.995965 0.981291 0.000152
1.000000 0.981040 0.001092
0.000000 1.000000 0.001769
0.000498 1.000000 0.001647
0.021406 1.000000 0.000757
0.060863 1.000000 0.000174
0.116672 1.000000 0.000000
0.187842 1.000000 0.000000
0.272709 1.000000 0.000000
0.368472 1.000000 0.000000
0.471139 1.000000 0.000000
0.575808 1.000000 0.000000
0.677232 1.000000 0.000000
0.770477 1.000000 0.000000
0.851488 1.000000 0.000000
0.917354 1.000000 0.000000
0.966133 1.000000 0.000187
0.995699 1.000000 0.000961
1.000000 1.000000 0.001769
0.000000 1.000000 0.001769
0.000582 1.000000 0.001769
0.024032 1.000000 0.001769
0.067372 1.000000 0.001769
0.124559 1.000000 0.001093
0.195971 1.000000 0.000520
0.280458 1.000000 0.000170
0.375312 1.000000 0.000011
0.476700 1.000000 0.000000
0.579929 1.000000 0.000000
0.679965 1.000000 0.000000
0.772046 1.000000 0.000010
0.852209 1.000000 0.000184
0.917557 1.000000 0.000603
0.966101 1.000000 0.001344
0.995637 1.000000 0.001769
1.000000 1.000000 0.001769
0.000000 0.000000 0.044804
0.001960 0.000000 0.043442
0.033756 0.000000 0.041475
0.089037 0.000000 0.039268
0.162804 0.000000 0.037133
0.251118 0.000000 0.035200
0.349472 0.000000 0.033512
0.452812 0.000000 0.032079
0.555980 0.000000 0.030900
0.654248 0.000000 0.029971
0.743770 0.000000 0.029286
0.821814 0.000000 0.028841
0.886752 0.000000 0.028632
0.937852 0.000000 0.028660
0.974849 0.000000 0.028924
0.996934 0.000000 0.029427
1.000000 0.000000 0.029716
0.000000 0.001453 0.039143
0.000370 0.000976 0.037966
0.028877 0.000539 0.036259
0.082689 0.000232 0.034282
0.155878 0.000053 0.032458
0.244411 0.000000 0.030885
0.343687 0.000000 0.029571
0.448479 0.000000 0.028511
0.553391 0.000000 0.027699
0.653442 0.000000 0.027126
0.744556 0.000000 0.026788
0.823828 0.000000 0.026682
0.889527 0.000000 0.026808
0.940862 0.000087 0.027166
0.977510 0.000294 0.027760
0.998335 0.000631 0.028597
1.000000 0.001117 0.029684
0.000000 0.029839 0.033373
0.000000 0.028519 0.032037
0.023516 0.026959 0.030447
0.075258 0.025395 0.028773
0.147387 0.024089 0.027357
0.235769 0.023027 0.026199
0.335717 0.022199 0.025287
0.441842 0.021596 0.024611
0.548509 0.021211 0.024164
0.650465 0.021039 0.023943
0.743376 0.021078 0.023944
0.824137 0.021329 0.024167
0.890885 0.021795 0.024615
0.942753 0.022481 0.025292
0.979355 0.023395 0.026206
0.999199 0.024547 0.027366
1.000000 0.025948 0.028783
0.000000 0.080199 0.028226
0.000000 0.078542 0.026674
0.018651 0.076495 0.024958
0.067188 0.074144 0.023401
0.137661 0.071858 0.022306
0.225471 0.069896 0.021516
0.325792 0.068285 0.020966
0.433084 0.067023 0.020638
0.541476 0.066102 0.020522
0.645427 0.065518 0.020618
0.740322 0.065266 0.020926
0.822821 0.065347 0.021448
0.890903 0.065760 0.022190
0.943606 0.066508 0.023161
0.980475 0.067596 0.024372
0.999672 0.069030 0.025835
1.000000 0.070820 0.027564
0.000000 0.148639 0.024005
0.000000 0.146892 0.022353
0.014881 0.144630 0.020634
0.059974 0.141926 0.019089
0.127752 0.138990 0.017974
0.214231 0.136183 0.017308
0.314426 0.133724 0.016968
0.422581 0.131681 0.016879
0.532566 0.130072 0.017014
0.638530 0.128900 0.017360
0.735542 0.128165 0.017916
0.819995 0.127867 0.018687
0.889674 0.128004 0.019680
0.943503 0.128580 0.020905
0.980950 0.129595 0.022377
0.999885 0.131056 0.024112
1.000000 0.132968 0.026126
0.000000 0.232340 0.020721
0.000000 0.230724 0.019025
0.012042 0.228497 0.017324
0.054125 0.225726 0.015804
0.118892 0.222544 0.014638
0.203197 0.219229 0.013917
0.302502 0.216082 0.013598
0.410982 0.213294 0.013600
0.522246 0.210957 0.013866
0.630102 0.209110 0.014367
0.729267 0.207770 0.015094
0.815820 0.206945 0.016045
0.887313 0.206640 0.017229
0.942528 0.206857 0.018658
0.980848 0.207600 0.020346
0.999951 0.208871 0.022311
1.000000 0.210676 0.024575
0.000000 0.327803 0.018300
0.000000 0.326510 0.016578
0.009994 0.324544 0.014891
0.049561 0.321961 0.013391
0.111540 0.318854 0.012195
0.193312 0.315422 0.011393
0.291020 0.311932 0.010998
0.399134 0.308633 0.010968
0.511165 0.305697 0.011249
0.620617 0.303224 0.011803
0.721826 0.301270 0.012610
0.810519 0.299864 0.013665
0.883970 0.299025 0.014973
0.940778 0.298762 0.016545
0.980231 0.299082 0.018396
0.999938 0.299993 0.020547
1.000000 0.301497 0.023019
0.000000 0.430661 0.016659
0.000000 0.429836 0.014911
0.008622 0.428312 0.013223
0.046179 0.426128 0.011728
0.105742 0.423357 0.010510
0.185018 0.420138 0.009639
0.280740 0.416680 0.009148
0.387867 0.413218 0.009027
0.500060 0.409960 0.009244
0.610653 0.407058 0.009767
0.713645 0.404613 0.010575
0.804387 0.402690 0.011660
0.879837 0.401328 0.013024
0.938373 0.400553 0.014679
0.979161 0.400381 0.016639
0.999845 0.400825 0.018926
1.000000 0.401893 0.021562
0.000000 0.535955 0.015735
0.000000 0.535673 0.013945
0.007838 0.534702 0.012237
0.043891 0.533065 0.010726
0.101452 0.530816 0.009477
0.178456 0.528056 0.008546
0.272089 0.524941 0.007963
0.377817 0.521662 0.007737
0.489612 0.518416 0.007853
0.600819 0.515376 0.008294
0.705203 0.512675 0.009045
0.797773 0.510408 0.010101
0.875149 0.508643 0.011465
0.935457 0.507425 0.013149
0.977713 0.506784 0.015168
0.999639 0.506743 0.017544
1.000000 0.507316 0.020302
0.000000 0.638627 0.015488
0.000000 0.638883 0.013634
0.007589 0.638494 0.011878
0.042636 0.637466 0.010326
0.098615 0.635840 0.009030
0.173648 0.633689 0.008033
0.265270 0.631126 0.007363
0.369390 0.628295 0.007032
0.480357 0.625360 0.007039
0.591668 0.622483 0.007376
0.696988 0.619804 0.008039
0.791056 0.617436 0.009028
0.870177 0.615467 0.010351
0.932201 0.613959 0.012022
0.975975 0.612958 0.014058
0.999295 0.612500 0.016484
1.000000 0.612606 0.019327
0.000000 0.734054 0.015908
0.000000 0.734771 0.013962
0.007857 0.734914 0.012128
0.042380 0.734471 0.010505
0.097189 0.733477 0.009138
0.170585 0.731984 0.008061
0.260369 0.730071 0.007299
0.362824 0.727843 0.006864
0.472674 0.725424 0.006760
0.583652 0.722948 0.006989
0.689444 0.720542 0.007552
0.784617 0.718318 0.008457
0.865206 0.716369 0.009715
0.928798 0.714769 0.011346
0.974050 0.713577 0.013372
0.998816 0.712835 0.015819
1.000000 0.712576 0.018716
0.000000 0.818477 0.017017
0.000000 0.819520 0.014946
0.008662 0.820075 0.012999
0.043115 0.820123 0.011274
0.097153 0.819690 0.009807
0.169251 0.818813 0.008628
0.257421 0.817547 0.007760
0.358253 0.815965 0.007216
0.466814 0.814156 0.007001
0.577113 0.812220 0.007121
0.682944 0.810260 0.007583
0.778801 0.808371 0.008398
0.860519 0.806641 0.009583
0.925450 0.805145 0.011163
0.972059 0.803941 0.013162
0.998226 0.803079 0.015611
1.000000 0.802598 0.018543
0.000000 0.889185 0.018866
0.000000 0.890382 0.016636
0.010058 0.891187 0.014540
0.044863 0.891578 0.012676
0.098508 0.891574 0.011078
0.169644 0.891203 0.009772
0.256445 0.890501 0.008779
0.355752 0.889518 0.008112
0.462939 0.888313 0.007780
0.572296 0.886955 0.007789
0.677785 0.885518 0.008149
0.773910 0.884077 0.008875
0.856381 0.882703 0.009988
0.922358 0.881459 0.011512
0.970130 0.880401 0.013479
0.997573 0.879576 0.015923
1.000000 0.879022 0.018879
0.000000 0.944414 0.021537
0.000000 0.945569 0.019112
0.012133 0.946434 0.016829
0.047671 0.946987 0.014790
0.101280 0.947244 0.013027
0.171774 0.947224 0.011565
0.257458 0.946952 0.010423
0.355371 0.946457 0.009616
0.461155 0.945776 0.009154
0.569374 0.944954 0.009045
0.674193 0.944037 0.009302
0.770190 0.943076 0.009939
0.853023 0.942122 0.010979
0.919711 0.941221 0.012451
0.968393 0.940419 0.014386
0.996917 0.939753 0.016823
1.000000 0.939257 0.019800
0.000000 0.982807 0.025141
0.000000 0.983691 0.022481
0.015003 0.984390 0.019972
0.051615 0.984890 0.017722
0.105517 0.985205 0.015759
0.175672 0.985348 0.014109
0.260482 0.985335 0.012792
0.357145 0.985181 0.011823
0.461532 0.984905 0.011214
0.568466 0.984529 0.010976
0.672333 0.984077 0.011120
0.767836 0.983576 0.011666
0.850640 0.983054 0.012634
0.917681 0.982540 0.014054
0.966974 0.982060 0.015960
0.996326 0.981640 0.018392
1.000000 0.981304 0.021391
0.000000 1.000000 0.029716
0.000011 1.000000 0.026878
0.018810 1.000000 0.024104
0.056795 1.000000 0.021604
0.111293 1.000000 0.019406
0.181388 1.000000 0.017536
0.265552 1.000000 0.016015
0.361108 1.000000 0.014859
0.464120 1.000000 0.014082
0.569654 1.000000 0.013697
0.672324 1.000000 0.013718
0.766995 1.000000 0.014162
0.849389 1.000000 0.015054
0.916410 1.000000 0.016422
0.965985 1.000000 0.018300
0.995869 1.000000 0.020729
1.000000 1.000000 0.023753
0.000000 1.000000 0.029716
0.000582 1.000000 0.029716
0.023718 1.000000 0.029381
0.063338 1.000000 0.026592
0.118702 1.000000 0.024123
0.188989 1.000000 0.021999
0.272714 1.000000 0.020243
0.367292 1.000000 0.018873
0.468956 1.000000 0.017904
0.572992 1.000000 0.017352
0.674247 1.000000 0.017232
0.767771 1.000000 0.017564
0.849389 1.000000 0.018370
0.916015 1.000000 0.019680
0.965522 1.000000 0.021528
0.995608 1.000000 0.023955
1.000000 1.000000 0.027006
0.000000 0.000000 0.109006
0.001654 0.000000 0.107709
0.032624 0.000000 0.105449
0.087437 0.000000 0.102442
0.161193 0.000000 0.099081
0.249878 0.000000 0.095706
0.348871 0.000000 0.092511
0.453000 0.000000 0.089596
0.556978 0.000000 0.087005
0.655967 0.000000 0.084759
0.746034 0.000000 0.082866
0.824392 0.000000 0.081327
0.889391 0.000000 0.080142
0.940288 0.000000 0.079310
0.976796 0.000000 0.078828
0.997913 0.000000 0.078697
1.000000 0.000000 0.078848
0.000000 0.001262 0.101913
0.000276 0.000835 0.100847
0.028030 0.000443 0.098943
