assets/presets/luts/cool-punch/lut.cube
TITLE "Cool Punch"
LUT_3D_SIZE 9
0.000000 0.000000 0.000000
0.034983 0.000000 0.000000
0.162848 0.000000 0.000000
0.346488 0.000000 0.000000
0.549710 0.000000 0.000000
0.735549 0.000000 0.000000
0.878726 0.000000 0.000000
0.969274 0.000000 0.000000
1.000000 0.000000 0.000000
0.000000 0.030942 0.000000
0.024585 0.028002 0.000000
0.146673 0.025325 0.000000
0.331587 0.023517 0.000000
0.540929 0.022598 0.000000
0.733990 0.022547 0.000000
0.882126 0.023364 0.000000
0.973702 0.025089 0.000000
1.000000 0.026869 0.000000
0.000000 0.149774 0.000000
0.016653 0.145479 0.000000
0.129331 0.140311 0.000000
0.311901 0.135734 0.000000
0.525649 0.132528 0.000000
0.726195 0.130939 0.000000
0.880764 0.131041 0.000000
0.975327 0.132876 0.000000
1.000000 0.136493 0.000000
0.000000 0.327929 0.000000
0.012104 0.324257 0.000000
0.115608 0.318768 0.000000
0.292418 0.312768 0.000000
0.507389 0.307557 0.000000
0.714236 0.303947 0.000000
0.875793 0.302332 0.000000
0.974838 0.302901 0.000000
1.000000 0.305756 0.000000
0.000000 0.534617 0.000000
0.010279 0.532907 0.000000
0.107240 0.528993 0.000000
0.277322 0.523745 0.000000
0.490327 0.518304 0.000000
0.700952 0.513709 0.000000
0.868740 0.510684 0.000000
0.972895 0.509661 0.000000
1.000000 0.510890 0.000000
0.000000 0.731583 0.000000
0.010795 0.732038 0.000000
0.104431 0.730463 0.000000
0.268716 0.727347 0.000000
0.477851 0.723428 0.000000
0.689335 0.719533 0.000000
0.861434 0.716392 0.000000
0.970250 0.714554 0.000000
1.000000 0.714387 0.000000
0.000000 0.886498 0.000000
0.013784 0.888229 0.000000
0.107218 0.888479 0.000000
0.267448 0.887491 0.000000
0.472059 0.885651 0.000000
0.681873 0.883433 0.000000
0.855720 0.881326 0.000000
0.967759 0.879764 0.000000
1.000000 0.879097 0.000000
0.000000 0.981077 0.000000
0.019888 0.982582 0.000000
0.115869 0.983353 0.000000
0.273953 0.983497 0.000000
0.474106 0.983163 0.000000
0.680295 0.982523 0.000000
0.853169 0.981770 0.000000
0.966293 0.981100 0.000000
1.000000 0.980956 0.000000
0.000000 1.000000 0.000000
0.024032 1.000000 0.000000
0.127300 1.000000 0.000000
0.288641 1.000000 0.000000
0.484624 1.000000 0.000000
0.685645 1.000000 0.000000
0.854210 1.000000 0.000000
0.966180 1.000000 0.000000
1.000000 1.000000 0.000000
0.000000 0.000000 0.044804
0.033756 0.000000 0.041475
0.162804 0.000000 0.037133
0.349472 0.000000 0.033512
0.555980 0.000000 0.030900
0.743770 0.000000 0.029286
0.886752 0.000000 0.028632
0.974849 0.000000 0.028924
1.000000 0.000000 0.029716
0.000000 0.029839 0.033373
0.023516 0.026959 0.030447
0.147387 0.024089 0.027357
0.335717 0.022199 0.025287
0.548509 0.021211 0.024164
0.743376 0.021078 0.023944
0.890885 0.021795 0.024615
0.979355 0.023395 0.026206
1.000000 0.025948 0.028783
0.000000 0.148639 0.024005
0.014881 0.144630 0.020634
0.127752 0.138990 0.017974
0.314426 0.133724 0.016968
0.532566 0.130072 0.017014
0.735542 0.128165 0.017916
0.889674 0.128004 0.019680
0.980950 0.129595 0.022377
1.000000 0.132968 0.026126
0.000000 0.327803 0.018300
0.009994 0.324544 0.014891
0.111540 0.318854 0.012195
0.291020 0.311932 0.010998
0.511165 0.305697 0.011249
0.721826 0.301270 0.012610
0.883970 0.299025 0.014973
0.980231 0.299082 0.018396
1.000000 0.301497 0.023019
0.000000 0.535955 0.015735
0.007838 0.534702 0.012237
0.101452 0.530816 0.009477
0.272089 0.524941 0.007963
0.489612 0.518416 0.007853
0.705203 0.512675 0.009045
0.875149 0.508643 0.011465
0.977713 0.506784 0.015168
1.000000 0.507316 0.020302
0.000000 0.734054 0.015908
0.007857 0.734914 0.012128
0.097189 0.733477 0.009138
0.260369 0.730071 0.007299
0.472674 0.725424 0.006760
0.689444 0.720542 0.007552
0.865206 0.716369 0.009715
0.974050 0.713577 0.013372
1.000000 0.712576 0.018716
0.000000 0.889185 0.018866
0.010058 0.891187 0.014540
0.098508 0.891574 0.011078
0.256445 0.890501 0.008779
0.462939 0.888313 0.007780
0.677785 0.885518 0.008149
0.856381 0.882703 0.009988
0.970130 0.880401 0.013479
1.000000 0.879022 0.018879
0.000000 0.982807 0.025141
0.015003 0.984390 0.019972
0.105517 0.985205 0.015759
0.260482 0.985335 0.012792
0.461532 0.984905 0.011214
0.672333 0.984077 0.011120
0.850640 0.983054 0.012634
0.966974 0.982060 0.015960
1.000000 0.981304 0.021391
0.000000 1.000000 0.029716
0.023718 1.000000 0.029381
0.118702 1.000000 0.024123
0.272714 1.000000 0.020243
0.468956 1.000000 0.017904
0.674247 1.000000 0.017232
0.849389 1.000000 0.018370
0.965522 1.000000 0.021528
1.000000 1.000000 0.027006
0.000000 0.000000 0.192335
0.031453 0.000000 0.189554
0.158765 0.000000 0.182439
0.346874 0.000000 0.173462
0.556476 0.000000 0.164872
0.747014 0.000000 0.157618
0.891109 0.000000 0.152016
0.978227 0.000000 0.148160
1.000000 0.000000 0.146076
0.000000 0.028529 0.176091
0.022632 0.025935 0.174260
0.145028 0.023149 0.168532
0.335412 0.021152 0.160689
0.551348 0.020080 0.153875
0.748546 0.019865 0.148795
0.896464 0.020485 0.145540
0.983073 0.021969 0.144110
1.000000 0.024382 0.144502
0.000000 0.146242 0.157321
0.014171 0.142520 0.153776
0.125587 0.136992 0.148358
0.315189 0.131302 0.142254
0.536711 0.127448 0.137990
0.741926 0.125376 0.135570
0.896099 0.125051 0.134956
0.984930 0.126467 0.136138
1.000000 0.129648 0.139135
0.000000 0.325716 0.141395
0.008857 0.322977 0.135633
0.107733 0.317691 0.128670
0.288731 0.310178 0.122856
0.513705 0.303001 0.120496
0.727754 0.297958 0.120447
0.890462 0.295278 0.122263
0.984329 0.294984 0.125881
1.000000 0.297085 0.131338
0.000000 0.535133 0.130823
0.006356 0.534479 0.123659
0.096519 0.531060 0.116026
0.266363 0.525016 0.109632
0.487898 0.517520 0.106552
0.708426 0.510666 0.107009
0.880500 0.505739 0.110136
0.981604 0.503189 0.115462
1.000000 0.503169 0.122860
0.000000 0.734609 0.126124
0.005960 0.735998 0.117923
0.091175 0.734981 0.109716
0.252173 0.731630 0.102812
0.466687 0.726467 0.098694
0.688624 0.720643 0.098227
0.868205 0.715452 0.101210
0.977222 0.711760 0.107116
1.000000 0.710009 0.115616
0.000000 0.890493 0.127381
0.007528 0.892852 0.118206
0.091315 0.893530 0.109332
0.246160 0.892571 0.101831
0.453425 0.890205 0.096805
0.672851 0.886920 0.095144
0.856335 0.883418 0.097157
0.972044 0.880385 0.102661
1.000000 0.878323 0.111370
0.000000 0.983848 0.134805
0.011531 0.985555 0.124565
0.096949 0.986475 0.114851
0.248190 0.986665 0.106592
0.449031 0.986214 0.100663
0.663726 0.985257 0.097857
0.847433 0.983998 0.098671
0.967262 0.982694 0.103245
1.000000 0.981602 0.111500
0.000000 1.000000 0.146005
0.018933 1.000000 0.137404
0.108485 1.000000 0.126630
0.258348 1.000000 0.117409
0.453781 1.000000 0.110480
0.662462 1.000000 0.106541
0.843248 1.000000 0.106138
0.964065 1.000000 0.109592
1.000000 1.000000 0.117029
0.000000 0.000000 0.395655
0.029287 0.000000 0.396491
0.152695 0.000000 0.391344
0.339516 0.000000 0.381325
0.551186 0.000000 0.368898
0.745080 0.000000 0.356206
0.891734 0.000000 0.344517
0.979595 0.000000 0.334482
1.000000 0.000000 0.326428
0.000000 0.027481 0.382554
0.022086 0.025269 0.384673
0.140836 0.022793 0.381471
0.330029 0.020725 0.372734
0.548389 0.019482 0.361343
0.748763 0.019115 0.350178
0.898584 0.019598 0.340563
0.985005 0.020945 0.333000
1.000000 0.023209 0.327683
0.000000 0.143459 0.363170
0.014628 0.140017 0.364377
0.123948 0.134993 0.362266
0.311895 0.129460 0.355163
0.536153 0.125339 0.344979
0.744201 0.123065 0.335877
0.899576 0.122560 0.328949
0.987345 0.123796 0.324395
1.000000 0.126788 0.322261
0.000000 0.322228 0.342306
0.009044 0.319759 0.340336
0.106293 0.314827 0.335864
0.285690 0.307485 0.328918
0.514357 0.299718 0.320622
0.731256 0.294380 0.314642
0.894856 0.291463 0.311133
0.987147 0.290943 0.310069
1.000000 0.292817 0.311446
0.000000 0.532392 0.324661
0.006039 0.532180 0.319287
0.093815 0.529310 0.311599
0.261025 0.523717 0.302178
0.485183 0.515623 0.293949
0.710570 0.507721 0.290437
0.884668 0.502102 0.290157
0.984583 0.499066 0.292473
1.000000 0.498660 0.297271
0.000000 0.733338 0.313011
0.005179 0.735208 0.304918
0.087309 0.734723 0.295044
0.245123 0.731798 0.284397
0.460090 0.726521 0.275185
0.686881 0.719850 0.270522
0.870471 0.713653 0.270950
0.979816 0.709143 0.275214
1.000000 0.706764 0.282554
0.000000 0.890466 0.308615
0.006202 0.893192 0.298374
0.086284 0.894246 0.286890
0.237473 0.893591 0.275273
0.443963 0.891286 0.265227
0.667098 0.887658 0.259009
0.855594 0.883495 0.258074
0.973551 0.879729 0.262194
1.000000 0.877011 0.270503
0.000000 0.984251 0.312068
0.009443 0.986109 0.300000
0.090633 0.987177 0.287130
0.237810 0.987492 0.274553
0.437143 0.987102 0.263644
0.654613 0.986088 0.256110
0.843534 0.984632 0.253422
0.967169 0.983027 0.256130
1.000000 0.981596 0.263913
0.000000 1.000000 0.323789
0.015781 1.000000 0.310038
0.100667 1.000000 0.295828
0.246146 1.000000 0.282214
0.439645 1.000000 0.270351
0.650523 1.000000 0.261605
0.836497 1.000000 0.257279
0.962201 1.000000 0.258216
1.000000 1.000000 0.264610
0.000000 0.000000 0.608840
0.027466 0.000000 0.613976
0.146295 0.000000 0.613166
0.329510 0.000000 0.606577
0.541321 0.000000 0.595565
0.738360 0.000000 0.582016
0.888699 0.000000 0.567618
0.979045 0.000000 0.553576
1.000000 0.000000 0.540676
0.000000 0.026772 0.603389
0.021869 0.024950 0.609890
0.136893 0.022833 0.611049
0.322117 0.020891 0.606180
0.540489 0.019540 0.596280
0.743983 0.018989 0.583688
0.897087 0.019289 0.570561
0.985218 0.020462 0.558251
1.000000 0.022557 0.547510
0.000000 0.140949 0.590472
0.015609 0.137995 0.596906
0.122973 0.133679 0.599348
0.306382 0.128760 0.596397
0.530261 0.124505 0.587747
0.741418 0.121860 0.576104
0.899580 0.121026 0.564430
0.988194 0.121983 0.554191
1.000000 0.124721 0.546000
0.000000 0.318237 0.573062
0.010283 0.316045 0.577373
0.107411 0.311474 0.578881
0.283603 0.304780 0.576947
0.510604 0.297259 0.569868
0.730556 0.291529 0.559252
0.896313 0.288313 0.549500
0.988581 0.287539 0.541931
1.000000 0.289171 0.536838
0.000000 0.528367 0.555121
0.006899 0.528404 0.555892
0.094419 0.525813 0.554056
0.259180 0.520573 0.549583
0.481726 0.512684 0.542453
0.711001 0.504128 0.533467
0.887062 0.498169 0.526777
0.986503 0.494862 0.522727
1.000000 0.494206 0.521325
0.000000 0.730554 0.540294
0.005553 0.732748 0.537310
0.086565 0.732647 0.531715
0.241376 0.730194 0.523623
0.454045 0.725328 0.513478
0.684211 0.718161 0.504236
0.871940 0.711007 0.500099
0.981774 0.705857 0.499556
1.000000 0.703030 0.501882
0.000000 0.889228 0.531126
0.006087 0.892255 0.524804
0.084179 0.893650 0.516093
0.231937 0.893366 0.505400
0.435866 0.891370 0.493628
0.660777 0.887688 0.483142
0.854152 0.882932 0.477587
0.974665 0.878434 0.477814
1.000000 0.875114 0.482397
0.000000 0.984062 0.529137
0.008735 0.986076 0.519999
0.087166 0.987304 0.508812
0.230537 0.987778 0.496206
0.427086 0.987523 0.483198
0.645528 0.986552 0.471678
0.838990 0.984962 0.464310
0.966696 0.983064 0.462947
1.000000 0.981288 0.467407
0.000000 1.000000 0.535186
0.014260 1.000000 0.523670
0.095737 1.000000 0.510458
0.237077 1.000000 0.496297
0.427635 1.000000 0.482189
0.639099 1.000000 0.469688
0.829306 1.000000 0.460824
0.959924 1.000000 0.457440
1.000000 1.000000 0.460276
0.000000 0.000000 0.790918
0.026011 0.000000 0.798660
0.140225 0.000000 0.801572
0.318548 0.000000 0.799562
0.528585 0.000000 0.793149
0.727827 0.000000 0.783315
0.882348 0.000000 0.771233
0.976638 0.000000 0.758008
1.000000 0.000000 0.744538
0.000000 0.026409 0.792789
0.021976 0.024972 0.801622
0.133554 0.023222 0.806074
0.313784 0.021510 0.805648
0.529829 0.020187 0.800527
0.735236 0.019516 0.791686
0.892236 0.019637 0.780554
0.983767 0.020622 0.768477
1.000000 0.022532 0.756472
0.000000 0.138959 0.788162
0.016972 0.136610 0.797328
0.122652 0.133044 0.802899
0.301244 0.128845 0.804059
0.521790 0.124875 0.800343
0.734372 0.122025 0.792431
0.896109 0.120808 0.782101
0.987488 0.121378 0.771095
1.000000 0.123765 0.760577
0.000000 0.314410 0.778635
0.012243 0.312683 0.786918
0.109670 0.308756 0.792484
0.282424 0.302995 0.794682
0.504671 0.296326 0.792499
0.725200 0.290443 0.785571
0.894215 0.286708 0.775935
0.988521 0.285469 0.766041
1.000000 0.286713 0.757196
0.000000 0.523797 0.766523
0.008795 0.524097 0.772631
0.097582 0.521801 0.776500
0.260909 0.516936 0.777951
0.479571 0.509728 0.776535
0.707457 0.501484 0.770826
0.886412 0.495067 0.761866
0.987081 0.491408 0.753395
1.000000 0.490462 0.746687
0.000000 0.726757 0.754518
0.007083 0.729170 0.757613
0.089054 0.729290 0.758505
0.242448 0.727070 0.757148
0.452157 0.722491 0.753526
0.680963 0.715520 0.747592
0.872142 0.707773 0.739723
0.982849 0.702301 0.733652
1.000000 0.699218 0.729870
0.000000 0.887016 0.745113
0.007212 0.890263 0.744970
0.085395 0.891891 0.742566
0.231040 0.891871 0.737892
0.431713 0.890196 0.730980
0.655093 0.886809 0.722120
0.852005 0.881726 0.713706
0.975364 0.876522 0.709758
1.000000 0.872723 0.709058
0.000000 0.983351 0.740242
0.009423 0.985512 0.737040
0.086985 0.986884 0.731621
0.227599 0.987506 0.724094
0.420762 0.987409 0.714690
0.637802 0.986573 0.704121
0.834006 0.984970 0.694435
0.965836 0.982806 0.689070
1.000000 0.980676 0.689040
0.000000 1.000000 0.741206
0.014379 1.000000 0.735302
0.094098 1.000000 0.727324
0.232149 1.000000 0.717515
0.419246 1.000000 0.706268
0.629428 1.000000 0.694436
0.822110 1.000000 0.683709
0.957249 1.000000 0.676622
1.000000 1.000000 0.675079
0.000000 0.000000 0.919729
0.024916 0.000000 0.927266
0.134714 0.000000 0.931508
0.307549 0.000000 0.932473
0.514378 0.000000 0.930383
0.714603 0.000000 0.925585
0.873207 0.000000 0.918556
0.972428 0.000000 0.909844
1.000000 0.000000 0.901222
0.000000 0.026390 0.925248
0.022410 0.025336 0.933284
0.130874 0.023955 0.938325
0.305845 0.022523 0.940256
0.518116 0.021332 0.939159
0.723938 0.020645 0.935307
0.884648 0.020650 0.929201
0.980713 0.021472 0.921475
1.000000 0.023204 0.912774
0.000000 0.137575 0.926260
0.018709 0.135889 0.934540
0.122983 0.133084 0.940223
0.296902 0.129627 0.943069
0.512889 0.126159 0.942950
0.724927 0.123405 0.939955
0.889850 0.121959 0.934576
0.985290 0.122156 0.927587
1.000000 0.124143 0.919780
0.000000 0.311101 0.923671
0.014802 0.310004 0.931736
0.112721 0.306887 0.937669
0.282142 0.302127 0.941214
0.499195 0.296444 0.942055
0.717655 0.290988 0.939925
0.889138 0.286997 0.935138
0.986970 0.285230 0.928671
1.000000 0.285937 0.921574
0.000000 0.519256 0.918580
0.011615 0.519957 0.925792
0.102331 0.518162 0.931270
0.264238 0.513982 0.934881
0.478431 0.507769 0.936373
0.702149 0.500477 0.935158
0.882469 0.493930 0.930936
0.986094 0.489692 0.924825
1.000000 0.488218 0.918354
0.000000 0.722465 0.912342
0.009781 0.725112 0.918054
0.094113 0.725469 0.922234
0.247185 0.723505 0.924861
0.454301 0.719247 0.925917
0.679120 0.712863 0.925135
0.869422 0.705435 0.921594
0.982474 0.699526 0.915750
1.000000 0.696104 0.910032
0.000000 0.884131 0.906459
0.009656 0.887558 0.910204
0.089759 0.889351 0.912451
0.234903 0.889485 0.913184
0.433186 0.887964 0.912422
0.653508 0.884760 0.910145
0.849517 0.879817 0.906294
0.975407 0.874180 0.900917
1.000000 0.870131 0.896595
0.000000 0.982211 0.902361
0.011590 0.984510 0.903940
0.090194 0.986003 0.903994
0.229614 0.986736 0.902499
0.419943 0.986749 0.899440
0.633989 0.986042 0.894800
0.829608 0.984561 0.888705
0.964580 0.982248 0.882657
1.000000 0.979761 0.879679
0.000000 1.000000 0.901222
0.016204 1.000000 0.900665
0.095972 1.000000 0.898582
0.232087 1.000000 0.894968
0.415999 1.000000 0.889839
0.623438 1.000000 0.883299
0.816026 1.000000 0.875776
0.954300 1.000000 0.868662
1.000000 1.000000 0.864539
0.000000 0.000000 0.991912
0.024169 0.000000 0.994273
0.129839 0.000000 0.996577
0.296970 0.000000 0.997573
0.499617 0.000000 0.997602
0.699651 0.000000 0.996759
0.861845 0.000000 0.994960
0.966488 0.000000 0.992105
1.000000 0.000000 0.991912
0.000000 0.026718 0.994216
0.023177 0.026049 0.997651
0.128860 0.025040 0.999400
0.298594 0.023919 0.999970
0.506285 0.022932 1.000000
0.711243 0.022323 0.999900
0.875030 0.022298 0.999195
0.976149 0.023018 0.997589
1.000000 0.024610 0.994997
0.000000 0.136830 0.996017
0.020839 0.135839 0.998982
0.123969 0.133798 1.000000
0.293434 0.131091 1.000000
0.504384 0.128226 1.000000
0.714514 0.125790 1.000000
0.881726 0.124342 1.000000
0.981734 0.124305 0.999801
1.000000 0.125938 0.998363
0.000000 0.308485 0.996418
0.017946 0.308130 0.999202
0.116501 0.305910 1.000000
0.282756 0.302175 1.000000
0.494587 0.297510 1.000000
0.709742 0.292769 1.000000
0.882354 0.288947 1.000000
0.984123 0.286885 1.000000
1.000000 0.287080 0.999597
0.000000 0.515109 0.995864
0.015322 0.516362 0.998692
0.108229 0.515254 0.999991
0.268669 0.511943 1.000000
0.478293 0.506812 1.000000
0.697295 0.500610 1.000000
0.877007 0.494572 1.000000
0.983751 0.490079 1.000000
1.000000 0.488024 0.999765
0.000000 0.718097 0.994644
0.013671 0.721066 0.997465
0.101090 0.721788 0.999204
0.254148 0.720265 0.999978
0.458261 0.716605 1.000000
0.678224 0.711095 1.000000
0.865549 0.704540 1.000000
0.980547 0.698550 0.999988
1.000000 0.694596 0.999151
0.000000 0.880872 0.993110
0.013527 0.884493 0.995669
0.096794 0.886466 0.997417
0.242470 0.886772 0.998502
0.438870 0.885427 0.999093
0.655706 0.882440 0.999316
0.848232 0.877898 0.999195
0.973955 0.872515 0.998477
1.000000 0.868131 0.996974
0.000000 0.980956 0.991912
0.015379 0.983187 0.993746
0.096593 0.984794 0.995084
0.236253 0.985615 0.995846
0.424714 0.985697 0.996115
0.635633 0.985044 0.995924
0.828531 0.983618 0.995248
0.963191 0.981347 0.994009
1.000000 0.978629 0.992078
0.000000 1.000000 0.991912
0.019872 1.000000 0.992301
0.101361 1.000000 0.992944
0.237025 1.000000 0.993015
0.418625 1.000000 0.992523
0.622871 1.000000 0.991432
0.813144 1.000000 0.989674
0.951732 1.000000 0.987207
1.000000 1.000000 0.984549
0.000000 0.000000 1.000000
0.024032 0.000000 1.000000
0.127300 0.000000 1.000000
0.288963 0.000000 1.000000
0.486393 0.000000 1.000000
0.686219 0.000000 1.000000
0.854210 0.000000 1.000000
0.966180 0.000000 1.000000
1.000000 0.000000 1.000000
0.000000 0.026869 1.000000
0.024032 0.026869 1.000000
0.127510 0.026494 1.000000
0.292145 0.025709 1.000000
0.494813 0.024980 1.000000
0.697919 0.024527 1.000000
0.863997 0.024558 1.000000
0.970207 0.025253 1.000000
1.000000 0.026766 1.000000
0.000000 0.136697 1.000000
0.023397 0.136464 1.000000
0.125615 0.135192 1.000000
0.290858 0.133243 1.000000
0.496586 0.131035 1.000000
0.703924 0.129056 1.000000
0.872497 0.127804 1.000000
0.977005 0.127716 1.000000
1.000000 0.129121 1.000000
0.000000 0.306927 1.000000
0.021700 0.307112 1.000000
0.121008 0.305838 1.000000
0.284267 0.303137 1.000000
0.490930 0.299504 1.000000
0.702161 0.295611 1.000000
0.874826 0.292257 1.000000
0.980270 0.290222 1.000000
1.000000 0.290106 1.000000
0.000000 0.511904 1.000000
0.019927 0.513508 1.000000
0.115127 0.513214 1.000000
0.274094 0.510873 1.000000
0.479156 0.506857 1.000000
0.693228 0.501781 1.000000
0.871277 0.496561 1.000000
0.980533 0.492292 1.000000
1.000000 0.489932 1.000000
0.000000 0.714670 1.000000
0.018790 0.717358 1.000000
0.109610 0.718583 1.000000
0.262674 0.717668 1.000000
0.463462 0.714776 1.000000
0.678260 0.710227 1.000000
0.862033 0.704662 1.000000
0.977869 0.699168 1.000000
1.000000 0.695011 1.000000
0.000000 0.879097 1.000000
0.018927 0.881359 1.000000
0.106063 0.883579 1.000000
0.252697 0.884149 1.000000
0.447079 0.883114 1.000000
0.659616 0.880543 1.000000
0.847672 0.876615 1.000000
0.971963 0.871873 1.000000
1.000000 0.867456 1.000000
0.000000 0.980956 1.000000
0.020951 0.981665 1.000000
0.105860 0.983399 1.000000
0.246684 0.984321 1.000000
0.433757 0.984483 1.000000
0.641293 0.983897 1.000000
0.830379 0.982549 1.000000
0.962536 0.980435 1.000000
1.000000 0.977833 1.000000
0.000000 1.000000 1.000000
0.024032 1.000000 1.000000
0.110109 1.000000 1.000000
0.246549 1.000000 1.000000
0.426664 1.000000 1.000000
0.627748 1.000000 1.000000
0.814632 1.000000 1.000000
0.951190 1.000000 1.000000
1.000000 1.000000 1.000000
