assets/presets/luts/mono-platinum/lut.cube
TITLE "Mono Platinum"
LUT_3D_SIZE 9
0.094296 0.094851 0.096814
0.123746 0.124265 0.126129
0.153214 0.153679 0.155407
0.182697 0.183093 0.184654
0.212194 0.212507 0.213875
0.241701 0.241921 0.243076
0.271215 0.271335 0.272262
0.300734 0.300749 0.301439
0.330255 0.330163 0.330611
0.157425 0.157881 0.159587
0.186910 0.187295 0.188830
0.216409 0.216709 0.218048
0.245916 0.246123 0.247247
0.275431 0.275537 0.276431
0.304951 0.304951 0.305606
0.334472 0.334365 0.334778
0.363999 0.363781 0.363946
0.393571 0.393208 0.393086
0.220623 0.220911 0.222220
0.250132 0.250325 0.251417
0.279648 0.279739 0.280599
0.309168 0.309153 0.309774
0.338690 0.338567 0.338945
0.368221 0.367984 0.368111
0.397799 0.397413 0.397247
0.427421 0.426855 0.426357
0.457079 0.456309 0.455453
0.283865 0.283941 0.284767
0.313385 0.313355 0.313941
0.342907 0.342769 0.343113
0.372443 0.372187 0.372275
0.402028 0.401619 0.401406
0.431656 0.431062 0.430514
0.461318 0.460517 0.459608
0.491007 0.489982 0.488698
0.520715 0.519455 0.517792
0.347124 0.346971 0.347280
0.376667 0.376391 0.376439
0.406258 0.405824 0.405566
0.435891 0.435270 0.434671
0.465558 0.464726 0.463764
0.495250 0.494192 0.492854
0.524960 0.523666 0.521949
0.554679 0.553147 0.551060
0.584399 0.582633 0.580196
0.410489 0.410030 0.409725
0.440128 0.439477 0.438828
0.469799 0.468935 0.467920
0.499494 0.498402 0.497009
0.529205 0.527877 0.526107
0.558925 0.557359 0.555221
0.588645 0.586846 0.584361
0.618357 0.616337 0.613536
0.648054 0.645831 0.642756
0.474039 0.473144 0.472075
0.503737 0.502612 0.501166
0.533450 0.532088 0.530265
0.563171 0.561571 0.559382
0.592890 0.591059 0.588526
0.622601 0.620551 0.617707
0.652295 0.650045 0.646935
0.681978 0.679540 0.676188
0.711661 0.709035 0.705442
0.537696 0.536300 0.534423
0.567417 0.565783 0.563543
0.597135 0.595272 0.592692
0.626844 0.624764 0.621880
0.656535 0.654258 0.651114
0.686219 0.683754 0.680367
0.715901 0.713249 0.709621
0.745577 0.742742 0.738881
0.775241 0.772232 0.768149
0.601380 0.599485 0.596860
0.631087 0.628977 0.626053
0.660775 0.658472 0.655293
0.690460 0.687967 0.684546
0.720141 0.717462 0.713801
0.749816 0.746955 0.743061
0.779477 0.776445 0.772331
0.809120 0.805930 0.801615
0.838740 0.835409 0.830917
0.106915 0.107457 0.109382
0.136373 0.136871 0.138681
0.165848 0.166285 0.167945
0.195337 0.195699 0.197180
0.224838 0.225113 0.226392
0.254349 0.254527 0.255586
0.283865 0.283941 0.284767
0.313385 0.313355 0.313941
0.342907 0.342769 0.343113
0.170060 0.170487 0.172123
0.199551 0.199901 0.201355
0.229054 0.229315 0.230564
0.258565 0.258729 0.259756
0.288082 0.288143 0.288935
0.317603 0.317557 0.318109
0.347124 0.346971 0.347280
0.376667 0.376391 0.376439
0.406258 0.405824 0.405566
0.233269 0.233517 0.234735
0.262781 0.262931 0.263925
0.292299 0.292345 0.293103
0.321820 0.321759 0.322276
0.351341 0.351173 0.351448
0.380891 0.380595 0.380601
0.410489 0.410030 0.409725
0.440128 0.439477 0.438828
0.469799 0.468935 0.467920
0.296516 0.296547 0.297271
0.326037 0.325961 0.326443
0.355559 0.355375 0.355615
0.385117 0.384799 0.384764
0.414721 0.414236 0.413884
0.444365 0.443685 0.442984
0.474039 0.473144 0.472075
0.503737 0.502612 0.501166
0.533450 0.532088 0.530265
0.359779 0.359578 0.359781
0.389343 0.389004 0.388925
0.418954 0.418442 0.418042
0.448602 0.447893 0.447141
0.478281 0.477353 0.476231
0.507981 0.506823 0.505322
0.537696 0.536300 0.534423
0.567417 0.565783 0.563543
0.597135 0.595272 0.592692
0.423187 0.422649 0.422200
0.452840 0.452101 0.451297
0.482522 0.481563 0.480386
0.512226 0.511033 0.509478
0.541942 0.540511 0.538581
0.571662 0.569996 0.567706
0.601380 0.599485 0.596860
0.631087 0.628977 0.626053
0.660775 0.658472 0.655293
0.486765 0.485772 0.484542
0.516470 0.515244 0.513635
0.546187 0.544723 0.542741
0.575908 0.574208 0.571868
0.605625 0.603698 0.601027
0.635329 0.633191 0.630227
0.665016 0.662686 0.659472
0.694700 0.692181 0.688725
0.724381 0.721676 0.717980
0.550433 0.548935 0.546900
0.580154 0.578421 0.576032
0.609869 0.607911 0.605196
0.639571 0.637404 0.634403
0.669257 0.666899 0.663651
0.698941 0.696395 0.692904
0.728621 0.725889 0.722160
0.758292 0.755381 0.751423
0.787948 0.784870 0.780697
0.614113 0.612124 0.609366
0.643813 0.641618 0.638579
0.673497 0.671113 0.667830
0.703181 0.700608 0.697083
0.732860 0.730102 0.726340
0.762529 0.759594 0.755604
0.792184 0.789082 0.784880
0.821817 0.818565 0.814170
0.851425 0.848041 0.843481
0.119538 0.120063 0.121943
0.149003 0.149477 0.151226
0.178485 0.178891 0.180478
0.207979 0.208305 0.209702
0.237485 0.237719 0.238906
0.266998 0.267133 0.268094
0.296516 0.296547 0.297271
0.326037 0.325961 0.326443
0.355559 0.355375 0.355615
0.182697 0.183093 0.184654
0.212194 0.212507 0.213875
0.241701 0.241921 0.243076
0.271215 0.271335 0.272262
0.300734 0.300749 0.301439
0.330255 0.330163 0.330611
0.359779 0.359578 0.359781
0.389343 0.389004 0.388925
0.418954 0.418442 0.418042
0.245916 0.246123 0.247247
0.275431 0.275537 0.276431
0.304951 0.304951 0.305606
0.334472 0.334365 0.334778
0.363999 0.363781 0.363946
0.393571 0.393208 0.393086
0.423187 0.422649 0.422200
0.452840 0.452101 0.451297
0.482522 0.481563 0.480386
0.309168 0.309153 0.309774
0.338690 0.338567 0.338945
0.368221 0.367984 0.368111
0.397799 0.397413 0.397247
0.427421 0.426855 0.426357
0.457079 0.456309 0.455453
0.486765 0.485772 0.484542
0.516470 0.515244 0.513635
0.546187 0.544723 0.542741
0.372443 0.372187 0.372275
0.402028 0.401619 0.401406
0.431656 0.431062 0.430514
0.461318 0.460517 0.459608
0.491007 0.489982 0.488698
0.520715 0.519455 0.517792
0.550433 0.548935 0.546900
0.580154 0.578421 0.576032
0.609869 0.607911 0.605196
0.435891 0.435270 0.434671
0.465558 0.464726 0.463764
0.495250 0.494192 0.492854
0.524960 0.523666 0.521949
0.554679 0.553147 0.551060
0.584399 0.582633 0.580196
0.614113 0.612124 0.609366
0.643813 0.641618 0.638579
0.673497 0.671113 0.667830
0.499494 0.498402 0.497009
0.529205 0.527877 0.526107
0.558925 0.557359 0.555221
0.588645 0.586846 0.584361
0.618357 0.616337 0.613536
0.648054 0.645831 0.642756
0.677738 0.675326 0.672009
0.707421 0.704822 0.701263
0.737099 0.734316 0.730520
0.563171 0.561571 0.559382
0.592890 0.591059 0.588526
0.622601 0.620551 0.617707
0.652295 0.650045 0.646935
0.681978 0.679540 0.676188
0.711661 0.709035 0.705442
0.741338 0.738529 0.734700
0.771004 0.768019 0.763967
0.800653 0.797506 0.793247
0.626844 0.624764 0.621880
0.656535 0.654258 0.651114
0.686219 0.683754 0.680367
0.715901 0.713249 0.709621
0.745577 0.742742 0.738881
0.775241 0.772232 0.768149
0.804887 0.801718 0.797431
0.834510 0.831198 0.826729
0.864105 0.860671 0.856049
0.132164 0.132669 0.134497
0.161636 0.162083 0.163766
0.191124 0.191497 0.193005
0.220623 0.220911 0.222220
0.250132 0.250325 0.251417
0.279648 0.279739 0.280599
0.309168 0.309153 0.309774
0.338690 0.338567 0.338945
0.368221 0.367984 0.368111
0.195337 0.195699 0.197180
0.224838 0.225113 0.226392
0.254349 0.254527 0.255586
0.283865 0.283941 0.284767
0.313385 0.313355 0.313941
0.342907 0.342769 0.343113
0.372443 0.372187 0.372275
0.402028 0.401619 0.401406
0.431656 0.431062 0.430514
0.258565 0.258729 0.259756
0.288082 0.288143 0.288935
0.317603 0.317557 0.318109
0.347124 0.346971 0.347280
0.376667 0.376391 0.376439
0.406258 0.405824 0.405566
0.435891 0.435270 0.434671
0.465558 0.464726 0.463764
0.495250 0.494192 0.492854
0.321820 0.321759 0.322276
0.351341 0.351173 0.351448
0.380891 0.380595 0.380601
0.410489 0.410030 0.409725
0.440128 0.439477 0.438828
0.469799 0.468935 0.467920
0.499494 0.498402 0.497009
0.529205 0.527877 0.526107
0.558925 0.557359 0.555221
0.385117 0.384799 0.384764
0.414721 0.414236 0.413884
0.444365 0.443685 0.442984
0.474039 0.473144 0.472075
0.503737 0.502612 0.501166
0.533450 0.532088 0.530265
0.563171 0.561571 0.559382
0.592890 0.591059 0.588526
0.622601 0.620551 0.617707
0.448602 0.447893 0.447141
0.478281 0.477353 0.476231
0.507981 0.506823 0.505322
0.537696 0.536300 0.534423
0.567417 0.565783 0.563543
0.597135 0.595272 0.592692
0.626844 0.624764 0.621880
0.656535 0.654258 0.651114
0.686219 0.683754 0.680367
0.512226 0.511033 0.509478
0.541942 0.540511 0.538581
0.571662 0.569996 0.567706
0.601380 0.599485 0.596860
0.631087 0.628977 0.626053
0.660775 0.658472 0.655293
0.690460 0.687967 0.684546
0.720141 0.717462 0.713801
0.749816 0.746955 0.743061
0.575908 0.574208 0.571868
0.605625 0.603698 0.601027
0.635329 0.633191 0.630227
0.665016 0.662686 0.659472
0.694700 0.692181 0.688725
0.724381 0.721676 0.717980
0.754054 0.751168 0.747242
0.783713 0.780657 0.776514
0.813353 0.810142 0.805800
0.639571 0.637404 0.634403
0.669257 0.666899 0.663651
0.698941 0.696395 0.692904
0.728621 0.725889 0.722160
0.758292 0.755381 0.751423
0.787948 0.784870 0.780697
0.817585 0.814353 0.809985
0.847197 0.843830 0.839292
0.876778 0.873300 0.868622
0.144793 0.145275 0.147045
0.174272 0.174689 0.176301
0.203765 0.204103 0.205529
0.233269 0.233517 0.234735
0.262781 0.262931 0.263925
0.292299 0.292345 0.293103
0.321820 0.321759 0.322276
0.351341 0.351173 0.351448
0.380891 0.380595 0.380601
0.207979 0.208305 0.209702
0.237485 0.237719 0.238906
0.266998 0.267133 0.268094
0.296516 0.296547 0.297271
0.326037 0.325961 0.326443
0.355559 0.355375 0.355615
0.385117 0.384799 0.384764
0.414721 0.414236 0.413884
0.444365 0.443685 0.442984
0.271215 0.271335 0.272262
0.300734 0.300749 0.301439
0.330255 0.330163 0.330611
0.359779 0.359578 0.359781
0.389343 0.389004 0.388925
0.418954 0.418442 0.418042
0.448602 0.447893 0.447141
0.478281 0.477353 0.476231
0.507981 0.506823 0.505322
0.334472 0.334365 0.334778
0.363999 0.363781 0.363946
0.393571 0.393208 0.393086
0.423187 0.422649 0.422200
0.452840 0.452101 0.451297
0.482522 0.481563 0.480386
0.512226 0.511033 0.509478
0.541942 0.540511 0.538581
0.571662 0.569996 0.567706
0.397799 0.397413 0.397247
0.427421 0.426855 0.426357
0.457079 0.456309 0.455453
0.486765 0.485772 0.484542
0.516470 0.515244 0.513635
0.546187 0.544723 0.542741
0.575908 0.574208 0.571868
0.605625 0.603698 0.601027
0.635329 0.633191 0.630227
0.461318 0.460517 0.459608
0.491007 0.489982 0.488698
0.520715 0.519455 0.517792
0.550433 0.548935 0.546900
0.580154 0.578421 0.576032
0.609869 0.607911 0.605196
0.639571 0.637404 0.634403
0.669257 0.666899 0.663651
0.698941 0.696395 0.692904
0.524960 0.523666 0.521949
0.554679 0.553147 0.551060
0.584399 0.582633 0.580196
0.614113 0.612124 0.609366
0.643813 0.641618 0.638579
0.673497 0.671113 0.667830
0.703181 0.700608 0.697083
0.732860 0.730102 0.726340
0.762529 0.759594 0.755604
0.588645 0.586846 0.584361
0.618357 0.616337 0.613536
0.648054 0.645831 0.642756
0.677738 0.675326 0.672009
0.707421 0.704822 0.701263
0.737099 0.734316 0.730520
0.766767 0.763807 0.759786
0.796418 0.793294 0.789063
0.826049 0.822776 0.818356
0.652295 0.650045 0.646935
0.681978 0.679540 0.676188
0.711661 0.709035 0.705442
0.741338 0.738529 0.734700
0.771004 0.768019 0.763967
0.800653 0.797506 0.793247
0.830280 0.826987 0.822543
0.859879 0.856461 0.851859
0.889446 0.885927 0.881200
0.157425 0.157881 0.159587
0.186910 0.187295 0.188830
0.216409 0.216709 0.218048
0.245916 0.246123 0.247247
0.275431 0.275537 0.276431
0.304951 0.304951 0.305606
0.334472 0.334365 0.334778
0.363999 0.363781 0.363946
0.393571 0.393208 0.393086
0.220623 0.220911 0.222220
0.250132 0.250325 0.251417
0.279648 0.279739 0.280599
0.309168 0.309153 0.309774
0.338690 0.338567 0.338945
0.368221 0.367984 0.368111
0.397799 0.397413 0.397247
0.427421 0.426855 0.426357
0.457079 0.456309 0.455453
0.283865 0.283941 0.284767
0.313385 0.313355 0.313941
0.342907 0.342769 0.343113
0.372443 0.372187 0.372275
0.402028 0.401619 0.401406
0.431656 0.431062 0.430514
0.461318 0.460517 0.459608
0.491007 0.489982 0.488698
0.520715 0.519455 0.517792
0.347124 0.346971 0.347280
0.376667 0.376391 0.376439
0.406258 0.405824 0.405566
0.435891 0.435270 0.434671
0.465558 0.464726 0.463764
0.495250 0.494192 0.492854
0.524960 0.523666 0.521949
0.554679 0.553147 0.551060
0.584399 0.582633 0.580196
0.410489 0.410030 0.409725
0.440128 0.439477 0.438828
0.469799 0.468935 0.467920
0.499494 0.498402 0.497009
0.529205 0.527877 0.526107
0.558925 0.557359 0.555221
0.588645 0.586846 0.584361
0.618357 0.616337 0.613536
0.648054 0.645831 0.642756
0.474039 0.473144 0.472075
0.503737 0.502612 0.501166
0.533450 0.532088 0.530265
0.563171 0.561571 0.559382
0.592890 0.591059 0.588526
0.622601 0.620551 0.617707
0.652295 0.650045 0.646935
0.681978 0.679540 0.676188
0.711661 0.709035 0.705442
0.537696 0.536300 0.534423
0.567417 0.565783 0.563543
0.597135 0.595272 0.592692
0.626844 0.624764 0.621880
0.656535 0.654258 0.651114
0.686219 0.683754 0.680367
0.715901 0.713249 0.709621
0.745577 0.742742 0.738881
0.775241 0.772232 0.768149
0.601380 0.599485 0.596860
0.631087 0.628977 0.626053
0.660775 0.658472 0.655293
0.690460 0.687967 0.684546
0.720141 0.717462 0.713801
0.749816 0.746955 0.743061
0.779477 0.776445 0.772331
0.809120 0.805930 0.801615
0.838740 0.835409 0.830917
0.665016 0.662686 0.659472
0.694700 0.692181 0.688725
0.724381 0.721676 0.717980
0.754054 0.751168 0.747242
0.783713 0.780657 0.776514
0.813353 0.810142 0.805800
0.842969 0.839620 0.835104
0.872555 0.869091 0.864431
0.902106 0.898553 0.893784
0.170060 0.170487 0.172123
0.199551 0.199901 0.201355
0.229054 0.229315 0.230564
0.258565 0.258729 0.259756
0.288082 0.288143 0.288935
0.317603 0.317557 0.318109
0.347124 0.346971 0.347280
0.376667 0.376391 0.376439
0.406258 0.405824 0.405566
0.233269 0.233517 0.234735
0.262781 0.262931 0.263925
0.292299 0.292345 0.293103
0.321820 0.321759 0.322276
0.351341 0.351173 0.351448
0.380891 0.380595 0.380601
0.410489 0.410030 0.409725
0.440128 0.439477 0.438828
0.469799 0.468935 0.467920
0.296516 0.296547 0.297271
0.326037 0.325961 0.326443
0.355559 0.355375 0.355615
0.385117 0.384799 0.384764
0.414721 0.414236 0.413884
0.444365 0.443685 0.442984
0.474039 0.473144 0.472075
0.503737 0.502612 0.501166
0.533450 0.532088 0.530265
0.359779 0.359578 0.359781
0.389343 0.389004 0.388925
0.418954 0.418442 0.418042
0.448602 0.447893 0.447141
0.478281 0.477353 0.476231
0.507981 0.506823 0.505322
0.537696 0.536300 0.534423
0.567417 0.565783 0.563543
0.597135 0.595272 0.592692
0.423187 0.422649 0.422200
0.452840 0.452101 0.451297
0.482522 0.481563 0.480386
0.512226 0.511033 0.509478
0.541942 0.540511 0.538581
0.571662 0.569996 0.567706
0.601380 0.599485 0.596860
0.631087 0.628977 0.626053
0.660775 0.658472 0.655293
0.486765 0.485772 0.484542
0.516470 0.515244 0.513635
0.546187 0.544723 0.542741
0.575908 0.574208 0.571868
0.605625 0.603698 0.601027
0.635329 0.633191 0.630227
0.665016 0.662686 0.659472
0.694700 0.692181 0.688725
0.724381 0.721676 0.717980
0.550433 0.548935 0.546900
0.580154 0.578421 0.576032
0.609869 0.607911 0.605196
0.639571 0.637404 0.634403
0.669257 0.666899 0.663651
0.698941 0.696395 0.692904
0.728621 0.725889 0.722160
0.758292 0.755381 0.751423
0.787948 0.784870 0.780697
0.614113 0.612124 0.609366
0.643813 0.641618 0.638579
0.673497 0.671113 0.667830
0.703181 0.700608 0.697083
0.732860 0.730102 0.726340
0.762529 0.759594 0.755604
0.792184 0.789082 0.784880
0.821817 0.818565 0.814170
0.851425 0.848041 0.843481
0.677738 0.675326 0.672009
0.707421 0.704822 0.701263
0.737099 0.734316 0.730520
0.766767 0.763807 0.759786
0.796418 0.793294 0.789063
0.826049 0.822776 0.818356
0.855652 0.852251 0.847670
0.885224 0.881718 0.877007
0.914758 0.911176 0.906372
0.182697 0.183093 0.184654
0.212194 0.212507 0.213875
0.241701 0.241921 0.243076
0.271215 0.271335 0.272262
0.300734 0.300749 0.301439
0.330255 0.330163 0.330611
0.359779 0.359578 0.359781
0.389343 0.389004 0.388925
0.418954 0.418442 0.418042
0.245916 0.246123 0.247247
0.275431 0.275537 0.276431
0.304951 0.304951 0.305606
0.334472 0.334365 0.334778
0.363999 0.363781 0.363946
0.393571 0.393208 0.393086
0.423187 0.422649 0.422200
0.452840 0.452101 0.451297
0.482522 0.481563 0.480386
0.309168 0.309153 0.309774
0.338690 0.338567 0.338945
0.368221 0.367984 0.368111
0.397799 0.397413 0.397247
0.427421 0.426855 0.426357
0.457079 0.456309 0.455453
0.486765 0.485772 0.484542
0.516470 0.515244 0.513635
0.546187 0.544723 0.542741
0.372443 0.372187 0.372275
0.402028 0.401619 0.401406
0.431656 0.431062 0.430514
0.461318 0.460517 0.459608
0.491007 0.489982 0.488698
0.520715 0.519455 0.517792
0.550433 0.548935 0.546900
0.580154 0.578421 0.576032
0.609869 0.607911 0.605196
0.435891 0.435270 0.434671
0.465558 0.464726 0.463764
0.495250 0.494192 0.492854
0.524960 0.523666 0.521949
0.554679 0.553147 0.551060
0.584399 0.582633 0.580196
0.614113 0.612124 0.609366
0.643813 0.641618 0.638579
0.673497 0.671113 0.667830
0.499494 0.498402 0.497009
0.529205 0.527877 0.526107
0.558925 0.557359 0.555221
0.588645 0.586846 0.584361
0.618357 0.616337 0.613536
0.648054 0.645831 0.642756
0.677738 0.675326 0.672009
0.707421 0.704822 0.701263
0.737099 0.734316 0.730520
0.563171 0.561571 0.559382
0.592890 0.591059 0.588526
0.622601 0.620551 0.617707
0.652295 0.650045 0.646935
0.681978 0.679540 0.676188
0.711661 0.709035 0.705442
0.741338 0.738529 0.734700
0.771004 0.768019 0.763967
0.800653 0.797506 0.793247
0.626844 0.624764 0.621880
0.656535 0.654258 0.651114
0.686219 0.683754 0.680367
0.715901 0.713249 0.709621
0.745577 0.742742 0.738881
0.775241 0.772232 0.768149
0.804887 0.801718 0.797431
0.834510 0.831198 0.826729
0.864105 0.860671 0.856049
0.690460 0.687967 0.684546
0.720141 0.717462 0.713801
0.749816 0.746955 0.743061
0.779477 0.776445 0.772331
0.809120 0.805930 0.801615
0.838740 0.835409 0.830917
0.868330 0.864881 0.860240
0.897886 0.894345 0.889589
0.927403 0.923798 0.918967
0.195337 0.195699 0.197180
0.224838 0.225113 0.226392
0.254349 0.254527 0.255586
0.283865 0.283941 0.284767
0.313385 0.313355 0.313941
0.342907 0.342769 0.343113
0.372443 0.372187 0.372275
0.402028 0.401619 0.401406
0.431656 0.431062 0.430514
0.258565 0.258729 0.259756
0.288082 0.288143 0.288935
0.317603 0.317557 0.318109
0.347124 0.346971 0.347280
0.376667 0.376391 0.376439
0.406258 0.405824 0.405566
0.435891 0.435270 0.434671
0.465558 0.464726 0.463764
0.495250 0.494192 0.492854
0.321820 0.321759 0.322276
0.351341 0.351173 0.351448
0.380891 0.380595 0.380601
0.410489 0.410030 0.409725
0.440128 0.439477 0.438828
0.469799 0.468935 0.467920
0.499494 0.498402 0.497009
0.529205 0.527877 0.526107
0.558925 0.557359 0.555221
0.385117 0.384799 0.384764
0.414721 0.414236 0.413884
0.444365 0.443685 0.442984
0.474039 0.473144 0.472075
0.503737 0.502612 0.501166
0.533450 0.532088 0.530265
0.563171 0.561571 0.559382
0.592890 0.591059 0.588526
0.622601 0.620551 0.617707
0.448602 0.447893 0.447141
0.478281 0.477353 0.476231
0.507981 0.506823 0.505322
0.537696 0.536300 0.534423
0.567417 0.565783 0.563543
0.597135 0.595272 0.592692
0.626844 0.624764 0.621880
0.656535 0.654258 0.651114
0.686219 0.683754 0.680367
0.512226 0.511033 0.509478
0.541942 0.540511 0.538581
0.571662 0.569996 0.567706
0.601380 0.599485 0.596860
0.631087 0.628977 0.626053
0.660775 0.658472 0.655293
0.690460 0.687967 0.684546
0.720141 0.717462 0.713801
0.749816 0.746955 0.743061
0.575908 0.574208 0.571868
0.605625 0.603698 0.601027
0.635329 0.633191 0.630227
0.665016 0.662686 0.659472
0.694700 0.692181 0.688725
0.724381 0.721676 0.717980
0.754054 0.751168 0.747242
0.783713 0.780657 0.776514
0.813353 0.810142 0.805800
0.639571 0.637404 0.634403
0.669257 0.666899 0.663651
0.698941 0.696395 0.692904
0.728621 0.725889 0.722160
0.758292 0.755381 0.751423
0.787948 0.784870 0.780697
0.817585 0.814353 0.809985
0.847197 0.843830 0.839292
0.876778 0.873300 0.868622
0.703181 0.700608 0.697083
0.732860 0.730102 0.726340
0.762529 0.759594 0.755604
0.792184 0.789082 0.784880
0.821817 0.818565 0.814170
0.851425 0.848041 0.843481
0.881002 0.877509 0.872814
0.910542 0.906969 0.902175
0.940040 0.936418 0.931568
