assets/presets/luts/mono-platinum/lut.cube
TITLE "Mono Platinum"
LUT_3D_SIZE 5
0.094296 0.094851 0.096814
0.153214 0.153679 0.155407
0.212194 0.212507 0.213875
0.271215 0.271335 0.272262
0.330255 0.330163 0.330611
0.220623 0.220911 0.222220
0.279648 0.279739 0.280599
0.338690 0.338567 0.338945
0.397799 0.397413 0.397247
0.457079 0.456309 0.455453
0.347124 0.346971 0.347280
0.406258 0.405824 0.405566
0.465558 0.464726 0.463764
0.524960 0.523666 0.521949
0.584399 0.582633 0.580196
0.474039 0.473144 0.472075
0.533450 0.532088 0.530265
0.592890 0.591059 0.588526
0.652295 0.650045 0.646935
0.711661 0.709035 0.705442
0.601380 0.599485 0.596860
0.660775 0.658472 0.655293
0.720141 0.717462 0.713801
0.779477 0.776445 0.772331
0.838740 0.835409 0.830917
0.119538 0.120063 0.121943
0.178485 0.178891 0.180478
0.237485 0.237719 0.238906
0.296516 0.296547 0.297271
0.355559 0.355375 0.355615
0.245916 0.246123 0.247247
0.304951 0.304951 0.305606
0.363999 0.363781 0.363946
0.423187 0.422649 0.422200
0.482522 0.481563 0.480386
0.372443 0.372187 0.372275
0.431656 0.431062 0.430514
0.491007 0.489982 0.488698
0.550433 0.548935 0.546900
0.609869 0.607911 0.605196
0.499494 0.498402 0.497009
0.558925 0.557359 0.555221
0.618357 0.616337 0.613536
0.677738 0.675326 0.672009
0.737099 0.734316 0.730520
0.626844 0.624764 0.621880
0.686219 0.683754 0.680367
0.745577 0.742742 0.738881
0.804887 0.801718 0.797431
0.864105 0.860671 0.856049
0.144793 0.145275 0.147045
0.203765 0.204103 0.205529
0.262781 0.262931 0.263925
0.321820 0.321759 0.322276
0.380891 0.380595 0.380601
0.271215 0.271335 0.272262
0.330255 0.330163 0.330611
0.389343 0.389004 0.388925
0.448602 0.447893 0.447141
0.507981 0.506823 0.505322
0.397799 0.397413 0.397247
0.457079 0.456309 0.455453
0.516470 0.515244 0.513635
0.575908 0.574208 0.571868
0.635329 0.633191 0.630227
0.524960 0.523666 0.521949
0.584399 0.582633 0.580196
0.643813 0.641618 0.638579
0.703181 0.700608 0.697083
0.762529 0.759594 0.755604
0.652295 0.650045 0.646935
0.711661 0.709035 0.705442
0.771004 0.768019 0.763967
0.830280 0.826987 0.822543
0.889446 0.885927 0.881200
0.170060 0.170487 0.172123
0.229054 0.229315 0.230564
0.288082 0.288143 0.288935
0.347124 0.346971 0.347280
0.406258 0.405824 0.405566
0.296516 0.296547 0.297271
0.355559 0.355375 0.355615
0.414721 0.414236 0.413884
0.474039 0.473144 0.472075
0.533450 0.532088 0.530265
0.423187 0.422649 0.422200
0.482522 0.481563 0.480386
0.541942 0.540511 0.538581
0.601380 0.599485 0.596860
0.660775 0.658472 0.655293
0.550433 0.548935 0.546900
0.609869 0.607911 0.605196
0.669257 0.666899 0.663651
0.728621 0.725889 0.722160
0.787948 0.784870 0.780697
0.677738 0.675326 0.672009
0.737099 0.734316 0.730520
0.796418 0.793294 0.789063
0.855652 0.852251 0.847670
0.914758 0.911176 0.906372
0.195337 0.195699 0.197180
0.254349 0.254527 0.255586
0.313385 0.313355 0.313941
0.372443 0.372187 0.372275
0.431656 0.431062 0.430514
0.321820 0.321759 0.322276
0.380891 0.380595 0.380601
0.440128 0.439477 0.438828
0.499494 0.498402 0.497009
0.558925 0.557359 0.555221
0.448602 0.447893 0.447141
0.507981 0.506823 0.505322
0.567417 0.565783 0.563543
0.626844 0.624764 0.621880
0.686219 0.683754 0.680367
0.575908 0.574208 0.571868
0.635329 0.633191 0.630227
0.694700 0.692181 0.688725
0.754054 0.751168 0.747242
0.813353 0.810142 0.805800
0.703181 0.700608 0.697083
0.762529 0.759594 0.755604
0.821817 0.818565 0.814170
0.881002 0.877509 0.872814
0.940040 0.936418 0.931568
