assets/presets/luts/mono-platinum/lut.cube
TITLE "Mono Platinum"
LUT_3D_SIZE 17
0.094296 0.094851 0.096814
0.109018 0.109558 0.111476
0.123746 0.124265 0.126129
0.138478 0.138972 0.140772
0.153214 0.153679 0.155407
0.167954 0.168386 0.170034
0.182697 0.183093 0.184654
0.197444 0.197800 0.199268
0.212194 0.212507 0.213875
0.226946 0.227214 0.228478
0.241701 0.241921 0.243076
0.256457 0.256628 0.257671
0.271215 0.271335 0.272262
0.285974 0.286042 0.286851
0.300734 0.300749 0.301439
0.315494 0.315456 0.316025
0.330255 0.330163 0.330611
0.125850 0.126366 0.128221
0.140583 0.141073 0.142863
0.155319 0.155780 0.157497
0.170060 0.170487 0.172123
0.184804 0.185194 0.186742
0.199551 0.199901 0.201355
0.214301 0.214608 0.215962
0.229054 0.229315 0.230564
0.243808 0.244022 0.245162
0.258565 0.258729 0.259756
0.273323 0.273436 0.274347
0.288082 0.288143 0.288935
0.302842 0.302850 0.303522
0.317603 0.317557 0.318109
0.332364 0.332264 0.332694
0.347124 0.346971 0.347280
0.361889 0.361679 0.361864
0.157425 0.157881 0.159587
0.172166 0.172588 0.174212
0.186910 0.187295 0.188830
0.201658 0.202002 0.203442
0.216409 0.216709 0.218048
0.231161 0.231416 0.232649
0.245916 0.246123 0.247247
0.260673 0.260830 0.261840
0.275431 0.275537 0.276431
0.290191 0.290244 0.291019
0.304951 0.304951 0.305606
0.319711 0.319658 0.320192
0.334472 0.334365 0.334778
0.349233 0.349072 0.349364
0.363999 0.363781 0.363946
0.378779 0.378493 0.378520
0.393571 0.393208 0.393086
0.189017 0.189396 0.190918
0.203765 0.204103 0.205529
0.218516 0.218810 0.220134
0.233269 0.233517 0.234735
0.248024 0.248224 0.249332
0.262781 0.262931 0.263925
0.277540 0.277638 0.278515
0.292299 0.292345 0.293103
0.307060 0.307052 0.307690
0.321820 0.321759 0.322276
0.336581 0.336466 0.336862
0.351341 0.351173 0.351448
0.366110 0.365882 0.366029
0.380891 0.380595 0.380601
0.395685 0.395311 0.395166
0.410489 0.410030 0.409725
0.425304 0.424752 0.424278
0.220623 0.220911 0.222220
0.235377 0.235618 0.236820
0.250132 0.250325 0.251417
0.264890 0.265032 0.266009
0.279648 0.279739 0.280599
0.294408 0.294446 0.295187
0.309168 0.309153 0.309774
0.323929 0.323860 0.324360
0.338690 0.338567 0.338945
0.353450 0.353274 0.353531
0.368221 0.367984 0.368111
0.383004 0.382697 0.382683
0.397799 0.397413 0.397247
0.412605 0.412133 0.411804
0.427421 0.426855 0.426357
0.442246 0.441581 0.440906
0.457079 0.456309 0.455453
0.252241 0.252426 0.253501
0.266998 0.267133 0.268094
0.281757 0.281840 0.282683
0.296516 0.296547 0.297271
0.311277 0.311254 0.311857
0.326037 0.325961 0.326443
0.340798 0.340668 0.341029
0.355559 0.355375 0.355615
0.370332 0.370085 0.370193
0.385117 0.384799 0.384764
0.399913 0.399516 0.399327
0.414721 0.414236 0.413884
0.429538 0.428959 0.428436
0.444365 0.443685 0.442984
0.459199 0.458413 0.457530
0.474039 0.473144 0.472075
0.488886 0.487877 0.486620
0.283865 0.283941 0.284767
0.298625 0.298648 0.299355
0.313385 0.313355 0.313941
0.328146 0.328062 0.328527
0.342907 0.342769 0.343113
0.357669 0.357477 0.357698
0.372443 0.372187 0.372275
0.387230 0.386901 0.386844
0.402028 0.401619 0.401406
0.416837 0.416339 0.415963
0.431656 0.431062 0.430514
0.446483 0.445789 0.445063
0.461318 0.460517 0.459608
0.476160 0.475248 0.474153
0.491007 0.489982 0.488698
0.505859 0.504717 0.503244
0.520715 0.519455 0.517792
0.315494 0.315456 0.316025
0.330255 0.330163 0.330611
0.345015 0.344870 0.345197
0.359779 0.359578 0.359781
0.374555 0.374289 0.374357
0.389343 0.389004 0.388925
0.404143 0.403721 0.403486
0.418954 0.418442 0.418042
0.433774 0.433166 0.432593
0.448602 0.447893 0.447141
0.463438 0.462622 0.461686
0.478281 0.477353 0.476231
0.493129 0.492087 0.490776
0.507981 0.506823 0.505322
0.522837 0.521560 0.519870
0.537696 0.536300 0.534423
0.552556 0.551041 0.548980
0.347124 0.346971 0.347280
0.361889 0.361679 0.361864
0.376667 0.376391 0.376439
0.391457 0.391106 0.391006
0.406258 0.405824 0.405566
0.421070 0.420545 0.420121
0.435891 0.435270 0.434671
0.450721 0.449997 0.449219
0.465558 0.464726 0.463764
0.480402 0.479458 0.478309
0.495250 0.494192 0.492854
0.510103 0.508928 0.507400
0.524960 0.523666 0.521949
0.539819 0.538406 0.536502
0.554679 0.553147 0.551060
0.569539 0.567890 0.565624
0.584399 0.582633 0.580196
0.378779 0.378493 0.378520
0.393571 0.393208 0.393086
0.408374 0.407927 0.407646
0.423187 0.422649 0.422200
0.438010 0.437373 0.436750
0.452840 0.452101 0.451297
0.467678 0.466830 0.465842
0.482522 0.481563 0.480386
0.497372 0.496297 0.494931
0.512226 0.511033 0.509478
0.527082 0.525771 0.524028
0.541942 0.540511 0.538581
0.556802 0.555253 0.553140
0.571662 0.569996 0.567706
0.586522 0.584740 0.582278
0.601380 0.599485 0.596860
0.616235 0.614231 0.611451
0.410489 0.410030 0.409725
0.425304 0.424752 0.424278
0.440128 0.439477 0.438828
0.454960 0.454205 0.453375
0.469799 0.468935 0.467920
0.484644 0.483667 0.482464
0.499494 0.498402 0.497009
0.514348 0.513139 0.511557
0.529205 0.527877 0.526107
0.544064 0.542617 0.540661
0.558925 0.557359 0.555221
0.573785 0.572102 0.569787
0.588645 0.586846 0.584361
0.603503 0.601591 0.598943
0.618357 0.616337 0.613536
0.633208 0.631084 0.628140
0.648054 0.645831 0.642756
0.442246 0.441581 0.440906
0.457079 0.456309 0.455453
0.471919 0.471039 0.469997
0.486765 0.485772 0.484542
0.501615 0.500507 0.499087
0.516470 0.515244 0.513635
0.531328 0.529983 0.528186
0.546187 0.544723 0.542741
0.561048 0.559465 0.557301
0.575908 0.574208 0.571868
0.590768 0.588953 0.586443
0.605625 0.603698 0.601027
0.620479 0.618444 0.615622
0.635329 0.633191 0.630227
0.650174 0.647938 0.644845
0.665016 0.662686 0.659472
0.679858 0.677433 0.674099
0.474039 0.473144 0.472075
0.488886 0.487877 0.486620
0.503737 0.502612 0.501166
0.518592 0.517349 0.515713
0.533450 0.532088 0.530265
0.548310 0.546829 0.544820
0.563171 0.561571 0.559382
0.578031 0.576315 0.573950
0.592890 0.591059 0.588526
0.607747 0.605804 0.603112
0.622601 0.620551 0.617707
0.637450 0.635297 0.632315
0.652295 0.650045 0.646935
0.667136 0.664792 0.661562
0.681978 0.679540 0.676188
0.696820 0.694288 0.690815
0.711661 0.709035 0.705442
0.505859 0.504717 0.503244
0.520715 0.519455 0.517792
0.535573 0.534194 0.532344
0.550433 0.548935 0.546900
0.565294 0.563677 0.561462
0.580154 0.578421 0.576032
0.595013 0.593165 0.590609
0.609869 0.607911 0.605196
0.624722 0.622657 0.619793
0.639571 0.637404 0.634403
0.654415 0.652152 0.649024
0.669257 0.666899 0.663651
0.684099 0.681647 0.678278
0.698941 0.696395 0.692904
0.713781 0.711142 0.707532
0.728621 0.725889 0.722160
0.743458 0.740635 0.736790
0.537696 0.536300 0.534423
0.552556 0.551041 0.548980
0.567417 0.565783 0.563543
0.582277 0.580527 0.578114
0.597135 0.595272 0.592692
0.611991 0.610018 0.607281
0.626844 0.624764 0.621880
0.641692 0.639511 0.636491
0.656535 0.654258 0.651114
0.671377 0.669006 0.665741
0.686219 0.683754 0.680367
0.701061 0.698501 0.694994
0.715901 0.713249 0.709621
0.730740 0.727996 0.724250
0.745577 0.742742 0.738881
0.760411 0.757488 0.753514
0.775241 0.772232 0.768149
0.569539 0.567890 0.565624
0.584399 0.582633 0.580196
0.599258 0.597378 0.594776
0.614113 0.612124 0.609366
0.628965 0.626871 0.623966
0.643813 0.641618 0.638579
0.658655 0.656365 0.653204
0.673497 0.671113 0.667830
0.688339 0.685861 0.682457
0.703181 0.700608 0.697083
0.718021 0.715355 0.711711
0.732860 0.730102 0.726340
0.747696 0.744848 0.740971
0.762529 0.759594 0.755604
0.777359 0.774338 0.770240
0.792184 0.789082 0.784880
0.807003 0.803824 0.799523
0.601380 0.599485 0.596860
0.616235 0.614231 0.611451
0.631087 0.628977 0.626053
0.645934 0.643724 0.640667
0.660775 0.658472 0.655293
0.675617 0.673220 0.669920
0.690460 0.687967 0.684546
0.705301 0.702715 0.699173
0.720141 0.717462 0.713801
0.734980 0.732209 0.728430
0.749816 0.746955 0.743061
0.764648 0.761700 0.757695
0.779477 0.776445 0.772331
0.794301 0.791188 0.786971
0.809120 0.805930 0.801615
0.823933 0.820670 0.816263
0.838740 0.835409 0.830917
0.100605 0.101154 0.103099
0.115330 0.115861 0.117757
0.130059 0.130568 0.132405
0.144793 0.145275 0.147045
0.159531 0.159982 0.161677
0.174272 0.174689 0.176301
0.189017 0.189396 0.190918
0.203765 0.204103 0.205529
0.218516 0.218810 0.220134
0.233269 0.233517 0.234735
0.248024 0.248224 0.249332
0.262781 0.262931 0.263925
0.277540 0.277638 0.278515
0.292299 0.292345 0.293103
0.307060 0.307052 0.307690
0.321820 0.321759 0.322276
0.336581 0.336466 0.336862
0.132164 0.132669 0.134497
0.146898 0.147376 0.149136
0.161636 0.162083 0.163766
0.176378 0.176790 0.178389
0.191124 0.191497 0.193005
0.205872 0.206204 0.207616
0.220623 0.220911 0.222220
0.235377 0.235618 0.236820
0.250132 0.250325 0.251417
0.264890 0.265032 0.266009
0.279648 0.279739 0.280599
0.294408 0.294446 0.295187
0.309168 0.309153 0.309774
0.323929 0.323860 0.324360
0.338690 0.338567 0.338945
0.353450 0.353274 0.353531
0.368221 0.367984 0.368111
0.163742 0.164184 0.165856
0.178485 0.178891 0.180478
0.193231 0.193598 0.195093
0.207979 0.208305 0.209702
0.222731 0.223012 0.224306
0.237485 0.237719 0.238906
0.252241 0.252426 0.253501
0.266998 0.267133 0.268094
0.281757 0.281840 0.282683
0.296516 0.296547 0.297271
0.311277 0.311254 0.311857
0.326037 0.325961 0.326443
0.340798 0.340668 0.341029
0.355559 0.355375 0.355615
0.370332 0.370085 0.370193
0.385117 0.384799 0.384764
0.399913 0.399516 0.399327
0.195337 0.195699 0.197180
0.210087 0.210406 0.211789
0.224838 0.225113 0.226392
0.239593 0.239820 0.240991
0.254349 0.254527 0.255586
0.269106 0.269234 0.270178
0.283865 0.283941 0.284767
0.298625 0.298648 0.299355
0.313385 0.313355 0.313941
0.328146 0.328062 0.328527
0.342907 0.342769 0.343113
0.357669 0.357477 0.357698
0.372443 0.372187 0.372275
0.387230 0.386901 0.386844
0.402028 0.401619 0.401406
0.416837 0.416339 0.415963
0.431656 0.431062 0.430514
0.226946 0.227214 0.228478
0.241701 0.241921 0.243076
0.256457 0.256628 0.257671
0.271215 0.271335 0.272262
0.285974 0.286042 0.286851
0.300734 0.300749 0.301439
0.315494 0.315456 0.316025
0.330255 0.330163 0.330611
0.345015 0.344870 0.345197
0.359779 0.359578 0.359781
0.374555 0.374289 0.374357
0.389343 0.389004 0.388925
0.404143 0.403721 0.403486
0.418954 0.418442 0.418042
0.433774 0.433166 0.432593
0.448602 0.447893 0.447141
0.463438 0.462622 0.461686
0.258565 0.258729 0.259756
0.273323 0.273436 0.274347
0.288082 0.288143 0.288935
0.302842 0.302850 0.303522
0.317603 0.317557 0.318109
0.332364 0.332264 0.332694
0.347124 0.346971 0.347280
0.361889 0.361679 0.361864
0.376667 0.376391 0.376439
0.391457 0.391106 0.391006
0.406258 0.405824 0.405566
0.421070 0.420545 0.420121
0.435891 0.435270 0.434671
0.450721 0.449997 0.449219
0.465558 0.464726 0.463764
0.480402 0.479458 0.478309
0.495250 0.494192 0.492854
0.290191 0.290244 0.291019
0.304951 0.304951 0.305606
0.319711 0.319658 0.320192
0.334472 0.334365 0.334778
0.349233 0.349072 0.349364
0.363999 0.363781 0.363946
0.378779 0.378493 0.378520
0.393571 0.393208 0.393086
0.408374 0.407927 0.407646
0.423187 0.422649 0.422200
0.438010 0.437373 0.436750
0.452840 0.452101 0.451297
0.467678 0.466830 0.465842
0.482522 0.481563 0.480386
0.497372 0.496297 0.494931
0.512226 0.511033 0.509478
0.527082 0.525771 0.524028
0.321820 0.321759 0.322276
0.336581 0.336466 0.336862
0.351341 0.351173 0.351448
0.366110 0.365882 0.366029
0.380891 0.380595 0.380601
0.395685 0.395311 0.395166
0.410489 0.410030 0.409725
0.425304 0.424752 0.424278
0.440128 0.439477 0.438828
0.454960 0.454205 0.453375
0.469799 0.468935 0.467920
0.484644 0.483667 0.482464
0.499494 0.498402 0.497009
0.514348 0.513139 0.511557
0.529205 0.527877 0.526107
0.544064 0.542617 0.540661
0.558925 0.557359 0.555221
0.353450 0.353274 0.353531
0.368221 0.367984 0.368111
0.383004 0.382697 0.382683
0.397799 0.397413 0.397247
0.412605 0.412133 0.411804
0.427421 0.426855 0.426357
0.442246 0.441581 0.440906
0.457079 0.456309 0.455453
0.471919 0.471039 0.469997
0.486765 0.485772 0.484542
0.501615 0.500507 0.499087
0.516470 0.515244 0.513635
0.531328 0.529983 0.528186
0.546187 0.544723 0.542741
0.561048 0.559465 0.557301
0.575908 0.574208 0.571868
0.590768 0.588953 0.586443
0.385117 0.384799 0.384764
0.399913 0.399516 0.399327
0.414721 0.414236 0.413884
0.429538 0.428959 0.428436
0.444365 0.443685 0.442984
0.459199 0.458413 0.457530
0.474039 0.473144 0.472075
0.488886 0.487877 0.486620
0.503737 0.502612 0.501166
0.518592 0.517349 0.515713
0.533450 0.532088 0.530265
0.548310 0.546829 0.544820
0.563171 0.561571 0.559382
0.578031 0.576315 0.573950
0.592890 0.591059 0.588526
0.607747 0.605804 0.603112
0.622601 0.620551 0.617707
0.416837 0.416339 0.415963
0.431656 0.431062 0.430514
0.446483 0.445789 0.445063
0.461318 0.460517 0.459608
0.476160 0.475248 0.474153
0.491007 0.489982 0.488698
0.505859 0.504717 0.503244
0.520715 0.519455 0.517792
0.535573 0.534194 0.532344
0.550433 0.548935 0.546900
0.565294 0.563677 0.561462
0.580154 0.578421 0.576032
0.595013 0.593165 0.590609
0.609869 0.607911 0.605196
0.624722 0.622657 0.619793
0.639571 0.637404 0.634403
0.654415 0.652152 0.649024
0.448602 0.447893 0.447141
0.463438 0.462622 0.461686
0.478281 0.477353 0.476231
0.493129 0.492087 0.490776
0.507981 0.506823 0.505322
0.522837 0.521560 0.519870
0.537696 0.536300 0.534423
0.552556 0.551041 0.548980
0.567417 0.565783 0.563543
0.582277 0.580527 0.578114
0.597135 0.595272 0.592692
0.611991 0.610018 0.607281
0.626844 0.624764 0.621880
0.641692 0.639511 0.636491
0.656535 0.654258 0.651114
0.671377 0.669006 0.665741
0.686219 0.683754 0.680367
0.480402 0.479458 0.478309
0.495250 0.494192 0.492854
0.510103 0.508928 0.507400
0.524960 0.523666 0.521949
0.539819 0.538406 0.536502
0.554679 0.553147 0.551060
0.569539 0.567890 0.565624
0.584399 0.582633 0.580196
0.599258 0.597378 0.594776
0.614113 0.612124 0.609366
0.628965 0.626871 0.623966
0.643813 0.641618 0.638579
0.658655 0.656365 0.653204
0.673497 0.671113 0.667830
0.688339 0.685861 0.682457
0.703181 0.700608 0.697083
0.718021 0.715355 0.711711
0.512226 0.511033 0.509478
0.527082 0.525771 0.524028
0.541942 0.540511 0.538581
0.556802 0.555253 0.553140
0.571662 0.569996 0.567706
0.586522 0.584740 0.582278
0.601380 0.599485 0.596860
0.616235 0.614231 0.611451
0.631087 0.628977 0.626053
0.645934 0.643724 0.640667
0.660775 0.658472 0.655293
0.675617 0.673220 0.669920
0.690460 0.687967 0.684546
0.705301 0.702715 0.699173
0.720141 0.717462 0.713801
0.734980 0.732209 0.728430
0.749816 0.746955 0.743061
0.544064 0.542617 0.540661
0.558925 0.557359 0.555221
0.573785 0.572102 0.569787
0.588645 0.586846 0.584361
0.603503 0.601591 0.598943
0.618357 0.616337 0.613536
0.633208 0.631084 0.628140
0.648054 0.645831 0.642756
0.662896 0.660579 0.657383
0.677738 0.675326 0.672009
0.692580 0.690074 0.686636
0.707421 0.704822 0.701263
0.722261 0.719569 0.715891
0.737099 0.734316 0.730520
0.751935 0.749062 0.745152
0.766767 0.763807 0.759786
0.781595 0.778551 0.774422
0.575908 0.574208 0.571868
0.590768 0.588953 0.586443
0.605625 0.603698 0.601027
0.620479 0.618444 0.615622
0.635329 0.633191 0.630227
0.650174 0.647938 0.644845
0.665016 0.662686 0.659472
0.679858 0.677433 0.674099
0.694700 0.692181 0.688725
0.709541 0.706928 0.703352
0.724381 0.721676 0.717980
0.739219 0.736422 0.732610
0.754054 0.751168 0.747242
0.768885 0.765913 0.761876
0.783713 0.780657 0.776514
0.798536 0.795400 0.791155
0.813353 0.810142 0.805800
0.607747 0.605804 0.603112
0.622601 0.620551 0.617707
0.637450 0.635297 0.632315
0.652295 0.650045 0.646935
0.667136 0.664792 0.661562
0.681978 0.679540 0.676188
0.696820 0.694288 0.690815
0.711661 0.709035 0.705442
0.726501 0.723782 0.720070
0.741338 0.738529 0.734700
0.756173 0.753275 0.749332
0.771004 0.768019 0.763967
0.785831 0.782763 0.778605
0.800653 0.797506 0.793247
0.815469 0.812247 0.807892
0.830280 0.826987 0.822543
0.845083 0.841725 0.837198
0.106915 0.107457 0.109382
0.121642 0.122164 0.124036
0.136373 0.136871 0.138681
0.151108 0.151578 0.153317
0.165848 0.166285 0.167945
0.180591 0.180992 0.182566
0.195337 0.195699 0.197180
0.210087 0.210406 0.211789
0.224838 0.225113 0.226392
0.239593 0.239820 0.240991
0.254349 0.254527 0.255586
0.269106 0.269234 0.270178
0.283865 0.283941 0.284767
0.298625 0.298648 0.299355
0.313385 0.313355 0.313941
0.328146 0.328062 0.328527
0.342907 0.342769 0.343113
0.138478 0.138972 0.140772
0.153214 0.153679 0.155407
0.167954 0.168386 0.170034
0.182697 0.183093 0.184654
0.197444 0.197800 0.199268
0.212194 0.212507 0.213875
0.226946 0.227214 0.228478
0.241701 0.241921 0.243076
0.256457 0.256628 0.257671
0.271215 0.271335 0.272262
0.285974 0.286042 0.286851
0.300734 0.300749 0.301439
0.315494 0.315456 0.316025
0.330255 0.330163 0.330611
0.345015 0.344870 0.345197
0.359779 0.359578 0.359781
0.374555 0.374289 0.374357
0.170060 0.170487 0.172123
0.184804 0.185194 0.186742
0.199551 0.199901 0.201355
0.214301 0.214608 0.215962
0.229054 0.229315 0.230564
0.243808 0.244022 0.245162
0.258565 0.258729 0.259756
0.273323 0.273436 0.274347
0.288082 0.288143 0.288935
0.302842 0.302850 0.303522
0.317603 0.317557 0.318109
0.332364 0.332264 0.332694
0.347124 0.346971 0.347280
0.361889 0.361679 0.361864
0.376667 0.376391 0.376439
0.391457 0.391106 0.391006
0.406258 0.405824 0.405566
0.201658 0.202002 0.203442
0.216409 0.216709 0.218048
0.231161 0.231416 0.232649
0.245916 0.246123 0.247247
0.260673 0.260830 0.261840
0.275431 0.275537 0.276431
0.290191 0.290244 0.291019
0.304951 0.304951 0.305606
0.319711 0.319658 0.320192
0.334472 0.334365 0.334778
0.349233 0.349072 0.349364
0.363999 0.363781 0.363946
0.378779 0.378493 0.378520
0.393571 0.393208 0.393086
0.408374 0.407927 0.407646
0.423187 0.422649 0.422200
0.438010 0.437373 0.436750
0.233269 0.233517 0.234735
0.248024 0.248224 0.249332
0.262781 0.262931 0.263925
0.277540 0.277638 0.278515
0.292299 0.292345 0.293103
0.307060 0.307052 0.307690
0.321820 0.321759 0.322276
0.336581 0.336466 0.336862
0.351341 0.351173 0.351448
0.366110 0.365882 0.366029
0.380891 0.380595 0.380601
0.395685 0.395311 0.395166
0.410489 0.410030 0.409725
0.425304 0.424752 0.424278
0.440128 0.439477 0.438828
0.454960 0.454205 0.453375
0.469799 0.468935 0.467920
0.264890 0.265032 0.266009
0.279648 0.279739 0.280599
0.294408 0.294446 0.295187
0.309168 0.309153 0.309774
0.323929 0.323860 0.324360
0.338690 0.338567 0.338945
0.353450 0.353274 0.353531
0.368221 0.367984 0.368111
0.383004 0.382697 0.382683
0.397799 0.397413 0.397247
0.412605 0.412133 0.411804
0.427421 0.426855 0.426357
0.442246 0.441581 0.440906
0.457079 0.456309 0.455453
0.471919 0.471039 0.469997
0.486765 0.485772 0.484542
0.501615 0.500507 0.499087
0.296516 0.296547 0.297271
0.311277 0.311254 0.311857
0.326037 0.325961 0.326443
0.340798 0.340668 0.341029
0.355559 0.355375 0.355615
0.370332 0.370085 0.370193
0.385117 0.384799 0.384764
0.399913 0.399516 0.399327
0.414721 0.414236 0.413884
0.429538 0.428959 0.428436
0.444365 0.443685 0.442984
0.459199 0.458413 0.457530
0.474039 0.473144 0.472075
0.488886 0.487877 0.486620
0.503737 0.502612 0.501166
0.518592 0.517349 0.515713
0.533450 0.532088 0.530265
0.328146 0.328062 0.328527
0.342907 0.342769 0.343113
0.357669 0.357477 0.357698
0.372443 0.372187 0.372275
0.387230 0.386901 0.386844
0.402028 0.401619 0.401406
0.416837 0.416339 0.415963
0.431656 0.431062 0.430514
0.446483 0.445789 0.445063
0.461318 0.460517 0.459608
0.476160 0.475248 0.474153
0.491007 0.489982 0.488698
0.505859 0.504717 0.503244
0.520715 0.519455 0.517792
0.535573 0.534194 0.532344
0.550433 0.548935 0.546900
0.565294 0.563677 0.561462
0.359779 0.359578 0.359781
0.374555 0.374289 0.374357
0.389343 0.389004 0.388925
0.404143 0.403721 0.403486
0.418954 0.418442 0.418042
0.433774 0.433166 0.432593
0.448602 0.447893 0.447141
0.463438 0.462622 0.461686
0.478281 0.477353 0.476231
0.493129 0.492087 0.490776
0.507981 0.506823 0.505322
0.522837 0.521560 0.519870
0.537696 0.536300 0.534423
0.552556 0.551041 0.548980
0.567417 0.565783 0.563543
0.582277 0.580527 0.578114
0.597135 0.595272 0.592692
0.391457 0.391106 0.391006
0.406258 0.405824 0.405566
0.421070 0.420545 0.420121
0.435891 0.435270 0.434671
0.450721 0.449997 0.449219
0.465558 0.464726 0.463764
0.480402 0.479458 0.478309
0.495250 0.494192 0.492854
0.510103 0.508928 0.507400
0.524960 0.523666 0.521949
0.539819 0.538406 0.536502
0.554679 0.553147 0.551060
0.569539 0.567890 0.565624
0.584399 0.582633 0.580196
0.599258 0.597378 0.594776
0.614113 0.612124 0.609366
0.628965 0.626871 0.623966
0.423187 0.422649 0.422200
0.438010 0.437373 0.436750
0.452840 0.452101 0.451297
0.467678 0.466830 0.465842
0.482522 0.481563 0.480386
0.497372 0.496297 0.494931
0.512226 0.511033 0.509478
0.527082 0.525771 0.524028
0.541942 0.540511 0.538581
0.556802 0.555253 0.553140
0.571662 0.569996 0.567706
0.586522 0.584740 0.582278
0.601380 0.599485 0.596860
0.616235 0.614231 0.611451
0.631087 0.628977 0.626053
0.645934 0.643724 0.640667
0.660775 0.658472 0.655293
0.454960 0.454205 0.453375
0.469799 0.468935 0.467920
0.484644 0.483667 0.482464
0.499494 0.498402 0.497009
0.514348 0.513139 0.511557
0.529205 0.527877 0.526107
0.544064 0.542617 0.540661
0.558925 0.557359 0.555221
0.573785 0.572102 0.569787
0.588645 0.586846 0.584361
0.603503 0.601591 0.598943
0.618357 0.616337 0.613536
0.633208 0.631084 0.628140
0.648054 0.645831 0.642756
0.662896 0.660579 0.657383
0.677738 0.675326 0.672009
0.692580 0.690074 0.686636
0.486765 0.485772 0.484542
0.501615 0.500507 0.499087
0.516470 0.515244 0.513635
0.531328 0.529983 0.528186
0.546187 0.544723 0.542741
0.561048 0.559465 0.557301
0.575908 0.574208 0.571868
0.590768 0.588953 0.586443
0.605625 0.603698 0.601027
0.620479 0.618444 0.615622
0.635329 0.633191 0.630227
0.650174 0.647938 0.644845
0.665016 0.662686 0.659472
0.679858 0.677433 0.674099
0.694700 0.692181 0.688725
0.709541 0.706928 0.703352
0.724381 0.721676 0.717980
0.518592 0.517349 0.515713
0.533450 0.532088 0.530265
0.548310 0.546829 0.544820
0.563171 0.561571 0.559382
0.578031 0.576315 0.573950
0.592890 0.591059 0.588526
0.607747 0.605804 0.603112
0.622601 0.620551 0.617707
0.637450 0.635297 0.632315
0.652295 0.650045 0.646935
0.667136 0.664792 0.661562
0.681978 0.679540 0.676188
0.696820 0.694288 0.690815
0.711661 0.709035 0.705442
0.726501 0.723782 0.720070
0.741338 0.738529 0.734700
0.756173 0.753275 0.749332
0.550433 0.548935 0.546900
0.565294 0.563677 0.561462
0.580154 0.578421 0.576032
0.595013 0.593165 0.590609
0.609869 0.607911 0.605196
0.624722 0.622657 0.619793
0.639571 0.637404 0.634403
0.654415 0.652152 0.649024
0.669257 0.666899 0.663651
0.684099 0.681647 0.678278
0.698941 0.696395 0.692904
0.713781 0.711142 0.707532
0.728621 0.725889 0.722160
0.743458 0.740635 0.736790
0.758292 0.755381 0.751423
0.773122 0.770126 0.766058
0.787948 0.784870 0.780697
0.582277 0.580527 0.578114
0.597135 0.595272 0.592692
0.611991 0.610018 0.607281
0.626844 0.624764 0.621880
0.641692 0.639511 0.636491
0.656535 0.654258 0.651114
0.671377 0.669006 0.665741
0.686219 0.683754 0.680367
0.701061 0.698501 0.694994
0.715901 0.713249 0.709621
0.730740 0.727996 0.724250
0.745577 0.742742 0.738881
0.760411 0.757488 0.753514
0.775241 0.772232 0.768149
0.790066 0.786976 0.782788
0.804887 0.801718 0.797431
0.819701 0.816459 0.812078
0.614113 0.612124 0.609366
0.628965 0.626871 0.623966
0.643813 0.641618 0.638579
0.658655 0.656365 0.653204
0.673497 0.671113 0.667830
0.688339 0.685861 0.682457
0.703181 0.700608 0.697083
0.718021 0.715355 0.711711
0.732860 0.730102 0.726340
0.747696 0.744848 0.740971
0.762529 0.759594 0.755604
0.777359 0.774338 0.770240
0.792184 0.789082 0.784880
0.807003 0.803824 0.799523
0.821817 0.818565 0.814170
0.836625 0.833304 0.828823
0.851425 0.848041 0.843481
0.113226 0.113760 0.115664
0.127954 0.128467 0.130313
0.142688 0.143174 0.144954
0.157425 0.157881 0.159587
0.172166 0.172588 0.174212
0.186910 0.187295 0.188830
0.201658 0.202002 0.203442
0.216409 0.216709 0.218048
0.231161 0.231416 0.232649
0.245916 0.246123 0.247247
0.260673 0.260830 0.261840
0.275431 0.275537 0.276431
0.290191 0.290244 0.291019
0.304951 0.304951 0.305606
0.319711 0.319658 0.320192
0.334472 0.334365 0.334778
0.349233 0.349072 0.349364
0.144793 0.145275 0.147045
0.159531 0.159982 0.161677
0.174272 0.174689 0.176301
