assets/presets/luts/clog3-rec709/lut.cube
TITLE "C-Log3 to Rec.709"
LUT_3D_SIZE 17
0.000000 0.000000 0.000000
0.000000 0.000000 0.000000
0.000000 0.000000 0.000000
0.088483 0.000000 0.000000
0.228601 0.000000 0.000000
0.409395 0.000000 0.000000
0.623212 0.000000 0.000000
0.840236 0.000000 0.000000
1.000000 0.000000 0.000000
1.000000 0.000000 0.000000
1.000000 0.000000 0.000000
1.000000 0.000000 0.000000
1.000000 0.000000 0.000000
1.000000 0.000000 0.000000
1.000000 0.000000 0.000000
1.000000 0.000000 0.000000
1.000000 0.000000 0.000000
0.000000 0.000000 0.000000
0.000000 0.000000 0.000000
0.000000 0.000000 0.000000
0.088483 0.000000 0.000000
0.228601 0.000000 0.000000
0.409395 0.000000 0.000000
0.623212 0.000000 0.000000
0.840236 0.000000 0.000000
1.000000 0.000000 0.000000
1.000000 0.000000 0.000000
1.000000 0.000000 0.000000
1.000000 0.000000 0.000000
1.000000 0.000000 0.000000
1.000000 0.000000 0.000000
1.000000 0.000000 0.000000
1.000000 0.000000 0.000000
1.000000 0.000000 0.000000
0.000000 0.000000 0.000000
0.000000 0.000000 0.000000
0.000000 0.000000 0.000000
0.088483 0.000000 0.000000
0.228601 0.000000 0.000000
0.409395 0.000000 0.000000
0.623212 0.000000 0.000000
0.840236 0.000000 0.000000
1.000000 0.000000 0.000000
1.000000 0.000000 0.000000
1.000000 0.000000 0.000000
1.000000 0.000000 0.000000
1.000000 0.000000 0.000000
1.000000 0.000000 0.000000
1.000000 0.000000 0.000000
1.000000 0.000000 0.000000
1.000000 0.000000 0.000000
0.000000 0.086344 0.000000
0.000000 0.086344 0.000000
0.000000 0.086344 0.000000
0.085439 0.085439 0.000000
0.225557 0.084006 0.000000
0.406350 0.082157 0.000000
0.620168 0.079970 0.000000
0.837192 0.077750 0.000000
1.000000 0.076064 0.000000
1.000000 0.075714 0.000000
1.000000 0.075714 0.000000
1.000000 0.075714 0.000000
1.000000 0.075714 0.000000
1.000000 0.075714 0.000000
1.000000 0.075714 0.000000
1.000000 0.075714 0.000000
1.000000 0.075714 0.000000
0.000000 0.223074 0.000000
0.000000 0.223074 0.000000
0.000000 0.223074 0.000000
0.080618 0.222169 0.000000
0.220736 0.220736 0.000000
0.401529 0.218887 0.000000
0.615347 0.216700 0.000000
0.832371 0.214481 0.000000
0.997256 0.212794 0.000000
1.000000 0.212444 0.000000
1.000000 0.212444 0.000000
1.000000 0.212444 0.000000
1.000000 0.212444 0.000000
1.000000 0.212444 0.000000
1.000000 0.212444 0.000000
1.000000 0.212444 0.000000
1.000000 0.212444 0.000000
0.000000 0.399496 0.000000
0.000000 0.399496 0.000000
0.000000 0.399496 0.000000
0.074398 0.398591 0.000000
0.214516 0.397158 0.000000
0.395309 0.395309 0.000000
0.609127 0.393122 0.000000
0.826151 0.390903 0.000000
0.991036 0.389216 0.000000
1.000000 0.388866 0.000000
1.000000 0.388866 0.000000
1.000000 0.388866 0.000000
1.000000 0.388866 0.000000
1.000000 0.388866 0.000000
1.000000 0.388866 0.000000
1.000000 0.388866 0.000000
1.000000 0.388866 0.000000
0.000000 0.608144 0.000000
0.000000 0.608144 0.000000
0.000000 0.608144 0.000000
0.067041 0.607239 0.000000
0.207159 0.605806 0.000000
0.387953 0.603957 0.000000
0.601770 0.601770 0.000000
0.818794 0.599551 0.000000
0.983679 0.597864 0.000000
1.000000 0.597514 0.000000
1.000000 0.597514 0.000000
1.000000 0.597514 0.000000
1.000000 0.597514 0.000000
1.000000 0.597514 0.000000
1.000000 0.597514 0.000000
1.000000 0.597514 0.000000
1.000000 0.597514 0.000000
0.000000 0.819921 0.000000
0.000000 0.819921 0.000000
0.000000 0.819921 0.000000
0.059574 0.819016 0.000000
0.199692 0.817583 0.000000
0.380486 0.815734 0.000000
0.594303 0.813547 0.000000
0.811328 0.811328 0.000000
0.976212 0.809641 0.000000
1.000000 0.809291 0.000000
1.000000 0.809291 0.000000
1.000000 0.809291 0.000000
1.000000 0.809291 0.000000
1.000000 0.809291 0.000000
1.000000 0.809291 0.000000
1.000000 0.809291 0.000000
1.000000 0.809291 0.000000
0.000000 0.980819 0.000000
0.000000 0.980819 0.000000
0.000000 0.980819 0.000000
0.053901 0.979914 0.000000
0.194019 0.978481 0.000000
0.374813 0.976632 0.000000
0.588631 0.974445 0.000000
0.805655 0.972226 0.000000
0.970539 0.970539 0.000000
1.000000 0.970189 0.000000
1.000000 0.970189 0.000000
1.000000 0.970189 0.000000
1.000000 0.970189 0.000000
1.000000 0.970189 0.000000
1.000000 0.970189 0.000000
1.000000 0.970189 0.000000
1.000000 0.970189 0.000000
0.000000 1.000000 0.000000
0.000000 1.000000 0.000000
0.000000 1.000000 0.000000
0.052723 1.000000 0.000000
0.192841 1.000000 0.000000
0.373635 1.000000 0.000000
0.587452 1.000000 0.000000
0.804476 1.000000 0.000000
0.969361 1.000000 0.000000
1.000000 1.000000 0.000000
1.000000 1.000000 0.000000
1.000000 1.000000 0.000000
1.000000 1.000000 0.000000
1.000000 1.000000 0.000000
1.000000 1.000000 0.000000
1.000000 1.000000 0.000000
1.000000 1.000000 0.000000
0.000000 1.000000 0.000000
0.000000 1.000000 0.000000
0.000000 1.000000 0.000000
0.052723 1.000000 0.000000
0.192841 1.000000 0.000000
0.373635 1.000000 0.000000
0.587452 1.000000 0.000000
0.804476 1.000000 0.000000
0.969361 1.000000 0.000000
1.000000 1.000000 0.000000
1.000000 1.000000 0.000000
1.000000 1.000000 0.000000
1.000000 1.000000 0.000000
1.000000 1.000000 0.000000
1.000000 1.000000 0.000000
1.000000 1.000000 0.000000
1.000000 1.000000 0.000000
0.000000 1.000000 0.000000
0.000000 1.000000 0.000000
0.000000 1.000000 0.000000
0.052723 1.000000 0.000000
0.192841 1.000000 0.000000
0.373635 1.000000 0.000000
0.587452 1.000000 0.000000
0.804476 1.000000 0.000000
0.969361 1.000000 0.000000
1.000000 1.000000 0.000000
1.000000 1.000000 0.000000
1.000000 1.000000 0.000000
1.000000 1.000000 0.000000
1.000000 1.000000 0.000000
1.000000 1.000000 0.000000
1.000000 1.000000 0.000000
1.000000 1.000000 0.000000
0.000000 1.000000 0.000000
0.000000 1.000000 0.000000
0.000000 1.000000 0.000000
0.052723 1.000000 0.000000
0.192841 1.000000 0.000000
0.373635 1.000000 0.000000
0.587452 1.000000 0.000000
0.804476 1.000000 0.000000
0.969361 1.000000 0.000000
1.000000 1.000000 0.000000
1.000000 1.000000 0.000000
1.000000 1.000000 0.000000
1.000000 1.000000 0.000000
1.000000 1.000000 0.000000
1.000000 1.000000 0.000000
1.000000 1.000000 0.000000
1.000000 1.000000 0.000000
0.000000 1.000000 0.000000
0.000000 1.000000 0.000000
0.000000 1.000000 0.000000
0.052723 1.000000 0.000000
0.192841 1.000000 0.000000
0.373635 1.000000 0.000000
0.587452 1.000000 0.000000
0.804476 1.000000 0.000000
0.969361 1.000000 0.000000
1.000000 1.000000 0.000000
1.000000 1.000000 0.000000
1.000000 1.000000 0.000000
1.000000 1.000000 0.000000
1.000000 1.000000 0.000000
1.000000 1.000000 0.000000
1.000000 1.000000 0.000000
1.000000 1.000000 0.000000
0.000000 1.000000 0.000000
0.000000 1.000000 0.000000
0.000000 1.000000 0.000000
0.052723 1.000000 0.000000
0.192841 1.000000 0.000000
0.373635 1.000000 0.000000
0.587452 1.000000 0.000000
0.804476 1.000000 0.000000
0.969361 1.000000 0.000000
1.000000 1.000000 0.000000
1.000000 1.000000 0.000000
1.000000 1.000000 0.000000
1.000000 1.000000 0.000000
1.000000 1.000000 0.000000
1.000000 1.000000 0.000000
1.000000 1.000000 0.000000
1.000000 1.000000 0.000000
0.000000 1.000000 0.000000
0.000000 1.000000 0.000000
0.000000 1.000000 0.000000
0.052723 1.000000 0.000000
0.192841 1.000000 0.000000
0.373635 1.000000 0.000000
0.587452 1.000000 0.000000
0.804476 1.000000 0.000000
0.969361 1.000000 0.000000
1.000000 1.000000 0.000000
1.000000 1.000000 0.000000
1.000000 1.000000 0.000000
1.000000 1.000000 0.000000
1.000000 1.000000 0.000000
1.000000 1.000000 0.000000
1.000000 1.000000 0.000000
1.000000 1.000000 0.000000
0.000000 1.000000 0.000000
0.000000 1.000000 0.000000
0.000000 1.000000 0.000000
0.052723 1.000000 0.000000
0.192841 1.000000 0.000000
0.373635 1.000000 0.000000
0.587452 1.000000 0.000000
0.804476 1.000000 0.000000
0.969361 1.000000 0.000000
1.000000 1.000000 0.000000
1.000000 1.000000 0.000000
1.000000 1.000000 0.000000
1.000000 1.000000 0.000000
1.000000 1.000000 0.000000
1.000000 1.000000 0.000000
1.000000 1.000000 0.000000
1.000000 1.000000 0.000000
0.000000 0.000000 0.000000
0.000000 0.000000 0.000000
0.000000 0.000000 0.000000
0.088483 0.000000 0.000000
0.228601 0.000000 0.000000
0.409395 0.000000 0.000000
0.623212 0.000000 0.000000
0.840236 0.000000 0.000000
1.000000 0.000000 0.000000
1.000000 0.000000 0.000000
1.000000 0.000000 0.000000
1.000000 0.000000 0.000000
1.000000 0.000000 0.000000
1.000000 0.000000 0.000000
1.000000 0.000000 0.000000
1.000000 0.000000 0.000000
1.000000 0.000000 0.000000
0.000000 0.000000 0.000000
0.000000 0.000000 0.000000
0.000000 0.000000 0.000000
0.088483 0.000000 0.000000
0.228601 0.000000 0.000000
0.409395 0.000000 0.000000
0.623212 0.000000 0.000000
0.840236 0.000000 0.000000
1.000000 0.000000 0.000000
1.000000 0.000000 0.000000
1.000000 0.000000 0.000000
1.000000 0.000000 0.000000
1.000000 0.000000 0.000000
1.000000 0.000000 0.000000
1.000000 0.000000 0.000000
1.000000 0.000000 0.000000
1.000000 0.000000 0.000000
0.000000 0.000000 0.000000
0.000000 0.000000 0.000000
0.000000 0.000000 0.000000
0.088483 0.000000 0.000000
0.228601 0.000000 0.000000
0.409395 0.000000 0.000000
0.623212 0.000000 0.000000
0.840236 0.000000 0.000000
1.000000 0.000000 0.000000
1.000000 0.000000 0.000000
1.000000 0.000000 0.000000
1.000000 0.000000 0.000000
1.000000 0.000000 0.000000
1.000000 0.000000 0.000000
1.000000 0.000000 0.000000
1.000000 0.000000 0.000000
1.000000 0.000000 0.000000
0.000000 0.086344 0.000000
0.000000 0.086344 0.000000
0.000000 0.086344 0.000000
0.085439 0.085439 0.000000
0.225557 0.084006 0.000000
0.406350 0.082157 0.000000
0.620168 0.079970 0.000000
0.837192 0.077750 0.000000
1.000000 0.076064 0.000000
1.000000 0.075714 0.000000
1.000000 0.075714 0.000000
1.000000 0.075714 0.000000
1.000000 0.075714 0.000000
1.000000 0.075714 0.000000
1.000000 0.075714 0.000000
1.000000 0.075714 0.000000
1.000000 0.075714 0.000000
0.000000 0.223074 0.000000
0.000000 0.223074 0.000000
0.000000 0.223074 0.000000
0.080618 0.222169 0.000000
0.220736 0.220736 0.000000
0.401529 0.218887 0.000000
0.615347 0.216700 0.000000
0.832371 0.214481 0.000000
0.997256 0.212794 0.000000
1.000000 0.212444 0.000000
1.000000 0.212444 0.000000
1.000000 0.212444 0.000000
1.000000 0.212444 0.000000
1.000000 0.212444 0.000000
1.000000 0.212444 0.000000
1.000000 0.212444 0.000000
1.000000 0.212444 0.000000
0.000000 0.399496 0.000000
0.000000 0.399496 0.000000
0.000000 0.399496 0.000000
0.074398 0.398591 0.000000
0.214516 0.397158 0.000000
0.395309 0.395309 0.000000
0.609127 0.393122 0.000000
0.826151 0.390903 0.000000
0.991036 0.389216 0.000000
1.000000 0.388866 0.000000
1.000000 0.388866 0.000000
1.000000 0.388866 0.000000
1.000000 0.388866 0.000000
1.000000 0.388866 0.000000
1.000000 0.388866 0.000000
1.000000 0.388866 0.000000
1.000000 0.388866 0.000000
0.000000 0.608144 0.000000
0.000000 0.608144 0.000000
0.000000 0.608144 0.000000
0.067041 0.607239 0.000000
0.207159 0.605806 0.000000
0.387953 0.603957 0.000000
0.601770 0.601770 0.000000
0.818794 0.599551 0.000000
0.983679 0.597864 0.000000
1.000000 0.597514 0.000000
1.000000 0.597514 0.000000
1.000000 0.597514 0.000000
1.000000 0.597514 0.000000
1.000000 0.597514 0.000000
1.000000 0.597514 0.000000
1.000000 0.597514 0.000000
1.000000 0.597514 0.000000
0.000000 0.819921 0.000000
0.000000 0.819921 0.000000
0.000000 0.819921 0.000000
0.059574 0.819016 0.000000
0.199692 0.817583 0.000000
0.380486 0.815734 0.000000
0.594303 0.813547 0.000000
0.811328 0.811328 0.000000
0.976212 0.809641 0.000000
1.000000 0.809291 0.000000
1.000000 0.809291 0.000000
1.000000 0.809291 0.000000
1.000000 0.809291 0.000000
1.000000 0.809291 0.000000
1.000000 0.809291 0.000000
1.000000 0.809291 0.000000
1.000000 0.809291 0.000000
0.000000 0.980819 0.000000
0.000000 0.980819 0.000000
0.000000 0.980819 0.000000
0.053901 0.979914 0.000000
0.194019 0.978481 0.000000
0.374813 0.976632 0.000000
0.588631 0.974445 0.000000
0.805655 0.972226 0.000000
0.970539 0.970539 0.000000
1.000000 0.970189 0.000000
1.000000 0.970189 0.000000
1.000000 0.970189 0.000000
1.000000 0.970189 0.000000
1.000000 0.970189 0.000000
1.000000 0.970189 0.000000
1.000000 0.970189 0.000000
1.000000 0.970189 0.000000
0.000000 1.000000 0.000000
0.000000 1.000000 0.000000
0.000000 1.000000 0.000000
0.052723 1.000000 0.000000
0.192841 1.000000 0.000000
0.373635 1.000000 0.000000
0.587452 1.000000 0.000000
0.804476 1.000000 0.000000
0.969361 1.000000 0.000000
1.000000 1.000000 0.000000
1.000000 1.000000 0.000000
1.000000 1.000000 0.000000
1.000000 1.000000 0.000000
1.000000 1.000000 0.000000
1.000000 1.000000 0.000000
1.000000 1.000000 0.000000
1.000000 1.000000 0.000000
0.000000 1.000000 0.000000
0.000000 1.000000 0.000000
0.000000 1.000000 0.000000
0.052723 1.000000 0.000000
0.192841 1.000000 0.000000
0.373635 1.000000 0.000000
0.587452 1.000000 0.000000
0.804476 1.000000 0.000000
0.969361 1.000000 0.000000
1.000000 1.000000 0.000000
1.000000 1.000000 0.000000
1.000000 1.000000 0.000000
1.000000 1.000000 0.000000
1.000000 1.000000 0.000000
1.000000 1.000000 0.000000
1.000000 1.000000 0.000000
1.000000 1.000000 0.000000
0.000000 1.000000 0.000000
0.000000 1.000000 0.000000
0.000000 1.000000 0.000000
0.052723 1.000000 0.000000
0.192841 1.000000 0.000000
0.373635 1.000000 0.000000
0.587452 1.000000 0.000000
0.804476 1.000000 0.000000
0.969361 1.000000 0.000000
1.000000 1.000000 0.000000
1.000000 1.000000 0.000000
1.000000 1.000000 0.000000
1.000000 1.000000 0.000000
1.000000 1.000000 0.000000
1.000000 1.000000 0.000000
1.000000 1.000000 0.000000
1.000000 1.000000 0.000000
0.000000 1.000000 0.000000
0.000000 1.000000 0.000000
0.000000 1.000000 0.000000
0.052723 1.000000 0.000000
0.192841 1.000000 0.000000
0.373635 1.000000 0.000000
0.587452 1.000000 0.000000
0.804476 1.000000 0.000000
0.969361 1.000000 0.000000
1.000000 1.000000 0.000000
1.000000 1.000000 0.000000
1.000000 1.000000 0.000000
1.000000 1.000000 0.000000
1.000000 1.000000 0.000000
1.000000 1.000000 0.000000
1.000000 1.000000 0.000000
1.000000 1.000000 0.000000
0.000000 1.000000 0.000000
0.000000 1.000000 0.000000
0.000000 1.000000 0.000000
0.052723 1.000000 0.000000
0.192841 1.000000 0.000000
0.373635 1.000000 0.000000
0.587452 1.000000 0.000000
0.804476 1.000000 0.000000
0.969361 1.000000 0.000000
1.000000 1.000000 0.000000
1.000000 1.000000 0.000000
1.000000 1.000000 0.000000
1.000000 1.000000 0.000000
1.000000 1.000000 0.000000
1.000000 1.000000 0.000000
1.000000 1.000000 0.000000
1.000000 1.000000 0.000000
0.000000 1.000000 0.000000
0.000000 1.000000 0.000000
0.000000 1.000000 0.000000
0.052723 1.000000 0.000000
0.192841 1.000000 0.000000
0.373635 1.000000 0.000000
0.587452 1.000000 0.000000
0.804476 1.000000 0.000000
0.969361 1.000000 0.000000
1.000000 1.000000 0.000000
1.000000 1.000000 0.000000
1.000000 1.000000 0.000000
1.000000 1.000000 0.000000
1.000000 1.000000 0.000000
1.000000 1.000000 0.000000
1.000000 1.000000 0.000000
1.000000 1.000000 0.000000
0.000000 1.000000 0.000000
0.000000 1.000000 0.000000
0.000000 1.000000 0.000000
0.052723 1.000000 0.000000
0.192841 1.000000 0.000000
0.373635 1.000000 0.000000
0.587452 1.000000 0.000000
0.804476 1.000000 0.000000
0.969361 1.000000 0.000000
1.000000 1.000000 0.000000
1.000000 1.000000 0.000000
1.000000 1.000000 0.000000
1.000000 1.000000 0.000000
1.000000 1.000000 0.000000
1.000000 1.000000 0.000000
1.000000 1.000000 0.000000
1.000000 1.000000 0.000000
0.000000 1.000000 0.000000
0.000000 1.000000 0.000000
0.000000 1.000000 0.000000
0.052723 1.000000 0.000000
0.192841 1.000000 0.000000
0.373635 1.000000 0.000000
0.587452 1.000000 0.000000
0.804476 1.000000 0.000000
0.969361 1.000000 0.000000
1.000000 1.000000 0.000000
1.000000 1.000000 0.000000
1.000000 1.000000 0.000000
1.000000 1.000000 0.000000
1.000000 1.000000 0.000000
1.000000 1.000000 0.000000
1.000000 1.000000 0.000000
1.000000 1.000000 0.000000
0.000000 0.000000 0.000000
0.000000 0.000000 0.000000
0.000000 0.000000 0.000000
0.088483 0.000000 0.000000
0.228601 0.000000 0.000000
0.409395 0.000000 0.000000
0.623212 0.000000 0.000000
0.840236 0.000000 0.000000
1.000000 0.000000 0.000000
1.000000 0.000000 0.000000
1.000000 0.000000 0.000000
1.000000 0.000000 0.000000
1.000000 0.000000 0.000000
1.000000 0.000000 0.000000
1.000000 0.000000 0.000000
1.000000 0.000000 0.000000
1.000000 0.000000 0.000000
0.000000 0.000000 0.000000
0.000000 0.000000 0.000000
0.000000 0.000000 0.000000
0.088483 0.000000 0.000000
0.228601 0.000000 0.000000
0.409395 0.000000 0.000000
0.623212 0.000000 0.000000
0.840236 0.000000 0.000000
1.000000 0.000000 0.000000
1.000000 0.000000 0.000000
1.000000 0.000000 0.000000
1.000000 0.000000 0.000000
1.000000 0.000000 0.000000
1.000000 0.000000 0.000000
1.000000 0.000000 0.000000
1.000000 0.000000 0.000000
1.000000 0.000000 0.000000
0.000000 0.000000 0.000000
0.000000 0.000000 0.000000
0.000000 0.000000 0.000000
0.088483 0.000000 0.000000
0.228601 0.000000 0.000000
0.409395 0.000000 0.000000
0.623212 0.000000 0.000000
0.840236 0.000000 0.000000
1.000000 0.000000 0.000000
1.000000 0.000000 0.000000
1.000000 0.000000 0.000000
1.000000 0.000000 0.000000
1.000000 0.000000 0.000000
1.000000 0.000000 0.000000
1.000000 0.000000 0.000000
1.000000 0.000000 0.000000
1.000000 0.000000 0.000000
0.000000 0.086344 0.000000
0.000000 0.086344 0.000000
0.000000 0.086344 0.000000
0.085439 0.085439 0.000000
0.225557 0.084006 0.000000
0.406350 0.082157 0.000000
0.620168 0.079970 0.000000
0.837192 0.077750 0.000000
1.000000 0.076064 0.000000
1.000000 0.075714 0.000000
1.000000 0.075714 0.000000
1.000000 0.075714 0.000000
1.000000 0.075714 0.000000
1.000000 0.075714 0.000000
1.000000 0.075714 0.000000
1.000000 0.075714 0.000000
1.000000 0.075714 0.000000
0.000000 0.223074 0.000000
0.000000 0.223074 0.000000
0.000000 0.223074 0.000000
0.080618 0.222169 0.000000
0.220736 0.220736 0.000000
0.401529 0.218887 0.000000
0.615347 0.216700 0.000000
0.832371 0.214481 0.000000
0.997256 0.212794 0.000000
1.000000 0.212444 0.000000
1.000000 0.212444 0.000000
1.000000 0.212444 0.000000
1.000000 0.212444 0.000000
1.000000 0.212444 0.000000
1.000000 0.212444 0.000000
1.000000 0.212444 0.000000
1.000000 0.212444 0.000000
0.000000 0.399496 0.000000
0.000000 0.399496 0.000000
0.000000 0.399496 0.000000
0.074398 0.398591 0.000000
0.214516 0.397158 0.000000
0.395309 0.395309 0.000000
0.609127 0.393122 0.000000
0.826151 0.390903 0.000000
0.991036 0.389216 0.000000
1.000000 0.388866 0.000000
1.000000 0.388866 0.000000
1.000000 0.388866 0.000000
1.000000 0.388866 0.000000
1.000000 0.388866 0.000000
1.000000 0.388866 0.000000
1.000000 0.388866 0.000000
1.000000 0.388866 0.000000
0.000000 0.608144 0.000000
0.000000 0.608144 0.000000
0.000000 0.608144 0.000000
0.067041 0.607239 0.000000
0.207159 0.605806 0.000000
0.387953 0.603957 0.000000
0.601770 0.601770 0.000000
0.818794 0.599551 0.000000
0.983679 0.597864 0.000000
1.000000 0.597514 0.000000
1.000000 0.597514 0.000000
1.000000 0.597514 0.000000
1.000000 0.597514 0.000000
1.000000 0.597514 0.000000
1.000000 0.597514 0.000000
1.000000 0.597514 0.000000
1.000000 0.597514 0.000000
0.000000 0.819921 0.000000
0.000000 0.819921 0.000000
0.000000 0.819921 0.000000
0.059574 0.819016 0.000000
0.199692 0.817583 0.000000
0.380486 0.815734 0.000000
0.594303 0.813547 0.000000
0.811328 0.811328 0.000000
0.976212 0.809641 0.000000
1.000000 0.809291 0.000000
1.000000 0.809291 0.000000
1.000000 0.809291 0.000000
1.000000 0.809291 0.000000
1.000000 0.809291 0.000000
1.000000 0.809291 0.000000
1.000000 0.809291 0.000000
1.000000 0.809291 0.000000
0.000000 0.980819 0.000000
0.000000 0.980819 0.000000
0.000000 0.980819 0.000000
0.053901 0.979914 0.000000
0.194019 0.978481 0.000000
0.374813 0.976632 0.000000
0.588631 0.974445 0.000000
0.805655 0.972226 0.000000
0.970539 0.970539 0.000000
1.000000 0.970189 0.000000
1.000000 0.970189 0.000000
1.000000 0.970189 0.000000
1.000000 0.970189 0.000000
1.000000 0.970189 0.000000
1.000000 0.970189 0.000000
1.000000 0.970189 0.000000
1.000000 0.970189 0.000000
0.000000 1.000000 0.000000
0.000000 1.000000 0.000000
0.000000 1.000000 0.000000
0.052723 1.000000 0.000000
0.192841 1.000000 0.000000
0.373635 1.000000 0.000000
0.587452 1.000000 0.000000
0.804476 1.000000 0.000000
0.969361 1.000000 0.000000
1.000000 1.000000 0.000000
1.000000 1.000000 0.000000
1.000000 1.000000 0.000000
1.000000 1.000000 0.000000
1.000000 1.000000 0.000000
1.000000 1.000000 0.000000
1.000000 1.000000 0.000000
1.000000 1.000000 0.000000
0.000000 1.000000 0.000000
0.000000 1.000000 0.000000
0.000000 1.000000 0.000000
0.052723 1.000000 0.000000
0.192841 1.000000 0.000000
0.373635 1.000000 0.000000
0.587452 1.000000 0.000000
0.804476 1.000000 0.000000
0.969361 1.000000 0.000000
1.000000 1.000000 0.000000
1.000000 1.000000 0.000000
1.000000 1.000000 0.000000
1.000000 1.000000 0.000000
1.000000 1.000000 0.000000
1.000000 1.000000 0.000000
1.000000 1.000000 0.000000
1.000000 1.000000 0.000000
0.000000 1.000000 0.000000
0.000000 1.000000 0.000000
0.000000 1.000000 0.000000
0.052723 1.000000 0.000000
0.192841 1.000000 0.000000
0.373635 1.000000 0.000000
0.587452 1.000000 0.000000
0.804476 1.000000 0.000000
0.969361 1.000000 0.000000
1.000000 1.000000 0.000000
1.000000 1.000000 0.000000
1.000000 1.000000 0.000000
1.000000 1.000000 0.000000
1.000000 1.000000 0.000000
1.000000 1.000000 0.000000
1.000000 1.000000 0.000000
1.000000 1.000000 0.000000
0.000000 1.000000 0.000000
0.000000 1.000000 0.000000
0.000000 1.000000 0.000000
0.052723 1.000000 0.000000
0.192841 1.000000 0.000000
0.373635 1.000000 0.000000
0.587452 1.000000 0.000000
0.804476 1.000000 0.000000
0.969361 1.000000 0.000000
1.000000 1.000000 0.000000
1.000000 1.000000 0.000000
1.000000 1.000000 0.000000
1.000000 1.000000 0.000000
1.000000 1.000000 0.000000
1.000000 1.000000 0.000000
1.000000 1.000000 0.000000
1.000000 1.000000 0.000000
0.000000 1.000000 0.000000
0.000000 1.000000 0.000000
0.000000 1.000000 0.000000
0.052723 1.000000 0.000000
0.192841 1.000000 0.000000
0.373635 1.000000 0.000000
0.587452 1.000000 0.000000
0.804476 1.000000 0.000000
0.969361 1.000000 0.000000
1.000000 1.000000 0.000000
1.000000 1.000000 0.000000
1.000000 1.000000 0.000000
1.000000 1.000000 0.000000
1.000000 1.000000 0.000000
1.000000 1.000000 0.000000
1.000000 1.000000 0.000000
1.000000 1.000000 0.000000
0.000000 1.000000 0.000000
0.000000 1.000000 0.000000
0.000000 1.000000 0.000000
0.052723 1.000000 0.000000
0.192841 1.000000 0.000000
0.373635 1.000000 0.000000
0.587452 1.000000 0.000000
0.804476 1.000000 0.000000
0.969361 1.000000 0.000000
1.000000 1.000000 0.000000
1.000000 1.000000 0.000000
1.000000 1.000000 0.000000
1.000000 1.000000 0.000000
1.000000 1.000000 0.000000
1.000000 1.000000 0.000000
1.000000 1.000000 0.000000
1.000000 1.000000 0.000000
0.000000 1.000000 0.000000
0.000000 1.000000 0.000000
0.000000 1.000000 0.000000
0.052723 1.000000 0.000000
0.192841 1.000000 0.000000
0.373635 1.000000 0.000000
0.587452 1.000000 0.000000
0.804476 1.000000 0.000000
0.969361 1.000000 0.000000
1.000000 1.000000 0.000000
1.000000 1.000000 0.000000
1.000000 1.000000 0.000000
1.000000 1.000000 0.000000
1.000000 1.000000 0.000000
1.000000 1.000000 0.000000
1.000000 1.000000 0.000000
1.000000 1.000000 0.000000
0.000000 1.000000 0.000000
0.000000 1.000000 0.000000
0.000000 1.000000 0.000000
0.052723 1.000000 0.000000
0.192841 1.000000 0.000000
0.373635 1.000000 0.000000
0.587452 1.000000 0.000000
0.804476 1.000000 0.000000
0.969361 1.000000 0.000000
1.000000 1.000000 0.000000
1.000000 1.000000 0.000000
1.000000 1.000000 0.000000
1.000000 1.000000 0.000000
1.000000 1.000000 0.000000
1.000000 1.000000 0.000000
1.000000 1.000000 0.000000
1.000000 1.000000 0.000000
0.000000 0.000000 0.089081
0.000000 0.000000 0.089081
0.000000 0.000000 0.089081
0.088176 0.000000 0.088176
0.228294 0.000000 0.086743
0.409087 0.000000 0.084894
0.622905 0.000000 0.082707
0.839929 0.000000 0.080487
1.000000 0.000000 0.078801
1.000000 0.000000 0.078451
1.000000 0.000000 0.078451
1.000000 0.000000 0.078451
1.000000 0.000000 0.078451
1.000000 0.000000 0.078451
1.000000 0.000000 0.078451
1.000000 0.000000 0.078451
1.000000 0.000000 0.078451
0.000000 0.000000 0.089081
0.000000 0.000000 0.089081
0.000000 0.000000 0.089081
