assets/presets/luts/clog3-rec709/lut.cube
TITLE "C-Log3 to Rec.709"
LUT_3D_SIZE 5
0.000000 0.000000 0.000000
0.228601 0.000000 0.000000
1.000000 0.000000 0.000000
1.000000 0.000000 0.000000
1.000000 0.000000 0.000000
0.000000 0.223074 0.000000
0.220736 0.220736 0.000000
0.997256 0.212794 0.000000
1.000000 0.212444 0.000000
1.000000 0.212444 0.000000
0.000000 0.980819 0.000000
0.194019 0.978481 0.000000
0.970539 0.970539 0.000000
1.000000 0.970189 0.000000
1.000000 0.970189 0.000000
0.000000 1.000000 0.000000
0.192841 1.000000 0.000000
0.969361 1.000000 0.000000
1.000000 1.000000 0.000000
1.000000 1.000000 0.000000
0.000000 1.000000 0.000000
0.192841 1.000000 0.000000
0.969361 1.000000 0.000000
1.000000 1.000000 0.000000
1.000000 1.000000 0.000000
0.000000 0.000000 0.230145
0.227807 0.000000 0.227807
1.000000 0.000000 0.219865
1.000000 0.000000 0.219515
1.000000 0.000000 0.219515
0.000000 0.222280 0.222280
0.219942 0.219942 0.219942
0.996462 0.212000 0.212000
1.000000 0.211650 0.211650
1.000000 0.211650 0.211650
0.000000 0.980025 0.195563
0.193225 0.977687 0.193225
0.969745 0.969745 0.185284
1.000000 0.969395 0.184933
1.000000 0.969395 0.184933
0.000000 1.000000 0.194385
0.192047 1.000000 0.192047
0.968567 1.000000 0.184105
1.000000 1.000000 0.183755
1.000000 1.000000 0.183755
0.000000 1.000000 0.194385
0.192047 1.000000 0.192047
0.968567 1.000000 0.184105
1.000000 1.000000 0.183755
1.000000 1.000000 0.183755
0.000000 0.000000 1.000000
0.225110 0.000000 1.000000
1.000000 0.000000 1.000000
1.000000 0.000000 1.000000
1.000000 0.000000 1.000000
0.000000 0.219583 1.000000
0.217245 0.217245 1.000000
0.993765 0.209303 0.993765
1.000000 0.208953 0.993415
1.000000 0.208953 0.993415
0.000000 0.977328 0.977328
0.190528 0.974990 0.974990
0.967048 0.967048 0.967048
1.000000 0.966698 0.966698
1.000000 0.966698 0.966698
0.000000 1.000000 0.976150
0.189350 1.000000 0.973812
0.965870 1.000000 0.965870
1.000000 1.000000 0.965520
1.000000 1.000000 0.965520
0.000000 1.000000 0.976150
0.189350 1.000000 0.973812
0.965870 1.000000 0.965870
1.000000 1.000000 0.965520
1.000000 1.000000 0.965520
0.000000 0.000000 1.000000
0.224991 0.000000 1.000000
1.000000 0.000000 1.000000
1.000000 0.000000 1.000000
1.000000 0.000000 1.000000
0.000000 0.219464 1.000000
0.217126 0.217126 1.000000
0.993646 0.209184 1.000000
1.000000 0.208834 1.000000
1.000000 0.208834 1.000000
0.000000 0.977209 1.000000
0.190409 0.974871 1.000000
0.966929 0.966929 1.000000
1.000000 0.966579 1.000000
1.000000 0.966579 1.000000
0.000000 1.000000 1.000000
0.189231 1.000000 1.000000
0.965751 1.000000 1.000000
1.000000 1.000000 1.000000
1.000000 1.000000 1.000000
0.000000 1.000000 1.000000
0.189231 1.000000 1.000000
0.965751 1.000000 1.000000
1.000000 1.000000 1.000000
1.000000 1.000000 1.000000
0.000000 0.000000 1.000000
0.224991 0.000000 1.000000
1.000000 0.000000 1.000000
1.000000 0.000000 1.000000
1.000000 0.000000 1.000000
0.000000 0.219464 1.000000
0.217126 0.217126 1.000000
0.993646 0.209184 1.000000
1.000000 0.208834 1.000000
1.000000 0.208834 1.000000
0.000000 0.977209 1.000000
0.190409 0.974871 1.000000
0.966929 0.966929 1.000000
1.000000 0.966579 1.000000
1.000000 0.966579 1.000000
0.000000 1.000000 1.000000
0.189231 1.000000 1.000000
0.965751 1.000000 1.000000
1.000000 1.000000 1.000000
1.000000 1.000000 1.000000
0.000000 1.000000 1.000000
0.189231 1.000000 1.000000
0.965751 1.000000 1.000000
1.000000 1.000000 1.000000
1.000000 1.000000 1.000000
