assets/presets/luts/clog3-rec709/lut.cube
TITLE "C-Log3 to Rec.709"
LUT_3D_SIZE 9
0.000000 0.000000 0.000000
0.000000 0.000000 0.000000
0.228601 0.000000 0.000000
0.623212 0.000000 0.000000
1.000000 0.000000 0.000000
1.000000 0.000000 0.000000
1.000000 0.000000 0.000000
1.000000 0.000000 0.000000
1.000000 0.000000 0.000000
0.000000 0.000000 0.000000
0.000000 0.000000 0.000000
0.228601 0.000000 0.000000
0.623212 0.000000 0.000000
1.000000 0.000000 0.000000
1.000000 0.000000 0.000000
1.000000 0.000000 0.000000
1.000000 0.000000 0.000000
1.000000 0.000000 0.000000
0.000000 0.223074 0.000000
0.000000 0.223074 0.000000
0.220736 0.220736 0.000000
0.615347 0.216700 0.000000
0.997256 0.212794 0.000000
1.000000 0.212444 0.000000
1.000000 0.212444 0.000000
1.000000 0.212444 0.000000
1.000000 0.212444 0.000000
0.000000 0.608144 0.000000
0.000000 0.608144 0.000000
0.207159 0.605806 0.000000
0.601770 0.601770 0.000000
0.983679 0.597864 0.000000
1.000000 0.597514 0.000000
1.000000 0.597514 0.000000
1.000000 0.597514 0.000000
1.000000 0.597514 0.000000
0.000000 0.980819 0.000000
0.000000 0.980819 0.000000
0.194019 0.978481 0.000000
0.588631 0.974445 0.000000
0.970539 0.970539 0.000000
1.000000 0.970189 0.000000
1.000000 0.970189 0.000000
1.000000 0.970189 0.000000
1.000000 0.970189 0.000000
0.000000 1.000000 0.000000
0.000000 1.000000 0.000000
0.192841 1.000000 0.000000
0.587452 1.000000 0.000000
0.969361 1.000000 0.000000
1.000000 1.000000 0.000000
1.000000 1.000000 0.000000
1.000000 1.000000 0.000000
1.000000 1.000000 0.000000
0.000000 1.000000 0.000000
0.000000 1.000000 0.000000
0.192841 1.000000 0.000000
0.587452 1.000000 0.000000
0.969361 1.000000 0.000000
1.000000 1.000000 0.000000
1.000000 1.000000 0.000000
1.000000 1.000000 0.000000
1.000000 1.000000 0.000000
0.000000 1.000000 0.000000
0.000000 1.000000 0.000000
0.192841 1.000000 0.000000
0.587452 1.000000 0.000000
0.969361 1.000000 0.000000
1.000000 1.000000 0.000000
1.000000 1.000000 0.000000
1.000000 1.000000 0.000000
1.000000 1.000000 0.000000
0.000000 1.000000 0.000000
0.000000 1.000000 0.000000
0.192841 1.000000 0.000000
0.587452 1.000000 0.000000
0.969361 1.000000 0.000000
1.000000 1.000000 0.000000
1.000000 1.000000 0.000000
1.000000 1.000000 0.000000
1.000000 1.000000 0.000000
0.000000 0.000000 0.000000
0.000000 0.000000 0.000000
0.228601 0.000000 0.000000
0.623212 0.000000 0.000000
1.000000 0.000000 0.000000
1.000000 0.000000 0.000000
1.000000 0.000000 0.000000
1.000000 0.000000 0.000000
1.000000 0.000000 0.000000
0.000000 0.000000 0.000000
0.000000 0.000000 0.000000
0.228601 0.000000 0.000000
0.623212 0.000000 0.000000
1.000000 0.000000 0.000000
1.000000 0.000000 0.000000
1.000000 0.000000 0.000000
1.000000 0.000000 0.000000
1.000000 0.000000 0.000000
0.000000 0.223074 0.000000
0.000000 0.223074 0.000000
0.220736 0.220736 0.000000
0.615347 0.216700 0.000000
0.997256 0.212794 0.000000
1.000000 0.212444 0.000000
1.000000 0.212444 0.000000
1.000000 0.212444 0.000000
1.000000 0.212444 0.000000
0.000000 0.608144 0.000000
0.000000 0.608144 0.000000
0.207159 0.605806 0.000000
0.601770 0.601770 0.000000
0.983679 0.597864 0.000000
1.000000 0.597514 0.000000
1.000000 0.597514 0.000000
1.000000 0.597514 0.000000
1.000000 0.597514 0.000000
0.000000 0.980819 0.000000
0.000000 0.980819 0.000000
0.194019 0.978481 0.000000
0.588631 0.974445 0.000000
0.970539 0.970539 0.000000
1.000000 0.970189 0.000000
1.000000 0.970189 0.000000
1.000000 0.970189 0.000000
1.000000 0.970189 0.000000
0.000000 1.000000 0.000000
0.000000 1.000000 0.000000
0.192841 1.000000 0.000000
0.587452 1.000000 0.000000
0.969361 1.000000 0.000000
1.000000 1.000000 0.000000
1.000000 1.000000 0.000000
1.000000 1.000000 0.000000
1.000000 1.000000 0.000000
0.000000 1.000000 0.000000
0.000000 1.000000 0.000000
0.192841 1.000000 0.000000
0.587452 1.000000 0.000000
0.969361 1.000000 0.000000
1.000000 1.000000 0.000000
1.000000 1.000000 0.000000
1.000000 1.000000 0.000000
1.000000 1.000000 0.000000
0.000000 1.000000 0.000000
0.000000 1.000000 0.000000
0.192841 1.000000 0.000000
0.587452 1.000000 0.000000
0.969361 1.000000 0.000000
1.000000 1.000000 0.000000
1.000000 1.000000 0.000000
1.000000 1.000000 0.000000
1.000000 1.000000 0.000000
0.000000 1.000000 0.000000
0.000000 1.000000 0.000000
0.192841 1.000000 0.000000
0.587452 1.000000 0.000000
0.969361 1.000000 0.000000
1.000000 1.000000 0.000000
1.000000 1.000000 0.000000
1.000000 1.000000 0.000000
1.000000 1.000000 0.000000
0.000000 0.000000 0.230145
0.000000 0.000000 0.230145
0.227807 0.000000 0.227807
0.622418 0.000000 0.223771
1.000000 0.000000 0.219865
1.000000 0.000000 0.219515
1.000000 0.000000 0.219515
1.000000 0.000000 0.219515
1.000000 0.000000 0.219515
0.000000 0.000000 0.230145
0.000000 0.000000 0.230145
0.227807 0.000000 0.227807
0.622418 0.000000 0.223771
1.000000 0.000000 0.219865
1.000000 0.000000 0.219515
1.000000 0.000000 0.219515
1.000000 0.000000 0.219515
1.000000 0.000000 0.219515
0.000000 0.222280 0.222280
0.000000 0.222280 0.222280
0.219942 0.219942 0.219942
0.614553 0.215906 0.215906
0.996462 0.212000 0.212000
1.000000 0.211650 0.211650
1.000000 0.211650 0.211650
1.000000 0.211650 0.211650
1.000000 0.211650 0.211650
0.000000 0.607350 0.208703
0.000000 0.607350 0.208703
0.206365 0.605012 0.206365
0.600976 0.600976 0.202329
0.982885 0.597070 0.198423
1.000000 0.596720 0.198073
1.000000 0.596720 0.198073
1.000000 0.596720 0.198073
1.000000 0.596720 0.198073
0.000000 0.980025 0.195563
0.000000 0.980025 0.195563
0.193225 0.977687 0.193225
0.587837 0.973651 0.189190
0.969745 0.969745 0.185284
1.000000 0.969395 0.184933
1.000000 0.969395 0.184933
1.000000 0.969395 0.184933
1.000000 0.969395 0.184933
0.000000 1.000000 0.194385
0.000000 1.000000 0.194385
0.192047 1.000000 0.192047
0.586658 1.000000 0.188011
0.968567 1.000000 0.184105
1.000000 1.000000 0.183755
1.000000 1.000000 0.183755
1.000000 1.000000 0.183755
1.000000 1.000000 0.183755
0.000000 1.000000 0.194385
0.000000 1.000000 0.194385
0.192047 1.000000 0.192047
0.586658 1.000000 0.188011
0.968567 1.000000 0.184105
1.000000 1.000000 0.183755
1.000000 1.000000 0.183755
1.000000 1.000000 0.183755
1.000000 1.000000 0.183755
0.000000 1.000000 0.194385
0.000000 1.000000 0.194385
0.192047 1.000000 0.192047
0.586658 1.000000 0.188011
0.968567 1.000000 0.184105
1.000000 1.000000 0.183755
1.000000 1.000000 0.183755
1.000000 1.000000 0.183755
1.000000 1.000000 0.183755
0.000000 1.000000 0.194385
0.000000 1.000000 0.194385
0.192047 1.000000 0.192047
0.586658 1.000000 0.188011
0.968567 1.000000 0.184105
1.000000 1.000000 0.183755
1.000000 1.000000 0.183755
1.000000 1.000000 0.183755
1.000000 1.000000 0.183755
0.000000 0.000000 0.627421
0.000000 0.000000 0.627421
0.226436 0.000000 0.625083
0.621048 0.000000 0.621048
1.000000 0.000000 0.617142
1.000000 0.000000 0.616791
1.000000 0.000000 0.616791
1.000000 0.000000 0.616791
1.000000 0.000000 0.616791
0.000000 0.000000 0.627421
0.000000 0.000000 0.627421
0.226436 0.000000 0.625083
0.621048 0.000000 0.621048
1.000000 0.000000 0.617142
1.000000 0.000000 0.616791
1.000000 0.000000 0.616791
1.000000 0.000000 0.616791
1.000000 0.000000 0.616791
0.000000 0.220909 0.619556
0.000000 0.220909 0.619556
0.218571 0.218571 0.617218
0.613183 0.214536 0.613183
0.995091 0.210630 0.609277
1.000000 0.210279 0.608926
1.000000 0.210279 0.608926
1.000000 0.210279 0.608926
1.000000 0.210279 0.608926
0.000000 0.605980 0.605980
0.000000 0.605980 0.605980
0.204995 0.603642 0.603642
0.599606 0.599606 0.599606
0.981515 0.595700 0.595700
1.000000 0.595350 0.595350
1.000000 0.595350 0.595350
1.000000 0.595350 0.595350
1.000000 0.595350 0.595350
0.000000 0.978655 0.592840
0.000000 0.978655 0.592840
0.191855 0.976317 0.590502
0.586466 0.972281 0.586466
0.968375 0.968375 0.582560
1.000000 0.968024 0.582210
1.000000 0.968024 0.582210
1.000000 0.968024 0.582210
1.000000 0.968024 0.582210
0.000000 1.000000 0.591661
0.000000 1.000000 0.591661
0.190676 1.000000 0.589323
0.585288 1.000000 0.585288
0.967196 1.000000 0.581382
1.000000 1.000000 0.581031
1.000000 1.000000 0.581031
1.000000 1.000000 0.581031
1.000000 1.000000 0.581031
0.000000 1.000000 0.591661
0.000000 1.000000 0.591661
0.190676 1.000000 0.589323
0.585288 1.000000 0.585288
0.967196 1.000000 0.581382
1.000000 1.000000 0.581031
1.000000 1.000000 0.581031
1.000000 1.000000 0.581031
1.000000 1.000000 0.581031
0.000000 1.000000 0.591661
0.000000 1.000000 0.591661
0.190676 1.000000 0.589323
0.585288 1.000000 0.585288
0.967196 1.000000 0.581382
1.000000 1.000000 0.581031
1.000000 1.000000 0.581031
1.000000 1.000000 0.581031
1.000000 1.000000 0.581031
0.000000 1.000000 0.591661
0.000000 1.000000 0.591661
0.190676 1.000000 0.589323
0.585288 1.000000 0.585288
0.967196 1.000000 0.581382
1.000000 1.000000 0.581031
1.000000 1.000000 0.581031
1.000000 1.000000 0.581031
1.000000 1.000000 0.581031
0.000000 0.000000 1.000000
0.000000 0.000000 1.000000
0.225110 0.000000 1.000000
0.619721 0.000000 1.000000
1.000000 0.000000 1.000000
1.000000 0.000000 1.000000
1.000000 0.000000 1.000000
1.000000 0.000000 1.000000
1.000000 0.000000 1.000000
0.000000 0.000000 1.000000
0.000000 0.000000 1.000000
0.225110 0.000000 1.000000
0.619721 0.000000 1.000000
1.000000 0.000000 1.000000
1.000000 0.000000 1.000000
1.000000 0.000000 1.000000
1.000000 0.000000 1.000000
1.000000 0.000000 1.000000
0.000000 0.219583 1.000000
0.000000 0.219583 1.000000
0.217245 0.217245 1.000000
0.611856 0.213209 0.997671
0.993765 0.209303 0.993765
1.000000 0.208953 0.993415
1.000000 0.208953 0.993415
1.000000 0.208953 0.993415
1.000000 0.208953 0.993415
0.000000 0.604653 0.990468
0.000000 0.604653 0.990468
0.203668 0.602315 0.988130
0.598279 0.598279 0.984094
0.980188 0.594373 0.980188
1.000000 0.594023 0.979838
1.000000 0.594023 0.979838
1.000000 0.594023 0.979838
1.000000 0.594023 0.979838
0.000000 0.977328 0.977328
0.000000 0.977328 0.977328
0.190528 0.974990 0.974990
0.585140 0.970954 0.970954
0.967048 0.967048 0.967048
1.000000 0.966698 0.966698
1.000000 0.966698 0.966698
1.000000 0.966698 0.966698
1.000000 0.966698 0.966698
0.000000 1.000000 0.976150
0.000000 1.000000 0.976150
0.189350 1.000000 0.973812
0.583961 1.000000 0.969776
0.965870 1.000000 0.965870
1.000000 1.000000 0.965520
1.000000 1.000000 0.965520
1.000000 1.000000 0.965520
1.000000 1.000000 0.965520
0.000000 1.000000 0.976150
0.000000 1.000000 0.976150
0.189350 1.000000 0.973812
0.583961 1.000000 0.969776
0.965870 1.000000 0.965870
1.000000 1.000000 0.965520
1.000000 1.000000 0.965520
1.000000 1.000000 0.965520
1.000000 1.000000 0.965520
0.000000 1.000000 0.976150
0.000000 1.000000 0.976150
0.189350 1.000000 0.973812
0.583961 1.000000 0.969776
0.965870 1.000000 0.965870
1.000000 1.000000 0.965520
1.000000 1.000000 0.965520
1.000000 1.000000 0.965520
1.000000 1.000000 0.965520
0.000000 1.000000 0.976150
0.000000 1.000000 0.976150
0.189350 1.000000 0.973812
0.583961 1.000000 0.969776
0.965870 1.000000 0.965870
1.000000 1.000000 0.965520
1.000000 1.000000 0.965520
1.000000 1.000000 0.965520
1.000000 1.000000 0.965520
0.000000 0.000000 1.000000
0.000000 0.000000 1.000000
0.224991 0.000000 1.000000
0.619602 0.000000 1.000000
1.000000 0.000000 1.000000
1.000000 0.000000 1.000000
1.000000 0.000000 1.000000
1.000000 0.000000 1.000000
1.000000 0.000000 1.000000
0.000000 0.000000 1.000000
0.000000 0.000000 1.000000
0.224991 0.000000 1.000000
0.619602 0.000000 1.000000
1.000000 0.000000 1.000000
1.000000 0.000000 1.000000
1.000000 0.000000 1.000000
1.000000 0.000000 1.000000
1.000000 0.000000 1.000000
0.000000 0.219464 1.000000
0.000000 0.219464 1.000000
0.217126 0.217126 1.000000
0.611737 0.213090 1.000000
0.993646 0.209184 1.000000
1.000000 0.208834 1.000000
1.000000 0.208834 1.000000
1.000000 0.208834 1.000000
1.000000 0.208834 1.000000
0.000000 0.604534 1.000000
0.000000 0.604534 1.000000
0.203549 0.602196 1.000000
0.598160 0.598160 1.000000
0.980069 0.594254 1.000000
1.000000 0.593904 1.000000
1.000000 0.593904 1.000000
1.000000 0.593904 1.000000
1.000000 0.593904 1.000000
0.000000 0.977209 1.000000
0.000000 0.977209 1.000000
0.190409 0.974871 1.000000
0.585021 0.970835 1.000000
0.966929 0.966929 1.000000
1.000000 0.966579 1.000000
1.000000 0.966579 1.000000
1.000000 0.966579 1.000000
1.000000 0.966579 1.000000
0.000000 1.000000 1.000000
0.000000 1.000000 1.000000
0.189231 1.000000 1.000000
0.583842 1.000000 1.000000
0.965751 1.000000 1.000000
1.000000 1.000000 1.000000
1.000000 1.000000 1.000000
1.000000 1.000000 1.000000
1.000000 1.000000 1.000000
0.000000 1.000000 1.000000
0.000000 1.000000 1.000000
0.189231 1.000000 1.000000
0.583842 1.000000 1.000000
0.965751 1.000000 1.000000
1.000000 1.000000 1.000000
1.000000 1.000000 1.000000
1.000000 1.000000 1.000000
1.000000 1.000000 1.000000
0.000000 1.000000 1.000000
0.000000 1.000000 1.000000
0.189231 1.000000 1.000000
0.583842 1.000000 1.000000
0.965751 1.000000 1.000000
1.000000 1.000000 1.000000
1.000000 1.000000 1.000000
1.000000 1.000000 1.000000
1.000000 1.000000 1.000000
0.000000 1.000000 1.000000
0.000000 1.000000 1.000000
0.189231 1.000000 1.000000
0.583842 1.000000 1.000000
0.965751 1.000000 1.000000
1.000000 1.000000 1.000000
1.000000 1.000000 1.000000
1.000000 1.000000 1.000000
1.000000 1.000000 1.000000
0.000000 0.000000 1.000000
0.000000 0.000000 1.000000
0.224991 0.000000 1.000000
0.619602 0.000000 1.000000
1.000000 0.000000 1.000000
1.000000 0.000000 1.000000
1.000000 0.000000 1.000000
1.000000 0.000000 1.000000
1.000000 0.000000 1.000000
0.000000 0.000000 1.000000
0.000000 0.000000 1.000000
0.224991 0.000000 1.000000
0.619602 0.000000 1.000000
1.000000 0.000000 1.000000
1.000000 0.000000 1.000000
1.000000 0.000000 1.000000
1.000000 0.000000 1.000000
1.000000 0.000000 1.000000
0.000000 0.219464 1.000000
0.000000 0.219464 1.000000
0.217126 0.217126 1.000000
0.611737 0.213090 1.000000
0.993646 0.209184 1.000000
1.000000 0.208834 1.000000
1.000000 0.208834 1.000000
1.000000 0.208834 1.000000
1.000000 0.208834 1.000000
0.000000 0.604534 1.000000
0.000000 0.604534 1.000000
0.203549 0.602196 1.000000
0.598160 0.598160 1.000000
0.980069 0.594254 1.000000
1.000000 0.593904 1.000000
1.000000 0.593904 1.000000
1.000000 0.593904 1.000000
1.000000 0.593904 1.000000
0.000000 0.977209 1.000000
0.000000 0.977209 1.000000
0.190409 0.974871 1.000000
0.585021 0.970835 1.000000
0.966929 0.966929 1.000000
1.000000 0.966579 1.000000
1.000000 0.966579 1.000000
1.000000 0.966579 1.000000
1.000000 0.966579 1.000000
0.000000 1.000000 1.000000
0.000000 1.000000 1.000000
0.189231 1.000000 1.000000
0.583842 1.000000 1.000000
0.965751 1.000000 1.000000
1.000000 1.000000 1.000000
1.000000 1.000000 1.000000
1.000000 1.000000 1.000000
1.000000 1.000000 1.000000
0.000000 1.000000 1.000000
0.000000 1.000000 1.000000
0.189231 1.000000 1.000000
0.583842 1.000000 1.000000
0.965751 1.000000 1.000000
1.000000 1.000000 1.000000
1.000000 1.000000 1.000000
1.000000 1.000000 1.000000
1.000000 1.000000 1.000000
0.000000 1.000000 1.000000
0.000000 1.000000 1.000000
0.189231 1.000000 1.000000
0.583842 1.000000 1.000000
0.965751 1.000000 1.000000
1.000000 1.000000 1.000000
1.000000 1.000000 1.000000
1.000000 1.000000 1.000000
1.000000 1.000000 1.000000
0.000000 1.000000 1.000000
0.000000 1.000000 1.000000
0.189231 1.000000 1.000000
0.583842 1.000000 1.000000
0.965751 1.000000 1.000000
1.000000 1.000000 1.000000
1.000000 1.000000 1.000000
1.000000 1.000000 1.000000
1.000000 1.000000 1.000000
0.000000 0.000000 1.000000
0.000000 0.000000 1.000000
0.224991 0.000000 1.000000
0.619602 0.000000 1.000000
1.000000 0.000000 1.000000
1.000000 0.000000 1.000000
1.000000 0.000000 1.000000
1.000000 0.000000 1.000000
1.000000 0.000000 1.000000
0.000000 0.000000 1.000000
0.000000 0.000000 1.000000
0.224991 0.000000 1.000000
0.619602 0.000000 1.000000
1.000000 0.000000 1.000000
1.000000 0.000000 1.000000
1.000000 0.000000 1.000000
1.000000 0.000000 1.000000
1.000000 0.000000 1.000000
0.000000 0.219464 1.000000
0.000000 0.219464 1.000000
0.217126 0.217126 1.000000
0.611737 0.213090 1.000000
0.993646 0.209184 1.000000
1.000000 0.208834 1.000000
1.000000 0.208834 1.000000
1.000000 0.208834 1.000000
1.000000 0.208834 1.000000
0.000000 0.604534 1.000000
0.000000 0.604534 1.000000
0.203549 0.602196 1.000000
0.598160 0.598160 1.000000
0.980069 0.594254 1.000000
1.000000 0.593904 1.000000
1.000000 0.593904 1.000000
1.000000 0.593904 1.000000
1.000000 0.593904 1.000000
0.000000 0.977209 1.000000
0.000000 0.977209 1.000000
0.190409 0.974871 1.000000
0.585021 0.970835 1.000000
0.966929 0.966929 1.000000
1.000000 0.966579 1.000000
1.000000 0.966579 1.000000
1.000000 0.966579 1.000000
1.000000 0.966579 1.000000
0.000000 1.000000 1.000000
0.000000 1.000000 1.000000
0.189231 1.000000 1.000000
0.583842 1.000000 1.000000
0.965751 1.000000 1.000000
1.000000 1.000000 1.000000
1.000000 1.000000 1.000000
1.000000 1.000000 1.000000
1.000000 1.000000 1.000000
0.000000 1.000000 1.000000
0.000000 1.000000 1.000000
0.189231 1.000000 1.000000
0.583842 1.000000 1.000000
0.965751 1.000000 1.000000
1.000000 1.000000 1.000000
1.000000 1.000000 1.000000
1.000000 1.000000 1.000000
1.000000 1.000000 1.000000
0.000000 1.000000 1.000000
0.000000 1.000000 1.000000
0.189231 1.000000 1.000000
0.583842 1.000000 1.000000
0.965751 1.000000 1.000000
1.000000 1.000000 1.000000
1.000000 1.000000 1.000000
1.000000 1.000000 1.000000
1.000000 1.000000 1.000000
0.000000 1.000000 1.000000
0.000000 1.000000 1.000000
0.189231 1.000000 1.000000
0.583842 1.000000 1.000000
0.965751 1.000000 1.000000
1.000000 1.000000 1.000000
1.000000 1.000000 1.000000
1.000000 1.000000 1.000000
1.000000 1.000000 1.000000
0.000000 0.000000 1.000000
0.000000 0.000000 1.000000
0.224991 0.000000 1.000000
0.619602 0.000000 1.000000
1.000000 0.000000 1.000000
1.000000 0.000000 1.000000
1.000000 0.000000 1.000000
1.000000 0.000000 1.000000
1.000000 0.000000 1.000000
0.000000 0.000000 1.000000
0.000000 0.000000 1.000000
0.224991 0.000000 1.000000
0.619602 0.000000 1.000000
1.000000 0.000000 1.000000
1.000000 0.000000 1.000000
1.000000 0.000000 1.000000
1.000000 0.000000 1.000000
1.000000 0.000000 1.000000
0.000000 0.219464 1.000000
0.000000 0.219464 1.000000
0.217126 0.217126 1.000000
0.611737 0.213090 1.000000
0.993646 0.209184 1.000000
1.000000 0.208834 1.000000
1.000000 0.208834 1.000000
1.000000 0.208834 1.000000
1.000000 0.208834 1.000000
0.000000 0.604534 1.000000
0.000000 0.604534 1.000000
0.203549 0.602196 1.000000
0.598160 0.598160 1.000000
0.980069 0.594254 1.000000
1.000000 0.593904 1.000000
1.000000 0.593904 1.000000
1.000000 0.593904 1.000000
1.000000 0.593904 1.000000
0.000000 0.977209 1.000000
0.000000 0.977209 1.000000
0.190409 0.974871 1.000000
0.585021 0.970835 1.000000
0.966929 0.966929 1.000000
1.000000 0.966579 1.000000
1.000000 0.966579 1.000000
1.000000 0.966579 1.000000
1.000000 0.966579 1.000000
0.000000 1.000000 1.000000
0.000000 1.000000 1.000000
0.189231 1.000000 1.000000
0.583842 1.000000 1.000000
0.965751 1.000000 1.000000
1.000000 1.000000 1.000000
1.000000 1.000000 1.000000
1.000000 1.000000 1.000000
1.000000 1.000000 1.000000
0.000000 1.000000 1.000000
0.000000 1.000000 1.000000
0.189231 1.000000 1.000000
0.583842 1.000000 1.000000
0.965751 1.000000 1.000000
1.000000 1.000000 1.000000
1.000000 1.000000 1.000000
1.000000 1.000000 1.000000
1.000000 1.000000 1.000000
0.000000 1.000000 1.000000
0.000000 1.000000 1.000000
0.189231 1.000000 1.000000
0.583842 1.000000 1.000000
0.965751 1.000000 1.000000
1.000000 1.000000 1.000000
1.000000 1.000000 1.000000
1.000000 1.000000 1.000000
1.000000 1.000000 1.000000
0.000000 1.000000 1.000000
0.000000 1.000000 1.000000
0.189231 1.000000 1.000000
0.583842 1.000000 1.000000
0.965751 1.000000 1.000000
1.000000 1.000000 1.000000
1.000000 1.000000 1.000000
1.000000 1.000000 1.000000
1.000000 1.000000 1.000000
