assets/presets/luts/neon-pop/lut.cube
TITLE "Neon Pop"
LUT_3D_SIZE 5
0.000000 0.000000 0.000000
0.304950 0.000000 0.000000
0.718650 0.000000 0.000000
1.000000 0.000000 0.000000
1.000000 0.000000 0.000000
0.000000 0.232576 0.000000
0.207134 0.207134 0.000000
0.588061 0.192021 0.000000
0.993180 0.168508 0.000000
1.000000 0.144549 0.000000
0.000000 0.573901 0.000000
0.161934 0.539466 0.000000
0.523019 0.523019 0.000000
0.887096 0.511980 0.000000
1.000000 0.496139 0.000000
0.000000 0.915227 0.000000
0.098700 0.878390 0.000000
0.486874 0.850839 0.000000
0.838903 0.838903 0.000000
1.000000 0.828952 0.000000
0.000000 1.000000 0.000000
0.035416 1.000000 0.000000
0.443127 1.000000 0.000000
0.805377 1.000000 0.000000
1.000000 1.000000 0.000000
0.000000 0.000000 0.343798
0.337690 0.000000 0.337690
0.771503 0.000000 0.289129
1.000000 0.000000 0.248933
1.000000 0.000000 0.215469
0.000000 0.240457 0.240457
0.203750 0.203750 0.203750
0.617450 0.176426 0.176426
1.000000 0.149102 0.149102
1.000000 0.121777 0.121777
0.000000 0.586172 0.133097
0.131362 0.545076 0.131362
0.519634 0.519634 0.160259
0.891603 0.505984 0.120365
1.000000 0.486679 0.090409
0.000000 0.927554 0.049923
0.058975 0.886401 0.058975
0.479061 0.849398 0.108724
0.835519 0.835519 0.116769
1.000000 0.825180 0.095489
0.000000 1.000000 0.000000
0.000000 1.000000 0.000000
0.427699 1.000000 0.050001
0.801846 1.000000 0.082579
1.000000 1.000000 0.073278
0.000000 0.000000 0.796345
0.305554 0.000000 0.776380
0.784131 0.000000 0.784131
1.000000 0.000000 0.742005
1.000000 0.000000 0.696394
0.000000 0.224943 0.688391
0.192852 0.192852 0.656298
0.650190 0.150414 0.650190
1.000000 0.115165 0.605761
1.000000 0.083274 0.565459
0.000000 0.589663 0.589663
0.067800 0.552957 0.552957
0.516250 0.516250 0.516250
0.929950 0.488926 0.488926
1.000000 0.461602 0.461602
0.000000 0.941556 0.470174
0.000000 0.903207 0.441015
0.443862 0.857576 0.443862
0.832134 0.832134 0.472759
1.000000 0.820202 0.446817
0.000000 1.000000 0.364459
0.000000 1.000000 0.345304
0.371475 1.000000 0.371475
0.796248 1.000000 0.433202
1.000000 1.000000 0.429269
0.000000 0.000000 1.000000
0.292337 0.000000 1.000000
0.740108 0.000000 1.000000
1.000000 0.000000 1.000000
1.000000 0.000000 1.000000
0.000000 0.213906 1.000000
0.181953 0.181953 1.000000
0.620065 0.146111 1.000000
1.000000 0.097077 1.000000
1.000000 0.054874 1.000000
0.000000 0.572444 1.000000
0.071373 0.537871 1.000000
0.505352 0.505352 0.968798
0.962690 0.462914 0.962690
1.000000 0.423520 0.922449
0.000000 0.938870 0.938870
0.000000 0.902163 0.902163
0.380300 0.865457 0.865457
0.828750 0.828750 0.828750
1.000000 0.801426 0.801426
0.000000 1.000000 0.815625
0.000000 1.000000 0.780068
0.275236 1.000000 0.748134
0.756362 1.000000 0.756362
1.000000 1.000000 0.785259
0.000000 0.000000 1.000000
0.278958 0.000000 1.000000
0.715158 0.000000 1.000000
1.000000 0.000000 1.000000
1.000000 0.000000 1.000000
0.000000 0.203151 1.000000
0.171055 0.171055 1.000000
0.602687 0.138756 1.000000
1.000000 0.091741 1.000000
1.000000 0.043741 1.000000
0.000000 0.559661 1.000000
0.062235 0.526608 1.000000
0.494453 0.494453 1.000000
0.933331 0.458186 1.000000
1.000000 0.409577 1.000000
0.000000 0.924658 1.000000
0.000000 0.888008 1.000000
0.378308 0.851280 1.000000
0.817852 0.817852 1.000000
1.000000 0.775414 1.000000
0.000000 1.000000 1.000000
0.000000 1.000000 1.000000
0.244351 1.000000 1.000000
0.692800 1.000000 1.000000
1.000000 1.000000 1.000000
