assets/presets/luts/neon-pop/lut.cube
TITLE "Neon Pop"
LUT_3D_SIZE 17
0.000000 0.000000 0.000000
0.000000 0.000000 0.000000
0.098100 0.000000 0.000000
0.201525 0.000000 0.000000
0.304950 0.000000 0.000000
0.408375 0.000000 0.000000
0.511800 0.000000 0.000000
0.615225 0.000000 0.000000
0.718650 0.000000 0.000000
0.822075 0.000000 0.000000
0.925500 0.000000 0.000000
1.000000 0.000000 0.000000
1.000000 0.000000 0.000000
1.000000 0.000000 0.000000
1.000000 0.000000 0.000000
1.000000 0.000000 0.000000
1.000000 0.000000 0.000000
0.000000 0.000000 0.000000
0.000000 0.000000 0.000000
0.075120 0.000000 0.000000
0.178545 0.000000 0.000000
0.281970 0.000000 0.000000
0.385395 0.000000 0.000000
0.488820 0.000000 0.000000
0.592245 0.000000 0.000000
0.695670 0.000000 0.000000
0.799095 0.000000 0.000000
0.902520 0.000000 0.000000
1.000000 0.000000 0.000000
1.000000 0.000000 0.000000
1.000000 0.000000 0.000000
1.000000 0.000000 0.000000
1.000000 0.000000 0.000000
1.000000 0.000000 0.000000
0.000000 0.061913 0.000000
0.000000 0.056533 0.000000
0.049192 0.049192 0.000000
0.145490 0.046046 0.000000
0.247284 0.040390 0.000000
0.350030 0.034084 0.000000
0.453087 0.027549 0.000000
0.556282 0.020906 0.000000
0.659550 0.014206 0.000000
0.762862 0.007471 0.000000
0.866201 0.000713 0.000000
0.969558 0.000000 0.000000
1.000000 0.000000 0.000000
1.000000 0.000000 0.000000
1.000000 0.000000 0.000000
1.000000 0.000000 0.000000
1.000000 0.000000 0.000000
0.000000 0.147244 0.000000
0.000000 0.141865 0.000000
0.038041 0.132738 0.000000
0.128163 0.128163 0.000000
0.219590 0.125688 0.000000
0.316965 0.121539 0.000000
0.416981 0.116318 0.000000
0.518257 0.110537 0.000000
0.620217 0.104439 0.000000
0.722582 0.098146 0.000000
0.825208 0.091727 0.000000
0.928009 0.085220 0.000000
1.000000 0.078650 0.000000
1.000000 0.072035 0.000000
1.000000 0.065384 0.000000
1.000000 0.059218 0.000000
1.000000 0.053170 0.000000
0.000000 0.232576 0.000000
0.000000 0.227196 0.000000
0.022265 0.217761 0.000000
0.119176 0.210235 0.000000
0.207134 0.207134 0.000000
0.296871 0.204812 0.000000
0.391323 0.201457 0.000000
0.488792 0.197080 0.000000
0.588061 0.192021 0.000000
0.688450 0.186515 0.000000
0.789573 0.180705 0.000000
0.891198 0.174684 0.000000
0.993180 0.168508 0.000000
1.000000 0.162218 0.000000
1.000000 0.155840 0.000000
1.000000 0.150112 0.000000
1.000000 0.144549 0.000000
0.000000 0.317907 0.000000
0.000000 0.312527 0.000000
0.005225 0.302975 0.000000
0.107003 0.293937 0.000000
0.198613 0.288786 0.000000
0.286105 0.286105 0.000000
0.375056 0.283821 0.000000
0.467683 0.280895 0.000000
0.563194 0.277103 0.000000
0.660691 0.272630 0.000000
0.759557 0.267656 0.000000
0.859387 0.262314 0.000000
0.959917 0.256699 0.000000
1.000000 0.250877 0.000000
1.000000 0.244896 0.000000
1.000000 0.239619 0.000000
1.000000 0.234529 0.000000
0.000000 0.403238 0.000000
0.000000 0.397859 0.000000
0.000000 0.388245 0.000000
0.092554 0.378361 0.000000
0.188304 0.371614 0.000000
0.277699 0.367613 0.000000
0.365077 0.365077 0.000000
0.453593 0.362796 0.000000
0.545032 0.360115 0.000000
0.639077 0.356728 0.000000
0.735108 0.352710 0.000000
0.832617 0.348184 0.000000
0.931231 0.343262 0.000000
1.000000 0.338029 0.000000
1.000000 0.332552 0.000000
1.000000 0.327732 0.000000
1.000000 0.323098 0.000000
0.000000 0.488570 0.000000
0.000000 0.483190 0.000000
0.000000 0.473540 0.000000
0.076872 0.463123 0.000000
0.175869 0.455291 0.000000
0.268335 0.449908 0.000000
0.356694 0.446542 0.000000
0.444048 0.444048 0.000000
0.532297 0.441759 0.000000
0.622923 0.439226 0.000000
0.715861 0.436123 0.000000
0.810701 0.432454 0.000000
0.907041 0.428298 0.000000
1.000000 0.423739 0.000000
1.000000 0.418852 0.000000
1.000000 0.414484 0.000000
1.000000 0.410280 0.000000
0.000000 0.573901 0.000000
0.000000 0.568522 0.000000
0.000000 0.558846 0.000000
0.060478 0.548065 0.000000
0.161934 0.539466 0.000000
0.257259 0.533015 0.000000
0.347822 0.528496 0.000000
0.435666 0.525510 0.000000
0.523019 0.523019 0.000000
0.611091 0.520720 0.000000
0.701136 0.518278 0.000000
0.793225 0.515378 0.000000
0.887096 0.511980 0.000000
0.982440 0.508125 0.000000
1.000000 0.503877 0.000000
1.000000 0.499946 0.000000
1.000000 0.496139 0.000000
0.000000 0.659232 0.000000
0.000000 0.653853 0.000000
0.000000 0.644160 0.000000
0.043641 0.633116 0.000000
0.146988 0.623951 0.000000
0.244715 0.616676 0.000000
0.337648 0.611182 0.000000
0.427053 0.607242 0.000000
0.514637 0.604481 0.000000
0.601990 0.601990 0.000000
0.689938 0.599680 0.000000
0.779552 0.597296 0.000000
0.870979 0.594543 0.000000
0.964057 0.591356 0.000000
1.000000 0.587749 0.000000
1.000000 0.584226 0.000000
1.000000 0.580778 0.000000
0.000000 0.744564 0.000000
0.000000 0.739184 0.000000
0.000000 0.729478 0.000000
0.026512 0.718235 0.000000
0.131343 0.708638 0.000000
0.231051 0.700718 0.000000
0.326156 0.694421 0.000000
0.417482 0.689614 0.000000
0.506155 0.686079 0.000000
0.593609 0.683452 0.000000
0.680961 0.680961 0.000000
0.768818 0.678640 0.000000
0.858105 0.676293 0.000000
0.949005 0.673650 0.000000
1.000000 0.670629 0.000000
1.000000 0.667470 0.000000
1.000000 0.664335 0.000000
0.000000 0.829895 0.000000
0.000000 0.824516 0.000000
0.000000 0.814799 0.000000
0.009181 0.803400 0.000000
0.115203 0.793465 0.000000
0.216547 0.785029 0.000000
0.313553 0.778072 0.000000
0.406776 0.772513 0.000000
0.496992 0.768213 0.000000
0.585190 0.764973 0.000000
0.672580 0.762423 0.000000
0.759932 0.759932 0.000000
0.847720 0.757601 0.000000
0.936751 0.755279 0.000000
1.000000 0.752717 0.000000
1.000000 0.749864 0.000000
1.000000 0.746987 0.000000
0.000000 0.915227 0.000000
0.000000 0.909847 0.000000
0.000000 0.900122 0.000000
0.000000 0.888599 0.000000
0.098700 0.878390 0.000000
0.201409 0.869536 0.000000
0.300055 0.862032 0.000000
0.395028 0.855830 0.000000
0.486874 0.850839 0.000000
0.576304 0.846923 0.000000
0.664189 0.843903 0.000000
0.751551 0.841395 0.000000
0.838903 0.838903 0.000000
0.926637 0.836562 0.000000
1.000000 0.834256 0.000000
1.000000 0.831631 0.000000
1.000000 0.828952 0.000000
0.000000 1.000000 0.000000
0.000000 0.995179 0.000000
0.000000 0.985447 0.000000
0.000000 0.973821 0.000000
0.081926 0.963388 0.000000
0.185783 0.954188 0.000000
0.285845 0.946226 0.000000
0.382387 0.939474 0.000000
0.475808 0.933873 0.000000
0.566627 0.929327 0.000000
0.655492 0.925709 0.000000
0.743169 0.922858 0.000000
0.830522 0.920366 0.000000
0.917874 0.917874 0.000000
1.000000 0.915525 0.000000
1.000000 0.913029 0.000000
1.000000 0.910481 0.000000
0.000000 1.000000 0.000000
0.000000 1.000000 0.000000
0.000000 1.000000 0.000000
0.000000 1.000000 0.000000
0.064942 1.000000 0.000000
0.169778 1.000000 0.000000
0.271065 1.000000 0.000000
0.369003 1.000000 0.000000
0.463886 1.000000 0.000000
0.556105 1.000000 0.000000
0.646149 1.000000 0.000000
0.734601 1.000000 0.000000
0.822141 1.000000 0.000000
0.909493 0.999337 0.000000
0.996845 0.996845 0.000000
1.000000 0.994360 0.000000
1.000000 0.991867 0.000000
0.000000 1.000000 0.000000
0.000000 1.000000 0.000000
0.000000 1.000000 0.000000
0.000000 1.000000 0.000000
0.049933 1.000000 0.000000
0.155953 1.000000 0.000000
0.258391 1.000000 0.000000
0.357417 1.000000 0.000000
0.453293 1.000000 0.000000
0.546374 1.000000 0.000000
0.637104 1.000000 0.000000
0.726022 1.000000 0.000000
0.813759 1.000000 0.000000
0.901112 1.000000 0.000000
0.988464 1.000000 0.000000
1.000000 1.000000 0.000000
1.000000 1.000000 0.000000
0.000000 1.000000 0.000000
0.000000 1.000000 0.000000
0.000000 1.000000 0.000000
0.000000 1.000000 0.000000
0.035416 1.000000 0.000000
0.142691 1.000000 0.000000
0.246287 1.000000 0.000000
0.346351 1.000000 0.000000
0.443127 1.000000 0.000000
0.536946 1.000000 0.000000
0.628234 1.000000 0.000000
0.717508 1.000000 0.000000
0.805377 1.000000 0.000000
0.892730 1.000000 0.000000
0.980083 1.000000 0.000000
1.000000 1.000000 0.000000
1.000000 1.000000 0.000000
0.000000 0.000000 0.000000
0.000000 0.000000 0.000000
0.095780 0.000000 0.000000
0.199205 0.000000 0.000000
0.302630 0.000000 0.000000
0.406055 0.000000 0.000000
0.509480 0.000000 0.000000
0.612905 0.000000 0.000000
0.716330 0.000000 0.000000
0.819755 0.000000 0.000000
0.923180 0.000000 0.000000
1.000000 0.000000 0.000000
1.000000 0.000000 0.000000
1.000000 0.000000 0.000000
1.000000 0.000000 0.000000
1.000000 0.000000 0.000000
1.000000 0.000000 0.000000
0.000000 0.000000 0.000000
0.000000 0.000000 0.000000
0.072774 0.000000 0.000000
0.176225 0.000000 0.000000
0.279650 0.000000 0.000000
0.383075 0.000000 0.000000
0.486500 0.000000 0.000000
0.589925 0.000000 0.000000
0.693350 0.000000 0.000000
0.796775 0.000000 0.000000
0.900200 0.000000 0.000000
1.000000 0.000000 0.000000
1.000000 0.000000 0.000000
1.000000 0.000000 0.000000
1.000000 0.000000 0.000000
1.000000 0.000000 0.000000
1.000000 0.000000 0.000000
0.000000 0.060086 0.000000
0.000000 0.054700 0.000000
0.048346 0.048346 0.000000
0.143951 0.044507 0.000000
0.245456 0.038561 0.000000
0.348067 0.032121 0.000000
0.451046 0.025508 0.000000
0.554192 0.018816 0.000000
0.657425 0.012081 0.000000
0.760711 0.005320 0.000000
0.864030 0.000000 0.000000
0.967372 0.000000 0.000000
1.000000 0.000000 0.000000
1.000000 0.000000 0.000000
1.000000 0.000000 0.000000
1.000000 0.000000 0.000000
1.000000 0.000000 0.000000
0.000000 0.145417 0.000000
0.000000 0.140038 0.000000
0.036844 0.131541 0.000000
0.127317 0.127317 0.000000
0.218451 0.124549 0.000000
0.315551 0.120125 0.000000
0.415385 0.114723 0.000000
0.516539 0.108819 0.000000
0.618410 0.102632 0.000000
0.720709 0.096273 0.000000
0.823283 0.089802 0.000000
0.926044 0.083254 0.000000
1.000000 0.076651 0.000000
1.000000 0.070008 0.000000
1.000000 0.063334 0.000000
1.000000 0.057164 0.000000
1.000000 0.051117 0.000000
0.000000 0.230749 0.000000
0.000000 0.225369 0.000000
0.020848 0.216344 0.000000
0.118242 0.209301 0.000000
0.206288 0.206288 0.000000
0.295865 0.203806 0.000000
0.390109 0.200244 0.000000
0.487412 0.195700 0.000000
0.586553 0.190513 0.000000
0.686843 0.184907 0.000000
0.787887 0.179019 0.000000
0.889448 0.172934 0.000000
0.991378 0.166706 0.000000
1.000000 0.160372 0.000000
1.000000 0.153957 0.000000
1.000000 0.148223 0.000000
1.000000 0.142660 0.000000
0.000000 0.316080 0.000000
0.000000 0.310701 0.000000
0.003700 0.301449 0.000000
0.105895 0.292829 0.000000
0.197743 0.287916 0.000000
0.285259 0.285259 0.000000
0.374109 0.282874 0.000000
0.466581 0.279792 0.000000
0.561950 0.275859 0.000000
0.659327 0.271266 0.000000
0.758094 0.266193 0.000000
0.857843 0.260770 0.000000
0.958304 0.255087 0.000000
1.000000 0.249207 0.000000
1.000000 0.243176 0.000000
1.000000 0.237891 0.000000
1.000000 0.232801 0.000000
0.000000 0.401411 0.000000
0.000000 0.396032 0.000000
0.000000 0.386656 0.000000
0.091317 0.377123 0.000000
0.187327 0.370637 0.000000
0.276848 0.366762 0.000000
0.364230 0.364230 0.000000
0.452678 0.361881 0.000000
0.543997 0.359080 0.000000
0.637922 0.355574 0.000000
0.733847 0.351448 0.000000
0.831263 0.346829 0.000000
0.929796 0.341827 0.000000
1.000000 0.336526 0.000000
1.000000 0.330989 0.000000
1.000000 0.326158 0.000000
1.000000 0.321524 0.000000
0.000000 0.486743 0.000000
0.000000 0.481363 0.000000
0.000000 0.471909 0.000000
0.075541 0.461791 0.000000
0.174785 0.454207 0.000000
0.267420 0.448994 0.000000
0.355848 0.445695 0.000000
0.443202 0.443202 0.000000
0.531401 0.440863 0.000000
0.621932 0.438235 0.000000
0.714769 0.435031 0.000000
0.809514 0.431268 0.000000
0.905768 0.427026 0.000000
1.000000 0.422391 0.000000
1.000000 0.417436 0.000000
1.000000 0.413057 0.000000
1.000000 0.408852 0.000000
0.000000 0.572074 0.000000
0.000000 0.566695 0.000000
0.000000 0.557187 0.000000
0.059078 0.546665 0.000000
0.160761 0.538293 0.000000
0.256263 0.532019 0.000000
0.346940 0.527615 0.000000
0.434820 0.524664 0.000000
0.522173 0.522173 0.000000
0.610207 0.519836 0.000000
0.700175 0.517317 0.000000
0.792179 0.514331 0.000000
0.885966 0.510849 0.000000
0.981231 0.506917 0.000000
1.000000 0.502597 0.000000
1.000000 0.498653 0.000000
1.000000 0.494847 0.000000
0.000000 0.657406 0.000000
0.000000 0.652026 0.000000
0.000000 0.642479 0.000000
0.042188 0.631663 0.000000
0.145741 0.622704 0.000000
0.243641 0.615603 0.000000
0.336706 0.610240 0.000000
0.426189 0.606378 0.000000
0.513791 0.603635 0.000000
0.601144 0.601144 0.000000
0.689062 0.598804 0.000000
0.778614 0.596357 0.000000
0.869967 0.593531 0.000000
0.962970 0.590269 0.000000
1.000000 0.586591 0.000000
1.000000 0.583055 0.000000
1.000000 0.579607 0.000000
0.000000 0.742737 0.000000
0.000000 0.737357 0.000000
0.000000 0.727780 0.000000
0.025018 0.716741 0.000000
0.130037 0.707332 0.000000
0.229909 0.699577 0.000000
0.325149 0.693415 0.000000
0.416574 0.688705 0.000000
0.505301 0.685225 0.000000
0.592762 0.682606 0.000000
0.680115 0.680115 0.000000
0.767948 0.677770 0.000000
0.857182 0.675371 0.000000
0.948019 0.672664 0.000000
1.000000 0.669576 0.000000
1.000000 0.666406 0.000000
1.000000 0.663270 0.000000
0.000000 0.828068 0.000000
0.000000 0.822689 0.000000
0.000000 0.813088 0.000000
0.007654 0.801873 0.000000
0.113848 0.792109 0.000000
0.215347 0.783829 0.000000
0.312486 0.777005 0.000000
0.405815 0.771553 0.000000
0.496105 0.767326 0.000000
0.584341 0.764123 0.000000
0.671734 0.761577 0.000000
0.759086 0.759086 0.000000
0.846854 0.756735 0.000000
0.935841 0.754368 0.000000
1.000000 0.751751 0.000000
1.000000 0.748887 0.000000
1.000000 0.746010 0.000000
0.000000 0.913400 0.000000
0.000000 0.908020 0.000000
0.000000 0.898400 0.000000
0.000000 0.887044 0.000000
0.097304 0.876994 0.000000
0.200158 0.868285 0.000000
0.298934 0.860910 0.000000
0.394014 0.854817 0.000000
0.485945 0.849910 0.000000
0.575431 0.846050 0.000000
0.663342 0.843056 0.000000
0.750705 0.840548 0.000000
0.838057 0.838057 0.000000
0.925774 0.835700 0.000000
1.000000 0.833355 0.000000
1.000000 0.830721 0.000000
1.000000 0.828042 0.000000
0.000000 0.998731 0.000000
0.000000 0.993352 0.000000
0.000000 0.983716 0.000000
0.000000 0.972244 0.000000
0.080495 0.961957 0.000000
0.184489 0.952894 0.000000
0.284674 0.945055 0.000000
0.381324 0.938411 0.000000
0.474834 0.932899 0.000000
0.565721 0.928420 0.000000
0.654629 0.924846 0.000000
0.742323 0.922012 0.000000
0.829676 0.919520 0.000000
0.917028 0.917028 0.000000
1.000000 0.914665 0.000000
1.000000 0.912164 0.000000
1.000000 0.909615 0.000000
0.000000 1.000000 0.000000
0.000000 1.000000 0.000000
0.000000 1.000000 0.000000
0.000000 1.000000 0.000000
0.063482 1.000000 0.000000
0.168446 1.000000 0.000000
0.269851 1.000000 0.000000
0.367894 1.000000 0.000000
0.462868 1.000000 0.000000
0.555161 1.000000 0.000000
0.645260 1.000000 0.000000
0.733744 1.000000 0.000000
0.821295 1.000000 0.000000
0.908647 0.998491 0.000000
0.995999 0.995999 0.000000
1.000000 0.993513 0.000000
1.000000 0.991020 0.000000
0.000000 1.000000 0.000000
0.000000 1.000000 0.000000
0.000000 1.000000 0.000000
0.000000 1.000000 0.000000
0.048467 1.000000 0.000000
0.154614 1.000000 0.000000
0.257169 1.000000 0.000000
0.356300 1.000000 0.000000
0.452267 1.000000 0.000000
0.545422 1.000000 0.000000
0.636208 1.000000 0.000000
0.725163 1.000000 0.000000
0.812912 1.000000 0.000000
0.900266 1.000000 0.000000
0.987618 1.000000 0.000000
1.000000 1.000000 0.000000
1.000000 1.000000 0.000000
0.000000 1.000000 0.000000
0.000000 1.000000 0.000000
0.000000 1.000000 0.000000
0.000000 1.000000 0.000000
0.033951 1.000000 0.000000
0.141353 1.000000 0.000000
0.245065 1.000000 0.000000
0.345234 1.000000 0.000000
0.442100 1.000000 0.000000
0.535994 1.000000 0.000000
0.627338 1.000000 0.000000
0.716648 1.000000 0.000000
0.804531 1.000000 0.000000
0.891884 1.000000 0.000000
0.979237 1.000000 0.000000
1.000000 1.000000 0.000000
1.000000 1.000000 0.000000
0.000000 0.000000 0.117524
0.000000 0.000000 0.109501
0.114470 0.000000 0.114470
0.219015 0.000000 0.098781
0.319820 0.000000 0.086324
0.421846 0.000000 0.076752
0.524427 0.000000 0.068323
0.627290 0.000000 0.060448
0.730316 0.000000 0.052884
0.833442 0.000000 0.045510
0.936636 0.000000 0.038260
1.000000 0.000000 0.031097
1.000000 0.000000 0.023995
1.000000 0.000000 0.016940
1.000000 0.000000 0.009921
1.000000 0.000000 0.002820
1.000000 0.000000 0.000000
0.000000 0.000000 0.090535
0.000000 0.000000 0.082493
0.080944 0.000000 0.080944
0.188899 0.000000 0.068664
0.292196 0.000000 0.058701
0.395451 0.000000 0.050357
0.498750 0.000000 0.042646
0.602084 0.000000 0.035242
0.705441 0.000000 0.028009
0.808813 0.000000 0.020880
0.912196 0.000000 0.013820
1.000000 0.000000 0.006807
1.000000 0.000000 0.000000
1.000000 0.000000 0.000000
1.000000 0.000000 0.000000
1.000000 0.000000 0.000000
1.000000 0.000000 0.000000
0.000000 0.065853 0.065853
0.000000 0.056666 0.056666
0.047500 0.047500 0.047500
0.150899 0.040676 0.040676
0.254350 0.033838 0.033838
0.357775 0.027007 0.027007
0.461200 0.020176 0.020176
0.564625 0.013345 0.013345
0.668050 0.006514 0.006514
0.771475 0.000000 0.000000
0.874900 0.000000 0.000000
0.978325 0.000000 0.000000
1.000000 0.000000 0.000000
1.000000 0.000000 0.000000
1.000000 0.000000 0.000000
1.000000 0.000000 0.000000
1.000000 0.000000 0.000000
0.000000 0.150307 0.037418
0.000000 0.142917 0.030028
0.029419 0.132825 0.029419
0.126471 0.126471 0.036627
0.219463 0.123059 0.026654
0.318964 0.117676 0.017032
0.420473 0.111575 0.008609
0.522780 0.105177 0.000777
0.625476 0.098632 0.000000
0.728391 0.092002 0.000000
0.831439 0.085321 0.000000
0.934574 0.078606 0.000000
1.000000 0.071867 0.000000
1.000000 0.065110 0.000000
1.000000 0.058341 0.000000
1.000000 0.051934 0.000000
1.000000 0.045614 0.000000
0.000000 0.234848 0.016076
0.000000 0.228202 0.009430
0.011306 0.218163 0.011306
0.116328 0.208912 0.023743
0.205442 0.205442 0.025755
0.295713 0.202737 0.016786
0.391427 0.198617 0.005807
0.490129 0.193514 0.000000
0.590427 0.187852 0.000000
0.691649 0.181857 0.000000
0.793446 0.175650 0.000000
0.895621 0.169302 0.000000
0.998060 0.162855 0.000000
1.000000 0.156336 0.000000
1.000000 0.149763 0.000000
1.000000 0.143803 0.000000
1.000000 0.137995 0.000000
0.000000 0.319785 0.000000
0.000000 0.313487 0.000000
0.000000 0.303494 0.000000
0.101911 0.293081 0.006327
0.196643 0.287219 0.015491
0.284413 0.284413 0.014882
0.373595 0.281929 0.006930
0.466975 0.278516 0.000000
0.563390 0.274176 0.000000
0.661754 0.269189 0.000000
0.761391 0.263761 0.000000
0.861891 0.258027 0.000000
0.962997 0.252075 0.000000
1.000000 0.245960 0.000000
1.000000 0.239725 0.000000
1.000000 0.234230 0.000000
1.000000 0.228925 0.000000
0.000000 0.404884 0.000000
0.000000 0.398784 0.000000
0.000000 0.388826 0.000000
0.085726 0.377831 0.000000
0.185155 0.370324 0.000000
0.275938 0.365971 0.005840
0.363384 0.363384 0.004009
0.452017 0.360984 0.000000
0.543926 0.357974 0.000000
0.638626 0.354174 0.000000
0.735353 0.349734 0.000000
0.833530 0.344811 0.000000
0.932758 0.339527 0.000000
1.000000 0.333970 0.000000
1.000000 0.328203 0.000000
1.000000 0.323183 0.000000
1.000000 0.318365 0.000000
0.000000 0.490063 0.000000
0.000000 0.484092 0.000000
0.000000 0.474157 0.000000
0.068782 0.462818 0.000000
0.171413 0.454264 0.000000
0.265953 0.448438 0.000000
0.354990 0.444865 0.000000
0.442355 0.442355 0.000000
0.530669 0.439988 0.000000
0.621602 0.437222 0.000000
0.715021 0.433803 0.000000
0.810413 0.429790 0.000000
0.907317 0.425293 0.000000
1.000000 0.420410 0.000000
1.000000 0.415222 0.000000
1.000000 0.410677 0.000000
1.000000 0.406322 0.000000
0.000000 0.575286 0.000000
0.000000 0.569405 0.000000
0.000000 0.559488 0.000000
0.051453 0.547923 0.000000
0.156322 0.538661 0.000000
0.253983 0.531736 0.000000
0.345786 0.526938 0.000000
0.433974 0.523818 0.000000
0.521327 0.521327 0.000000
0.609436 0.518972 0.000000
0.699691 0.516358 0.000000
0.792139 0.513212 0.000000
0.886449 0.509531 0.000000
0.982264 0.505386 0.000000
1.000000 0.500851 0.000000
1.000000 0.496770 0.000000
1.000000 0.492844 0.000000
0.000000 0.660538 0.000000
0.000000 0.654722 0.000000
0.000000 0.644820 0.000000
0.033904 0.633094 0.000000
0.140404 0.623327 0.000000
0.240519 0.615580 0.000000
0.335006 0.609763 0.000000
0.425186 0.605635 0.000000
0.512945 0.602789 0.000000
0.600298 0.600298 0.000000
0.688268 0.597946 0.000000
0.778031 0.595432 0.000000
0.869730 0.592483 0.000000
0.963160 0.589062 0.000000
1.000000 0.585206 0.000000
1.000000 0.581563 0.000000
1.000000 0.578026 0.000000
0.000000 0.745807 0.000000
0.000000 0.740043 0.000000
0.000000 0.730151 0.000000
0.016216 0.718306 0.000000
0.123951 0.708162 0.000000
0.226001 0.699787 0.000000
0.322811 0.693148 0.000000
0.415202 0.688111 0.000000
0.504376 0.684441 0.000000
0.591916 0.681760 0.000000
0.679269 0.679269 0.000000
0.767140 0.676916 0.000000
0.856534 0.674467 0.000000
0.947644 0.671665 0.000000
1.000000 0.668449 0.000000
1.000000 0.665201 0.000000
1.000000 0.662004 0.000000
0.000000 0.831089 0.000000
0.000000 0.825365 0.000000
0.000000 0.815482 0.000000
0.000000 0.803546 0.000000
0.107136 0.793110 0.000000
0.210734 0.784242 0.000000
0.309498 0.776939 0.000000
0.403964 0.771126 0.000000
0.494929 0.766657 0.000000
0.583457 0.763314 0.000000
0.670887 0.760731 0.000000
0.758240 0.758240 0.000000
0.846036 0.755884 0.000000
0.935147 0.753479 0.000000
1.000000 0.750787 0.000000
1.000000 0.747875 0.000000
1.000000 0.744961 0.000000
0.000000 0.916381 0.000000
0.000000 0.910689 0.000000
0.000000 0.900814 0.000000
0.000000 0.888804 0.000000
0.090065 0.878136 0.000000
0.194921 0.868874 0.000000
0.295327 0.861028 0.000000
0.391638 0.854560 0.000000
0.484407 0.849375 0.000000
0.574375 0.845331 0.000000
0.662480 0.842229 0.000000
0.749859 0.839702 0.000000
0.837211 0.837211 0.000000
0.924950 0.834850 0.000000
1.000000 0.832477 0.000000
1.000000 0.829818 0.000000
1.000000 0.827121 0.000000
0.000000 1.000000 0.000000
0.000000 0.996014 0.000000
0.000000 0.986145 0.000000
0.000000 0.974076 0.000000
0.072806 0.963220 0.000000
0.178704 0.953635 0.000000
0.280494 0.945341 0.000000
0.378421 0.938318 0.000000
0.472875 0.932507 0.000000
0.564392 0.927810 0.000000
0.653649 0.924091 0.000000
0.741472 0.921173 0.000000
0.828830 0.918673 0.000000
0.916182 0.916182 0.000000
1.000000 0.913816 0.000000
1.000000 0.911308 0.000000
1.000000 0.908754 0.000000
0.000000 1.000000 0.000000
0.000000 1.000000 0.000000
0.000000 1.000000 0.000000
0.000000 1.000000 0.000000
0.055407 1.000000 0.000000
0.162177 1.000000 0.000000
0.265145 1.000000 0.000000
0.364481 1.000000 0.000000
0.460466 1.000000 0.000000
0.553495 1.000000 0.000000
0.644072 1.000000 0.000000
0.732813 1.000000 0.000000
0.820448 1.000000 0.000000
0.907801 0.997645 0.000000
0.995153 0.995153 0.000000
1.000000 0.992667 0.000000
1.000000 0.990174 0.000000
0.000000 1.000000 0.000000
0.000000 1.000000 0.000000
0.000000 1.000000 0.000000
0.000000 1.000000 0.000000
0.039784 1.000000 0.000000
0.147804 1.000000 0.000000
0.251997 1.000000 0.000000
0.352503 1.000000 0.000000
0.449568 1.000000 0.000000
0.543545 1.000000 0.000000
0.634891 1.000000 0.000000
0.724173 1.000000 0.000000
0.812060 1.000000 0.000000
0.899420 1.000000 0.000000
0.986772 1.000000 0.000000
1.000000 1.000000 0.000000
1.000000 1.000000 0.000000
0.000000 1.000000 0.000000
0.000000 1.000000 0.000000
0.000000 1.000000 0.000000
0.000000 1.000000 0.000000
0.024599 1.000000 0.000000
0.133978 1.000000 0.000000
0.239433 1.000000 0.000000
0.341080 1.000000 0.000000
0.439140 1.000000 0.000000
0.533942 1.000000 0.000000
0.625921 1.000000 0.000000
0.715616 1.000000 0.000000
0.803676 1.000000 0.000000
0.891038 1.000000 0.000000
0.978391 1.000000 0.000000
1.000000 1.000000 0.000000
1.000000 1.000000 0.000000
0.000000 0.000000 0.230661
0.000000 0.000000 0.222638
0.099479 0.000000 0.215874
0.226080 0.000000 0.226080
0.339454 0.000000 0.215061
0.443770 0.000000 0.200489
0.546876 0.000000 0.188132
0.649814 0.000000 0.177404
0.752779 0.000000 0.167723
0.855805 0.000000 0.158732
0.958891 0.000000 0.150212
1.000000 0.000000 0.142027
1.000000 0.000000 0.134087
1.000000 0.000000 0.126332
1.000000 0.000000 0.118720
1.000000 0.000000 0.111135
1.000000 0.000000 0.103540
0.000000 0.000000 0.203672
0.000000 0.000000 0.195649
0.072830 0.000000 0.190349
