assets/presets/luts/neon-pop/lut.cube
TITLE "Neon Pop"
LUT_3D_SIZE 9
0.000000 0.000000 0.000000
0.098100 0.000000 0.000000
0.304950 0.000000 0.000000
0.511800 0.000000 0.000000
0.718650 0.000000 0.000000
0.925500 0.000000 0.000000
1.000000 0.000000 0.000000
1.000000 0.000000 0.000000
1.000000 0.000000 0.000000
0.000000 0.061913 0.000000
0.049192 0.049192 0.000000
0.247284 0.040390 0.000000
0.453087 0.027549 0.000000
0.659550 0.014206 0.000000
0.866201 0.000713 0.000000
1.000000 0.000000 0.000000
1.000000 0.000000 0.000000
1.000000 0.000000 0.000000
0.000000 0.232576 0.000000
0.022265 0.217761 0.000000
0.207134 0.207134 0.000000
0.391323 0.201457 0.000000
0.588061 0.192021 0.000000
0.789573 0.180705 0.000000
0.993180 0.168508 0.000000
1.000000 0.155840 0.000000
1.000000 0.144549 0.000000
0.000000 0.403238 0.000000
0.000000 0.388245 0.000000
0.188304 0.371614 0.000000
0.365077 0.365077 0.000000
0.545032 0.360115 0.000000
0.735108 0.352710 0.000000
0.931231 0.343262 0.000000
1.000000 0.332552 0.000000
1.000000 0.323098 0.000000
0.000000 0.573901 0.000000
0.000000 0.558846 0.000000
0.161934 0.539466 0.000000
0.347822 0.528496 0.000000
0.523019 0.523019 0.000000
0.701136 0.518278 0.000000
0.887096 0.511980 0.000000
1.000000 0.503877 0.000000
1.000000 0.496139 0.000000
0.000000 0.744564 0.000000
0.000000 0.729478 0.000000
0.131343 0.708638 0.000000
0.326156 0.694421 0.000000
0.506155 0.686079 0.000000
0.680961 0.680961 0.000000
0.858105 0.676293 0.000000
1.000000 0.670629 0.000000
1.000000 0.664335 0.000000
0.000000 0.915227 0.000000
0.000000 0.900122 0.000000
0.098700 0.878390 0.000000
0.300055 0.862032 0.000000
0.486874 0.850839 0.000000
0.664189 0.843903 0.000000
0.838903 0.838903 0.000000
1.000000 0.834256 0.000000
1.000000 0.828952 0.000000
0.000000 1.000000 0.000000
0.000000 1.000000 0.000000
0.064942 1.000000 0.000000
0.271065 1.000000 0.000000
0.463886 1.000000 0.000000
0.646149 1.000000 0.000000
0.822141 1.000000 0.000000
0.996845 0.996845 0.000000
1.000000 0.991867 0.000000
0.000000 1.000000 0.000000
0.000000 1.000000 0.000000
0.035416 1.000000 0.000000
0.246287 1.000000 0.000000
0.443127 1.000000 0.000000
0.628234 1.000000 0.000000
0.805377 1.000000 0.000000
0.980083 1.000000 0.000000
1.000000 1.000000 0.000000
0.000000 0.000000 0.117524
0.114470 0.000000 0.114470
0.319820 0.000000 0.086324
0.524427 0.000000 0.068323
0.730316 0.000000 0.052884
0.936636 0.000000 0.038260
1.000000 0.000000 0.023995
1.000000 0.000000 0.009921
1.000000 0.000000 0.000000
0.000000 0.065853 0.065853
0.047500 0.047500 0.047500
0.254350 0.033838 0.033838
0.461200 0.020176 0.020176
0.668050 0.006514 0.006514
0.874900 0.000000 0.000000
1.000000 0.000000 0.000000
1.000000 0.000000 0.000000
1.000000 0.000000 0.000000
0.000000 0.234848 0.016076
0.011306 0.218163 0.011306
0.205442 0.205442 0.025755
0.391427 0.198617 0.005807
0.590427 0.187852 0.000000
0.793446 0.175650 0.000000
0.998060 0.162855 0.000000
1.000000 0.149763 0.000000
1.000000 0.137995 0.000000
0.000000 0.404884 0.000000
0.000000 0.388826 0.000000
0.185155 0.370324 0.000000
0.363384 0.363384 0.004009
0.543926 0.357974 0.000000
0.735353 0.349734 0.000000
0.932758 0.339527 0.000000
1.000000 0.328203 0.000000
1.000000 0.318365 0.000000
0.000000 0.575286 0.000000
0.000000 0.559488 0.000000
0.156322 0.538661 0.000000
0.345786 0.526938 0.000000
0.521327 0.521327 0.000000
0.699691 0.516358 0.000000
0.886449 0.509531 0.000000
1.000000 0.500851 0.000000
1.000000 0.492844 0.000000
0.000000 0.745807 0.000000
0.000000 0.730151 0.000000
0.123951 0.708162 0.000000
0.322811 0.693148 0.000000
0.504376 0.684441 0.000000
0.679269 0.679269 0.000000
0.856534 0.674467 0.000000
1.000000 0.668449 0.000000
1.000000 0.662004 0.000000
0.000000 0.916381 0.000000
0.000000 0.900814 0.000000
0.090065 0.878136 0.000000
0.295327 0.861028 0.000000
0.484407 0.849375 0.000000
0.662480 0.842229 0.000000
0.837211 0.837211 0.000000
1.000000 0.832477 0.000000
1.000000 0.827121 0.000000
0.000000 1.000000 0.000000
0.000000 1.000000 0.000000
0.055407 1.000000 0.000000
0.265145 1.000000 0.000000
0.460466 1.000000 0.000000
0.644072 1.000000 0.000000
0.820448 1.000000 0.000000
0.995153 0.995153 0.000000
1.000000 0.990174 0.000000
0.000000 1.000000 0.000000
0.000000 1.000000 0.000000
0.024599 1.000000 0.000000
0.239433 1.000000 0.000000
0.439140 1.000000 0.000000
0.625921 1.000000 0.000000
0.803676 1.000000 0.000000
0.978391 1.000000 0.000000
1.000000 1.000000 0.000000
0.000000 0.000000 0.343798
0.096113 0.000000 0.327966
0.337690 0.000000 0.337690
0.562203 0.000000 0.314780
0.771503 0.000000 0.289129
0.978743 0.000000 0.267751
1.000000 0.000000 0.248933
1.000000 0.000000 0.231625
1.000000 0.000000 0.215469
0.000000 0.057976 0.288840
0.042051 0.042051 0.273774
0.270720 0.020832 0.270720
0.493804 0.003207 0.248506
0.704466 0.000000 0.227585
0.912886 0.000000 0.209796
1.000000 0.000000 0.193542
1.000000 0.000000 0.178113
1.000000 0.000000 0.162522
0.000000 0.240457 0.240457
0.000000 0.222103 0.222103
0.203750 0.203750 0.203750
0.410600 0.190088 0.190088
0.617450 0.176426 0.176426
0.824300 0.162764 0.162764
1.000000 0.149102 0.149102
1.000000 0.135439 0.135439
1.000000 0.121777 0.121777
0.000000 0.414970 0.181297
0.000000 0.397229 0.166132
0.167556 0.374413 0.167556
0.361692 0.361692 0.182005
0.547677 0.354867 0.162057
0.746677 0.344102 0.142814
0.949696 0.331900 0.125968
1.000000 0.319105 0.110303
1.000000 0.307716 0.098697
0.000000 0.586172 0.133097
0.000000 0.568992 0.121636
0.131362 0.545076 0.131362
0.341405 0.526574 0.156237
0.519634 0.519634 0.160259
0.700176 0.514224 0.142321
0.891603 0.505984 0.120365
1.000000 0.495777 0.100290
1.000000 0.486679 0.090409
0.000000 0.756913 0.090258
0.000000 0.740110 0.081267
0.095168 0.715738 0.095168
0.312572 0.694911 0.121403
0.502036 0.683188 0.139731
0.677577 0.677577 0.138514
0.855941 0.672608 0.122611
1.000000 0.665781 0.100404
1.000000 0.658741 0.091989
0.000000 0.927554 0.049923
0.000000 0.911012 0.042598
0.058975 0.886401 0.058975
0.280201 0.864412 0.085465
0.479061 0.849398 0.108724
0.660626 0.840691 0.120429
0.835519 0.835519 0.116769
1.000000 0.830717 0.102449
1.000000 0.825180 0.095489
0.000000 1.000000 0.010921
0.000000 1.000000 0.004775
0.022781 1.000000 0.022781
0.246315 1.000000 0.049297
0.451577 1.000000 0.074442
0.640657 1.000000 0.093204
0.818730 0.998479 0.099734
0.993461 0.993461 0.095023
1.000000 0.988481 0.089931
0.000000 1.000000 0.000000
0.000000 1.000000 0.000000
0.000000 1.000000 0.000000
0.216542 1.000000 0.019349
0.427699 1.000000 0.050001
0.621385 1.000000 0.073141
0.801846 1.000000 0.082579
0.976698 1.000000 0.078261
1.000000 1.000000 0.073278
0.000000 0.000000 0.570071
0.090648 0.000000 0.554333
0.314918 0.000000 0.553017
0.560911 0.000000 0.560911
0.792494 0.000000 0.542059
1.000000 0.000000 0.515236
1.000000 0.000000 0.490550
1.000000 0.000000 0.468356
1.000000 0.000000 0.450303
0.000000 0.052586 0.514229
0.036602 0.036602 0.500048
0.255657 0.018681 0.492634
0.493940 0.000000 0.493940
0.723921 0.000000 0.474033
0.940108 0.000000 0.449511
1.000000 0.000000 0.427501
1.000000 0.000000 0.407670
1.000000 0.000000 0.390106
0.000000 0.231360 0.465824
0.000000 0.214561 0.447810
0.198301 0.198301 0.430024
0.426970 0.177082 0.426970
0.650054 0.159457 0.404756
0.860716 0.145395 0.383835
1.000000 0.131683 0.366046
1.000000 0.118035 0.349792
1.000000 0.102253 0.333809
0.000000 0.415060 0.415060
0.000000 0.396707 0.396707
0.135775 0.378353 0.378353
0.360000 0.360000 0.360000
0.566850 0.346338 0.346338
0.773700 0.332676 0.332676
0.980550 0.319014 0.319014
1.000000 0.305352 0.305352
1.000000 0.291689 0.291689
0.000000 0.591674 0.353672
0.000000 0.573651 0.336554
0.091286 0.553478 0.322382
0.323806 0.530663 0.323806
0.517942 0.517942 0.338255
0.703927 0.511117 0.318307
0.902927 0.500352 0.299064
1.000000 0.488150 0.282218
1.000000 0.477328 0.271063
0.000000 0.764571 0.299560
0.000000 0.746957 0.284765
0.054208 0.725242 0.277886
0.287612 0.701326 0.287612
0.497655 0.682824 0.312487
0.675884 0.675884 0.316509
0.856426 0.670474 0.298571
1.000000 0.662234 0.276615
1.000000 0.654190 0.267469
0.000000 0.936283 0.251343
0.000000 0.918999 0.238662
0.017902 0.896360 0.237517
0.251418 0.871988 0.251418
0.468822 0.851161 0.277653
0.658286 0.839438 0.295981
0.833827 0.833827 0.294764
1.000000 0.828858 0.278861
1.000000 0.822996 0.271495
0.000000 1.000000 0.206741
0.000000 1.000000 0.195773
0.000000 1.000000 0.198848
0.215225 1.000000 0.215225
0.436451 1.000000 0.241715
0.635311 1.000000 0.264974
0.816876 0.996941 0.276679
0.991769 0.991769 0.273019
1.000000 0.986789 0.267899
0.000000 1.000000 0.158185
0.000000 1.000000 0.148337
0.000000 1.000000 0.155967
0.179031 1.000000 0.179031
0.408194 1.000000 0.213195
0.613900 1.000000 0.242836
0.799633 1.000000 0.258919
0.975006 1.000000 0.256256
1.000000 1.000000 0.251273
0.000000 0.000000 0.796345
0.085230 0.000000 0.780993
0.305554 0.000000 0.776380
0.536268 0.000000 0.777532
0.784131 0.000000 0.784131
1.000000 0.000000 0.767941
1.000000 0.000000 0.742005
1.000000 0.000000 0.716027
1.000000 0.000000 0.696394
0.000000 0.047201 0.739909
0.031153 0.031153 0.726321
0.248474 0.013871 0.717679
0.474271 0.000000 0.714655
0.717161 0.000000 0.717161
0.950785 0.000000 0.699654
1.000000 0.000000 0.674727
1.000000 0.000000 0.650517
1.000000 0.000000 0.631225
0.000000 0.224943 0.688391
0.000000 0.208880 0.671831
0.192852 0.192852 0.656298
0.411907 0.174931 0.648884
0.650190 0.150414 0.650190
0.880171 0.130506 0.630283
1.000000 0.115165 0.605761
1.000000 0.100923 0.583751
1.000000 0.083274 0.565459
0.000000 0.406239 0.644241
0.000000 0.388539 0.625636
0.137562 0.370811 0.604060
0.354551 0.354551 0.586274
0.583220 0.333332 0.583220
0.806304 0.315707 0.561006
1.000000 0.301645 0.540085
1.000000 0.287933 0.522296
1.000000 0.271666 0.505730
0.000000 0.589663 0.589663
0.000000 0.571310 0.571310
0.067800 0.552957 0.552957
0.292025 0.534603 0.534603
0.516250 0.516250 0.516250
0.723100 0.502588 0.502588
0.929950 0.488926 0.488926
1.000000 0.475264 0.475264
1.000000 0.461602 0.461602
0.000000 0.767350 0.527546
0.000000 0.749204 0.509815
0.018610 0.729901 0.492804
0.247536 0.709728 0.478632
0.480056 0.686913 0.480056
0.674192 0.674192 0.494505
0.860177 0.667367 0.474557
1.000000 0.656602 0.455314
1.000000 0.646707 0.444855
0.000000 0.941556 0.470174
0.000000 0.923716 0.453910
0.000000 0.903207 0.441015
0.210458 0.881492 0.434136
0.443862 0.857576 0.443862
0.653905 0.839074 0.468737
0.832134 0.832134 0.472759
1.000000 0.826724 0.454821
1.000000 0.820202 0.446817
0.000000 1.000000 0.418054
0.000000 1.000000 0.403397
0.000000 1.000000 0.394912
0.174152 1.000000 0.393767
0.407668 1.000000 0.407668
0.625072 1.000000 0.433903
0.814536 0.995688 0.452231
0.990077 0.990077 0.451014
1.000000 0.985094 0.445849
0.000000 1.000000 0.364459
0.000000 1.000000 0.350585
0.000000 1.000000 0.345304
0.129899 1.000000 0.349222
0.371475 1.000000 0.371475
0.599218 1.000000 0.407624
0.796248 1.000000 0.433202
0.973314 1.000000 0.434252
1.000000 1.000000 0.429269
0.000000 0.000000 1.000000
0.079789 0.000000 1.000000
0.298591 0.000000 1.000000
0.523339 0.000000 0.999080
0.758791 0.000000 1.000000
1.000000 0.000000 1.000000
1.000000 0.000000 0.992972
1.000000 0.000000 0.968478
1.000000 0.000000 0.947957
0.000000 0.041807 0.965673
0.025703 0.025703 0.952595
0.242359 0.008674 0.943411
0.463815 0.000000 0.937768
0.695354 0.000000 0.937986
0.940381 0.000000 0.940381
1.000000 0.000000 0.924720
1.000000 0.000000 0.900566
1.000000 0.000000 0.880192
0.000000 0.219336 0.912239
0.000000 0.203450 0.896943
0.187403 0.187403 0.882571
0.404724 0.170121 0.873929
0.630521 0.149753 0.870905
0.873411 0.123745 0.873411
1.000000 0.102513 0.855904
1.000000 0.085878 0.830977
1.000000 0.066744 0.810938
0.000000 0.398275 0.865924
0.000000 0.381621 0.848120
0.133655 0.365130 0.828081
0.349102 0.349102 0.812548
0.568157 0.331181 0.805134
0.806440 0.306664 0.806440
1.000000 0.286756 0.786533
1.000000 0.271415 0.762011
1.000000 0.252985 0.742750
0.000000 0.581272 0.821075
0.000000 0.563273 0.802662
0.070595 0.544789 0.781886
0.293812 0.527061 0.760310
0.510801 0.510801 0.742524
0.739470 0.489582 0.739470
0.962554 0.471957 0.717256
1.000000 0.457895 0.696335
1.000000 0.440869 0.678824
0.000000 0.764267 0.764267
0.000000 0.745913 0.745913
0.000000 0.727560 0.727560
0.224050 0.709207 0.709207
0.448275 0.690853 0.690853
0.672500 0.672500 0.672500
0.879350 0.658838 0.658838
1.000000 0.645176 0.645176
1.000000 0.631514 0.631514
0.000000 0.942598 0.701879
0.000000 0.924386 0.683890
0.000000 0.905454 0.666065
0.174860 0.886151 0.649054
0.403786 0.865978 0.634882
0.636306 0.843163 0.636306
0.830442 0.830442 0.650755
1.000000 0.823617 0.630807
1.000000 0.815462 0.621569
0.000000 1.000000 0.642619
0.000000 1.000000 0.625609
0.000000 1.000000 0.610160
0.135072 1.000000 0.597265
0.366708 1.000000 0.590386
0.600112 1.000000 0.600112
0.810155 0.995324 0.624987
0.988384 0.988384 0.629009
1.000000 0.983393 0.623753
0.000000 1.000000 0.584783
0.000000 1.000000 0.568208
0.000000 1.000000 0.554511
0.083335 1.000000 0.544564
0.319933 1.000000 0.543117
0.563918 1.000000 0.563918
0.788495 1.000000 0.602607
0.971622 1.000000 0.612247
1.000000 1.000000 0.607264
0.000000 0.000000 1.000000
0.074334 0.000000 1.000000
0.292337 0.000000 1.000000
0.513401 0.000000 1.000000
0.740108 0.000000 1.000000
0.981759 0.000000 1.000000
1.000000 0.000000 1.000000
1.000000 0.000000 1.000000
1.000000 0.000000 1.000000
0.000000 0.036405 1.000000
0.020254 0.020254 1.000000
0.236562 0.003361 1.000000
0.456139 0.000000 1.000000
0.680833 0.000000 1.000000
0.917448 0.000000 1.000000
1.000000 0.000000 1.000000
1.000000 0.000000 1.000000
1.000000 0.000000 1.000000
0.000000 0.213906 1.000000
0.000000 0.198045 1.000000
0.181953 0.181953 1.000000
0.398609 0.164924 1.000000
0.620065 0.146111 1.000000
0.851583 0.123718 1.000000
1.000000 0.097077 1.000000
1.000000 0.075002 1.000000
1.000000 0.054874 1.000000
0.000000 0.391983 1.000000
0.000000 0.375797 1.000000
0.128536 0.359700 1.000000
0.343653 0.343653 1.000000
0.560974 0.326371 1.000000
0.786771 0.306003 1.000000
1.000000 0.279995 1.000000
1.000000 0.258763 1.000000
1.000000 0.238843 0.991643
0.000000 0.572444 1.000000
0.000000 0.555237 1.000000
0.071373 0.537871 1.000000
0.289905 0.521380 0.984331
0.505352 0.505352 0.968798
0.724407 0.487431 0.961384
0.962690 0.462914 0.962690
1.000000 0.443006 0.942783
1.000000 0.423520 0.922449
0.000000 0.756192 0.996912
0.000000 0.738060 0.978556
0.001357 0.719523 0.958912
0.226845 0.701039 0.938136
0.450062 0.683311 0.916560
0.667051 0.667051 0.898774
0.895720 0.645832 0.895720
1.000000 0.628207 0.873506
1.000000 0.609860 0.854336
0.000000 0.938870 0.938870
0.000000 0.920517 0.920517
0.000000 0.902163 0.902163
0.156076 0.883810 0.883810
0.380300 0.865457 0.865457
0.604525 0.847103 0.847103
0.828750 0.828750 0.828750
1.000000 0.815088 0.815088
1.000000 0.801426 0.801426
0.000000 1.000000 0.876382
0.000000 1.000000 0.858265
0.000000 1.000000 0.840140
0.104149 1.000000 0.822315
0.331110 1.000000 0.805304
0.560036 1.000000 0.791132
0.792556 0.999413 0.792556
0.986692 0.986692 0.807005
1.000000 0.981642 0.801478
0.000000 1.000000 0.815625
0.000000 1.000000 0.797656
0.000000 1.000000 0.780068
0.046352 1.000000 0.763202
0.275236 1.000000 0.748134
0.508609 1.000000 0.738757
0.756362 1.000000 0.756362
0.969930 1.000000 0.790242
1.000000 1.000000 0.785259
0.000000 0.000000 1.000000
0.068781 0.000000 1.000000
0.284486 0.000000 1.000000
0.500784 0.000000 1.000000
0.721586 0.000000 1.000000
0.957092 0.000000 1.000000
1.000000 0.000000 1.000000
1.000000 0.000000 1.000000
1.000000 0.000000 1.000000
0.000000 0.030958 1.000000
0.014805 0.014805 1.000000
0.230464 0.000000 1.000000
0.446319 0.000000 1.000000
0.665328 0.000000 1.000000
0.895859 0.000000 1.000000
1.000000 0.000000 1.000000
1.000000 0.000000 1.000000
1.000000 0.000000 1.000000
0.000000 0.208548 1.000000
0.000000 0.192580 1.000000
0.176504 0.176504 1.000000
0.392171 0.160473 1.000000
0.608582 0.143945 1.000000
0.832120 0.124084 1.000000
1.000000 0.097344 1.000000
1.000000 0.070409 1.000000
1.000000 0.049933 1.000000
0.000000 0.386262 1.000000
0.000000 0.370278 1.000000
0.122823 0.354270 1.000000
0.338203 0.338203 1.000000
0.553914 0.322124 1.000000
0.772055 0.304726 1.000000
1.000000 0.280440 1.000000
1.000000 0.253327 1.000000
1.000000 0.232843 1.000000
0.000000 0.565279 1.000000
0.000000 0.548682 1.000000
0.068090 0.532047 1.000000
0.284591 0.515950 1.000000
0.499903 0.499903 1.000000
0.715815 0.483680 1.000000
0.940474 0.463456 1.000000
1.000000 0.436245 1.000000
1.000000 0.415749 1.000000
0.000000 0.747210 1.000000
0.000000 0.729578 1.000000
0.005686 0.711487 1.000000
0.227623 0.694121 1.000000
0.446155 0.677630 1.000000
0.661602 0.661602 1.000000
0.878782 0.644722 1.000000
1.000000 0.619164 1.000000
1.000000 0.598647 1.000000
0.000000 0.931036 1.000000
0.000000 0.912833 1.000000
0.000000 0.894310 1.000000
0.157607 0.875773 1.000000
0.383095 0.857289 1.000000
0.606312 0.839561 1.000000
0.823301 0.823301 1.000000
1.000000 0.802082 1.000000
1.000000 0.781535 1.000000
0.000000 1.000000 1.000000
0.000000 1.000000 1.000000
0.000000 1.000000 1.000000
0.088101 1.000000 1.000000
0.312326 1.000000 1.000000
0.536550 1.000000 1.000000
0.760775 1.000000 1.000000
0.985000 0.985000 0.985000
1.000000 0.971338 0.971338
0.000000 1.000000 1.000000
0.000000 1.000000 1.000000
0.000000 1.000000 1.000000
0.026477 1.000000 0.996667
0.250748 1.000000 0.978322
0.475074 1.000000 0.959998
0.699660 1.000000 0.941821
0.948806 1.000000 0.948806
1.000000 1.000000 0.963255
0.000000 0.000000 1.000000
0.063341 0.000000 1.000000
0.278958 0.000000 1.000000
0.494967 0.000000 1.000000
0.715158 0.000000 1.000000
0.949521 0.000000 1.000000
1.000000 0.000000 1.000000
1.000000 0.000000 1.000000
1.000000 0.000000 1.000000
0.000000 0.025552 1.000000
0.009356 0.009356 1.000000
0.224979 0.000000 1.000000
0.440587 0.000000 1.000000
0.659133 0.000000 1.000000
0.888665 0.000000 1.000000
1.000000 0.000000 1.000000
1.000000 0.000000 1.000000
1.000000 0.000000 1.000000
0.000000 0.203151 1.000000
0.000000 0.187113 1.000000
0.171055 0.171055 1.000000
0.386653 0.155154 1.000000
0.602687 0.138756 1.000000
0.825380 0.118870 1.000000
1.000000 0.091741 1.000000
1.000000 0.064224 1.000000
1.000000 0.043741 1.000000
0.000000 0.380887 1.000000
0.000000 0.364853 1.000000
0.117162 0.348811 1.000000
0.332754 0.332754 1.000000
0.548332 0.316842 1.000000
0.765823 0.299553 1.000000
0.999103 0.274977 1.000000
1.000000 0.247153 1.000000
1.000000 0.226659 1.000000
0.000000 0.559661 1.000000
0.000000 0.543120 1.000000
0.062235 0.526608 1.000000
0.278848 0.510504 1.000000
0.494453 0.494453 1.000000
0.710085 0.478454 1.000000
0.933331 0.458186 1.000000
1.000000 0.430089 1.000000
1.000000 0.409577 1.000000
0.000000 0.741079 1.000000
0.000000 0.723541 1.000000
0.000621 0.705677 1.000000
0.222177 0.688549 1.000000
0.440384 0.672198 1.000000
0.656153 0.656153 1.000000
0.872572 0.639549 1.000000
1.000000 0.613043 1.000000
1.000000 0.592495 1.000000
0.000000 0.924658 1.000000
0.000000 0.906493 1.000000
0.000000 0.888008 1.000000
0.152704 0.869554 1.000000
0.378308 0.851280 1.000000
0.600956 0.833986 1.000000
0.817852 0.817852 1.000000
1.000000 0.796067 1.000000
1.000000 0.775414 1.000000
0.000000 1.000000 1.000000
0.000000 1.000000 1.000000
0.000000 1.000000 1.000000
0.081967 1.000000 1.000000
0.306223 1.000000 1.000000
0.530508 1.000000 1.000000
0.754901 0.997062 1.000000
0.979551 0.979551 1.000000
1.000000 0.958332 1.000000
0.000000 1.000000 1.000000
0.000000 1.000000 1.000000
0.000000 1.000000 1.000000
0.020126 1.000000 1.000000
0.244351 1.000000 1.000000
0.468576 1.000000 1.000000
0.692800 1.000000 1.000000
0.917025 1.000000 1.000000
1.000000 1.000000 1.000000
