assets/presets/luts/matte-charcoal/lut.cube
TITLE "Matte Charcoal"
LUT_3D_SIZE 5
0.079935 0.084525 0.092175
0.282946 0.091866 0.099516
0.485957 0.099207 0.106857
0.688968 0.106548 0.114198
0.891980 0.113890 0.121540
0.104486 0.303599 0.116726
0.307497 0.310940 0.124067
0.510508 0.318281 0.131408
0.713520 0.325622 0.138750
0.916531 0.332963 0.146091
0.129037 0.522672 0.141277
0.332048 0.530013 0.148618
0.535059 0.537354 0.155959
0.738071 0.544696 0.163301
0.941082 0.552037 0.170642
0.153588 0.741746 0.165828
0.356599 0.749087 0.173169
0.559610 0.756428 0.180511
0.762622 0.763769 0.187852
0.965633 0.771110 0.195193
0.178139 0.960819 0.190379
0.381150 0.968160 0.197720
0.584162 0.975502 0.205062
0.787173 0.982843 0.212403
0.990184 0.990184 0.219744
0.082389 0.086979 0.287239
0.285400 0.094320 0.294580
0.488411 0.101661 0.301921
0.691423 0.109003 0.309263
0.894434 0.116344 0.316604
0.106940 0.306053 0.311790
0.309951 0.313394 0.319131
0.512963 0.320735 0.326473
0.715974 0.328076 0.333814
0.918985 0.335417 0.341155
0.131491 0.525126 0.336341
0.334502 0.532467 0.343682
0.537514 0.539809 0.351024
0.740525 0.547150 0.358365
0.943536 0.554491 0.365706
0.156042 0.744200 0.360892
0.359053 0.751541 0.368234
0.562065 0.758882 0.375575
0.765076 0.766223 0.382916
0.968087 0.773564 0.390257
0.180593 0.963273 0.385443
0.383605 0.970615 0.392785
0.586616 0.977956 0.400126
0.789627 0.985297 0.407467
0.992638 0.992638 0.414808
0.084843 0.089433 0.482303
0.287854 0.096774 0.489644
0.490866 0.104116 0.496986
0.693877 0.111457 0.504327
0.896888 0.118798 0.511668
0.109394 0.308507 0.506854
0.312406 0.315848 0.514196
0.515417 0.323189 0.521537
0.718428 0.330530 0.528878
0.921439 0.337871 0.536219
0.133945 0.527580 0.531405
0.336957 0.534922 0.538747
0.539968 0.542263 0.546088
0.742979 0.549604 0.553429
0.945990 0.556945 0.560770
0.158496 0.746654 0.555956
0.361508 0.753995 0.563298
0.564519 0.761336 0.570639
0.767530 0.768677 0.577980
0.970541 0.776018 0.585321
0.183048 0.965728 0.580508
0.386059 0.973069 0.587849
0.589070 0.980410 0.595190
0.792081 0.987751 0.602531
0.995092 0.995092 0.609872
0.087297 0.091887 0.677368
0.290309 0.099229 0.684709
0.493320 0.106570 0.692050
0.696331 0.113911 0.699391
0.899342 0.121252 0.706732
0.111849 0.310961 0.701919
0.314860 0.318302 0.709260
0.517871 0.325643 0.716601
0.720882 0.332984 0.723942
0.923893 0.340325 0.731283
0.136400 0.530035 0.726470
0.339411 0.537376 0.733811
0.542422 0.544717 0.741152
0.745433 0.552058 0.748493
0.948444 0.559399 0.755834
0.160951 0.749108 0.751021
0.363962 0.756449 0.758362
0.566973 0.763790 0.765703
0.769984 0.771131 0.773044
0.972995 0.778472 0.780385
0.185502 0.968182 0.775572
0.388513 0.975523 0.782913
0.591524 0.982864 0.790254
0.794535 0.990205 0.797595
0.997546 0.997546 0.804936
0.089752 0.094342 0.872432
0.292763 0.101683 0.879773
0.495774 0.109024 0.887114
0.698785 0.116365 0.894455
0.901796 0.123706 0.901796
0.114303 0.313415 0.896983
0.317314 0.320756 0.904324
0.520325 0.328097 0.911665
0.723336 0.335438 0.919006
0.926347 0.342779 0.926347
0.138854 0.532489 0.921534
0.341865 0.539830 0.928875
0.544876 0.547171 0.936216
0.747887 0.554512 0.943557
0.950898 0.561853 0.950898
0.163405 0.751562 0.946085
0.366416 0.758903 0.953426
0.569427 0.766244 0.960767
0.772438 0.773585 0.968108
0.975449 0.780926 0.975449
0.187956 0.970636 0.970636
0.390967 0.977977 0.977977
0.593978 0.985318 0.985318
0.796989 0.992659 0.992659
1.000000 1.000000 1.000000
