assets/presets/luts/matte-charcoal/lut.cube
TITLE "Matte Charcoal"
LUT_3D_SIZE 17
0.079935 0.084525 0.092175
0.130688 0.086361 0.094011
0.181441 0.088196 0.095846
0.232194 0.090031 0.097681
0.282946 0.091866 0.099516
0.333699 0.093702 0.101352
0.384452 0.095537 0.103187
0.435205 0.097372 0.105022
0.485957 0.099207 0.106857
0.536710 0.101043 0.108693
0.587463 0.102878 0.110528
0.638216 0.104713 0.112363
0.688968 0.106548 0.114198
0.739721 0.108384 0.116034
0.790474 0.110219 0.117869
0.841227 0.112054 0.119704
0.891980 0.113890 0.121540
0.086073 0.139294 0.098313
0.136826 0.141129 0.100148
0.187579 0.142964 0.101984
0.238331 0.144799 0.103819
0.289084 0.146635 0.105654
0.339837 0.148470 0.107489
0.390590 0.150305 0.109325
0.441342 0.152141 0.111160
0.492095 0.153976 0.112995
0.542848 0.155811 0.114830
0.593601 0.157646 0.116666
0.644354 0.159482 0.118501
0.695106 0.161317 0.120336
0.745859 0.163152 0.122172
0.796612 0.164987 0.124007
0.847365 0.166823 0.125842
0.898117 0.168658 0.127677
0.092211 0.194062 0.104451
0.142964 0.195897 0.106286
0.193716 0.197733 0.108121
0.244469 0.199568 0.109957
0.295222 0.201403 0.111792
0.345975 0.203238 0.113627
0.396727 0.205074 0.115462
0.447480 0.206909 0.117298
0.498233 0.208744 0.119133
0.548986 0.210579 0.120968
0.599738 0.212415 0.122803
0.650491 0.214250 0.124639
0.701244 0.216085 0.126474
0.751997 0.217921 0.128309
0.802750 0.219756 0.130145
0.853502 0.221591 0.131980
0.904255 0.223426 0.133815
0.098349 0.248830 0.110589
0.149101 0.250666 0.112424
0.199854 0.252501 0.114259
0.250607 0.254336 0.116094
0.301360 0.256171 0.117930
0.352112 0.258007 0.119765
0.402865 0.259842 0.121600
0.453618 0.261677 0.123435
0.504371 0.263513 0.125271
0.555123 0.265348 0.127106
0.605876 0.267183 0.128941
0.656629 0.269018 0.130776
0.707382 0.270854 0.132612
0.758135 0.272689 0.134447
0.808887 0.274524 0.136282
0.859640 0.276359 0.138118
0.910393 0.278195 0.139953
0.104486 0.303599 0.116726
0.155239 0.305434 0.118562
0.205992 0.307269 0.120397
0.256745 0.309105 0.122232
0.307497 0.310940 0.124067
0.358250 0.312775 0.125903
0.409003 0.314610 0.127738
0.459756 0.316446 0.129573
0.510508 0.318281 0.131408
0.561261 0.320116 0.133244
0.612014 0.321951 0.135079
0.662767 0.323787 0.136914
0.713520 0.325622 0.138750
0.764272 0.327457 0.140585
0.815025 0.329293 0.142420
0.865778 0.331128 0.144255
0.916531 0.332963 0.146091
0.110624 0.358367 0.122864
0.161377 0.360202 0.124699
0.212130 0.362038 0.126535
0.262882 0.363873 0.128370
0.313635 0.365708 0.130205
0.364388 0.367544 0.132040
0.415141 0.369379 0.133876
0.465893 0.371214 0.135711
0.516646 0.373049 0.137546
0.567399 0.374885 0.139381
0.618152 0.376720 0.141217
0.668905 0.378555 0.143052
0.719657 0.380390 0.144887
0.770410 0.382226 0.146723
0.821163 0.384061 0.148558
0.871916 0.385896 0.150393
0.922668 0.387731 0.152228
0.116762 0.413136 0.129002
0.167515 0.414971 0.130837
0.218267 0.416806 0.132672
0.269020 0.418641 0.134508
0.319773 0.420477 0.136343
0.370526 0.422312 0.138178
0.421278 0.424147 0.140013
0.472031 0.425982 0.141849
0.522784 0.427818 0.143684
0.573537 0.429653 0.145519
0.624290 0.431488 0.147354
0.675042 0.433324 0.149190
0.725795 0.435159 0.151025
0.776548 0.436994 0.152860
0.827301 0.438829 0.154696
0.878053 0.440665 0.156531
0.928806 0.442500 0.158366
0.122900 0.467904 0.135140
0.173652 0.469739 0.136975
0.224405 0.471574 0.138810
0.275158 0.473410 0.140645
0.325911 0.475245 0.142481
0.376663 0.477080 0.144316
0.427416 0.478916 0.146151
0.478169 0.480751 0.147986
0.528922 0.482586 0.149822
0.579674 0.484421 0.151657
0.630427 0.486257 0.153492
0.681180 0.488092 0.155328
0.731933 0.489927 0.157163
0.782686 0.491762 0.158998
0.833438 0.493598 0.160833
0.884191 0.495433 0.162669
0.934944 0.497268 0.164504
0.129037 0.522672 0.141277
0.179790 0.524508 0.143113
0.230543 0.526343 0.144948
0.281296 0.528178 0.146783
0.332048 0.530013 0.148618
0.382801 0.531849 0.150454
0.433554 0.533684 0.152289
0.484307 0.535519 0.154124
0.535059 0.537354 0.155959
0.585812 0.539190 0.157795
0.636565 0.541025 0.159630
0.687318 0.542860 0.161465
0.738071 0.544696 0.163301
0.788823 0.546531 0.165136
0.839576 0.548366 0.166971
0.890329 0.550201 0.168806
0.941082 0.552037 0.170642
0.135175 0.577441 0.147415
0.185928 0.579276 0.149250
0.236681 0.581111 0.151086
0.287433 0.582947 0.152921
0.338186 0.584782 0.154756
0.388939 0.586617 0.156591
0.439692 0.588452 0.158427
0.490444 0.590288 0.160262
0.541197 0.592123 0.162097
0.591950 0.593958 0.163933
0.642703 0.595793 0.165768
0.693456 0.597629 0.167603
0.744208 0.599464 0.169438
0.794961 0.601299 0.171274
0.845714 0.603134 0.173109
0.896467 0.604970 0.174944
0.947219 0.606805 0.176779
0.141313 0.632209 0.153553
0.192066 0.634044 0.155388
0.242818 0.635880 0.157223
0.293571 0.637715 0.159059
0.344324 0.639550 0.160894
0.395077 0.641385 0.162729
0.445829 0.643221 0.164564
0.496582 0.645056 0.166400
0.547335 0.646891 0.168235
0.598088 0.648727 0.170070
0.648841 0.650562 0.171906
0.699593 0.652397 0.173741
0.750346 0.654232 0.175576
0.801099 0.656068 0.177411
0.851852 0.657903 0.179247
0.902604 0.659738 0.181082
0.953357 0.661573 0.182917
0.147451 0.686977 0.159691
0.198203 0.688813 0.161526
0.248956 0.690648 0.163361
0.299709 0.692483 0.165196
0.350462 0.694319 0.167032
0.401214 0.696154 0.168867
0.451967 0.697989 0.170702
0.502720 0.699824 0.172537
0.553473 0.701660 0.174373
0.604226 0.703495 0.176208
0.654978 0.705330 0.178043
0.705731 0.707165 0.179879
0.756484 0.709001 0.181714
0.807237 0.710836 0.183549
0.857989 0.712671 0.185384
0.908742 0.714507 0.187220
0.959495 0.716342 0.189055
0.153588 0.741746 0.165828
0.204341 0.743581 0.167664
0.255094 0.745416 0.169499
0.305847 0.747252 0.171334
0.356599 0.749087 0.173169
0.407352 0.750922 0.175005
0.458105 0.752757 0.176840
0.508858 0.754593 0.178675
0.559610 0.756428 0.180511
0.610363 0.758263 0.182346
0.661116 0.760099 0.184181
0.711869 0.761934 0.186016
0.762622 0.763769 0.187852
0.813374 0.765604 0.189687
0.864127 0.767440 0.191522
0.914880 0.769275 0.193357
0.965633 0.771110 0.195193
0.159726 0.796514 0.171966
0.210479 0.798349 0.173801
0.261232 0.800185 0.175637
0.311984 0.802020 0.177472
0.362737 0.803855 0.179307
0.413490 0.805691 0.181142
0.464243 0.807526 0.182978
0.514996 0.809361 0.184813
0.565748 0.811196 0.186648
0.616501 0.813032 0.188484
0.667254 0.814867 0.190319
0.718007 0.816702 0.192154
0.768759 0.818537 0.193989
0.819512 0.820373 0.195825
0.870265 0.822208 0.197660
0.921018 0.824043 0.199495
0.971770 0.825879 0.201330
0.165864 0.851283 0.178104
0.216617 0.853118 0.179939
0.267369 0.854953 0.181774
0.318122 0.856788 0.183610
0.368875 0.858624 0.185445
0.419628 0.860459 0.187280
0.470380 0.862294 0.189115
0.521133 0.864129 0.190951
0.571886 0.865965 0.192786
0.622639 0.867800 0.194621
0.673392 0.869635 0.196457
0.724144 0.871471 0.198292
0.774897 0.873306 0.200127
0.825650 0.875141 0.201962
0.876403 0.876976 0.203798
0.927155 0.878812 0.205633
0.977908 0.880647 0.207468
0.172002 0.906051 0.184242
0.222754 0.907886 0.186077
0.273507 0.909722 0.187912
0.324260 0.911557 0.189747
0.375013 0.913392 0.191583
0.425765 0.915227 0.193418
0.476518 0.917063 0.195253
0.527271 0.918898 0.197089
0.578024 0.920733 0.198924
0.628777 0.922568 0.200759
0.679529 0.924404 0.202594
0.730282 0.926239 0.204430
0.781035 0.928074 0.206265
0.831788 0.929910 0.208100
0.882540 0.931745 0.209935
0.933293 0.933580 0.211771
0.984046 0.935415 0.213606
0.178139 0.960819 0.190379
0.228892 0.962655 0.192215
0.279645 0.964490 0.194050
0.330398 0.966325 0.195885
0.381150 0.968160 0.197720
0.431903 0.969996 0.199556
0.482656 0.971831 0.201391
0.533409 0.973666 0.203226
0.584162 0.975502 0.205062
0.634914 0.977337 0.206897
0.685667 0.979172 0.208732
0.736420 0.981007 0.210567
0.787173 0.982843 0.212403
0.837925 0.984678 0.214238
0.888678 0.986513 0.216073
0.939431 0.988348 0.217908
0.990184 0.990184 0.219744
0.080549 0.085139 0.140941
0.131302 0.086974 0.142777
0.182054 0.088809 0.144612
0.232807 0.090645 0.146447
0.283560 0.092480 0.148282
0.334313 0.094315 0.150118
0.385065 0.096150 0.151953
0.435818 0.097986 0.153788
0.486571 0.099821 0.155623
0.537324 0.101656 0.157459
0.588076 0.103491 0.159294
0.638829 0.105327 0.161129
0.689582 0.107162 0.162965
0.740335 0.108997 0.164800
0.791088 0.110833 0.166635
0.841840 0.112668 0.168470
0.892593 0.114503 0.170306
0.086687 0.139907 0.147079
0.137439 0.141742 0.148914
0.188192 0.143578 0.150750
0.238945 0.145413 0.152585
0.289698 0.147248 0.154420
0.340450 0.149084 0.156255
0.391203 0.150919 0.158091
0.441956 0.152754 0.159926
0.492709 0.154589 0.161761
0.543461 0.156425 0.163596
0.594214 0.158260 0.165432
0.644967 0.160095 0.167267
0.695720 0.161930 0.169102
0.746473 0.163766 0.170938
0.797225 0.165601 0.172773
0.847978 0.167436 0.174608
0.898731 0.169271 0.176443
0.092824 0.194676 0.153217
0.143577 0.196511 0.155052
0.194330 0.198346 0.156887
0.245083 0.200181 0.158723
0.295835 0.202017 0.160558
0.346588 0.203852 0.162393
0.397341 0.205687 0.164228
0.448094 0.207522 0.166064
0.498846 0.209358 0.167899
0.549599 0.211193 0.169734
0.600352 0.213028 0.171569
0.651105 0.214864 0.173405
0.701858 0.216699 0.175240
0.752610 0.218534 0.177075
0.803363 0.220369 0.178911
0.854116 0.222205 0.180746
0.904869 0.224040 0.182581
0.098962 0.249444 0.159355
0.149715 0.251279 0.161190
0.200468 0.253114 0.163025
0.251220 0.254950 0.164860
0.301973 0.256785 0.166696
0.352726 0.258620 0.168531
0.403479 0.260456 0.170366
0.454231 0.262291 0.172201
0.504984 0.264126 0.174037
0.555737 0.265961 0.175872
0.606490 0.267797 0.177707
0.657243 0.269632 0.179543
0.707995 0.271467 0.181378
0.758748 0.273302 0.183213
0.809501 0.275138 0.185048
0.860254 0.276973 0.186884
0.911006 0.278808 0.188719
0.105100 0.304212 0.165492
0.155853 0.306048 0.167328
0.206605 0.307883 0.169163
0.257358 0.309718 0.170998
0.308111 0.311553 0.172833
0.358864 0.313389 0.174669
0.409616 0.315224 0.176504
0.460369 0.317059 0.178339
0.511122 0.318894 0.180174
0.561875 0.320730 0.182010
0.612628 0.322565 0.183845
0.663380 0.324400 0.185680
0.714133 0.326236 0.187516
0.764886 0.328071 0.189351
0.815639 0.329906 0.191186
0.866391 0.331741 0.193021
0.917144 0.333577 0.194857
0.111238 0.358981 0.171630
0.161990 0.360816 0.173465
0.212743 0.362651 0.175301
0.263496 0.364487 0.177136
0.314249 0.366322 0.178971
0.365001 0.368157 0.180806
0.415754 0.369992 0.182642
0.466507 0.371828 0.184477
0.517260 0.373663 0.186312
0.568012 0.375498 0.188148
0.618765 0.377333 0.189983
0.669518 0.379169 0.191818
0.720271 0.381004 0.193653
0.771024 0.382839 0.195489
0.821776 0.384674 0.197324
0.872529 0.386510 0.199159
0.923282 0.388345 0.200994
0.117375 0.413749 0.177768
0.168128 0.415584 0.179603
0.218881 0.417420 0.181438
0.269634 0.419255 0.183274
0.320386 0.421090 0.185109
0.371139 0.422925 0.186944
0.421892 0.424761 0.188779
0.472645 0.426596 0.190615
0.523398 0.428431 0.192450
0.574150 0.430266 0.194285
0.624903 0.432102 0.196121
0.675656 0.433937 0.197956
0.726409 0.435772 0.199791
0.777161 0.437608 0.201626
0.827914 0.439443 0.203462
0.878667 0.441278 0.205297
0.929420 0.443113 0.207132
0.123513 0.468517 0.183906
0.174266 0.470353 0.185741
0.225019 0.472188 0.187576
0.275771 0.474023 0.189411
0.326524 0.475859 0.191247
0.377277 0.477694 0.193082
0.428030 0.479529 0.194917
0.478782 0.481364 0.196752
0.529535 0.483200 0.198588
0.580288 0.485035 0.200423
0.631041 0.486870 0.202258
0.681794 0.488705 0.204094
0.732546 0.490541 0.205929
0.783299 0.492376 0.207764
0.834052 0.494211 0.209599
0.884805 0.496047 0.211435
0.935557 0.497882 0.213270
0.129651 0.523286 0.190043
0.180404 0.525121 0.191879
0.231156 0.526956 0.193714
0.281909 0.528792 0.195549
0.332662 0.530627 0.197384
0.383415 0.532462 0.199220
0.434167 0.534297 0.201055
0.484920 0.536133 0.202890
0.535673 0.537968 0.204725
0.586426 0.539803 0.206561
0.637179 0.541639 0.208396
0.687931 0.543474 0.210231
0.738684 0.545309 0.212067
0.789437 0.547144 0.213902
0.840190 0.548980 0.215737
0.890942 0.550815 0.217572
0.941695 0.552650 0.219408
0.135789 0.578054 0.196181
0.186541 0.579889 0.198016
0.237294 0.581725 0.199852
0.288047 0.583560 0.201687
0.338800 0.585395 0.203522
0.389552 0.587231 0.205357
0.440305 0.589066 0.207193
0.491058 0.590901 0.209028
0.541811 0.592736 0.210863
0.592564 0.594572 0.212699
0.643316 0.596407 0.214534
0.694069 0.598242 0.216369
0.744822 0.600077 0.218204
0.795575 0.601913 0.220040
0.846327 0.603748 0.221875
0.897080 0.605583 0.223710
0.947833 0.607419 0.225545
0.141926 0.632823 0.202319
0.192679 0.634658 0.204154
0.243432 0.636493 0.205989
0.294185 0.638328 0.207825
0.344937 0.640164 0.209660
0.395690 0.641999 0.211495
0.446443 0.643834 0.213330
0.497196 0.645669 0.215166
0.547949 0.647505 0.217001
0.598701 0.649340 0.218836
0.649454 0.651175 0.220672
0.700207 0.653011 0.222507
0.750960 0.654846 0.224342
0.801712 0.656681 0.226177
0.852465 0.658516 0.228013
0.903218 0.660352 0.229848
0.953971 0.662187 0.231683
0.148064 0.687591 0.208457
0.198817 0.689426 0.210292
0.249570 0.691262 0.212127
0.300322 0.693097 0.213962
0.351075 0.694932 0.215798
0.401828 0.696767 0.217633
0.452581 0.698603 0.219468
0.503334 0.700438 0.221303
0.554086 0.702273 0.223139
0.604839 0.704108 0.224974
0.655592 0.705944 0.226809
0.706345 0.707779 0.228645
0.757097 0.709614 0.230480
0.807850 0.711450 0.232315
0.858603 0.713285 0.234150
0.909356 0.715120 0.235986
0.960108 0.716955 0.237821
0.154202 0.742359 0.214594
0.204955 0.744195 0.216430
0.255707 0.746030 0.218265
0.306460 0.747865 0.220100
0.357213 0.749700 0.221935
0.407966 0.751536 0.223771
0.458718 0.753371 0.225606
0.509471 0.755206 0.227441
0.560224 0.757042 0.229277
0.610977 0.758877 0.231112
0.661730 0.760712 0.232947
0.712482 0.762547 0.234782
0.763235 0.764383 0.236618
0.813988 0.766218 0.238453
0.864741 0.768053 0.240288
0.915493 0.769888 0.242123
0.966246 0.771724 0.243959
0.160340 0.797128 0.220732
0.211092 0.798963 0.222567
0.261845 0.800798 0.224403
0.312598 0.802634 0.226238
0.363351 0.804469 0.228073
0.414103 0.806304 0.229908
0.464856 0.808139 0.231744
0.515609 0.809975 0.233579
0.566362 0.811810 0.235414
0.617115 0.813645 0.237250
0.667867 0.815480 0.239085
0.718620 0.817316 0.240920
0.769373 0.819151 0.242755
0.820126 0.820986 0.244591
0.870878 0.822821 0.246426
0.921631 0.824657 0.248261
0.972384 0.826492 0.250096
0.166477 0.851896 0.226870
0.217230 0.853731 0.228705
0.267983 0.855567 0.230540
0.318736 0.857402 0.232376
0.369488 0.859237 0.234211
0.420241 0.861072 0.236046
0.470994 0.862908 0.237881
0.521747 0.864743 0.239717
0.572500 0.866578 0.241552
0.623252 0.868414 0.243387
0.674005 0.870249 0.245223
0.724758 0.872084 0.247058
0.775511 0.873919 0.248893
0.826263 0.875755 0.250728
0.877016 0.877590 0.252564
0.927769 0.879425 0.254399
0.978522 0.881260 0.256234
0.172615 0.906664 0.233008
0.223368 0.908500 0.234843
0.274121 0.910335 0.236678
0.324873 0.912170 0.238513
0.375626 0.914006 0.240349
0.426379 0.915841 0.242184
0.477132 0.917676 0.244019
0.527885 0.919511 0.245855
0.578637 0.921347 0.247690
0.629390 0.923182 0.249525
0.680143 0.925017 0.251360
0.730896 0.926852 0.253196
0.781648 0.928688 0.255031
0.832401 0.930523 0.256866
0.883154 0.932358 0.258701
0.933907 0.934194 0.260537
0.984659 0.936029 0.262372
0.178753 0.961433 0.239145
0.229506 0.963268 0.240981
0.280258 0.965103 0.242816
0.331011 0.966939 0.244651
0.381764 0.968774 0.246486
0.432517 0.970609 0.248322
0.483270 0.972445 0.250157
0.534022 0.974280 0.251992
0.584775 0.976115 0.253828
0.635528 0.977950 0.255663
0.686281 0.979786 0.257498
0.737033 0.981621 0.259333
0.787786 0.983456 0.261169
0.838539 0.985291 0.263004
0.889292 0.987127 0.264839
0.940044 0.988962 0.266674
0.990797 0.990797 0.268510
0.081162 0.085752 0.189707
0.131915 0.087588 0.191543
0.182668 0.089423 0.193378
0.233421 0.091258 0.195213
0.284173 0.093093 0.197048
0.334926 0.094929 0.198884
0.385679 0.096764 0.200719
0.436432 0.098599 0.202554
0.487184 0.100434 0.204389
0.537937 0.102270 0.206225
0.588690 0.104105 0.208060
0.639443 0.105940 0.209895
0.690196 0.107776 0.211731
0.740948 0.109611 0.213566
0.791701 0.111446 0.215401
0.842454 0.113281 0.217236
0.893207 0.115117 0.219072
0.087300 0.140521 0.195845
0.138053 0.142356 0.197680
0.188806 0.144191 0.199516
0.239558 0.146026 0.201351
0.290311 0.147862 0.203186
0.341064 0.149697 0.205021
0.391817 0.151532 0.206857
0.442569 0.153368 0.208692
0.493322 0.155203 0.210527
0.544075 0.157038 0.212362
0.594828 0.158873 0.214198
0.645581 0.160709 0.216033
0.696333 0.162544 0.217868
0.747086 0.164379 0.219704
0.797839 0.166214 0.221539
0.848592 0.168050 0.223374
0.899344 0.169885 0.225209
0.093438 0.195289 0.201983
0.144191 0.197124 0.203818
0.194943 0.198960 0.205653
0.245696 0.200795 0.207489
0.296449 0.202630 0.209324
0.347202 0.204465 0.211159
0.397954 0.206301 0.212994
0.448707 0.208136 0.214830
0.499460 0.209971 0.216665
0.550213 0.211806 0.218500
0.600965 0.213642 0.220336
0.651718 0.215477 0.222171
0.702471 0.217312 0.224006
0.753224 0.219148 0.225841
0.803977 0.220983 0.227677
0.854729 0.222818 0.229512
0.905482 0.224653 0.231347
0.099576 0.250057 0.208121
0.150328 0.251893 0.209956
0.201081 0.253728 0.211791
0.251834 0.255563 0.213626
0.302587 0.257399 0.215462
0.353339 0.259234 0.217297
0.404092 0.261069 0.219132
0.454845 0.262904 0.220967
0.505598 0.264740 0.222803
0.556351 0.266575 0.224638
0.607103 0.268410 0.226473
0.657856 0.270245 0.228309
0.708609 0.272081 0.230144
0.759362 0.273916 0.231979
0.810114 0.275751 0.233814
0.860867 0.277586 0.235650
0.911620 0.279422 0.237485
0.105713 0.304826 0.214258
0.156466 0.306661 0.216094
0.207219 0.308496 0.217929
0.257972 0.310332 0.219764
0.308724 0.312167 0.221599
0.359477 0.314002 0.223435
0.410230 0.315837 0.225270
0.460983 0.317673 0.227105
0.511735 0.319508 0.228940
0.562488 0.321343 0.230776
0.613241 0.323179 0.232611
0.663994 0.325014 0.234446
0.714747 0.326849 0.236282
0.765499 0.328684 0.238117
0.816252 0.330520 0.239952
0.867005 0.332355 0.241787
0.917758 0.334190 0.243623
0.111851 0.359594 0.220396
0.162604 0.361429 0.222231
0.213357 0.363265 0.224067
0.264109 0.365100 0.225902
0.314862 0.366935 0.227737
0.365615 0.368771 0.229572
0.416368 0.370606 0.231408
0.467120 0.372441 0.233243
0.517873 0.374276 0.235078
0.568626 0.376112 0.236914
0.619379 0.377947 0.238749
0.670132 0.379782 0.240584
0.720884 0.381617 0.242419
0.771637 0.383453 0.244255
0.822390 0.385288 0.246090
0.873143 0.387123 0.247925
0.923895 0.388959 0.249760
0.117989 0.414363 0.226534
0.168742 0.416198 0.228369
0.219494 0.418033 0.230204
0.270247 0.419868 0.232040
0.321000 0.421704 0.233875
0.371753 0.423539 0.235710
0.422505 0.425374 0.237545
0.473258 0.427209 0.239381
0.524011 0.429045 0.241216
0.574764 0.430880 0.243051
0.625517 0.432715 0.244887
0.676269 0.434551 0.246722
0.727022 0.436386 0.248557
0.777775 0.438221 0.250392
0.828528 0.440056 0.252228
0.879280 0.441892 0.254063
0.930033 0.443727 0.255898
0.124127 0.469131 0.232672
0.174879 0.470966 0.234507
0.225632 0.472802 0.236342
0.276385 0.474637 0.238177
0.327138 0.476472 0.240013
0.377890 0.478307 0.241848
0.428643 0.480143 0.243683
0.479396 0.481978 0.245518
0.530149 0.483813 0.247354
0.580902 0.485648 0.249189
0.631654 0.487484 0.251024
0.682407 0.489319 0.252860
0.733160 0.491154 0.254695
0.783913 0.492989 0.256530
0.834665 0.494825 0.258365
0.885418 0.496660 0.260201
0.936171 0.498495 0.262036
0.130264 0.523899 0.238809
0.181017 0.525735 0.240645
0.231770 0.527570 0.242480
0.282523 0.529405 0.244315
0.333275 0.531240 0.246150
0.384028 0.533076 0.247986
0.434781 0.534911 0.249821
0.485534 0.536746 0.251656
0.536287 0.538581 0.253492
0.587039 0.540417 0.255327
0.637792 0.542252 0.257162
0.688545 0.544087 0.258997
0.739298 0.545923 0.260833
0.790050 0.547758 0.262668
0.840803 0.549593 0.264503
0.891556 0.551428 0.266338
0.942309 0.553264 0.268174
0.136402 0.578668 0.244947
0.187155 0.580503 0.246782
0.237908 0.582338 0.248618
0.288660 0.584174 0.250453
0.339413 0.586009 0.252288
0.390166 0.587844 0.254123
0.440919 0.589679 0.255959
0.491672 0.591515 0.257794
0.542424 0.593350 0.259629
0.593177 0.595185 0.261465
0.643930 0.597020 0.263300
0.694683 0.598856 0.265135
0.745435 0.600691 0.266970
0.796188 0.602526 0.268806
0.846941 0.604362 0.270641
0.897694 0.606197 0.272476
0.948446 0.608032 0.274311
0.142540 0.633436 0.251085
0.193293 0.635271 0.252920
0.244045 0.637107 0.254755
0.294798 0.638942 0.256591
0.345551 0.640777 0.258426
0.396304 0.642612 0.260261
0.447057 0.644448 0.262096
0.497809 0.646283 0.263932
0.548562 0.648118 0.265767
0.599315 0.649954 0.267602
0.650068 0.651789 0.269438
0.700820 0.653624 0.271273
0.751573 0.655459 0.273108
0.802326 0.657295 0.274943
0.853079 0.659130 0.276779
0.903831 0.660965 0.278614
0.954584 0.662800 0.280449
0.148678 0.688205 0.257223
0.199430 0.690040 0.259058
0.250183 0.691875 0.260893
0.300936 0.693710 0.262728
0.351689 0.695546 0.264564
0.402441 0.697381 0.266399
0.453194 0.699216 0.268234
0.503947 0.701051 0.270070
0.554700 0.702887 0.271905
0.605453 0.704722 0.273740
0.656205 0.706557 0.275575
0.706958 0.708392 0.277411
0.757711 0.710228 0.279246
0.808464 0.712063 0.281081
0.859216 0.713898 0.282916
0.909969 0.715734 0.284752
0.960722 0.717569 0.286587
0.154815 0.742973 0.263360
0.205568 0.744808 0.265196
0.256321 0.746643 0.267031
0.307074 0.748479 0.268866
0.357826 0.750314 0.270701
0.408579 0.752149 0.272537
0.459332 0.753985 0.274372
0.510085 0.755820 0.276207
0.560838 0.757655 0.278043
0.611590 0.759490 0.279878
0.662343 0.761326 0.281713
0.713096 0.763161 0.283548
0.763849 0.764996 0.285384
0.814601 0.766831 0.287219
0.865354 0.768667 0.289054
0.916107 0.770502 0.290889
0.966860 0.772337 0.292725
0.160953 0.797741 0.269498
0.211706 0.799577 0.271333
0.262459 0.801412 0.273169
0.313211 0.803247 0.275004
0.363964 0.805082 0.276839
0.414717 0.806918 0.278674
0.465470 0.808753 0.280510
0.516223 0.810588 0.282345
0.566975 0.812423 0.284180
0.617728 0.814259 0.286016
0.668481 0.816094 0.287851
0.719234 0.817929 0.289686
0.769986 0.819764 0.291521
0.820739 0.821600 0.293357
0.871492 0.823435 0.295192
0.922245 0.825270 0.297027
0.972997 0.827106 0.298862
0.167091 0.852510 0.275636
0.217844 0.854345 0.277471
0.268596 0.856180 0.279306
0.319349 0.858015 0.281142
0.370102 0.859851 0.282977
0.420855 0.861686 0.284812
0.471608 0.863521 0.286648
0.522360 0.865357 0.288483
0.573113 0.867192 0.290318
0.623866 0.869027 0.292153
0.674619 0.870862 0.293989
0.725371 0.872698 0.295824
0.776124 0.874533 0.297659
0.826877 0.876368 0.299494
0.877630 0.878203 0.301330
0.928382 0.880039 0.303165
0.979135 0.881874 0.305000
0.173229 0.907278 0.281774
0.223981 0.909113 0.283609
0.274734 0.910949 0.285444
0.325487 0.912784 0.287279
0.376240 0.914619 0.289115
0.426993 0.916454 0.290950
0.477745 0.918290 0.292785
0.528498 0.920125 0.294621
0.579251 0.921960 0.296456
0.630004 0.923795 0.298291
0.680756 0.925631 0.300126
0.731509 0.927466 0.301962
0.782262 0.929301 0.303797
0.833015 0.931137 0.305632
0.883767 0.932972 0.307467
0.934520 0.934807 0.309303
0.985273 0.936642 0.311138
0.179366 0.962046 0.287911
0.230119 0.963882 0.289747
0.280872 0.965717 0.291582
0.331625 0.967552 0.293417
0.382378 0.969387 0.295253
0.433130 0.971223 0.297088
0.483883 0.973058 0.298923
0.534636 0.974893 0.300758
0.585389 0.976729 0.302594
0.636141 0.978564 0.304429
0.686894 0.980399 0.306264
0.737647 0.982234 0.308099
0.788400 0.984070 0.309935
0.839152 0.985905 0.311770
0.889905 0.987740 0.313605
0.940658 0.989575 0.315440
0.991411 0.991411 0.317276
0.081776 0.086366 0.238473
0.132529 0.088201 0.240309
0.183281 0.090036 0.242144
0.234034 0.091872 0.243979
0.284787 0.093707 0.245814
0.335540 0.095542 0.247650
0.386292 0.097377 0.249485
0.437045 0.099213 0.251320
0.487798 0.101048 0.253155
0.538551 0.102883 0.254991
0.589303 0.104719 0.256826
0.640056 0.106554 0.258661
0.690809 0.108389 0.260497
0.741562 0.110224 0.262332
0.792315 0.112060 0.264167
0.843067 0.113895 0.266002
0.893820 0.115730 0.267838
0.087914 0.141134 0.244611
0.138666 0.142969 0.246446
0.189419 0.144805 0.248282
