assets/presets/luts/matte-charcoal/lut.cube
TITLE "Matte Charcoal"
LUT_3D_SIZE 9
0.079935 0.084525 0.092175
0.181441 0.088196 0.095846
0.282946 0.091866 0.099516
0.384452 0.095537 0.103187
0.485957 0.099207 0.106857
0.587463 0.102878 0.110528
0.688968 0.106548 0.114198
0.790474 0.110219 0.117869
0.891980 0.113890 0.121540
0.092211 0.194062 0.104451
0.193716 0.197733 0.108121
0.295222 0.201403 0.111792
0.396727 0.205074 0.115462
0.498233 0.208744 0.119133
0.599738 0.212415 0.122803
0.701244 0.216085 0.126474
0.802750 0.219756 0.130145
0.904255 0.223426 0.133815
0.104486 0.303599 0.116726
0.205992 0.307269 0.120397
0.307497 0.310940 0.124067
0.409003 0.314610 0.127738
0.510508 0.318281 0.131408
0.612014 0.321951 0.135079
0.713520 0.325622 0.138750
0.815025 0.329293 0.142420
0.916531 0.332963 0.146091
0.116762 0.413136 0.129002
0.218267 0.416806 0.132672
0.319773 0.420477 0.136343
0.421278 0.424147 0.140013
0.522784 0.427818 0.143684
0.624290 0.431488 0.147354
0.725795 0.435159 0.151025
0.827301 0.438829 0.154696
0.928806 0.442500 0.158366
0.129037 0.522672 0.141277
0.230543 0.526343 0.144948
0.332048 0.530013 0.148618
0.433554 0.533684 0.152289
0.535059 0.537354 0.155959
0.636565 0.541025 0.159630
0.738071 0.544696 0.163301
0.839576 0.548366 0.166971
0.941082 0.552037 0.170642
0.141313 0.632209 0.153553
0.242818 0.635880 0.157223
0.344324 0.639550 0.160894
0.445829 0.643221 0.164564
0.547335 0.646891 0.168235
0.648841 0.650562 0.171906
0.750346 0.654232 0.175576
0.851852 0.657903 0.179247
0.953357 0.661573 0.182917
0.153588 0.741746 0.165828
0.255094 0.745416 0.169499
0.356599 0.749087 0.173169
0.458105 0.752757 0.176840
0.559610 0.756428 0.180511
0.661116 0.760099 0.184181
0.762622 0.763769 0.187852
0.864127 0.767440 0.191522
0.965633 0.771110 0.195193
0.165864 0.851283 0.178104
0.267369 0.854953 0.181774
0.368875 0.858624 0.185445
0.470380 0.862294 0.189115
0.571886 0.865965 0.192786
0.673392 0.869635 0.196457
0.774897 0.873306 0.200127
0.876403 0.876976 0.203798
0.977908 0.880647 0.207468
0.178139 0.960819 0.190379
0.279645 0.964490 0.194050
0.381150 0.968160 0.197720
0.482656 0.971831 0.201391
0.584162 0.975502 0.205062
0.685667 0.979172 0.208732
0.787173 0.982843 0.212403
0.888678 0.986513 0.216073
0.990184 0.990184 0.219744
0.081162 0.085752 0.189707
0.182668 0.089423 0.193378
0.284173 0.093093 0.197048
0.385679 0.096764 0.200719
0.487184 0.100434 0.204389
0.588690 0.104105 0.208060
0.690196 0.107776 0.211731
0.791701 0.111446 0.215401
0.893207 0.115117 0.219072
0.093438 0.195289 0.201983
0.194943 0.198960 0.205653
0.296449 0.202630 0.209324
0.397954 0.206301 0.212994
0.499460 0.209971 0.216665
0.600965 0.213642 0.220336
0.702471 0.217312 0.224006
0.803977 0.220983 0.227677
0.905482 0.224653 0.231347
0.105713 0.304826 0.214258
0.207219 0.308496 0.217929
0.308724 0.312167 0.221599
0.410230 0.315837 0.225270
0.511735 0.319508 0.228940
0.613241 0.323179 0.232611
0.714747 0.326849 0.236282
0.816252 0.330520 0.239952
0.917758 0.334190 0.243623
0.117989 0.414363 0.226534
0.219494 0.418033 0.230204
0.321000 0.421704 0.233875
0.422505 0.425374 0.237545
0.524011 0.429045 0.241216
0.625517 0.432715 0.244887
0.727022 0.436386 0.248557
0.828528 0.440056 0.252228
0.930033 0.443727 0.255898
0.130264 0.523899 0.238809
0.231770 0.527570 0.242480
0.333275 0.531240 0.246150
0.434781 0.534911 0.249821
0.536287 0.538581 0.253492
0.637792 0.542252 0.257162
0.739298 0.545923 0.260833
0.840803 0.549593 0.264503
0.942309 0.553264 0.268174
0.142540 0.633436 0.251085
0.244045 0.637107 0.254755
0.345551 0.640777 0.258426
0.447057 0.644448 0.262096
0.548562 0.648118 0.265767
0.650068 0.651789 0.269438
0.751573 0.655459 0.273108
0.853079 0.659130 0.276779
0.954584 0.662800 0.280449
0.154815 0.742973 0.263360
0.256321 0.746643 0.267031
0.357826 0.750314 0.270701
0.459332 0.753985 0.274372
0.560838 0.757655 0.278043
0.662343 0.761326 0.281713
0.763849 0.764996 0.285384
0.865354 0.768667 0.289054
0.966860 0.772337 0.292725
0.167091 0.852510 0.275636
0.268596 0.856180 0.279306
0.370102 0.859851 0.282977
0.471608 0.863521 0.286648
0.573113 0.867192 0.290318
0.674619 0.870862 0.293989
0.776124 0.874533 0.297659
0.877630 0.878203 0.301330
0.979135 0.881874 0.305000
0.179366 0.962046 0.287911
0.280872 0.965717 0.291582
0.382378 0.969387 0.295253
0.483883 0.973058 0.298923
0.585389 0.976729 0.302594
0.686894 0.980399 0.306264
0.788400 0.984070 0.309935
0.889905 0.987740 0.313605
0.991411 0.991411 0.317276
0.082389 0.086979 0.287239
0.183895 0.090650 0.290910
0.285400 0.094320 0.294580
0.386906 0.097991 0.298251
0.488411 0.101661 0.301921
0.589917 0.105332 0.305592
0.691423 0.109003 0.309263
0.792928 0.112673 0.312933
0.894434 0.116344 0.316604
0.094665 0.196516 0.299515
0.196170 0.200187 0.303185
0.297676 0.203857 0.306856
0.399181 0.207528 0.310526
0.500687 0.211198 0.314197
0.602193 0.214869 0.317868
0.703698 0.218539 0.321538
0.805204 0.222210 0.325209
0.906709 0.225880 0.328879
0.106940 0.306053 0.311790
0.208446 0.309723 0.315461
0.309951 0.313394 0.319131
0.411457 0.317064 0.322802
0.512963 0.320735 0.326473
0.614468 0.324406 0.330143
0.715974 0.328076 0.333814
0.817479 0.331747 0.337484
0.918985 0.335417 0.341155
0.119216 0.415590 0.324066
0.220721 0.419260 0.327736
0.322227 0.422931 0.331407
0.423732 0.426601 0.335077
0.525238 0.430272 0.338748
0.626744 0.433942 0.342419
0.728249 0.437613 0.346089
0.829755 0.441283 0.349760
0.931260 0.444954 0.353430
0.131491 0.525126 0.336341
0.232997 0.528797 0.340012
0.334502 0.532467 0.343682
0.436008 0.536138 0.347353
0.537514 0.539809 0.351024
0.639019 0.543479 0.354694
0.740525 0.547150 0.358365
0.842030 0.550820 0.362035
0.943536 0.554491 0.365706
0.143767 0.634663 0.348617
0.245272 0.638334 0.352287
0.346778 0.642004 0.355958
0.448284 0.645675 0.359629
0.549789 0.649345 0.363299
0.651295 0.653016 0.366970
0.752800 0.656686 0.370640
0.854306 0.660357 0.374311
0.955811 0.664027 0.377981
0.156042 0.744200 0.360892
0.257548 0.747870 0.364563
0.359053 0.751541 0.368234
0.460559 0.755212 0.371904
0.562065 0.758882 0.375575
0.663570 0.762553 0.379245
0.765076 0.766223 0.382916
0.866581 0.769894 0.386586
0.968087 0.773564 0.390257
0.168318 0.853737 0.373168
0.269823 0.857407 0.376838
0.371329 0.861078 0.380509
0.472835 0.864748 0.384180
0.574340 0.868419 0.387850
0.675846 0.872089 0.391521
0.777351 0.875760 0.395191
0.878857 0.879430 0.398862
0.980362 0.883101 0.402532
0.180593 0.963273 0.385443
0.282099 0.966944 0.389114
0.383605 0.970615 0.392785
0.485110 0.974285 0.396455
0.586616 0.977956 0.400126
0.688121 0.981626 0.403796
0.789627 0.985297 0.407467
0.891132 0.988967 0.411137
0.992638 0.992638 0.414808
0.083616 0.088206 0.384771
0.185122 0.091877 0.388442
0.286627 0.095547 0.392112
0.388133 0.099218 0.395783
0.489639 0.102889 0.399454
0.591144 0.106559 0.403124
0.692650 0.110230 0.406795
0.794155 0.113900 0.410465
0.895661 0.117571 0.414136
0.095892 0.197743 0.397047
0.197397 0.201414 0.400717
0.298903 0.205084 0.404388
0.400409 0.208755 0.408059
0.501914 0.212425 0.411729
0.603420 0.216096 0.415400
0.704925 0.219766 0.419070
0.806431 0.223437 0.422741
0.907936 0.227107 0.426411
0.108167 0.307280 0.409322
0.209673 0.310950 0.412993
0.311178 0.314621 0.416663
0.412684 0.318292 0.420334
0.514190 0.321962 0.424005
0.615695 0.325633 0.427675
0.717201 0.329303 0.431346
0.818706 0.332974 0.435016
0.920212 0.336644 0.438687
0.120443 0.416817 0.421598
0.221948 0.420487 0.425268
0.323454 0.424158 0.428939
0.424960 0.427828 0.432610
0.526465 0.431499 0.436280
0.627971 0.435169 0.439951
0.729476 0.438840 0.443621
0.830982 0.442510 0.447292
0.932487 0.446181 0.450962
0.132718 0.526353 0.433873
0.234224 0.530024 0.437544
0.335730 0.533695 0.441215
0.437235 0.537365 0.444885
0.538741 0.541036 0.448556
0.640246 0.544706 0.452226
0.741752 0.548377 0.455897
0.843257 0.552047 0.459567
0.944763 0.555718 0.463238
0.144994 0.635890 0.446149
0.246499 0.639561 0.449819
0.348005 0.643231 0.453490
0.449511 0.646902 0.457161
0.551016 0.650572 0.460831
0.652522 0.654243 0.464502
0.754027 0.657913 0.468172
0.855533 0.661584 0.471843
0.957038 0.665255 0.475513
0.157269 0.745427 0.458424
0.258775 0.749098 0.462095
0.360281 0.752768 0.465766
0.461786 0.756439 0.469436
0.563292 0.760109 0.473107
0.664797 0.763780 0.476777
0.766303 0.767450 0.480448
0.867808 0.771121 0.484118
0.969314 0.774791 0.487789
0.169545 0.854964 0.470700
0.271051 0.858634 0.474371
0.372556 0.862305 0.478041
0.474062 0.865975 0.481712
0.575567 0.869646 0.485382
0.677073 0.873316 0.489053
0.778578 0.876987 0.492723
0.880084 0.880657 0.496394
0.981589 0.884328 0.500064
0.181820 0.964500 0.482975
0.283326 0.968171 0.486646
0.384832 0.971842 0.490317
0.486337 0.975512 0.493987
0.587843 0.979183 0.497658
0.689348 0.982853 0.501328
0.790854 0.986524 0.504999
0.892359 0.990194 0.508669
0.993865 0.993865 0.512340
0.084843 0.089433 0.482303
0.186349 0.093104 0.485974
0.287854 0.096774 0.489644
0.389360 0.100445 0.493315
0.490866 0.104116 0.496986
0.592371 0.107786 0.500656
0.693877 0.111457 0.504327
0.795382 0.115127 0.507997
0.896888 0.118798 0.511668
0.097119 0.198970 0.494579
0.198624 0.202641 0.498249
0.300130 0.206311 0.501920
0.401636 0.209982 0.505591
0.503141 0.213652 0.509261
0.604647 0.217323 0.512932
0.706152 0.220993 0.516602
0.807658 0.224664 0.520273
0.909163 0.228335 0.523943
0.109394 0.308507 0.506854
0.210900 0.312177 0.510525
0.312406 0.315848 0.514196
0.413911 0.319519 0.517866
0.515417 0.323189 0.521537
0.616922 0.326860 0.525207
0.718428 0.330530 0.528878
0.819933 0.334201 0.532548
0.921439 0.337871 0.536219
0.121670 0.418044 0.519130
0.223175 0.421714 0.522801
0.324681 0.425385 0.526471
0.426187 0.429055 0.530142
0.527692 0.432726 0.533812
0.629198 0.436396 0.537483
0.730703 0.440067 0.541153
0.832209 0.443737 0.544824
0.933714 0.447408 0.548494
0.133945 0.527580 0.531405
0.235451 0.531251 0.535076
0.336957 0.534922 0.538747
0.438462 0.538592 0.542417
0.539968 0.542263 0.546088
0.641473 0.545933 0.549758
0.742979 0.549604 0.553429
0.844484 0.553274 0.557099
0.945990 0.556945 0.560770
0.146221 0.637117 0.543681
0.247727 0.640788 0.547352
0.349232 0.644458 0.551022
0.450738 0.648129 0.554693
0.552243 0.651799 0.558363
0.653749 0.655470 0.562034
0.755254 0.659140 0.565704
0.856760 0.662811 0.569375
0.958265 0.666482 0.573045
0.158496 0.746654 0.555956
0.260002 0.750325 0.559627
0.361508 0.753995 0.563298
0.463013 0.757666 0.566968
0.564519 0.761336 0.570639
0.666024 0.765007 0.574309
0.767530 0.768677 0.577980
0.869035 0.772348 0.581650
0.970541 0.776018 0.585321
0.170772 0.856191 0.568232
0.272278 0.859861 0.571903
0.373783 0.863532 0.575573
0.475289 0.867202 0.579244
0.576794 0.870873 0.582914
0.678300 0.874543 0.586585
0.779805 0.878214 0.590255
0.881311 0.881885 0.593926
0.982816 0.885555 0.597596
0.183048 0.965728 0.580508
0.284553 0.969398 0.584178
0.386059 0.973069 0.587849
0.487564 0.976739 0.591519
0.589070 0.980410 0.595190
0.690575 0.984080 0.598860
0.792081 0.987751 0.602531
0.893586 0.991421 0.606201
0.995092 0.995092 0.609872
0.086070 0.090660 0.579835
0.187576 0.094331 0.583506
0.289082 0.098002 0.587177
0.390587 0.101672 0.590847
0.492093 0.105343 0.594518
0.593598 0.109013 0.598188
0.695104 0.112684 0.601859
0.796609 0.116354 0.605529
0.898115 0.120025 0.609200
0.098346 0.200197 0.592111
0.199852 0.203868 0.595782
0.301357 0.207538 0.599452
0.402863 0.211209 0.603123
0.504368 0.214879 0.606793
0.605874 0.218550 0.610464
0.707379 0.222220 0.614134
0.808885 0.225891 0.617805
0.910390 0.229562 0.621475
0.110621 0.309734 0.604387
0.212127 0.313405 0.608057
0.313633 0.317075 0.611728
0.415138 0.320746 0.615398
0.516644 0.324416 0.619069
0.618149 0.328087 0.622739
0.719655 0.331757 0.626410
0.821160 0.335428 0.630080
0.922666 0.339098 0.633751
0.122897 0.419271 0.616662
0.224403 0.422941 0.620333
0.325908 0.426612 0.624003
0.427414 0.430282 0.627674
0.528919 0.433953 0.631344
0.630425 0.437623 0.635015
0.731930 0.441294 0.638685
0.833436 0.444965 0.642356
0.934941 0.448635 0.646026
0.135173 0.528808 0.628938
0.236678 0.532478 0.632608
0.338184 0.536149 0.636279
0.439689 0.539819 0.639949
0.541195 0.543490 0.643620
0.642700 0.547160 0.647290
0.744206 0.550831 0.650961
0.845711 0.554501 0.654631
0.947217 0.558172 0.658302
0.147448 0.638344 0.641213
0.248954 0.642015 0.644884
0.350459 0.645685 0.648554
0.451965 0.649356 0.652225
0.553470 0.653026 0.655895
0.654976 0.656697 0.659566
0.756481 0.660367 0.663236
0.857987 0.664038 0.666907
0.959492 0.667709 0.670577
0.159724 0.747881 0.653489
0.261229 0.751552 0.657159
0.362735 0.755222 0.660830
0.464240 0.758893 0.664500
0.565746 0.762563 0.668171
0.667251 0.766234 0.671841
0.768757 0.769904 0.675512
0.870262 0.773575 0.679182
0.971768 0.777245 0.682853
0.171999 0.857418 0.665764
0.273505 0.861088 0.669435
0.375010 0.864759 0.673105
0.476516 0.868429 0.676776
0.578021 0.872100 0.680446
0.679527 0.875771 0.684117
0.781032 0.879441 0.687787
0.882538 0.883112 0.691458
0.984043 0.886782 0.695128
0.184275 0.966955 0.678040
0.285780 0.970625 0.681710
0.387286 0.974296 0.685381
0.488791 0.977966 0.689051
0.590297 0.981637 0.692722
0.691802 0.985307 0.696392
0.793308 0.988978 0.700063
0.894813 0.992648 0.703733
0.996319 0.996319 0.707404
0.087297 0.091887 0.677368
0.188803 0.095558 0.681038
0.290309 0.099229 0.684709
0.391814 0.102899 0.688379
0.493320 0.106570 0.692050
0.594825 0.110240 0.695720
0.696331 0.113911 0.699391
0.797836 0.117581 0.703061
0.899342 0.121252 0.706732
0.099573 0.201424 0.689643
0.201079 0.205095 0.693314
0.302584 0.208765 0.696984
0.404090 0.212436 0.700655
0.505595 0.216106 0.704325
0.607101 0.219777 0.707996
0.708606 0.223448 0.711666
0.810112 0.227118 0.715337
0.911617 0.230789 0.719007
0.111849 0.310961 0.701919
0.213354 0.314632 0.705589
0.314860 0.318302 0.709260
0.416365 0.321973 0.712930
0.517871 0.325643 0.716601
0.619376 0.329314 0.720271
0.720882 0.332984 0.723942
0.822387 0.336655 0.727612
0.923893 0.340325 0.731283
0.124124 0.420498 0.714194
0.225630 0.424168 0.717865
0.327135 0.427839 0.721535
0.428641 0.431509 0.725206
0.530146 0.435180 0.728876
0.631652 0.438850 0.732547
0.733157 0.442521 0.736217
0.834663 0.446192 0.739888
0.936168 0.449862 0.743558
0.136400 0.530035 0.726470
0.237905 0.533705 0.730140
0.339411 0.537376 0.733811
0.440916 0.541046 0.737481
0.542422 0.544717 0.741152
0.643927 0.548387 0.744822
0.745433 0.552058 0.748493
0.846938 0.555728 0.752163
0.948444 0.559399 0.755834
0.148675 0.639571 0.738745
0.250181 0.643242 0.742416
0.351686 0.646912 0.746086
0.453192 0.650583 0.749757
0.554697 0.654253 0.753427
0.656203 0.657924 0.757098
0.757708 0.661595 0.760768
0.859214 0.665265 0.764439
0.960719 0.668936 0.768109
0.160951 0.749108 0.751021
0.262456 0.752779 0.754691
0.363962 0.756449 0.758362
0.465467 0.760120 0.762032
0.566973 0.763790 0.765703
0.668478 0.767461 0.769373
0.769984 0.771131 0.773044
0.871489 0.774802 0.776714
0.972995 0.778472 0.780385
0.173226 0.858645 0.763296
0.274732 0.862315 0.766967
0.376237 0.865986 0.770637
0.477743 0.869656 0.774308
0.579248 0.873327 0.777978
0.680754 0.876998 0.781649
0.782259 0.880668 0.785319
0.883765 0.884339 0.788990
0.985270 0.888009 0.792660
0.185502 0.968182 0.775572
0.287007 0.971852 0.779242
0.388513 0.975523 0.782913
0.490018 0.979193 0.786583
0.591524 0.982864 0.790254
0.693029 0.986534 0.793924
0.794535 0.990205 0.797595
0.896040 0.993875 0.801265
0.997546 0.997546 0.804936
0.088525 0.093115 0.774900
0.190030 0.096785 0.778570
0.291536 0.100456 0.782241
0.393041 0.104126 0.785911
0.494547 0.107797 0.789582
0.596052 0.111467 0.793252
0.697558 0.115138 0.796923
0.799063 0.118808 0.800593
0.900569 0.122479 0.804264
0.100800 0.202651 0.787175
0.202306 0.206322 0.790846
0.303811 0.209992 0.794516
0.405317 0.213663 0.798187
0.506822 0.217333 0.801857
0.608328 0.221004 0.805528
0.709833 0.224675 0.809198
0.811339 0.228345 0.812869
0.912844 0.232016 0.816539
0.113076 0.312188 0.799451
0.214581 0.315859 0.803121
0.316087 0.319529 0.806792
0.417592 0.323200 0.810462
0.519098 0.326870 0.814133
0.620603 0.330541 0.817803
0.722109 0.334211 0.821474
0.823614 0.337882 0.825144
0.925120 0.341552 0.828815
0.125351 0.421725 0.811726
0.226857 0.425395 0.815397
0.328362 0.429066 0.819067
0.429868 0.432736 0.822738
0.531373 0.436407 0.826408
0.632879 0.440078 0.830079
0.734384 0.443748 0.833749
0.835890 0.447419 0.837420
0.937395 0.451089 0.841090
0.137627 0.531262 0.824002
0.239132 0.534932 0.827672
0.340638 0.538603 0.831343
0.442143 0.542273 0.835013
0.543649 0.545944 0.838684
0.645154 0.549614 0.842354
0.746660 0.553285 0.846025
0.848165 0.556955 0.849695
0.949671 0.560626 0.853366
0.149902 0.640798 0.836277
0.251408 0.644469 0.839948
0.352913 0.648139 0.843618
0.454419 0.651810 0.847289
0.555924 0.655481 0.850959
0.657430 0.659151 0.854630
0.758935 0.662822 0.858300
0.860441 0.666492 0.861971
0.961946 0.670163 0.865641
0.162178 0.750335 0.848553
0.263683 0.754006 0.852223
0.365189 0.757676 0.855894
0.466694 0.761347 0.859564
0.568200 0.765017 0.863235
0.669705 0.768688 0.866905
0.771211 0.772358 0.870576
0.872716 0.776029 0.874246
0.974222 0.779699 0.877917
0.174453 0.859872 0.860828
0.275959 0.863542 0.864499
0.377464 0.867213 0.868169
0.478970 0.870884 0.871840
0.580475 0.874554 0.875510
0.681981 0.878225 0.879181
0.783486 0.881895 0.882851
0.884992 0.885566 0.886522
0.986497 0.889236 0.890192
0.186729 0.969409 0.873104
0.288234 0.973079 0.876774
0.389740 0.976750 0.880445
0.491245 0.980420 0.884115
0.592751 0.984091 0.887786
0.694256 0.987761 0.891456
0.795762 0.991432 0.895127
0.897267 0.995102 0.898797
0.998773 0.998773 0.902468
0.089752 0.094342 0.872432
0.191257 0.098012 0.876102
0.292763 0.101683 0.879773
0.394268 0.105353 0.883443
0.495774 0.109024 0.887114
0.597279 0.112694 0.890784
0.698785 0.116365 0.894455
0.800290 0.120035 0.898125
0.901796 0.123706 0.901796
0.102027 0.203878 0.884707
0.203533 0.207549 0.888378
0.305038 0.211219 0.892048
0.406544 0.214890 0.895719
0.508049 0.218561 0.899389
0.609555 0.222231 0.903060
0.711060 0.225902 0.906730
0.812566 0.229572 0.910401
0.914071 0.233243 0.914071
0.114303 0.313415 0.896983
0.215808 0.317086 0.900653
0.317314 0.320756 0.904324
0.418819 0.324427 0.907994
0.520325 0.328097 0.911665
0.621830 0.331768 0.915335
0.723336 0.335438 0.919006
0.824841 0.339109 0.922676
0.926347 0.342779 0.926347
0.126578 0.422952 0.909258
0.228084 0.426622 0.912929
0.329589 0.430293 0.916599
0.431095 0.433963 0.920270
0.532600 0.437634 0.923940
0.634106 0.441305 0.927611
0.735611 0.444975 0.931281
0.837117 0.448646 0.934952
0.938622 0.452316 0.938622
0.138854 0.532489 0.921534
0.240359 0.536159 0.925204
0.341865 0.539830 0.928875
0.443370 0.543500 0.932545
0.544876 0.547171 0.936216
0.646381 0.550841 0.939886
0.747887 0.554512 0.943557
0.849392 0.558182 0.947227
0.950898 0.561853 0.950898
0.151129 0.642025 0.933809
0.252635 0.645696 0.937480
0.354140 0.649366 0.941150
0.455646 0.653037 0.944821
0.557151 0.656708 0.948491
0.658657 0.660378 0.952162
0.760162 0.664049 0.955832
0.861668 0.667719 0.959503
0.963173 0.671390 0.963173
0.163405 0.751562 0.946085
0.264910 0.755233 0.949755
0.366416 0.758903 0.953426
0.467921 0.762574 0.957096
0.569427 0.766244 0.960767
0.670932 0.769915 0.964437
0.772438 0.773585 0.968108
0.873943 0.777256 0.971778
0.975449 0.780926 0.975449
0.175680 0.861099 0.958360
0.277186 0.864769 0.962031
0.378691 0.868440 0.965701
0.480197 0.872111 0.969372
0.581702 0.875781 0.973042
0.683208 0.879452 0.976713
0.784713 0.883122 0.980383
0.886219 0.886793 0.984054
0.987724 0.890463 0.987724
0.187956 0.970636 0.970636
0.289461 0.974306 0.974306
0.390967 0.977977 0.977977
0.492472 0.981647 0.981647
0.593978 0.985318 0.985318
0.695483 0.988988 0.988988
0.796989 0.992659 0.992659
0.898494 0.996329 0.996329
1.000000 1.000000 1.000000
