assets/presets/luts/product-clean/lut.cube
TITLE "Product Clean"
LUT_3D_SIZE 9
0.000000 0.000000 0.000000
0.084800 0.000000 0.000000
0.249465 0.000000 0.000000
0.414131 0.000000 0.000000
0.578797 0.000000 0.000000
0.743463 0.000000 0.000000
0.908128 0.000000 0.000000
1.000000 0.000000 0.000000
1.000000 0.000000 0.000000
0.000000 0.075726 0.000000
0.071888 0.071888 0.000000
0.236553 0.068049 0.000000
0.401219 0.064211 0.000000
0.565885 0.060373 0.000000
0.730550 0.056534 0.000000
0.895216 0.052696 0.000000
1.000000 0.048858 0.000000
1.000000 0.045020 0.000000
0.000000 0.231318 0.000000
0.058975 0.227479 0.000000
0.223641 0.223641 0.000000
0.388307 0.219803 0.000000
0.552972 0.215964 0.000000
0.717638 0.212126 0.000000
0.882304 0.208288 0.000000
1.000000 0.204450 0.000000
1.000000 0.200611 0.000000
0.000000 0.386909 0.000000
0.046063 0.383071 0.000000
0.210729 0.379233 0.000000
0.375394 0.375394 0.000000
0.540060 0.371556 0.000000
0.704726 0.367718 0.000000
0.869392 0.363880 0.000000
1.000000 0.360041 0.000000
1.000000 0.356203 0.000000
0.000000 0.542501 0.000000
0.033151 0.538663 0.000000
0.197817 0.534825 0.000000
0.362482 0.530986 0.000000
0.527148 0.527148 0.000000
0.691814 0.523310 0.000000
0.856479 0.519471 0.000000
1.000000 0.515633 0.000000
1.000000 0.511795 0.000000
0.000000 0.698093 0.000000
0.020239 0.694255 0.000000
0.184904 0.690416 0.000000
0.349570 0.686578 0.000000
0.514236 0.682740 0.000000
0.678901 0.678901 0.000000
0.843567 0.675063 0.000000
1.000000 0.671225 0.000000
1.000000 0.667387 0.000000
0.000000 0.853685 0.000000
0.007326 0.849846 0.000000
0.171992 0.846008 0.000000
0.336658 0.842170 0.000000
0.501324 0.838332 0.000000
0.665989 0.834493 0.000000
0.830655 0.830655 0.000000
0.995321 0.826817 0.000000
1.000000 0.822978 0.000000
0.000000 1.000000 0.000000
0.000000 1.000000 0.000000
0.159080 1.000000 0.000000
0.323746 0.997762 0.000000
0.488411 0.993923 0.000000
0.653077 0.990085 0.000000
0.817743 0.986247 0.000000
0.982408 0.982408 0.000000
1.000000 0.978570 0.000000
0.000000 1.000000 0.000000
0.000000 1.000000 0.000000
0.146168 1.000000 0.000000
0.310833 1.000000 0.000000
0.475499 1.000000 0.000000
0.640165 1.000000 0.000000
0.804831 1.000000 0.000000
0.969496 1.000000 0.000000
1.000000 1.000000 0.000000
0.000000 0.000000 0.087334
0.083496 0.000000 0.083496
0.248162 0.000000 0.079658
0.412828 0.000000 0.075820
0.577493 0.000000 0.071981
0.742159 0.000000 0.068143
0.906825 0.000000 0.064305
1.000000 0.000000 0.060467
1.000000 0.000000 0.056628
0.000000 0.074422 0.074422
0.070584 0.070584 0.070584
0.235250 0.066746 0.066746
0.399915 0.062907 0.062907
0.564581 0.059069 0.059069
0.729247 0.055231 0.055231
0.893913 0.051393 0.051393
1.000000 0.047554 0.047554
1.000000 0.043716 0.043716
0.000000 0.230014 0.061510
0.057672 0.226176 0.057672
0.222337 0.222337 0.053833
0.387003 0.218499 0.049995
0.551669 0.214661 0.046157
0.716335 0.210823 0.042319
0.881000 0.206984 0.038480
1.000000 0.203146 0.034642
1.000000 0.199308 0.030804
0.000000 0.385606 0.048598
0.044760 0.381768 0.044760
0.209425 0.377929 0.040921
0.374091 0.374091 0.037083
0.538757 0.370253 0.033245
0.703422 0.366414 0.029406
0.868088 0.362576 0.025568
1.000000 0.358738 0.021730
1.000000 0.354900 0.017892
0.000000 0.541198 0.035686
0.031847 0.537359 0.031847
0.196513 0.533521 0.028009
0.361179 0.529683 0.024171
0.525845 0.525845 0.020332
0.690510 0.522006 0.016494
0.855176 0.518168 0.012656
1.000000 0.514330 0.008818
1.000000 0.510491 0.004979
0.000000 0.696789 0.022773
0.018935 0.692951 0.018935
0.183601 0.689113 0.015097
0.348267 0.685275 0.011259
0.512932 0.681436 0.007420
0.677598 0.677598 0.003582
0.842264 0.673760 0.000000
1.000000 0.669921 0.000000
1.000000 0.666083 0.000000
0.000000 0.852381 0.009861
0.006023 0.848543 0.006023
0.170689 0.844705 0.002185
0.335354 0.840866 0.000000
0.500020 0.837028 0.000000
0.664686 0.833190 0.000000
0.829351 0.829351 0.000000
0.994017 0.825513 0.000000
1.000000 0.821675 0.000000
0.000000 1.000000 0.000000
0.000000 1.000000 0.000000
0.157776 1.000000 0.000000
0.322442 0.996458 0.000000
0.487108 0.992620 0.000000
0.651774 0.988782 0.000000
0.816439 0.984943 0.000000
0.981105 0.981105 0.000000
1.000000 0.977267 0.000000
0.000000 1.000000 0.000000
0.000000 1.000000 0.000000
0.144864 1.000000 0.000000
0.309530 1.000000 0.000000
0.474196 1.000000 0.000000
0.638861 1.000000 0.000000
0.803527 1.000000 0.000000
0.968193 1.000000 0.000000
1.000000 1.000000 0.000000
0.000000 0.000000 0.254535
0.082193 0.000000 0.250697
0.246858 0.000000 0.246858
0.411524 0.000000 0.243020
0.576190 0.000000 0.239182
0.740856 0.000000 0.235344
0.905521 0.000000 0.231505
1.000000 0.000000 0.227667
1.000000 0.000000 0.223829
0.000000 0.073119 0.241623
0.069280 0.069280 0.237785
0.233946 0.065442 0.233946
0.398612 0.061604 0.230108
0.563278 0.057766 0.226270
0.727943 0.053927 0.222431
0.892609 0.050089 0.218593
1.000000 0.046251 0.214755
1.000000 0.042413 0.210917
0.000000 0.228711 0.228711
0.056368 0.224872 0.224872
0.221034 0.221034 0.221034
0.385700 0.217196 0.217196
0.550365 0.213357 0.213357
0.715031 0.209519 0.209519
0.879697 0.205681 0.205681
1.000000 0.201843 0.201843
1.000000 0.198004 0.198004
0.000000 0.384302 0.215798
0.043456 0.380464 0.211960
0.208122 0.376626 0.208122
0.372788 0.372788 0.204284
0.537453 0.368949 0.200445
0.702119 0.365111 0.196607
0.866785 0.361273 0.192769
1.000000 0.357434 0.188930
1.000000 0.353596 0.185092
0.000000 0.539894 0.202886
0.030544 0.536056 0.199048
0.195210 0.532218 0.195210
0.359875 0.528379 0.191371
0.524541 0.524541 0.187533
0.689207 0.520703 0.183695
0.853872 0.516864 0.179856
1.000000 0.513026 0.176018
1.000000 0.509188 0.172180
0.000000 0.695486 0.189974
0.017632 0.691648 0.186136
0.182297 0.687809 0.182297
0.346963 0.683971 0.178459
0.511629 0.680133 0.174621
0.676295 0.676295 0.170782
0.840960 0.672456 0.166944
1.000000 0.668618 0.163106
1.000000 0.664780 0.159268
0.000000 0.851078 0.177062
0.004719 0.847239 0.173223
0.169385 0.843401 0.169385
0.334051 0.839563 0.165547
0.498717 0.835725 0.161709
0.663382 0.831886 0.157870
0.828048 0.828048 0.154032
0.992714 0.824210 0.150194
1.000000 0.820371 0.146355
0.000000 1.000000 0.164149
0.000000 1.000000 0.160311
0.156473 0.998993 0.156473
0.321139 0.995155 0.152635
0.485804 0.991316 0.148796
0.650470 0.987478 0.144958
0.815136 0.983640 0.141120
0.979801 0.979801 0.137281
1.000000 0.975963 0.133443
0.000000 1.000000 0.151237
0.000000 1.000000 0.147399
0.143561 1.000000 0.143561
0.308226 1.000000 0.139722
0.472892 1.000000 0.135884
0.637558 1.000000 0.132046
0.802224 1.000000 0.128208
0.966889 1.000000 0.124369
1.000000 1.000000 0.120531
0.000000 0.000000 0.421735
0.080889 0.000000 0.417897
0.245555 0.000000 0.414059
0.410221 0.000000 0.410221
0.574886 0.000000 0.406382
0.739552 0.000000 0.402544
0.904218 0.000000 0.398706
1.000000 0.000000 0.394868
1.000000 0.000000 0.391029
0.000000 0.071815 0.408823
0.067977 0.067977 0.404985
0.232643 0.064139 0.401147
0.397308 0.060300 0.397308
0.561974 0.056462 0.393470
0.726640 0.052624 0.389632
0.891306 0.048786 0.385794
1.000000 0.044947 0.381955
1.000000 0.041109 0.378117
0.000000 0.227407 0.395911
0.055065 0.223569 0.392073
0.219730 0.219730 0.388234
0.384396 0.215892 0.384396
0.549062 0.212054 0.380558
0.713728 0.208216 0.376720
0.878393 0.204377 0.372881
1.000000 0.200539 0.369043
1.000000 0.196701 0.365205
0.000000 0.382999 0.382999
0.042153 0.379161 0.379161
0.206818 0.375322 0.375322
0.371484 0.371484 0.371484
0.536150 0.367646 0.367646
0.700815 0.363807 0.363807
0.865481 0.359969 0.359969
1.000000 0.356131 0.356131
1.000000 0.352293 0.352293
0.000000 0.538591 0.370087
0.029240 0.534752 0.366248
0.193906 0.530914 0.362410
0.358572 0.527076 0.358572
0.523238 0.523238 0.354733
0.687903 0.519399 0.350895
0.852569 0.515561 0.347057
1.000000 0.511723 0.343219
1.000000 0.507884 0.339380
0.000000 0.694182 0.357174
0.016328 0.690344 0.353336
0.180994 0.686506 0.349498
0.345660 0.682668 0.345660
0.510325 0.678829 0.341821
0.674991 0.674991 0.337983
0.839657 0.671153 0.334145
1.000000 0.667314 0.330306
1.000000 0.663476 0.326468
0.000000 0.849774 0.344262
0.003416 0.845936 0.340424
0.168082 0.842098 0.336586
0.332747 0.838259 0.332747
0.497413 0.834421 0.328909
0.662079 0.830583 0.325071
0.826744 0.826744 0.321232
0.991410 0.822906 0.317394
1.000000 0.819068 0.313556
0.000000 1.000000 0.331350
0.000000 1.000000 0.327512
0.155169 0.997689 0.323673
0.319835 0.993851 0.319835
0.484501 0.990013 0.315997
0.649167 0.986175 0.312159
0.813832 0.982336 0.308320
0.978498 0.978498 0.304482
1.000000 0.974660 0.300644
0.000000 1.000000 0.318438
0.000000 1.000000 0.314599
0.142257 1.000000 0.310761
0.306923 1.000000 0.306923
0.471589 1.000000 0.303085
0.636254 1.000000 0.299246
0.800920 1.000000 0.295408
0.965586 1.000000 0.291570
1.000000 1.000000 0.287731
0.000000 0.000000 0.588936
0.079586 0.000000 0.585098
0.244251 0.000000 0.581259
0.408917 0.000000 0.577421
0.573583 0.000000 0.573583
0.738249 0.000000 0.569745
0.902914 0.000000 0.565906
1.000000 0.000000 0.562068
1.000000 0.000000 0.558230
0.000000 0.070512 0.576024
0.066674 0.066674 0.572186
0.231339 0.062835 0.568347
0.396005 0.058997 0.564509
0.560671 0.055159 0.560671
0.725336 0.051320 0.556832
0.890002 0.047482 0.552994
1.000000 0.043644 0.549156
1.000000 0.039806 0.545318
0.000000 0.226104 0.563112
0.053761 0.222265 0.559273
0.218427 0.218427 0.555435
0.383093 0.214589 0.551597
0.547758 0.210750 0.547758
0.712424 0.206912 0.543920
0.877090 0.203074 0.540082
1.000000 0.199236 0.536244
1.000000 0.195397 0.532405
0.000000 0.381695 0.550199
0.040849 0.377857 0.546361
0.205515 0.374019 0.542523
0.370180 0.370180 0.538684
0.534846 0.366342 0.534846
0.699512 0.362504 0.531008
0.864178 0.358666 0.527170
1.000000 0.354827 0.523331
1.000000 0.350989 0.519493
0.000000 0.537287 0.537287
0.027937 0.533449 0.533449
0.192603 0.529611 0.529611
0.357268 0.525772 0.525772
0.521934 0.521934 0.521934
0.686600 0.518096 0.518096
0.851265 0.514257 0.514257
1.000000 0.510419 0.510419
1.000000 0.506581 0.506581
0.000000 0.692879 0.524375
0.015025 0.689041 0.520537
0.179690 0.685202 0.516698
0.344356 0.681364 0.512860
0.509022 0.677526 0.509022
0.673688 0.673688 0.505184
0.838353 0.669849 0.501345
1.000000 0.666011 0.497507
1.000000 0.662173 0.493669
0.000000 0.848471 0.511463
0.002112 0.844632 0.507624
0.166778 0.840794 0.503786
0.331444 0.836956 0.499948
0.496110 0.833118 0.496110
0.660775 0.829279 0.492271
0.825441 0.825441 0.488433
0.990107 0.821603 0.484595
1.000000 0.817764 0.480756
0.000000 1.000000 0.498550
0.000000 1.000000 0.494712
0.153866 0.996386 0.490874
0.318532 0.992548 0.487036
0.483197 0.988709 0.483197
0.647863 0.984871 0.479359
0.812529 0.981033 0.475521
0.977194 0.977194 0.471682
1.000000 0.973356 0.467844
0.000000 1.000000 0.485638
0.000000 1.000000 0.481800
0.140954 1.000000 0.477962
0.305619 1.000000 0.474123
0.470285 1.000000 0.470285
0.634951 1.000000 0.466447
0.799617 1.000000 0.462609
0.964282 1.000000 0.458770
1.000000 1.000000 0.454932
0.000000 0.000000 0.756136
0.078282 0.000000 0.752298
0.242948 0.000000 0.748460
0.407614 0.000000 0.744622
0.572279 0.000000 0.740783
0.736945 0.000000 0.736945
0.901611 0.000000 0.733107
1.000000 0.000000 0.729269
1.000000 0.000000 0.725430
0.000000 0.069208 0.743224
0.065370 0.065370 0.739386
0.230036 0.061532 0.735548
0.394701 0.057693 0.731709
0.559367 0.053855 0.727871
0.724033 0.050017 0.724033
0.888699 0.046179 0.720195
1.000000 0.042340 0.716356
1.000000 0.038502 0.712518
0.000000 0.224800 0.730312
0.052458 0.220962 0.726474
0.217124 0.217124 0.722636
0.381789 0.213285 0.718797
0.546455 0.209447 0.714959
0.711121 0.205609 0.711121
0.875786 0.201770 0.707282
1.000000 0.197932 0.703444
1.000000 0.194094 0.699606
0.000000 0.380392 0.717400
0.039546 0.376554 0.713562
0.204211 0.372715 0.709723
0.368877 0.368877 0.705885
0.533543 0.365039 0.702047
0.698208 0.361200 0.698208
0.862874 0.357362 0.694370
1.000000 0.353524 0.690532
1.000000 0.349686 0.686694
0.000000 0.535984 0.704488
0.026633 0.532145 0.700649
0.191299 0.528307 0.696811
0.355965 0.524469 0.692973
0.520630 0.520630 0.689134
0.685296 0.516792 0.685296
0.849962 0.512954 0.681458
1.000000 0.509116 0.677620
1.000000 0.505277 0.673781
0.000000 0.691575 0.691575
0.013721 0.687737 0.687737
0.178387 0.683899 0.683899
0.343053 0.680061 0.680061
0.507718 0.676222 0.676222
0.672384 0.672384 0.672384
0.837050 0.668546 0.668546
1.000000 0.664707 0.664707
1.000000 0.660869 0.660869
0.000000 0.847167 0.678663
0.000809 0.843329 0.674825
0.165475 0.839491 0.670987
0.330140 0.835652 0.667148
0.494806 0.831814 0.663310
0.659472 0.827976 0.659472
0.824138 0.824138 0.655634
0.988803 0.820299 0.651795
1.000000 0.816461 0.647957
0.000000 1.000000 0.665751
0.000000 0.998921 0.661913
0.152562 0.995082 0.658074
0.317228 0.991244 0.654236
0.481894 0.987406 0.650398
0.646560 0.983568 0.646560
0.811225 0.979729 0.642721
0.975891 0.975891 0.638883
1.000000 0.972053 0.635045
0.000000 1.000000 0.652839
0.000000 1.000000 0.649000
0.139650 1.000000 0.645162
0.304316 1.000000 0.641324
0.468982 1.000000 0.637486
0.633647 1.000000 0.633647
0.798313 1.000000 0.629809
0.962979 1.000000 0.625971
1.000000 1.000000 0.622132
0.000000 0.000000 0.923337
0.076979 0.000000 0.919499
0.241644 0.000000 0.915660
0.406310 0.000000 0.911822
0.570976 0.000000 0.907984
0.735642 0.000000 0.904146
0.900307 0.000000 0.900307
1.000000 0.000000 0.896469
1.000000 0.000000 0.892631
0.000000 0.067905 0.910425
0.064067 0.064067 0.906587
0.228732 0.060228 0.902748
0.393398 0.056390 0.898910
0.558064 0.052552 0.895072
0.722729 0.048713 0.891233
0.887395 0.044875 0.887395
1.000000 0.041037 0.883557
1.000000 0.037199 0.879719
0.000000 0.223497 0.897513
0.051154 0.219658 0.893674
0.215820 0.215820 0.889836
0.380486 0.211982 0.885998
0.545151 0.208143 0.882159
0.709817 0.204305 0.878321
0.874483 0.200467 0.874483
1.000000 0.196629 0.870645
1.000000 0.192790 0.866806
0.000000 0.379088 0.884600
0.038242 0.375250 0.880762
0.202908 0.371412 0.876924
0.367573 0.367573 0.873085
0.532239 0.363735 0.869247
0.696905 0.359897 0.865409
0.861571 0.356059 0.861571
1.000000 0.352220 0.857732
1.000000 0.348382 0.853894
0.000000 0.534680 0.871688
0.025330 0.530842 0.867850
0.189996 0.527004 0.864012
0.354661 0.523165 0.860173
0.519327 0.519327 0.856335
0.683993 0.515489 0.852497
0.848658 0.511650 0.848658
1.000000 0.507812 0.844820
1.000000 0.503974 0.840982
0.000000 0.690272 0.858776
0.012418 0.686434 0.854938
0.177083 0.682595 0.851099
0.341749 0.678757 0.847261
0.506415 0.674919 0.843423
0.671081 0.671081 0.839585
0.835746 0.667242 0.835746
1.000000 0.663404 0.831908
1.000000 0.659566 0.828070
0.000000 0.845864 0.845864
0.000000 0.842025 0.842025
0.164171 0.838187 0.838187
0.328837 0.834349 0.834349
0.493503 0.830511 0.830511
0.658168 0.826672 0.826672
0.822834 0.822834 0.822834
0.987500 0.818996 0.818996
1.000000 0.815157 0.815157
0.000000 1.000000 0.832951
0.000000 0.997617 0.829113
0.151259 0.993779 0.825275
0.315925 0.989941 0.821437
0.480590 0.986102 0.817598
0.645256 0.982264 0.813760
0.809922 0.978426 0.809922
0.974588 0.974588 0.806084
1.000000 0.970749 0.802245
0.000000 1.000000 0.820039
0.000000 1.000000 0.816201
0.138347 1.000000 0.812363
0.303012 1.000000 0.808524
0.467678 1.000000 0.804686
0.632344 1.000000 0.800848
0.797010 1.000000 0.797010
0.961675 1.000000 0.793171
1.000000 1.000000 0.789333
0.000000 0.000000 1.000000
0.075675 0.000000 1.000000
0.240341 0.000000 1.000000
0.405007 0.000000 1.000000
0.569672 0.000000 1.000000
0.734338 0.000000 1.000000
0.899004 0.000000 1.000000
1.000000 0.000000 1.000000
1.000000 0.000000 1.000000
0.000000 0.066601 1.000000
0.062763 0.062763 1.000000
0.227429 0.058925 1.000000
0.392094 0.055086 1.000000
0.556760 0.051248 1.000000
0.721426 0.047410 1.000000
0.886092 0.043572 1.000000
1.000000 0.039733 1.000000
1.000000 0.035895 1.000000
0.000000 0.222193 1.000000
0.049851 0.218355 1.000000
0.214517 0.214517 1.000000
0.379182 0.210678 1.000000
0.543848 0.206840 1.000000
0.708514 0.203002 1.000000
0.873179 0.199163 1.000000
1.000000 0.195325 1.000000
1.000000 0.191487 1.000000
0.000000 0.377785 1.000000
0.036939 0.373947 1.000000
0.201604 0.370108 1.000000
0.366270 0.366270 1.000000
0.530936 0.362432 1.000000
0.695601 0.358593 1.000000
0.860267 0.354755 1.000000
1.000000 0.350917 1.000000
1.000000 0.347079 1.000000
0.000000 0.533377 1.000000
0.024026 0.529538 1.000000
0.188692 0.525700 1.000000
0.353358 0.521862 1.000000
0.518023 0.518023 1.000000
0.682689 0.514185 1.000000
0.847355 0.510347 1.000000
1.000000 0.506509 1.000000
1.000000 0.502670 1.000000
0.000000 0.688968 1.000000
0.011114 0.685130 1.000000
0.175780 0.681292 1.000000
0.340446 0.677454 1.000000
0.505111 0.673615 1.000000
0.669777 0.669777 1.000000
0.834443 0.665939 1.000000
0.999108 0.662100 0.999108
1.000000 0.658262 0.995270
0.000000 0.844560 1.000000
0.000000 0.840722 1.000000
0.162868 0.836884 1.000000
0.327533 0.833045 1.000000
0.492199 0.829207 0.997711
0.656865 0.825369 0.993873
0.821531 0.821531 0.990035
0.986196 0.817692 0.986196
1.000000 0.813854 0.982358
0.000000 1.000000 1.000000
0.000000 0.996314 0.996314
0.149955 0.992475 0.992475
0.314621 0.988637 0.988637
0.479287 0.984799 0.984799
0.643953 0.980961 0.980961
0.808618 0.977122 0.977122
0.973284 0.973284 0.973284
1.000000 0.969446 0.969446
0.000000 1.000000 0.987240
0.000000 1.000000 0.983401
0.137043 1.000000 0.979563
0.301709 1.000000 0.975725
0.466375 1.000000 0.971887
0.631040 1.000000 0.968048
0.795706 1.000000 0.964210
0.960372 1.000000 0.960372
1.000000 1.000000 0.956533
0.000000 0.000000 1.000000
0.074372 0.000000 1.000000
0.239037 0.000000 1.000000
0.403703 0.000000 1.000000
0.568369 0.000000 1.000000
0.733035 0.000000 1.000000
0.897700 0.000000 1.000000
1.000000 0.000000 1.000000
1.000000 0.000000 1.000000
0.000000 0.065298 1.000000
0.061460 0.061460 1.000000
0.226125 0.057621 1.000000
0.390791 0.053783 1.000000
0.555457 0.049945 1.000000
0.720122 0.046106 1.000000
0.884788 0.042268 1.000000
1.000000 0.038430 1.000000
1.000000 0.034592 1.000000
0.000000 0.220890 1.000000
0.048547 0.217051 1.000000
0.213213 0.213213 1.000000
0.377879 0.209375 1.000000
0.542544 0.205536 1.000000
0.707210 0.201698 1.000000
0.871876 0.197860 1.000000
1.000000 0.194022 1.000000
1.000000 0.190183 1.000000
0.000000 0.376481 1.000000
0.035635 0.372643 1.000000
0.200301 0.368805 1.000000
0.364967 0.364967 1.000000
0.529632 0.361128 1.000000
0.694298 0.357290 1.000000
0.858964 0.353452 1.000000
1.000000 0.349613 1.000000
1.000000 0.345775 1.000000
0.000000 0.532073 1.000000
0.022723 0.528235 1.000000
0.187389 0.524397 1.000000
0.352054 0.520558 1.000000
0.516720 0.516720 1.000000
0.681386 0.512882 1.000000
0.846051 0.509043 1.000000
1.000000 0.505205 1.000000
1.000000 0.501367 1.000000
0.000000 0.687665 1.000000
0.009811 0.683827 1.000000
0.174476 0.679988 1.000000
0.339142 0.676150 1.000000
0.503808 0.672312 1.000000
0.668473 0.668473 1.000000
0.833139 0.664635 1.000000
0.997805 0.660797 1.000000
1.000000 0.656959 1.000000
0.000000 0.843257 1.000000
0.000000 0.839418 1.000000
0.161564 0.835580 1.000000
0.326230 0.831742 1.000000
0.490896 0.827904 1.000000
0.655561 0.824065 1.000000
0.820227 0.820227 1.000000
0.984893 0.816389 1.000000
1.000000 0.812550 1.000000
0.000000 0.998848 1.000000
0.000000 0.995010 1.000000
0.148652 0.991172 1.000000
0.313318 0.987334 1.000000
0.477983 0.983495 1.000000
0.642649 0.979657 1.000000
0.807315 0.975819 1.000000
0.971981 0.971981 1.000000
1.000000 0.968142 1.000000
0.000000 1.000000 1.000000
0.000000 1.000000 1.000000
0.135740 1.000000 1.000000
0.300405 1.000000 1.000000
0.465071 1.000000 1.000000
0.629737 1.000000 1.000000
0.794403 1.000000 1.000000
0.959068 1.000000 1.000000
1.000000 1.000000 1.000000
