assets/presets/luts/product-clean/lut.cube
TITLE "Product Clean"
LUT_3D_SIZE 17
0.000000 0.000000 0.000000
0.002467 0.000000 0.000000
0.084800 0.000000 0.000000
0.167133 0.000000 0.000000
0.249465 0.000000 0.000000
0.331798 0.000000 0.000000
0.414131 0.000000 0.000000
0.496464 0.000000 0.000000
0.578797 0.000000 0.000000
0.661130 0.000000 0.000000
0.743463 0.000000 0.000000
0.825795 0.000000 0.000000
0.908128 0.000000 0.000000
0.990461 0.000000 0.000000
1.000000 0.000000 0.000000
1.000000 0.000000 0.000000
1.000000 0.000000 0.000000
0.000000 0.000000 0.000000
0.000000 0.000000 0.000000
0.078344 0.000000 0.000000
0.160676 0.000000 0.000000
0.243009 0.000000 0.000000
0.325342 0.000000 0.000000
0.407675 0.000000 0.000000
0.490008 0.000000 0.000000
0.572341 0.000000 0.000000
0.654674 0.000000 0.000000
0.737006 0.000000 0.000000
0.819339 0.000000 0.000000
0.901672 0.000000 0.000000
0.984005 0.000000 0.000000
1.000000 0.000000 0.000000
1.000000 0.000000 0.000000
1.000000 0.000000 0.000000
0.000000 0.075726 0.000000
0.000000 0.073807 0.000000
0.071888 0.071888 0.000000
0.154220 0.069968 0.000000
0.236553 0.068049 0.000000
0.318886 0.066130 0.000000
0.401219 0.064211 0.000000
0.483552 0.062292 0.000000
0.565885 0.060373 0.000000
0.648217 0.058454 0.000000
0.730550 0.056534 0.000000
0.812883 0.054615 0.000000
0.895216 0.052696 0.000000
0.977549 0.050777 0.000000
1.000000 0.048858 0.000000
1.000000 0.046939 0.000000
1.000000 0.045020 0.000000
0.000000 0.153522 0.000000
0.000000 0.151603 0.000000
0.065431 0.149683 0.000000
0.147764 0.147764 0.000000
0.230097 0.145845 0.000000
0.312430 0.143926 0.000000
0.394763 0.142007 0.000000
0.477096 0.140088 0.000000
0.559429 0.138169 0.000000
0.641761 0.136249 0.000000
0.724094 0.134330 0.000000
0.806427 0.132411 0.000000
0.888760 0.130492 0.000000
0.971093 0.128573 0.000000
1.000000 0.126654 0.000000
1.000000 0.124735 0.000000
1.000000 0.122815 0.000000
0.000000 0.231318 0.000000
0.000000 0.229398 0.000000
0.058975 0.227479 0.000000
0.141308 0.225560 0.000000
0.223641 0.223641 0.000000
0.305974 0.221722 0.000000
0.388307 0.219803 0.000000
0.470640 0.217884 0.000000
0.552972 0.215964 0.000000
0.635305 0.214045 0.000000
0.717638 0.212126 0.000000
0.799971 0.210207 0.000000
0.882304 0.208288 0.000000
0.964637 0.206369 0.000000
1.000000 0.204450 0.000000
1.000000 0.202530 0.000000
1.000000 0.200611 0.000000
0.000000 0.309113 0.000000
0.000000 0.307194 0.000000
0.052519 0.305275 0.000000
0.134852 0.303356 0.000000
0.217185 0.301437 0.000000
0.299518 0.299518 0.000000
0.381851 0.297599 0.000000
0.464183 0.295679 0.000000
0.546516 0.293760 0.000000
0.628849 0.291841 0.000000
0.711182 0.289922 0.000000
0.793515 0.288003 0.000000
0.875848 0.286084 0.000000
0.958181 0.284165 0.000000
1.000000 0.282245 0.000000
1.000000 0.280326 0.000000
1.000000 0.278407 0.000000
0.000000 0.386909 0.000000
0.000000 0.384990 0.000000
0.046063 0.383071 0.000000
0.128396 0.381152 0.000000
0.210729 0.379233 0.000000
0.293062 0.377314 0.000000
0.375394 0.375394 0.000000
0.457727 0.373475 0.000000
0.540060 0.371556 0.000000
0.622393 0.369637 0.000000
0.704726 0.367718 0.000000
0.787059 0.365799 0.000000
0.869392 0.363880 0.000000
0.951725 0.361961 0.000000
1.000000 0.360041 0.000000
1.000000 0.358122 0.000000
1.000000 0.356203 0.000000
0.000000 0.464705 0.000000
0.000000 0.462786 0.000000
0.039607 0.460867 0.000000
0.121940 0.458948 0.000000
0.204273 0.457029 0.000000
0.286606 0.455110 0.000000
0.368938 0.453190 0.000000
0.451271 0.451271 0.000000
0.533604 0.449352 0.000000
0.615937 0.447433 0.000000
0.698270 0.445514 0.000000
0.780603 0.443595 0.000000
0.862936 0.441676 0.000000
0.945268 0.439756 0.000000
1.000000 0.437837 0.000000
1.000000 0.435918 0.000000
1.000000 0.433999 0.000000
0.000000 0.542501 0.000000
0.000000 0.540582 0.000000
0.033151 0.538663 0.000000
0.115484 0.536744 0.000000
0.197817 0.534825 0.000000
0.280149 0.532905 0.000000
0.362482 0.530986 0.000000
0.444815 0.529067 0.000000
0.527148 0.527148 0.000000
0.609481 0.525229 0.000000
0.691814 0.523310 0.000000
0.774147 0.521391 0.000000
0.856479 0.519471 0.000000
0.938812 0.517552 0.000000
1.000000 0.515633 0.000000
1.000000 0.513714 0.000000
1.000000 0.511795 0.000000
0.000000 0.620297 0.000000
0.000000 0.618378 0.000000
0.026695 0.616459 0.000000
0.109028 0.614540 0.000000
0.191360 0.612620 0.000000
0.273693 0.610701 0.000000
0.356026 0.608782 0.000000
0.438359 0.606863 0.000000
0.520692 0.604944 0.000000
0.603025 0.603025 0.000000
0.685358 0.601106 0.000000
0.767690 0.599186 0.000000
0.850023 0.597267 0.000000
0.932356 0.595348 0.000000
1.000000 0.593429 0.000000
1.000000 0.591510 0.000000
1.000000 0.589591 0.000000
0.000000 0.698093 0.000000
0.000000 0.696174 0.000000
0.020239 0.694255 0.000000
0.102571 0.692335 0.000000
0.184904 0.690416 0.000000
0.267237 0.688497 0.000000
0.349570 0.686578 0.000000
0.431903 0.684659 0.000000
0.514236 0.682740 0.000000
0.596569 0.680821 0.000000
0.678901 0.678901 0.000000
0.761234 0.676982 0.000000
0.843567 0.675063 0.000000
0.925900 0.673144 0.000000
1.000000 0.671225 0.000000
1.000000 0.669306 0.000000
1.000000 0.667387 0.000000
0.000000 0.775889 0.000000
0.000000 0.773970 0.000000
0.013783 0.772050 0.000000
0.096115 0.770131 0.000000
0.178448 0.768212 0.000000
0.260781 0.766293 0.000000
0.343114 0.764374 0.000000
0.425447 0.762455 0.000000
0.507780 0.760536 0.000000
0.590113 0.758617 0.000000
0.672445 0.756697 0.000000
0.754778 0.754778 0.000000
0.837111 0.752859 0.000000
0.919444 0.750940 0.000000
1.000000 0.749021 0.000000
1.000000 0.747102 0.000000
1.000000 0.745183 0.000000
0.000000 0.853685 0.000000
0.000000 0.851766 0.000000
0.007326 0.849846 0.000000
0.089659 0.847927 0.000000
0.171992 0.846008 0.000000
0.254325 0.844089 0.000000
0.336658 0.842170 0.000000
0.418991 0.840251 0.000000
0.501324 0.838332 0.000000
0.583656 0.836412 0.000000
0.665989 0.834493 0.000000
0.748322 0.832574 0.000000
0.830655 0.830655 0.000000
0.912988 0.828736 0.000000
0.995321 0.826817 0.000000
1.000000 0.824898 0.000000
1.000000 0.822978 0.000000
0.000000 0.931481 0.000000
0.000000 0.929561 0.000000
0.000870 0.927642 0.000000
0.083203 0.925723 0.000000
0.165536 0.923804 0.000000
0.247869 0.921885 0.000000
0.330202 0.919966 0.000000
0.412535 0.918047 0.000000
0.494867 0.916127 0.000000
0.577200 0.914208 0.000000
0.659533 0.912289 0.000000
0.741866 0.910370 0.000000
0.824199 0.908451 0.000000
0.906532 0.906532 0.000000
0.988865 0.904613 0.000000
1.000000 0.902693 0.000000
1.000000 0.900774 0.000000
0.000000 1.000000 0.000000
0.000000 1.000000 0.000000
0.000000 1.000000 0.000000
0.076747 1.000000 0.000000
0.159080 1.000000 0.000000
0.241413 0.999681 0.000000
0.323746 0.997762 0.000000
0.406078 0.995842 0.000000
0.488411 0.993923 0.000000
0.570744 0.992004 0.000000
0.653077 0.990085 0.000000
0.735410 0.988166 0.000000
0.817743 0.986247 0.000000
0.900076 0.984328 0.000000
0.982408 0.982408 0.000000
1.000000 0.980489 0.000000
1.000000 0.978570 0.000000
0.000000 1.000000 0.000000
0.000000 1.000000 0.000000
0.000000 1.000000 0.000000
0.070291 1.000000 0.000000
0.152624 1.000000 0.000000
0.234957 1.000000 0.000000
0.317290 1.000000 0.000000
0.399622 1.000000 0.000000
0.481955 1.000000 0.000000
0.564288 1.000000 0.000000
0.646621 1.000000 0.000000
0.728954 1.000000 0.000000
0.811287 1.000000 0.000000
0.893620 1.000000 0.000000
0.975952 1.000000 0.000000
1.000000 1.000000 0.000000
1.000000 1.000000 0.000000
0.000000 1.000000 0.000000
0.000000 1.000000 0.000000
0.000000 1.000000 0.000000
0.063835 1.000000 0.000000
0.146168 1.000000 0.000000
0.228501 1.000000 0.000000
0.310833 1.000000 0.000000
0.393166 1.000000 0.000000
0.475499 1.000000 0.000000
0.557832 1.000000 0.000000
0.640165 1.000000 0.000000
0.722498 1.000000 0.000000
0.804831 1.000000 0.000000
0.887163 1.000000 0.000000
0.969496 1.000000 0.000000
1.000000 1.000000 0.000000
1.000000 1.000000 0.000000
0.000000 0.000000 0.003734
0.001815 0.000000 0.001815
0.084148 0.000000 0.000000
0.166481 0.000000 0.000000
0.248814 0.000000 0.000000
0.331147 0.000000 0.000000
0.413479 0.000000 0.000000
0.495812 0.000000 0.000000
0.578145 0.000000 0.000000
0.660478 0.000000 0.000000
0.742811 0.000000 0.000000
0.825144 0.000000 0.000000
0.907477 0.000000 0.000000
0.989809 0.000000 0.000000
1.000000 0.000000 0.000000
1.000000 0.000000 0.000000
1.000000 0.000000 0.000000
0.000000 0.000000 0.000000
0.000000 0.000000 0.000000
0.077692 0.000000 0.000000
0.160025 0.000000 0.000000
0.242358 0.000000 0.000000
0.324690 0.000000 0.000000
0.407023 0.000000 0.000000
0.489356 0.000000 0.000000
0.571689 0.000000 0.000000
0.654022 0.000000 0.000000
0.736355 0.000000 0.000000
0.818688 0.000000 0.000000
0.901020 0.000000 0.000000
0.983353 0.000000 0.000000
1.000000 0.000000 0.000000
1.000000 0.000000 0.000000
1.000000 0.000000 0.000000
0.000000 0.075074 0.000000
0.000000 0.073155 0.000000
0.071236 0.071236 0.000000
0.153569 0.069317 0.000000
0.235901 0.067397 0.000000
0.318234 0.065478 0.000000
0.400567 0.063559 0.000000
0.482900 0.061640 0.000000
0.565233 0.059721 0.000000
0.647566 0.057802 0.000000
0.729899 0.055883 0.000000
0.812231 0.053963 0.000000
0.894564 0.052044 0.000000
0.976897 0.050125 0.000000
1.000000 0.048206 0.000000
1.000000 0.046287 0.000000
1.000000 0.044368 0.000000
0.000000 0.152870 0.000000
0.000000 0.150951 0.000000
0.064780 0.149032 0.000000
0.147113 0.147113 0.000000
0.229445 0.145193 0.000000
0.311778 0.143274 0.000000
0.394111 0.141355 0.000000
0.476444 0.139436 0.000000
0.558777 0.137517 0.000000
0.641110 0.135598 0.000000
0.723442 0.133679 0.000000
0.805775 0.131759 0.000000
0.888108 0.129840 0.000000
0.970441 0.127921 0.000000
1.000000 0.126002 0.000000
1.000000 0.124083 0.000000
1.000000 0.122164 0.000000
0.000000 0.230666 0.000000
0.000000 0.228747 0.000000
0.058324 0.226828 0.000000
0.140656 0.224908 0.000000
0.222989 0.222989 0.000000
0.305322 0.221070 0.000000
0.387655 0.219151 0.000000
0.469988 0.217232 0.000000
0.552321 0.215313 0.000000
0.634654 0.213394 0.000000
0.716986 0.211474 0.000000
0.799319 0.209555 0.000000
0.881652 0.207636 0.000000
0.963985 0.205717 0.000000
1.000000 0.203798 0.000000
1.000000 0.201879 0.000000
1.000000 0.199960 0.000000
0.000000 0.308462 0.000000
0.000000 0.306543 0.000000
0.051867 0.304623 0.000000
0.134200 0.302704 0.000000
0.216533 0.300785 0.000000
0.298866 0.298866 0.000000
0.381199 0.296947 0.000000
0.463532 0.295028 0.000000
0.545865 0.293109 0.000000
0.628197 0.291189 0.000000
0.710530 0.289270 0.000000
0.792863 0.287351 0.000000
0.875196 0.285432 0.000000
0.957529 0.283513 0.000000
1.000000 0.281594 0.000000
1.000000 0.279675 0.000000
1.000000 0.277755 0.000000
0.000000 0.386258 0.000000
0.000000 0.384338 0.000000
0.045411 0.382419 0.000000
0.127744 0.380500 0.000000
0.210077 0.378581 0.000000
0.292410 0.376662 0.000000
0.374743 0.374743 0.000000
0.457076 0.372824 0.000000
0.539408 0.370904 0.000000
0.621741 0.368985 0.000000
0.704074 0.367066 0.000000
0.786407 0.365147 0.000000
0.868740 0.363228 0.000000
0.951073 0.361309 0.000000
1.000000 0.359390 0.000000
1.000000 0.357470 0.000000
1.000000 0.355551 0.000000
0.000000 0.464053 0.000000
0.000000 0.462134 0.000000
0.038955 0.460215 0.000000
0.121288 0.458296 0.000000
0.203621 0.456377 0.000000
0.285954 0.454458 0.000000
0.368287 0.452539 0.000000
0.450619 0.450619 0.000000
0.532952 0.448700 0.000000
0.615285 0.446781 0.000000
0.697618 0.444862 0.000000
0.779951 0.442943 0.000000
0.862284 0.441024 0.000000
0.944617 0.439105 0.000000
1.000000 0.437186 0.000000
1.000000 0.435266 0.000000
1.000000 0.433347 0.000000
0.000000 0.541849 0.000000
0.000000 0.539930 0.000000
0.032499 0.538011 0.000000
0.114832 0.536092 0.000000
0.197165 0.534173 0.000000
0.279498 0.532254 0.000000
0.361831 0.530335 0.000000
0.444163 0.528415 0.000000
0.526496 0.526496 0.000000
0.608829 0.524577 0.000000
0.691162 0.522658 0.000000
0.773495 0.520739 0.000000
0.855828 0.518820 0.000000
0.938161 0.516901 0.000000
1.000000 0.514981 0.000000
1.000000 0.513062 0.000000
1.000000 0.511143 0.000000
0.000000 0.619645 0.000000
0.000000 0.617726 0.000000
0.026043 0.615807 0.000000
0.108376 0.613888 0.000000
0.190709 0.611969 0.000000
0.273042 0.610050 0.000000
0.355374 0.608130 0.000000
0.437707 0.606211 0.000000
0.520040 0.604292 0.000000
0.602373 0.602373 0.000000
0.684706 0.600454 0.000000
0.767039 0.598535 0.000000
0.849372 0.596616 0.000000
0.931704 0.594696 0.000000
1.000000 0.592777 0.000000
1.000000 0.590858 0.000000
1.000000 0.588939 0.000000
0.000000 0.697441 0.000000
0.000000 0.695522 0.000000
0.019587 0.693603 0.000000
0.101920 0.691684 0.000000
0.184253 0.689765 0.000000
0.266585 0.687845 0.000000
0.348918 0.685926 0.000000
0.431251 0.684007 0.000000
0.513584 0.682088 0.000000
0.595917 0.680169 0.000000
0.678250 0.678250 0.000000
0.760583 0.676331 0.000000
0.842915 0.674411 0.000000
0.925248 0.672492 0.000000
1.000000 0.670573 0.000000
1.000000 0.668654 0.000000
1.000000 0.666735 0.000000
0.000000 0.775237 0.000000
0.000000 0.773318 0.000000
0.013131 0.771399 0.000000
0.095464 0.769480 0.000000
0.177796 0.767560 0.000000
0.260129 0.765641 0.000000
0.342462 0.763722 0.000000
0.424795 0.761803 0.000000
0.507128 0.759884 0.000000
0.589461 0.757965 0.000000
0.671794 0.756046 0.000000
0.754126 0.754126 0.000000
0.836459 0.752207 0.000000
0.918792 0.750288 0.000000
1.000000 0.748369 0.000000
1.000000 0.746450 0.000000
1.000000 0.744531 0.000000
0.000000 0.853033 0.000000
0.000000 0.851114 0.000000
0.006675 0.849195 0.000000
0.089008 0.847275 0.000000
0.171340 0.845356 0.000000
0.253673 0.843437 0.000000
0.336006 0.841518 0.000000
0.418339 0.839599 0.000000
0.500672 0.837680 0.000000
0.583005 0.835761 0.000000
0.665338 0.833842 0.000000
0.747670 0.831922 0.000000
0.830003 0.830003 0.000000
0.912336 0.828084 0.000000
0.994669 0.826165 0.000000
1.000000 0.824246 0.000000
1.000000 0.822327 0.000000
0.000000 0.930829 0.000000
0.000000 0.928910 0.000000
0.000219 0.926991 0.000000
0.082551 0.925071 0.000000
0.164884 0.923152 0.000000
0.247217 0.921233 0.000000
0.329550 0.919314 0.000000
0.411883 0.917395 0.000000
0.494216 0.915476 0.000000
0.576549 0.913557 0.000000
0.658881 0.911637 0.000000
0.741214 0.909718 0.000000
0.823547 0.907799 0.000000
0.905880 0.905880 0.000000
0.988213 0.903961 0.000000
1.000000 0.902042 0.000000
1.000000 0.900123 0.000000
0.000000 1.000000 0.000000
0.000000 1.000000 0.000000
0.000000 1.000000 0.000000
0.076095 1.000000 0.000000
0.158428 1.000000 0.000000
0.240761 0.999029 0.000000
0.323094 0.997110 0.000000
0.405427 0.995191 0.000000
0.487760 0.993272 0.000000
0.570092 0.991352 0.000000
0.652425 0.989433 0.000000
0.734758 0.987514 0.000000
0.817091 0.985595 0.000000
0.899424 0.983676 0.000000
0.981757 0.981757 0.000000
1.000000 0.979838 0.000000
1.000000 0.977918 0.000000
0.000000 1.000000 0.000000
0.000000 1.000000 0.000000
0.000000 1.000000 0.000000
0.069639 1.000000 0.000000
0.151972 1.000000 0.000000
0.234305 1.000000 0.000000
0.316638 1.000000 0.000000
0.398971 1.000000 0.000000
0.481303 1.000000 0.000000
0.563636 1.000000 0.000000
0.645969 1.000000 0.000000
0.728302 1.000000 0.000000
0.810635 1.000000 0.000000
0.892968 1.000000 0.000000
0.975301 1.000000 0.000000
1.000000 1.000000 0.000000
1.000000 1.000000 0.000000
0.000000 1.000000 0.000000
0.000000 1.000000 0.000000
0.000000 1.000000 0.000000
0.063183 1.000000 0.000000
0.145516 1.000000 0.000000
0.227849 1.000000 0.000000
0.310182 1.000000 0.000000
0.392514 1.000000 0.000000
0.474847 1.000000 0.000000
0.557180 1.000000 0.000000
0.639513 1.000000 0.000000
0.721846 1.000000 0.000000
0.804179 1.000000 0.000000
0.886512 1.000000 0.000000
0.968845 1.000000 0.000000
1.000000 1.000000 0.000000
1.000000 1.000000 0.000000
0.000000 0.000000 0.087334
0.001163 0.000000 0.085415
0.083496 0.000000 0.083496
0.165829 0.000000 0.081577
0.248162 0.000000 0.079658
0.330495 0.000000 0.077739
0.412828 0.000000 0.075820
0.495161 0.000000 0.073901
0.577493 0.000000 0.071981
0.659826 0.000000 0.070062
0.742159 0.000000 0.068143
0.824492 0.000000 0.066224
0.906825 0.000000 0.064305
0.989158 0.000000 0.062386
1.000000 0.000000 0.060467
1.000000 0.000000 0.058547
1.000000 0.000000 0.056628
0.000000 0.000000 0.080878
0.000000 0.000000 0.078959
0.077040 0.000000 0.077040
0.159373 0.000000 0.075121
0.241706 0.000000 0.073202
0.324039 0.000000 0.071283
0.406372 0.000000 0.069364
0.488704 0.000000 0.067444
0.571037 0.000000 0.065525
0.653370 0.000000 0.063606
0.735703 0.000000 0.061687
0.818036 0.000000 0.059768
0.900369 0.000000 0.057849
0.982702 0.000000 0.055930
1.000000 0.000000 0.054010
1.000000 0.000000 0.052091
1.000000 0.000000 0.050172
0.000000 0.074422 0.074422
0.000000 0.072503 0.072503
0.070584 0.070584 0.070584
0.152917 0.068665 0.068665
0.235250 0.066746 0.066746
0.317583 0.064827 0.064827
0.399915 0.062907 0.062907
0.482248 0.060988 0.060988
0.564581 0.059069 0.059069
0.646914 0.057150 0.057150
0.729247 0.055231 0.055231
0.811580 0.053312 0.053312
0.893913 0.051393 0.051393
0.976245 0.049473 0.049473
1.000000 0.047554 0.047554
1.000000 0.045635 0.045635
1.000000 0.043716 0.043716
0.000000 0.152218 0.067966
0.000000 0.150299 0.066047
0.064128 0.148380 0.064128
0.146461 0.146461 0.062209
0.228794 0.144542 0.060290
0.311126 0.142622 0.058370
0.393459 0.140703 0.056451
0.475792 0.138784 0.054532
0.558125 0.136865 0.052613
0.640458 0.134946 0.050694
0.722791 0.133027 0.048775
0.805124 0.131108 0.046856
0.887456 0.129188 0.044936
0.969789 0.127269 0.043017
1.000000 0.125350 0.041098
1.000000 0.123431 0.039179
1.000000 0.121512 0.037260
0.000000 0.230014 0.061510
0.000000 0.228095 0.059591
0.057672 0.226176 0.057672
0.140005 0.224257 0.055753
0.222337 0.222337 0.053833
0.304670 0.220418 0.051914
0.387003 0.218499 0.049995
0.469336 0.216580 0.048076
0.551669 0.214661 0.046157
0.634002 0.212742 0.044238
0.716335 0.210823 0.042319
0.798667 0.208904 0.040400
0.881000 0.206984 0.038480
0.963333 0.205065 0.036561
1.000000 0.203146 0.034642
1.000000 0.201227 0.032723
1.000000 0.199308 0.030804
0.000000 0.307810 0.055054
0.000000 0.305891 0.053135
0.051216 0.303972 0.051216
0.133549 0.302053 0.049297
0.215881 0.300133 0.047377
0.298214 0.298214 0.045458
0.380547 0.296295 0.043539
0.462880 0.294376 0.041620
0.545213 0.292457 0.039701
0.627546 0.290538 0.037782
0.709879 0.288619 0.035863
0.792211 0.286699 0.033943
0.874544 0.284780 0.032024
0.956877 0.282861 0.030105
1.000000 0.280942 0.028186
1.000000 0.279023 0.026267
1.000000 0.277104 0.024348
0.000000 0.385606 0.048598
0.000000 0.383687 0.046679
0.044760 0.381768 0.044760
0.127092 0.379848 0.042840
0.209425 0.377929 0.040921
0.291758 0.376010 0.039002
0.374091 0.374091 0.037083
0.456424 0.372172 0.035164
0.538757 0.370253 0.033245
0.621090 0.368334 0.031326
0.703422 0.366414 0.029406
0.785755 0.364495 0.027487
0.868088 0.362576 0.025568
0.950421 0.360657 0.023649
1.000000 0.358738 0.021730
1.000000 0.356819 0.019811
1.000000 0.354900 0.017892
0.000000 0.463402 0.042142
0.000000 0.461483 0.040223
0.038303 0.459563 0.038303
0.120636 0.457644 0.036384
0.202969 0.455725 0.034465
0.285302 0.453806 0.032546
0.367635 0.451887 0.030627
0.449968 0.449968 0.028708
0.532301 0.448049 0.026789
0.614633 0.446129 0.024869
0.696966 0.444210 0.022950
0.779299 0.442291 0.021031
0.861632 0.440372 0.019112
0.943965 0.438453 0.017193
1.000000 0.436534 0.015274
1.000000 0.434615 0.013355
1.000000 0.432695 0.011435
0.000000 0.541198 0.035686
0.000000 0.539279 0.033766
0.031847 0.537359 0.031847
0.114180 0.535440 0.029928
0.196513 0.533521 0.028009
0.278846 0.531602 0.026090
0.361179 0.529683 0.024171
0.443512 0.527764 0.022252
0.525845 0.525845 0.020332
0.608177 0.523925 0.018413
0.690510 0.522006 0.016494
0.772843 0.520087 0.014575
0.855176 0.518168 0.012656
0.937509 0.516249 0.010737
1.000000 0.514330 0.008818
1.000000 0.512411 0.006899
1.000000 0.510491 0.004979
0.000000 0.618994 0.029230
0.000000 0.617074 0.027310
0.025391 0.615155 0.025391
0.107724 0.613236 0.023472
0.190057 0.611317 0.021553
0.272390 0.609398 0.019634
0.354723 0.607479 0.017715
0.437056 0.605560 0.015796
0.519388 0.603640 0.013876
0.601721 0.601721 0.011957
0.684054 0.599802 0.010038
0.766387 0.597883 0.008119
0.848720 0.595964 0.006200
0.931053 0.594045 0.004281
1.000000 0.592126 0.002362
1.000000 0.590206 0.000442
1.000000 0.588287 0.000000
0.000000 0.696789 0.022773
0.000000 0.694870 0.020854
0.018935 0.692951 0.018935
0.101268 0.691032 0.017016
0.183601 0.689113 0.015097
0.265934 0.687194 0.013178
0.348267 0.685275 0.011259
0.430599 0.683355 0.009339
0.512932 0.681436 0.007420
0.595265 0.679517 0.005501
0.677598 0.677598 0.003582
0.759931 0.675679 0.001663
0.842264 0.673760 0.000000
0.924597 0.671841 0.000000
1.000000 0.669921 0.000000
1.000000 0.668002 0.000000
1.000000 0.666083 0.000000
0.000000 0.774585 0.016317
0.000000 0.772666 0.014398
0.012479 0.770747 0.012479
0.094812 0.768828 0.010560
0.177145 0.766909 0.008641
0.259478 0.764990 0.006722
0.341810 0.763070 0.004802
0.424143 0.761151 0.002883
0.506476 0.759232 0.000964
0.588809 0.757313 0.000000
0.671142 0.755394 0.000000
0.753475 0.753475 0.000000
0.835808 0.751556 0.000000
0.918140 0.749636 0.000000
1.000000 0.747717 0.000000
1.000000 0.745798 0.000000
1.000000 0.743879 0.000000
0.000000 0.852381 0.009861
0.000000 0.850462 0.007942
0.006023 0.848543 0.006023
0.088356 0.846624 0.004104
0.170689 0.844705 0.002185
0.253021 0.842785 0.000265
0.335354 0.840866 0.000000
0.417687 0.838947 0.000000
0.500020 0.837028 0.000000
0.582353 0.835109 0.000000
0.664686 0.833190 0.000000
0.747019 0.831271 0.000000
0.829351 0.829351 0.000000
0.911684 0.827432 0.000000
0.994017 0.825513 0.000000
1.000000 0.823594 0.000000
1.000000 0.821675 0.000000
0.000000 0.930177 0.003405
0.000000 0.928258 0.001486
0.000000 0.926339 0.000000
0.081900 0.924420 0.000000
0.164233 0.922500 0.000000
0.246565 0.920581 0.000000
0.328898 0.918662 0.000000
0.411231 0.916743 0.000000
0.493564 0.914824 0.000000
0.575897 0.912905 0.000000
0.658230 0.910986 0.000000
0.740562 0.909066 0.000000
0.822895 0.907147 0.000000
0.905228 0.905228 0.000000
0.987561 0.903309 0.000000
1.000000 0.901390 0.000000
1.000000 0.899471 0.000000
0.000000 1.000000 0.000000
0.000000 1.000000 0.000000
0.000000 1.000000 0.000000
0.075444 1.000000 0.000000
0.157776 1.000000 0.000000
0.240109 0.998377 0.000000
0.322442 0.996458 0.000000
0.404775 0.994539 0.000000
0.487108 0.992620 0.000000
0.569441 0.990701 0.000000
0.651774 0.988782 0.000000
0.734106 0.986862 0.000000
0.816439 0.984943 0.000000
0.898772 0.983024 0.000000
0.981105 0.981105 0.000000
1.000000 0.979186 0.000000
1.000000 0.977267 0.000000
0.000000 1.000000 0.000000
0.000000 1.000000 0.000000
0.000000 1.000000 0.000000
0.068987 1.000000 0.000000
0.151320 1.000000 0.000000
0.233653 1.000000 0.000000
0.315986 1.000000 0.000000
0.398319 1.000000 0.000000
0.480652 1.000000 0.000000
0.562985 1.000000 0.000000
0.645317 1.000000 0.000000
0.727650 1.000000 0.000000
0.809983 1.000000 0.000000
0.892316 1.000000 0.000000
0.974649 1.000000 0.000000
1.000000 1.000000 0.000000
1.000000 1.000000 0.000000
0.000000 1.000000 0.000000
0.000000 1.000000 0.000000
0.000000 1.000000 0.000000
0.062531 1.000000 0.000000
0.144864 1.000000 0.000000
0.227197 1.000000 0.000000
0.309530 1.000000 0.000000
0.391863 1.000000 0.000000
0.474196 1.000000 0.000000
0.556528 1.000000 0.000000
0.638861 1.000000 0.000000
0.721194 1.000000 0.000000
0.803527 1.000000 0.000000
0.885860 1.000000 0.000000
0.968193 1.000000 0.000000
1.000000 1.000000 0.000000
1.000000 1.000000 0.000000
0.000000 0.000000 0.170935
0.000512 0.000000 0.169016
0.082844 0.000000 0.167096
0.165177 0.000000 0.165177
0.247510 0.000000 0.163258
0.329843 0.000000 0.161339
0.412176 0.000000 0.159420
0.494509 0.000000 0.157501
0.576842 0.000000 0.155582
0.659175 0.000000 0.153662
0.741507 0.000000 0.151743
0.823840 0.000000 0.149824
0.906173 0.000000 0.147905
0.988506 0.000000 0.145986
1.000000 0.000000 0.144067
1.000000 0.000000 0.142148
1.000000 0.000000 0.140229
0.000000 0.000000 0.164479
0.000000 0.000000 0.162559
0.076388 0.000000 0.160640
