assets/presets/luts/product-clean/lut.cube
TITLE "Product Clean"
LUT_3D_SIZE 5
0.000000 0.000000 0.000000
0.249465 0.000000 0.000000
0.578797 0.000000 0.000000
0.908128 0.000000 0.000000
1.000000 0.000000 0.000000
0.000000 0.231318 0.000000
0.223641 0.223641 0.000000
0.552972 0.215964 0.000000
0.882304 0.208288 0.000000
1.000000 0.200611 0.000000
0.000000 0.542501 0.000000
0.197817 0.534825 0.000000
0.527148 0.527148 0.000000
0.856479 0.519471 0.000000
1.000000 0.511795 0.000000
0.000000 0.853685 0.000000
0.171992 0.846008 0.000000
0.501324 0.838332 0.000000
0.830655 0.830655 0.000000
1.000000 0.822978 0.000000
0.000000 1.000000 0.000000
0.146168 1.000000 0.000000
0.475499 1.000000 0.000000
0.804831 1.000000 0.000000
1.000000 1.000000 0.000000
0.000000 0.000000 0.254535
0.246858 0.000000 0.246858
0.576190 0.000000 0.239182
0.905521 0.000000 0.231505
1.000000 0.000000 0.223829
0.000000 0.228711 0.228711
0.221034 0.221034 0.221034
0.550365 0.213357 0.213357
0.879697 0.205681 0.205681
1.000000 0.198004 0.198004
0.000000 0.539894 0.202886
0.195210 0.532218 0.195210
0.524541 0.524541 0.187533
0.853872 0.516864 0.179856
1.000000 0.509188 0.172180
0.000000 0.851078 0.177062
0.169385 0.843401 0.169385
0.498717 0.835725 0.161709
0.828048 0.828048 0.154032
1.000000 0.820371 0.146355
0.000000 1.000000 0.151237
0.143561 1.000000 0.143561
0.472892 1.000000 0.135884
0.802224 1.000000 0.128208
1.000000 1.000000 0.120531
0.000000 0.000000 0.588936
0.244251 0.000000 0.581259
0.573583 0.000000 0.573583
0.902914 0.000000 0.565906
1.000000 0.000000 0.558230
0.000000 0.226104 0.563112
0.218427 0.218427 0.555435
0.547758 0.210750 0.547758
0.877090 0.203074 0.540082
1.000000 0.195397 0.532405
0.000000 0.537287 0.537287
0.192603 0.529611 0.529611
0.521934 0.521934 0.521934
0.851265 0.514257 0.514257
1.000000 0.506581 0.506581
0.000000 0.848471 0.511463
0.166778 0.840794 0.503786
0.496110 0.833118 0.496110
0.825441 0.825441 0.488433
1.000000 0.817764 0.480756
0.000000 1.000000 0.485638
0.140954 1.000000 0.477962
0.470285 1.000000 0.470285
0.799617 1.000000 0.462609
1.000000 1.000000 0.454932
0.000000 0.000000 0.923337
0.241644 0.000000 0.915660
0.570976 0.000000 0.907984
0.900307 0.000000 0.900307
1.000000 0.000000 0.892631
0.000000 0.223497 0.897513
0.215820 0.215820 0.889836
0.545151 0.208143 0.882159
0.874483 0.200467 0.874483
1.000000 0.192790 0.866806
0.000000 0.534680 0.871688
0.189996 0.527004 0.864012
0.519327 0.519327 0.856335
0.848658 0.511650 0.848658
1.000000 0.503974 0.840982
0.000000 0.845864 0.845864
0.164171 0.838187 0.838187
0.493503 0.830511 0.830511
0.822834 0.822834 0.822834
1.000000 0.815157 0.815157
0.000000 1.000000 0.820039
0.138347 1.000000 0.812363
0.467678 1.000000 0.804686
0.797010 1.000000 0.797010
1.000000 1.000000 0.789333
0.000000 0.000000 1.000000
0.239037 0.000000 1.000000
0.568369 0.000000 1.000000
0.897700 0.000000 1.000000
1.000000 0.000000 1.000000
0.000000 0.220890 1.000000
0.213213 0.213213 1.000000
0.542544 0.205536 1.000000
0.871876 0.197860 1.000000
1.000000 0.190183 1.000000
0.000000 0.532073 1.000000
0.187389 0.524397 1.000000
0.516720 0.516720 1.000000
0.846051 0.509043 1.000000
1.000000 0.501367 1.000000
0.000000 0.843257 1.000000
0.161564 0.835580 1.000000
0.490896 0.827904 1.000000
0.820227 0.820227 1.000000
1.000000 0.812550 1.000000
0.000000 1.000000 1.000000
0.135740 1.000000 1.000000
0.465071 1.000000 1.000000
0.794403 1.000000 1.000000
1.000000 1.000000 1.000000
