assets/presets/luts/warm-punch/lut.cube
TITLE "Warm Punch"
LUT_3D_SIZE 5
0.000000 0.000000 0.000000
0.191991 0.000000 0.000000
0.609130 0.000000 0.000000
0.921119 0.000000 0.000000
1.000000 0.000000 0.000000
0.000000 0.152850 0.000000
0.152308 0.141230 0.000000
0.585978 0.132505 0.000000
0.926197 0.131986 0.000000
1.000000 0.137865 0.000000
0.000000 0.540790 0.000000
0.124798 0.533696 0.000000
0.547851 0.520888 0.000000
0.917403 0.512969 0.000000
1.000000 0.515024 0.000000
0.000000 0.890176 0.000000
0.123689 0.892386 0.000000
0.526092 0.888729 0.000000
0.906097 0.883767 0.000000
1.000000 0.882009 0.000000
0.000000 1.000000 0.000000
0.147162 1.000000 0.000000
0.538029 1.000000 0.000000
0.903804 1.000000 0.000000
1.000000 1.000000 0.000000
0.000000 0.000000 0.177171
0.188490 0.000000 0.164179
0.618654 0.000000 0.144680
0.933747 0.000000 0.132225
1.000000 0.000000 0.128479
0.000000 0.149192 0.137777
0.149166 0.137555 0.125913
0.599920 0.126933 0.116324
0.940966 0.125393 0.115487
1.000000 0.132804 0.123320
0.000000 0.541657 0.110190
0.112688 0.536138 0.093177
0.548251 0.519603 0.084830
0.929618 0.507180 0.091389
1.000000 0.506814 0.108679
0.000000 0.894595 0.107988
0.105465 0.897914 0.087616
0.508259 0.893429 0.075524
0.909127 0.885537 0.079057
1.000000 0.880729 0.098617
0.000000 1.000000 0.128479
0.125411 1.000000 0.107361
0.506225 1.000000 0.090746
0.896492 1.000000 0.089093
1.000000 1.000000 0.105925
0.000000 0.000000 0.574161
0.173955 0.000000 0.576132
0.605635 0.000000 0.551211
0.934025 0.000000 0.517318
1.000000 0.000000 0.489636
0.000000 0.143338 0.549154
0.144838 0.133929 0.556778
0.596481 0.123152 0.538354
0.946120 0.120521 0.511563
1.000000 0.126946 0.494341
0.000000 0.534841 0.506704
0.108496 0.531250 0.501235
0.544547 0.514207 0.482659
0.937210 0.498747 0.469050
1.000000 0.496779 0.468940
0.000000 0.893718 0.480597
0.095707 0.898651 0.459067
0.489409 0.895033 0.430910
0.909791 0.884713 0.417621
1.000000 0.876970 0.430186
0.000000 1.000000 0.488420
0.109281 1.000000 0.456160
0.477093 1.000000 0.422238
0.885744 1.000000 0.401556
1.000000 1.000000 0.409344
0.000000 0.000000 0.889109
0.159382 0.000000 0.902873
0.577815 0.000000 0.897726
0.922643 0.000000 0.878186
1.000000 0.000000 0.857480
0.000000 0.139309 0.894183
0.143347 0.133113 0.911487
0.577769 0.124382 0.911791
0.940218 0.120423 0.896567
1.000000 0.125191 0.875248
0.000000 0.525008 0.881076
0.115888 0.522924 0.896134
0.537848 0.508853 0.899988
0.935953 0.492744 0.888039
1.000000 0.489119 0.871075
0.000000 0.888706 0.863755
0.099509 0.894640 0.868403
0.481804 0.892191 0.863898
0.908072 0.881260 0.850505
1.000000 0.871418 0.841632
0.000000 1.000000 0.857480
0.106747 1.000000 0.850305
0.460053 1.000000 0.834187
0.873710 1.000000 0.812733
1.000000 1.000000 0.803217
0.000000 0.000000 1.000000
0.147346 0.000000 1.000000
0.544900 0.000000 1.000000
0.903804 0.000000 1.000000
1.000000 0.000000 1.000000
0.000000 0.137866 1.000000
0.144719 0.135075 1.000000
0.557703 0.129292 1.000000
0.926042 0.125725 1.000000
1.000000 0.129061 1.000000
0.000000 0.516218 1.000000
0.128877 0.517102 1.000000
0.534967 0.507660 1.000000
0.926279 0.494424 1.000000
1.000000 0.488657 1.000000
0.000000 0.882009 1.000000
0.115546 0.888587 1.000000
0.492849 0.887016 1.000000
0.903906 0.877786 1.000000
1.000000 0.867258 1.000000
0.000000 1.000000 1.000000
0.119307 1.000000 1.000000
0.465437 1.000000 1.000000
0.868094 1.000000 1.000000
1.000000 1.000000 1.000000
