assets/presets/luts/warm-punch/lut.cube
TITLE "Warm Punch"
LUT_3D_SIZE 9
0.000000 0.000000 0.000000
0.044701 0.000000 0.000000
0.191991 0.000000 0.000000
0.395399 0.000000 0.000000
0.609130 0.000000 0.000000
0.791913 0.000000 0.000000
0.921119 0.000000 0.000000
0.993009 0.000000 0.000000
1.000000 0.000000 0.000000
0.000000 0.031913 0.000000
0.031773 0.028252 0.000000
0.173086 0.025126 0.000000
0.379384 0.023133 0.000000
0.601312 0.022268 0.000000
0.792319 0.022500 0.000000
0.925955 0.023847 0.000000
0.994921 0.026385 0.000000
1.000000 0.027224 0.000000
0.000000 0.152850 0.000000
0.021678 0.147464 0.000000
0.152308 0.141230 0.000000
0.357337 0.135946 0.000000
0.585978 0.132505 0.000000
0.786087 0.131159 0.000000
0.926197 0.131986 0.000000
0.996481 0.135045 0.000000
1.000000 0.137865 0.000000
0.000000 0.333113 0.000000
0.015793 0.328488 0.000000
0.135407 0.321737 0.000000
0.334735 0.314580 0.000000
0.566672 0.308674 0.000000
0.775166 0.304969 0.000000
0.922916 0.303897 0.000000
0.996726 0.305662 0.000000
1.000000 0.309147 0.000000
0.000000 0.540790 0.000000
0.013354 0.538601 0.000000
0.124798 0.533696 0.000000
0.316590 0.527280 0.000000
0.547851 0.520888 0.000000
0.762254 0.515833 0.000000
0.917403 0.512969 0.000000
0.996108 0.512784 0.000000
1.000000 0.515024 0.000000
0.000000 0.737107 0.000000
0.013866 0.737598 0.000000
0.120869 0.735516 0.000000
0.305704 0.731598 0.000000
0.533442 0.726859 0.000000
0.750378 0.722388 0.000000
0.911232 0.719102 0.000000
0.994961 0.717653 0.000000
1.000000 0.718092 0.000000
0.000000 0.890176 0.000000
0.017461 0.892237 0.000000
0.123689 0.892386 0.000000
0.303303 0.891039 0.000000
0.526092 0.888729 0.000000
0.742254 0.886093 0.000000
0.906097 0.883767 0.000000
0.993714 0.882293 0.000000
1.000000 0.882009 0.000000
0.000000 0.982557 0.000000
0.024918 0.984331 0.000000
0.133581 0.985151 0.000000
0.309999 0.985228 0.000000
0.527340 0.984759 0.000000
0.739909 0.983971 0.000000
0.903550 0.983114 0.000000
0.993009 0.982534 0.000000
1.000000 0.982534 0.000000
0.000000 1.000000 0.000000
0.030073 1.000000 0.000000
0.147162 1.000000 0.000000
0.326298 1.000000 0.000000
0.538029 1.000000 0.000000
0.744446 1.000000 0.000000
0.903804 1.000000 0.000000
0.993009 1.000000 0.000000
1.000000 1.000000 0.000000
0.000000 0.000000 0.039556
0.043456 0.000000 0.035456
0.192491 0.000000 0.030684
0.399511 0.000000 0.026989
0.616647 0.000000 0.024528
0.800861 0.000000 0.023236
0.928926 0.000000 0.023060
0.995036 0.000000 0.023997
1.000000 0.000000 0.024386
0.000000 0.030755 0.027148
0.030696 0.027129 0.023611
0.174383 0.023803 0.020562
0.384705 0.021727 0.018693
0.610165 0.020783 0.017894
0.802340 0.020918 0.018112
0.934252 0.022139 0.019361
0.998113 0.024516 0.021720
1.000000 0.027224 0.024386
0.000000 0.151706 0.017587
0.019617 0.146609 0.013896
0.151105 0.139747 0.011436
0.361049 0.133731 0.010734
0.594275 0.129826 0.011117
0.796147 0.128142 0.012444
0.934596 0.128679 0.014784
0.999201 0.131459 0.018294
1.000000 0.136543 0.023197
0.000000 0.333072 0.012099
0.013301 0.328888 0.008572
0.131208 0.321785 0.006157
0.334271 0.313524 0.005359
0.571968 0.306510 0.005930
0.783755 0.301947 0.007620
0.930800 0.300212 0.010471
0.999268 0.301433 0.014683
1.000000 0.305677 0.020535
0.000000 0.542305 0.009815
0.010465 0.540614 0.006307
0.118491 0.535647 0.003912
0.311738 0.528409 0.002863
0.548557 0.520758 0.003088
0.767846 0.514450 0.004527
0.923966 0.510519 0.007331
0.998621 0.509457 0.011775
1.000000 0.511492 0.018195
0.000000 0.739795 0.010186
0.010398 0.740728 0.006369
0.112833 0.738744 0.003740
0.297183 0.734409 0.002397
0.529321 0.728775 0.002254
0.752016 0.723173 0.003307
0.915687 0.718755 0.005828
0.997273 0.716290 0.010228
1.000000 0.716222 0.016944
0.000000 0.893046 0.013324
0.013083 0.895400 0.008781
0.113948 0.895669 0.005538
0.291669 0.894178 0.003664
0.517573 0.891422 0.003108
0.739681 0.888100 0.003856
0.907903 0.884971 0.006166
0.995478 0.882685 0.010518
1.000000 0.881715 0.017455
0.000000 0.984360 0.020021
0.019197 0.986202 0.014313
0.121953 0.987053 0.010060
0.295520 0.987098 0.007341
0.514946 0.986507 0.006178
0.733329 0.985496 0.006591
0.902502 0.984330 0.008786
0.993807 0.983294 0.013208
1.000000 0.982642 0.020444
0.000000 1.000000 0.024386
0.030006 1.000000 0.024323
0.137432 1.000000 0.018672
0.309041 1.000000 0.014779
0.522200 1.000000 0.012743
0.734453 1.000000 0.012647
0.900967 1.000000 0.014680
0.992942 1.000000 0.019231
1.000000 1.000000 0.024386
0.000000 0.000000 0.177171
0.040683 0.000000 0.173129
0.188490 0.000000 0.164179
0.397889 0.000000 0.153879
0.618654 0.000000 0.144680
0.805399 0.000000 0.137392
0.933747 0.000000 0.132225
0.997260 0.000000 0.129219
1.000000 0.000000 0.128479
0.000000 0.029310 0.158521
0.029439 0.026016 0.155679
0.172377 0.022707 0.148264
0.385610 0.020535 0.139626
0.614572 0.019510 0.132829
0.808672 0.019551 0.128252
0.939985 0.020653 0.125896
0.999716 0.022881 0.125741
1.000000 0.026360 0.127797
0.000000 0.149192 0.137777
0.018517 0.144471 0.132860
0.149166 0.137555 0.125913
0.362914 0.131071 0.119988
0.599920 0.126933 0.116324
0.803586 0.125054 0.114835
0.940966 0.125393 0.115487
1.000000 0.127958 0.118294
1.000000 0.132804 0.123320
0.000000 0.331009 0.120904
0.011737 0.327456 0.113693
0.126853 0.320678 0.105710
0.332840 0.311513 0.100231
0.576023 0.303483 0.098732
0.790820 0.298258 0.099817
0.937260 0.296043 0.103108
1.000000 0.296865 0.108588
1.000000 0.300745 0.116359
0.000000 0.541657 0.110190
0.008524 0.540666 0.101633
0.112688 0.536138 0.093177
0.306075 0.528476 0.086905
0.548251 0.519603 0.084830
0.772506 0.512070 0.086629
0.929618 0.507180 0.091389
0.999955 0.505377 0.098745
1.000000 0.506814 0.108679
0.000000 0.740608 0.105888
0.007975 0.742148 0.096291
0.105733 0.740580 0.087312
0.288358 0.736169 0.080376
0.524187 0.729789 0.077087
0.752793 0.723056 0.078040
0.919504 0.717508 0.082819
0.998919 0.714073 0.090929
1.000000 0.713209 0.102178
0.000000 0.894595 0.107988
0.009911 0.897350 0.097316
0.105465 0.897914 0.087616
0.280253 0.896483 0.079941
0.508259 0.893429 0.075524
0.736198 0.889473 0.075181
0.909127 0.885537 0.079057
0.996876 0.882436 0.086931
1.000000 0.880729 0.098617
0.000000 0.985516 0.116765
0.014897 0.987480 0.104813
0.111863 0.988429 0.094117
0.281701 0.988518 0.085502
0.502084 0.987877 0.079962
0.725865 0.986692 0.078301
0.900834 0.985241 0.080948
0.994472 0.983851 0.088005
1.000000 0.982827 0.099461
0.000000 1.000000 0.128479
0.024126 1.000000 0.119382
0.125411 1.000000 0.107361
0.292803 1.000000 0.097532
0.506225 1.000000 0.090746
0.723496 1.000000 0.087753
0.896492 1.000000 0.089093
0.992597 1.000000 0.095088
1.000000 1.000000 0.105925
0.000000 0.000000 0.369118
0.037902 0.000000 0.368943
0.181637 0.000000 0.361276
0.390784 0.000000 0.348308
0.614723 0.000000 0.333513
0.805098 0.000000 0.319341
0.935434 0.000000 0.307018
0.998267 0.000000 0.297103
1.000000 0.000000 0.291229
0.000000 0.028116 0.352942
0.028562 0.025274 0.354367
0.167473 0.022252 0.348942
0.380832 0.019935 0.337321
0.613219 0.018731 0.324022
0.810486 0.018619 0.312096
0.942874 0.019572 0.302605
1.000000 0.021638 0.295891
1.000000 0.024932 0.292066
0.000000 0.146163 0.330132
0.018837 0.141742 0.330302
0.146665 0.135384 0.326352
0.360579 0.128827 0.316415
0.601075 0.124450 0.305093
0.807321 0.122378 0.296203
0.944911 0.122527 0.290253
1.000000 0.124887 0.287301
1.000000 0.129506 0.287356
0.000000 0.327386 0.306548
0.011660 0.324193 0.302749
0.124354 0.317896 0.295925
0.330438 0.308561 0.286328
0.578122 0.299863 0.278459
0.795591 0.294289 0.273651
0.941915 0.291789 0.271844
1.000000 0.292340 0.273019
1.000000 0.295948 0.277189
0.000000 0.538977 0.287424
0.007865 0.538553 0.279765
0.108844 0.534687 0.269666
0.300130 0.527318 0.258401
0.546918 0.517418 0.250848
0.776042 0.508764 0.248937
0.934152 0.503131 0.250744
1.000000 0.500788 0.255711
1.000000 0.501789 0.263754
0.000000 0.739534 0.275486
0.006786 0.741659 0.264900
0.100656 0.740693 0.252770
0.280151 0.736642 0.240569
0.518177 0.729853 0.231567
0.752689 0.722024 0.228767
0.922628 0.715376 0.231689
0.999865 0.711073 0.238949
1.000000 0.709538 0.249892
0.000000 0.894786 0.271830
0.008072 0.897968 0.258931
0.099105 0.898942 0.245254
0.270059 0.897793 0.232146
0.498582 0.894674 0.221969
0.731841 0.890189 0.217261
0.909755 0.885451 0.218985
0.997935 0.881542 0.226444
1.000000 0.879135 0.238721
0.000000 0.986036 0.276979
0.012133 0.988158 0.262047
0.104044 0.989255 0.246926
0.269526 0.989459 0.232791
0.489403 0.988850 0.221483
0.717695 0.987557 0.215021
0.898551 0.985848 0.214778
0.994915 0.984106 0.220954
1.000000 0.982711 0.233016
0.000000 1.000000 0.291229
0.020060 1.000000 0.274506
0.115856 1.000000 0.257876
0.278534 1.000000 0.242532
0.490878 1.000000 0.229994
0.712086 1.000000 0.221917
0.891400 1.000000 0.219677
0.992021 1.000000 0.223966
1.000000 1.000000 0.234787
0.000000 0.000000 0.574161
0.035480 0.000000 0.579111
0.173955 0.000000 0.576132
0.380074 0.000000 0.566058
0.605635 0.000000 0.551211
0.800110 0.000000 0.534279
0.934025 0.000000 0.517318
0.998382 0.000000 0.501633
1.000000 0.000000 0.489636
0.000000 0.027269 0.565891
0.028060 0.024890 0.572586
0.162376 0.022253 0.572027
0.372274 0.019987 0.563813
0.606330 0.018608 0.550152
0.807536 0.018285 0.534556
0.942820 0.019042 0.519521
1.000000 0.020918 0.506359
1.000000 0.024015 0.495725
0.000000 0.143338 0.549154
0.019795 0.139464 0.555644
0.144838 0.133929 0.556778
0.354301 0.127869 0.550775
0.596481 0.123152 0.538354
0.806442 0.120691 0.524243
0.946120 0.120521 0.511563
1.000000 0.122600 0.501456
1.000000 0.126946 0.494341
0.000000 0.323091 0.527790
0.012858 0.320193 0.531322
0.124921 0.314260 0.531196
0.327013 0.305624 0.526684
0.575958 0.296749 0.515768
0.796729 0.290834 0.503622
0.944287 0.288062 0.494127
1.000000 0.288354 0.487832
1.000000 0.291699 0.484846
0.000000 0.534841 0.506704
0.008557 0.534739 0.505660
0.108496 0.531250 0.501235
0.296481 0.524390 0.493437
0.544547 0.514207 0.482659
0.777942 0.504793 0.474159
0.937210 0.498747 0.469050
1.000000 0.496076 0.467311
1.000000 0.496779 0.468940
0.000000 0.736838 0.490078
0.006892 0.739382 0.484490
0.098748 0.738912 0.475756
0.274506 0.735437 0.464163
0.511737 0.728857 0.451321
0.751702 0.720074 0.442942
0.924999 0.712410 0.441017
1.000000 0.707421 0.443388
1.000000 0.705388 0.449402
0.000000 0.893718 0.480597
0.007584 0.897271 0.471135
0.095707 0.898651 0.459067
0.262559 0.897916 0.445039
0.489409 0.895033 0.430910
0.726671 0.890237 0.420599
0.909791 0.884713 0.417621
0.998698 0.880010 0.421371
1.000000 0.876970 0.430186
0.000000 0.985963 0.479768
0.010905 0.988260 0.467084
0.099136 0.989527 0.452410
0.260160 0.989895 0.436547
0.477863 0.989402 0.421246
0.709087 0.988090 0.409387
0.895649 0.986161 0.404078
0.995155 0.984066 0.406476
1.000000 0.982295 0.415676
0.000000 1.000000 0.488420
0.017809 1.000000 0.473007
0.109281 1.000000 0.456160
0.267196 1.000000 0.438710
0.477093 1.000000 0.422238
0.700652 1.000000 0.409008
0.885744 1.000000 0.401556
0.991199 1.000000 0.401603
1.000000 1.000000 0.409344
0.000000 0.000000 0.754732
0.033470 0.000000 0.763370
0.166412 0.000000 0.765156
0.367652 0.000000 0.760404
0.592855 0.000000 0.750149
0.791057 0.000000 0.736067
0.929674 0.000000 0.719922
0.997680 0.000000 0.703189
1.000000 0.000000 0.689881
0.000000 0.026780 0.754931
0.027928 0.024857 0.765064
0.157830 0.022625 0.768892
0.362456 0.020556 0.766082
0.595643 0.019125 0.757260
0.800361 0.018620 0.744320
0.939900 0.019164 0.729471
1.000000 0.020828 0.714447
1.000000 0.023717 0.700410
0.000000 0.141018 0.747313
0.021180 0.137840 0.757842
0.143734 0.133174 0.763201
0.347583 0.127861 0.762436
0.587871 0.123221 0.755143
0.801052 0.120377 0.743195
0.944472 0.119762 0.729532
1.000000 0.121440 0.716272
1.000000 0.125426 0.704586
0.000000 0.318843 0.734014
0.014912 0.316439 0.743165
0.126852 0.311206 0.748468
0.324398 0.303660 0.749189
0.569510 0.295388 0.743687
0.793170 0.288974 0.732661
0.943883 0.285663 0.720213
1.000000 0.285522 0.709005
1.000000 0.288495 0.700061
0.000000 0.529981 0.718134
0.010451 0.530161 0.724130
0.111240 0.526969 0.726951
0.297096 0.520471 0.726588
0.540827 0.510995 0.722319
0.776339 0.501313 0.712358
0.938033 0.494884 0.701526
1.000000 0.491906 0.693095
1.000000 0.492326 0.687570
0.000000 0.732981 0.703139
0.008295 0.735799 0.705012
0.100439 0.735611 0.703785
0.273781 0.732465 0.699487
0.507524 0.726325 0.692081
0.749814 0.717203 0.682040
0.926312 0.708830 0.674405
1.000000 0.703443 0.669905
1.000000 0.701100 0.668556
0.000000 0.891599 0.692060
0.008467 0.895432 0.689718
0.095845 0.897111 0.684346
0.259551 0.896724 0.675990
0.482882 0.894238 0.664929
0.721020 0.889550 0.652768
0.909236 0.883317 0.645054
0.999204 0.877872 0.643479
1.000000 0.874322 0.646026
0.000000 0.985359 0.687104
0.011218 0.987830 0.680925
0.097668 0.989261 0.671965
0.254969 0.989796 0.660412
0.469161 0.989471 0.646931
0.700773 0.988253 0.633344
0.892152 0.986184 0.623553
0.995202 0.983729 0.620958
1.000000 0.981579 0.624922
0.000000 1.000000 0.689672
0.017371 1.000000 0.680185
0.106144 1.000000 0.668272
0.259874 1.000000 0.654246
0.466257 1.000000 0.638964
0.690054 1.000000 0.624143
0.879685 1.000000 0.612690
0.990111 1.000000 0.607750
1.000000 1.000000 0.610458
0.000000 0.000000 0.889109
0.031871 0.000000 0.898525
0.159382 0.000000 0.902873
0.354727 0.000000 0.902471
0.577815 0.000000 0.897726
0.778810 0.000000 0.889331
0.922643 0.000000 0.878186
0.995978 0.000000 0.865239
1.000000 0.000000 0.857480
0.000000 0.026647 0.894572
0.028163 0.025175 0.904841
0.153979 0.023353 0.910448
0.352653 0.021559 0.911461
0.582995 0.020201 0.908049
0.790023 0.019604 0.900852
0.934397 0.019973 0.890899
0.999872 0.021436 0.879315
1.000000 0.024118 0.867099
0.000000 0.139309 0.894183
0.022970 0.136902 0.904863
0.143347 0.133113 0.911487
0.341499 0.128613 0.913878
0.577769 0.124382 0.911791
0.792432 0.121429 0.905623
0.940218 0.120423 0.896567
1.000000 0.121644 0.886049
1.000000 0.125191 0.875248
0.000000 0.315053 0.889159
0.017638 0.313345 0.899455
0.129645 0.309023 0.906450
0.322747 0.302640 0.909928
0.562405 0.295361 0.909211
0.786170 0.289012 0.904037
0.940719 0.285156 0.895637
1.000000 0.284400 0.885965
1.000000 0.286827 0.876475
0.000000 0.525008 0.881076
0.013391 0.525603 0.889944
0.115888 0.522924 0.896134
0.299612 0.517160 0.899669
0.537848 0.508853 0.899988
0.770990 0.499755 0.895940
0.935953 0.492744 0.888039
1.000000 0.489169 0.879135
1.000000 0.489119 0.871075
0.000000 0.728472 0.871904
0.010991 0.731547 0.878379
0.105156 0.731602 0.882460
0.277519 0.728702 0.884303
0.508012 0.722855 0.883862
0.746563 0.714311 0.880593
0.925415 0.705637 0.873209
1.000000 0.699894 0.865334
1.000000 0.697267 0.859220
0.000000 0.888706 0.863755
0.010786 0.892760 0.867250
0.099509 0.894640 0.868403
0.261799 0.894451 0.867293
0.481804 0.892191 0.863898
0.717093 0.887802 0.858150
0.908072 0.881260 0.850505
0.999455 0.875279 0.844877
1.000000 0.871418 0.841632
0.000000 0.984301 0.858543
0.013136 0.986940 0.858902
0.099871 0.988515 0.856949
0.254942 0.989185 0.852694
0.465461 0.989001 0.846142
0.694659 0.987937 0.837472
0.888250 0.985889 0.827996
0.995056 0.983088 0.822150
1.000000 0.980568 0.821117
0.000000 1.000000 0.857480
0.018795 1.000000 0.855130
0.106747 1.000000 0.850305
0.257500 1.000000 0.843278
0.460053 1.000000 0.834187
0.681865 1.000000 0.823515
0.873710 1.000000 0.812733
0.988746 1.000000 0.805057
1.000000 1.000000 0.803217
0.000000 0.000000 0.971829
0.030672 0.000000 0.978779
0.153010 0.000000 0.982618
0.341962 0.000000 0.983912
0.561589 0.000000 0.982960
0.764232 0.000000 0.979930
0.913258 0.000000 0.974958
0.993013 0.000000 0.968245
1.000000 0.000000 0.968239
0.000000 0.026871 0.977791
0.028768 0.025850 0.984592
0.150852 0.024443 0.988566
0.343384 0.022969 0.990276
0.569607 0.021779 0.990032
0.777601 0.021195 0.987978
0.926720 0.021466 0.984199
0.998678 0.022773 0.978861
1.000000 0.025276 0.972264
0.000000 0.138252 0.980260
0.025181 0.136656 0.986966
0.143675 0.133745 0.991097
0.336277 0.130081 0.993163
0.567521 0.126433 0.993461
0.782014 0.123653 0.992118
0.933885 0.122455 0.989183
1.000000 0.123290 0.984810
1.000000 0.126389 0.979331
0.000000 0.311932 0.980129
0.020995 0.311063 0.986735
0.133217 0.307761 0.991057
0.322055 0.302561 0.993505
0.555875 0.296386 0.994289
0.777762 0.290581 0.993475
0.935466 0.286556 0.991069
1.000000 0.285247 0.987268
1.000000 0.287039 0.982501
0.000000 0.520334 0.978097
0.017308 0.521520 0.984418
0.121840 0.519576 0.988795
0.303299 0.514789 0.991561
0.535894 0.507741 0.992821
0.764908 0.499707 0.992477
0.931630 0.492721 0.990381
1.000000 0.488525 0.986800
1.000000 0.487791 0.982403
0.000000 0.723753 0.974896
0.014992 0.727165 0.980545
0.112125 0.727582 0.984562
0.283948 0.725121 0.987240
0.510609 0.719906 0.988681
0.743822 0.712391 0.988738
0.922009 0.704171 0.986911
1.000000 0.697873 0.983296
1.000000 0.694706 0.979058
0.000000 0.885331 0.971407
0.014643 0.889603 0.975927
0.106246 0.891672 0.979016
0.268450 0.891652 0.980906
0.485815 0.889550 0.981698
0.717358 0.885343 0.981402
0.905870 0.879168 0.979730
0.999322 0.872924 0.975993
1.000000 0.868794 0.971983
0.000000 0.982882 0.968619
0.016792 0.985690 0.971642
0.105625 0.987398 0.973336
0.260097 0.988169 0.973829
0.467785 0.988066 0.973147
0.693433 0.987080 0.971256
0.885371 0.985134 0.968063
0.994706 0.982135 0.963840
1.000000 0.979323 0.960786
0.000000 1.000000 0.968239
0.022202 1.000000 0.968814
0.111170 1.000000 0.968889
0.260487 1.000000 0.967725
0.459756 1.000000 0.965286
0.678189 1.000000 0.961519
0.869163 1.000000 0.956464
0.987149 1.000000 0.950900
1.000000 1.000000 0.947532
0.000000 0.000000 1.000000
0.030073 0.000000 1.000000
0.147346 0.000000 1.000000
0.329712 0.000000 1.000000
0.544900 0.000000 1.000000
0.748044 0.000000 1.000000
0.903804 0.000000 1.000000
0.993009 0.000000 1.000000
1.000000 0.000000 1.000000
0.000000 0.027224 1.000000
0.029753 0.026891 1.000000
0.148451 0.025911 1.000000
0.334870 0.024792 1.000000
0.556176 0.023842 1.000000
0.763931 0.023366 1.000000
0.917297 0.023629 1.000000
0.996204 0.024852 1.000000
1.000000 0.027224 1.000000
0.000000 0.137866 1.000000
0.027845 0.137105 1.000000
0.144719 0.135075 1.000000
0.331979 0.132261 1.000000
0.557703 0.129292 1.000000
0.770781 0.126887 1.000000
0.926042 0.125725 1.000000
0.999498 0.126334 1.000000
1.000000 0.129061 1.000000
0.000000 0.309588 1.000000
0.025002 0.309654 1.000000
0.137558 0.307432 1.000000
0.322321 0.303424 1.000000
0.550201 0.298392 1.000000
0.769087 0.293387 1.000000
0.928927 0.289591 1.000000
1.000000 0.288004 1.000000
1.000000 0.289247 1.000000
0.000000 0.516218 1.000000
0.022196 0.518149 1.000000
0.128877 0.517102 1.000000
0.308023 0.513418 1.000000
0.534967 0.507660 1.000000
0.759231 0.500831 1.000000
0.926279 0.494424 1.000000
1.000000 0.490017 1.000000
1.000000 0.488657 1.000000
0.000000 0.719157 1.000000
0.020326 0.723025 1.000000
0.120851 0.723962 1.000000
0.292135 0.722146 1.000000
0.514473 0.717790 1.000000
0.741963 0.711396 1.000000
0.917994 0.704108 1.000000
1.000000 0.697792 1.000000
1.000000 0.694043 1.000000
0.000000 0.882009 1.000000
0.020147 0.886270 1.000000
0.115546 0.888587 1.000000
0.278258 0.888821 1.000000
0.492849 0.887016 1.000000
0.719525 0.883239 1.000000
0.903906 0.877786 1.000000
0.998644 0.871813 1.000000
1.000000 0.867258 1.000000
0.000000 0.982534 1.000000
0.022353 0.984191 1.000000
0.114617 0.986038 1.000000
0.269663 0.986911 1.000000
0.475161 0.986878 1.000000
0.696920 0.985937 1.000000
0.885436 0.984032 1.000000
0.993962 0.981146 1.000000
1.000000 0.978162 1.000000
0.000000 1.000000 1.000000
0.027774 1.000000 1.000000
0.119307 1.000000 1.000000
0.268606 1.000000 1.000000
0.465437 1.000000 1.000000
0.680116 1.000000 1.000000
0.868094 1.000000 1.000000
0.985874 1.000000 1.000000
1.000000 1.000000 1.000000
