assets/presets/luts/warm-punch/lut.cube
TITLE "Warm Punch"
LUT_3D_SIZE 17
0.000000 0.000000 0.000000
0.005144 0.000000 0.000000
0.044701 0.000000 0.000000
0.108766 0.000000 0.000000
0.191991 0.000000 0.000000
0.289422 0.000000 0.000000
0.395399 0.000000 0.000000
0.503885 0.000000 0.000000
0.609130 0.000000 0.000000
0.706309 0.000000 0.000000
0.791913 0.000000 0.000000
0.863826 0.000000 0.000000
0.921119 0.000000 0.000000
0.963633 0.000000 0.000000
0.993009 0.000000 0.000000
1.000000 0.000000 0.000000
1.000000 0.000000 0.000000
0.000000 0.002100 0.000000
0.002227 0.001387 0.000000
0.038203 0.000818 0.000000
0.100513 0.000420 0.000000
0.183166 0.000169 0.000000
0.281079 0.000036 0.000000
0.388415 0.000000 0.000000
0.498857 0.000000 0.000000
0.606318 0.000000 0.000000
0.705637 0.000000 0.000000
0.793038 0.000010 0.000000
0.866226 0.000104 0.000000
0.924177 0.000305 0.000000
0.966675 0.000643 0.000000
0.993411 0.001151 0.000000
1.000000 0.001208 0.000000
1.000000 0.001208 0.000000
0.000000 0.031913 0.000000
0.000353 0.030105 0.000000
0.031773 0.028252 0.000000
0.091609 0.026556 0.000000
0.173086 0.025126 0.000000
0.271008 0.023985 0.000000
0.379384 0.023133 0.000000
0.491632 0.022562 0.000000
0.601312 0.022268 0.000000
0.702903 0.022247 0.000000
0.792319 0.022500 0.000000
0.867052 0.023031 0.000000
0.925955 0.023847 0.000000
0.968740 0.024960 0.000000
0.994921 0.026385 0.000000
1.000000 0.027224 0.000000
1.000000 0.027224 0.000000
0.000000 0.083430 0.000000
0.000000 0.081115 0.000000
0.026173 0.078560 0.000000
0.082917 0.075978 0.000000
0.162513 0.073606 0.000000
0.259835 0.071575 0.000000
0.368801 0.069937 0.000000
0.482587 0.068711 0.000000
0.594399 0.067902 0.000000
0.698325 0.067512 0.000000
0.789930 0.067543 0.000000
0.866451 0.067996 0.000000
0.926586 0.068878 0.000000
0.969957 0.070196 0.000000
0.995906 0.071961 0.000000
1.000000 0.073841 0.000000
1.000000 0.073841 0.000000
0.000000 0.152850 0.000000
0.000000 0.150362 0.000000
0.021678 0.147464 0.000000
0.075163 0.144329 0.000000
0.152308 0.141230 0.000000
0.248361 0.138390 0.000000
0.357337 0.135946 0.000000
0.472251 0.133972 0.000000
0.585978 0.132505 0.000000
0.692197 0.131564 0.000000
0.786087 0.131159 0.000000
0.864585 0.131298 0.000000
0.926197 0.131986 0.000000
0.970433 0.133232 0.000000
0.996481 0.135045 0.000000
1.000000 0.137435 0.000000
1.000000 0.137865 0.000000
0.000000 0.237276 0.000000
0.000000 0.234912 0.000000
0.018254 0.231995 0.000000
0.068697 0.228659 0.000000
0.143144 0.225157 0.000000
0.237380 0.221745 0.000000
0.345745 0.218631 0.000000
0.461260 0.215955 0.000000
0.576548 0.213805 0.000000
0.684892 0.212231 0.000000
0.781059 0.211266 0.000000
0.861645 0.210928 0.000000
0.924923 0.211233 0.000000
0.970268 0.212190 0.000000
0.996734 0.213811 0.000000
1.000000 0.216107 0.000000
1.000000 0.217216 0.000000
0.000000 0.333113 0.000000
0.000000 0.331134 0.000000
0.015793 0.328488 0.000000
0.063605 0.325285 0.000000
0.135407 0.321737 0.000000
0.227512 0.318090 0.000000
0.334735 0.314580 0.000000
0.450287 0.311395 0.000000
0.566672 0.308674 0.000000
0.676846 0.306512 0.000000
0.775166 0.304969 0.000000
0.857854 0.304088 0.000000
0.922916 0.303897 0.000000
0.969560 0.304417 0.000000
0.996726 0.305662 0.000000
1.000000 0.307647 0.000000
1.000000 0.309147 0.000000
0.000000 0.435937 0.000000
0.000000 0.434540 0.000000
0.014187 0.432400 0.000000
0.059870 0.429612 0.000000
0.129272 0.426346 0.000000
0.219167 0.422816 0.000000
0.324879 0.419247 0.000000
0.439953 0.415848 0.000000
0.556929 0.412790 0.000000
0.668537 0.410205 0.000000
0.768769 0.408187 0.000000
0.853471 0.406804 0.000000
0.920346 0.406105 0.000000
0.968412 0.406124 0.000000
0.996505 0.406886 0.000000
1.000000 0.408411 0.000000
1.000000 0.409938 0.000000
0.000000 0.540790 0.000000
0.000000 0.540083 0.000000
0.013354 0.538601 0.000000
0.057443 0.536427 0.000000
0.124798 0.533696 0.000000
0.212578 0.530582 0.000000
0.316590 0.527280 0.000000
0.430778 0.523989 0.000000
0.547851 0.520888 0.000000
0.660443 0.518130 0.000000
0.762254 0.515833 0.000000
0.848777 0.514090 0.000000
0.917403 0.512969 0.000000
0.966936 0.512521 0.000000
0.996108 0.512784 0.000000
1.000000 0.513786 0.000000
1.000000 0.515024 0.000000
0.000000 0.642679 0.000000
0.000000 0.642673 0.000000
0.013248 0.641898 0.000000
0.056285 0.640435 0.000000
0.121997 0.638389 0.000000
0.207871 0.635894 0.000000
0.310140 0.633108 0.000000
0.423160 0.630202 0.000000
0.539899 0.627343 0.000000
0.653010 0.624682 0.000000
0.756003 0.622349 0.000000
0.844068 0.620450 0.000000
0.914294 0.619069 0.000000
0.965254 0.618270 0.000000
0.995577 0.618104 0.000000
1.000000 0.618608 0.000000
1.000000 0.619389 0.000000
0.000000 0.737107 0.000000
0.000000 0.737714 0.000000
0.013866 0.737598 0.000000
0.056378 0.736840 0.000000
0.120869 0.735516 0.000000
0.205114 0.733728 0.000000
0.305704 0.731598 0.000000
0.417389 0.729262 0.000000
0.533442 0.726859 0.000000
0.646632 0.724527 0.000000
0.750378 0.722388 0.000000
0.839639 0.720550 0.000000
0.911232 0.719102 0.000000
0.963501 0.718117 0.000000
0.994961 0.717653 0.000000
1.000000 0.717756 0.000000
1.000000 0.718092 0.000000
0.000000 0.820460 0.000000
0.000000 0.821519 0.000000
0.015244 0.821934 0.000000
0.057731 0.821781 0.000000
0.121424 0.821118 0.000000
0.204351 0.820018 0.000000
0.303398 0.818571 0.000000
0.413673 0.816879 0.000000
0.528768 0.815050 0.000000
0.641637 0.813196 0.000000
0.745703 0.811423 0.000000
0.835770 0.809826 0.000000
0.908432 0.808492 0.000000
0.961816 0.807492 0.000000
0.994317 0.806886 0.000000
1.000000 0.806724 0.000000
1.000000 0.806779 0.000000
0.000000 0.890176 0.000000
0.000000 0.891478 0.000000
0.017461 0.892237 0.000000
0.060387 0.892526 0.000000
0.123689 0.892386 0.000000
0.205619 0.891870 0.000000
0.303303 0.891039 0.000000
0.412157 0.889966 0.000000
0.526092 0.888729 0.000000
0.638291 0.887411 0.000000
0.742254 0.886093 0.000000
0.832715 0.884855 0.000000
0.906097 0.883767 0.000000
0.960340 0.882895 0.000000
0.993714 0.882293 0.000000
1.000000 0.882009 0.000000
1.000000 0.882009 0.000000
0.000000 0.944621 0.000000
0.000000 0.945926 0.000000
0.020636 0.946809 0.000000
0.064418 0.947334 0.000000
0.127716 0.947531 0.000000
0.208965 0.947435 0.000000
0.305483 0.947087 0.000000
0.412950 0.946534 0.000000
0.525577 0.945827 0.000000
0.636801 0.945021 0.000000
0.740263 0.944173 0.000000
0.830696 0.943339 0.000000
0.904416 0.942573 0.000000
0.959208 0.941923 0.000000
0.993222 0.941435 0.000000
1.000000 0.941282 0.000000
1.000000 0.941282 0.000000
0.000000 0.982557 0.000000
0.000822 0.983585 0.000000
0.024918 0.984331 0.000000
0.069933 0.984845 0.000000
0.133581 0.985151 0.000000
0.214449 0.985271 0.000000
0.309999 0.985228 0.000000
0.416134 0.985048 0.000000
0.527340 0.984759 0.000000
0.637324 0.984389 0.000000
0.739909 0.983971 0.000000
0.829895 0.983535 0.000000
0.903550 0.983114 0.000000
0.958545 0.982738 0.000000
0.993009 0.982534 0.000000
1.000000 0.982534 0.000000
1.000000 0.982534 0.000000
0.000000 1.000000 0.000000
0.001853 1.000000 0.000000
0.030073 1.000000 0.000000
0.077067 1.000000 0.000000
0.141387 1.000000 0.000000
0.222146 1.000000 0.000000
0.316915 1.000000 0.000000
0.421776 1.000000 0.000000
0.531470 1.000000 0.000000
0.639974 1.000000 0.000000
0.741332 1.000000 0.000000
0.830460 1.000000 0.000000
0.903636 1.000000 0.000000
0.958418 1.000000 0.000000
0.993009 1.000000 0.000000
1.000000 1.000000 0.000000
1.000000 1.000000 0.000000
0.000000 1.000000 0.000000
0.001853 1.000000 0.000000
0.030073 1.000000 0.000000
0.079562 1.000000 0.000000
0.147162 1.000000 0.000000
0.230580 1.000000 0.000000
0.326298 1.000000 0.000000
0.429933 1.000000 0.000000
0.538029 1.000000 0.000000
0.644830 1.000000 0.000000
0.744446 1.000000 0.000000
0.831663 1.000000 0.000000
0.903804 1.000000 0.000000
0.958418 1.000000 0.000000
0.993009 1.000000 0.000000
1.000000 1.000000 0.000000
1.000000 1.000000 0.000000
0.000000 0.000000 0.003530
0.004841 0.000000 0.002647
0.044389 0.000000 0.001798
0.108860 0.000000 0.001133
0.192788 0.000000 0.000652
0.291125 0.000000 0.000329
0.398086 0.000000 0.000133
0.507496 0.000000 0.000034
0.613480 0.000000 0.000001
0.711119 0.000000 0.000000
0.796859 0.000000 0.000000
0.868575 0.000000 0.000028
0.925351 0.000000 0.000120
0.967026 0.000000 0.000306
0.993335 0.000000 0.000617
1.000000 0.000000 0.000645
1.000000 0.000000 0.000645
0.000000 0.001872 0.001061
0.002003 0.001188 0.000509
0.038017 0.000636 0.000134
0.100793 0.000270 0.000000
0.184202 0.000062 0.000000
0.283067 0.000000 0.000000
0.391425 0.000000 0.000000
0.502813 0.000000 0.000000
0.611010 0.000000 0.000000
0.710764 0.000000 0.000000
0.798250 0.000000 0.000000
0.871172 0.000007 0.000000
0.928521 0.000137 0.000000
0.970076 0.000413 0.000060
0.995359 0.000858 0.000365
1.000000 0.001208 0.000645
1.000000 0.001208 0.000645
0.000000 0.031427 0.000000
0.000179 0.029665 0.000000
0.031286 0.027739 0.000000
0.091649 0.025960 0.000000
0.173982 0.024482 0.000000
0.272952 0.023310 0.000000
0.382434 0.022432 0.000000
0.495696 0.021839 0.000000
0.606158 0.021521 0.000000
0.708201 0.021476 0.000000
0.797693 0.021701 0.000000
0.872125 0.022201 0.000000
0.930372 0.022982 0.000000
0.972138 0.024057 0.000000
0.996718 0.025438 0.000105
1.000000 0.027146 0.000616
1.000000 0.027224 0.000645
0.000000 0.082924 0.000000
0.000000 0.080678 0.000000
0.025335 0.078077 0.000000
0.082359 0.075344 0.000000
0.162829 0.072824 0.000000
0.261312 0.070681 0.000000
0.371519 0.068959 0.000000
0.486449 0.067666 0.000000
0.599151 0.066800 0.000000
0.703606 0.066358 0.000000
0.795331 0.066339 0.000000
0.871562 0.066743 0.000000
0.931025 0.067574 0.000000
0.973336 0.068840 0.000000
0.997571 0.070551 0.000000
1.000000 0.072719 0.000317
1.000000 0.073841 0.000645
0.000000 0.152475 0.000000
0.000000 0.150077 0.000000
0.020624 0.147168 0.000000
0.074006 0.143893 0.000000
0.151803 0.140583 0.000000
0.249010 0.137537 0.000000
0.359343 0.134921 0.000000
0.475563 0.132807 0.000000
0.590346 0.131225 0.000000
0.697235 0.130185 0.000000
0.791350 0.129693 0.000000
0.869625 0.129751 0.000000
0.930595 0.130362 0.000000
0.973771 0.131534 0.000000
0.998044 0.133273 0.000000
1.000000 0.135589 0.000070
1.000000 0.137865 0.000645
0.000000 0.237157 0.000000
0.000000 0.234901 0.000000
0.017058 0.232002 0.000000
0.067068 0.228564 0.000000
0.141824 0.224849 0.000000
0.237030 0.221178 0.000000
0.346757 0.217811 0.000000
0.463709 0.214911 0.000000
0.580237 0.212568 0.000000
0.689442 0.210831 0.000000
0.785998 0.209722 0.000000
0.866484 0.209258 0.000000
0.929203 0.209447 0.000000
0.973535 0.210297 0.000000
0.998226 0.211817 0.000000
1.000000 0.214014 0.000000
1.000000 0.216899 0.000542
0.000000 0.333343 0.000000
0.000000 0.331484 0.000000
0.014485 0.328882 0.000000
0.061607 0.325615 0.000000
0.133383 0.321889 0.000000
0.226169 0.317980 0.000000
0.334624 0.314174 0.000000
0.451652 0.310699 0.000000
0.569435 0.307713 0.000000
0.680675 0.305315 0.000000
0.779588 0.303565 0.000000
0.862352 0.302501 0.000000
0.926988 0.302145 0.000000
0.972714 0.302516 0.000000
0.998175 0.303623 0.000000
1.000000 0.305480 0.000000
1.000000 0.308094 0.000290
0.000000 0.436562 0.000000
0.000000 0.435293 0.000000
0.012774 0.433216 0.000000
0.057561 0.430399 0.000000
0.126652 0.426999 0.000000
0.216919 0.423239 0.000000
0.323643 0.419378 0.000000
0.440131 0.415662 0.000000
0.558591 0.412292 0.000000
0.671450 0.409414 0.000000
0.772496 0.407130 0.000000
0.857484 0.405507 0.000000
0.924112 0.404593 0.000000
0.971402 0.404417 0.000000
0.997922 0.405002 0.000000
1.000000 0.406364 0.000000
1.000000 0.408516 0.000116
0.000000 0.541801 0.000000
0.000000 0.541225 0.000000
0.011826 0.539817 0.000000
0.054852 0.537644 0.000000
0.121661 0.534823 0.000000
0.209527 0.531526 0.000000
0.314295 0.527968 0.000000
0.429756 0.524373 0.000000
0.548325 0.520950 0.000000
0.662304 0.517872 0.000000
0.765137 0.515272 0.000000
0.852174 0.513248 0.000000
0.920765 0.511869 0.000000
0.969703 0.511187 0.000000
0.997489 0.511236 0.000000
1.000000 0.512042 0.000000
1.000000 0.513625 0.000026
0.000000 0.644016 0.000000
0.000000 0.644135 0.000000
0.011583 0.643440 0.000000
0.053418 0.641998 0.000000
0.118390 0.639899 0.000000
0.204101 0.637271 0.000000
0.306872 0.634280 0.000000
0.420984 0.631111 0.000000
0.539165 0.627955 0.000000
0.653743 0.624983 0.000000
0.757936 0.622341 0.000000
0.846739 0.620145 0.000000
0.917158 0.618484 0.000000
0.967737 0.617426 0.000000
0.996900 0.617021 0.000000
1.000000 0.617305 0.000000
1.000000 0.618306 0.000001
0.000000 0.738664 0.000000
0.000000 0.739384 0.000000
0.012030 0.739346 0.000000
0.053226 0.738620 0.000000
0.116816 0.737272 0.000000
0.200687 0.735396 0.000000
0.301546 0.733114 0.000000
0.414129 0.730570 0.000000
0.531527 0.727919 0.000000
0.646212 0.725312 0.000000
0.751296 0.722888 0.000000
0.841501 0.720765 0.000000
0.913520 0.719041 0.000000
0.965637 0.717794 0.000000
0.996190 0.717084 0.000000
1.000000 0.716958 0.000000
1.000000 0.717450 0.000007
0.000000 0.822104 0.000000
0.000000 0.823258 0.000000
0.013195 0.823742 0.000000
0.054272 0.823625 0.000000
0.116930 0.822956 0.000000
0.199304 0.821803 0.000000
0.298416 0.820252 0.000000
0.409400 0.818409 0.000000
0.525723 0.816389 0.000000
0.640077 0.814314 0.000000
0.745578 0.812301 0.000000
0.836770 0.810456 0.000000
0.910080 0.808874 0.000000
0.963550 0.807632 0.000000
0.995414 0.806794 0.000000
1.000000 0.806413 0.000000
1.000000 0.806526 0.000074
0.000000 0.891759 0.000000
0.000000 0.893133 0.000000
0.015150 0.893948 0.000000
0.056589 0.894269 0.000000
0.118745 0.894133 0.000000
0.199973 0.893588 0.000000
0.297546 0.892692 0.000000
0.406939 0.891518 0.000000
0.521979 0.890147 0.000000
0.635628 0.888667 0.000000
0.741091 0.887167 0.000000
0.832828 0.885732 0.000000
0.907064 0.884443 0.000000
0.961627 0.883368 0.000000
0.994636 0.882567 0.000000
1.000000 0.882089 0.000000
1.000000 0.881975 0.000301
0.000000 0.945989 0.000000
0.000000 0.947341 0.000000
0.018006 0.948261 0.000000
0.060243 0.948809 0.000000
0.122299 0.949012 0.000000
0.202724 0.948902 0.000000
0.298985 0.948517 0.000000
0.406842 0.947904 0.000000
0.520459 0.947113 0.000000
0.633085 0.946202 0.000000
0.738086 0.945231 0.000000
0.829918 0.944260 0.000000
0.904679 0.943348 0.000000
0.960016 0.942548 0.000000
0.993934 0.941909 0.000000
1.000000 0.941472 0.000000
1.000000 0.941282 0.000645
0.000000 0.983533 0.000072
0.000114 0.984575 0.000000
0.021912 0.985332 0.000000
0.065331 0.985853 0.000000
0.127661 0.986159 0.000000
0.207605 0.986271 0.000000
0.302780 0.986211 0.000000
0.409182 0.986003 0.000000
0.521276 0.985673 0.000000
0.632611 0.985251 0.000000
0.736760 0.984768 0.000000
0.828246 0.984259 0.000000
0.903106 0.983756 0.000000
0.958855 0.983292 0.000000
0.993385 0.982900 0.000000
1.000000 0.982606 0.000262
1.000000 0.982534 0.000645
0.000000 1.000000 0.000645
0.001827 1.000000 0.000626
0.027047 1.000000 0.000015
0.071986 1.000000 0.000000
0.134925 1.000000 0.000000
0.214683 1.000000 0.000000
0.308984 1.000000 0.000000
0.414015 1.000000 0.000000
0.524513 1.000000 0.000000
0.634323 1.000000 0.000000
0.737260 1.000000 0.000000
0.827971 1.000000 0.000000
0.902497 1.000000 0.000000
0.958266 1.000000 0.000000
0.993064 1.000000 0.000161
1.000000 1.000000 0.000645
1.000000 1.000000 0.000645
0.000000 1.000000 0.000645
0.001853 1.000000 0.000645
0.030073 1.000000 0.000645
0.079562 1.000000 0.000645
0.144213 1.000000 0.000184
0.224044 1.000000 0.000000
0.317657 1.000000 0.000000
0.421392 1.000000 0.000000
0.530228 1.000000 0.000000
0.638301 1.000000 0.000000
0.739689 1.000000 0.000000
0.829213 1.000000 0.000000
0.902970 1.000000 0.000000
0.958347 1.000000 0.000442
0.993009 1.000000 0.000645
1.000000 1.000000 0.000645
1.000000 1.000000 0.000645
0.000000 0.000000 0.039556
0.004370 0.000000 0.037802
0.043456 0.000000 0.035456
0.108048 0.000000 0.032976
0.192491 0.000000 0.030684
0.291616 0.000000 0.028680
0.399511 0.000000 0.026989
0.509859 0.000000 0.025608
0.616647 0.000000 0.024528
0.714854 0.000000 0.023740
0.800861 0.000000 0.023236
0.872523 0.000000 0.023010
0.928926 0.000000 0.023060
0.969901 0.000000 0.023387
0.995036 0.000000 0.023997
1.000000 0.000000 0.024386
1.000000 0.000000 0.024386
0.000000 0.001622 0.033319
0.001762 0.000996 0.031818
0.037388 0.000479 0.029779
0.100393 0.000151 0.027631
0.184380 0.000001 0.025761
0.284071 0.000000 0.024207
0.393380 0.000000 0.022961
0.505701 0.000000 0.022012
0.614674 0.000000 0.021345
0.714940 0.000000 0.020953
0.802619 0.000000 0.020831
0.875394 0.000000 0.020976
0.932265 0.000025 0.021391
0.972999 0.000225 0.022082
0.996906 0.000604 0.023059
1.000000 0.001184 0.024335
1.000000 0.001208 0.024386
0.000000 0.030755 0.027148
0.000078 0.029053 0.025476
0.030696 0.027129 0.023611
0.091407 0.025301 0.021929
0.174383 0.023803 0.020562
0.274230 0.022618 0.019488
0.384705 0.021727 0.018693
0.498924 0.021118 0.018165
0.610165 0.020783 0.017894
0.712700 0.020717 0.017876
0.802340 0.020918 0.018112
0.876562 0.021390 0.018604
0.934252 0.022139 0.019361
0.975098 0.023176 0.020395
0.998113 0.024516 0.021720
1.000000 0.026177 0.023356
1.000000 0.027224 0.024386
0.000000 0.082112 0.021822
0.000000 0.079968 0.019971
0.024464 0.077419 0.018102
0.081650 0.074563 0.016590
0.162915 0.071907 0.015590
0.262422 0.069680 0.014915
0.373742 0.067900 0.014503
0.489724 0.066560 0.014335
0.603273 0.065652 0.014404
0.708257 0.065171 0.014709
0.800135 0.065111 0.015254
0.876135 0.065474 0.016050
0.934996 0.066261 0.017109
0.976319 0.067480 0.018449
0.998830 0.069140 0.020091
1.000000 0.071253 0.022060
1.000000 0.073837 0.024382
0.000000 0.151706 0.017587
0.000000 0.149438 0.015695
0.019617 0.146609 0.013896
0.072717 0.143262 0.012405
0.151105 0.139747 0.011436
0.249430 0.136500 0.010922
0.361049 0.133731 0.010734
0.478497 0.131501 0.010807
0.594275 0.129826 0.011117
0.701807 0.128707 0.011661
0.796147 0.128142 0.012444
0.874225 0.128133 0.013479
0.934596 0.128679 0.014784
0.976759 0.129786 0.016380
0.999201 0.131459 0.018294
1.000000 0.133707 0.020556
1.000000 0.136543 0.023197
0.000000 0.236579 0.014387
0.000000 0.234472 0.012505
0.015955 0.231674 0.010780
0.065376 0.228213 0.009336
0.140313 0.224321 0.008331
0.236458 0.220390 0.007796
0.347537 0.216769 0.007652
0.465898 0.213656 0.007816
0.583629 0.211140 0.008245
0.693662 0.209257 0.008923
0.790589 0.208025 0.009853
0.870979 0.207451 0.011048
0.933157 0.207540 0.012528
0.976498 0.208297 0.014319
0.999328 0.209726 0.016452
1.000000 0.211836 0.018959
1.000000 0.214634 0.021878
0.000000 0.333072 0.012099
0.000000 0.331376 0.010236
0.013301 0.328888 0.008572
0.059614 0.325637 0.007177
0.131208 0.321785 0.006157
0.224593 0.317630 0.005560
0.334271 0.313524 0.005359
0.452788 0.309756 0.005497
0.571968 0.306510 0.005930
0.684263 0.303888 0.006638
0.783755 0.301947 0.007620
0.866587 0.300716 0.008890
0.930800 0.300212 0.010471
0.975614 0.300449 0.012390
0.999268 0.301433 0.014683
1.000000 0.303173 0.017384
1.000000 0.305677 0.020535
0.000000 0.436670 0.010605
0.000000 0.435569 0.008748
0.011507 0.433615 0.007119
0.055313 0.430841 0.005757
0.123940 0.427367 0.004733
0.214455 0.423409 0.004085
0.322145 0.419260 0.003804
0.440060 0.415221 0.003859
0.560033 0.411533 0.004221
0.674162 0.408364 0.004878
0.776025 0.405821 0.005833
0.861297 0.403970 0.007103
0.927675 0.402853 0.008715
0.974184 0.402496 0.010699
0.999035 0.402917 0.013094
1.000000 0.404130 0.015937
1.000000 0.406143 0.019274
0.000000 0.542305 0.009815
0.000000 0.541896 0.007935
0.010465 0.540614 0.006307
0.052367 0.538501 0.004949
0.118491 0.535647 0.003912
0.206300 0.532208 0.003218
0.311738 0.528409 0.002863
0.428461 0.524510 0.002825
0.548557 0.520758 0.003088
0.663963 0.517355 0.003651
0.767846 0.514450 0.004527
0.855409 0.512148 0.005743
0.923966 0.510519 0.007331
0.972304 0.509611 0.009328
0.998621 0.509457 0.011775
1.000000 0.510078 0.014715
1.000000 0.511492 0.018195
0.000000 0.644878 0.009679
0.000000 0.645153 0.007735
0.010103 0.644580 0.006065
0.050693 0.643209 0.004673
0.114805 0.641107 0.003595
0.200207 0.638387 0.002846
0.303365 0.635215 0.002418
0.418523 0.631792 0.002291
0.538160 0.628336 0.002455
0.654252 0.625045 0.002915
0.759690 0.622087 0.003694
0.849263 0.619591 0.004829
0.919890 0.617651 0.006362
0.970086 0.616337 0.008336
0.998028 0.615698 0.010800
1.000000 0.615770 0.013801
1.000000 0.616577 0.017390
0.000000 0.739795 0.010186
0.000000 0.740655 0.008130
0.010398 0.740728 0.006369
0.050247 0.740075 0.004896
0.112833 0.738744 0.003740
0.196186 0.736816 0.002910
0.297183 0.734409 0.002397
0.410588 0.731672 0.002182
0.529321 0.728775 0.002254
0.645540 0.725889 0.002619
0.752016 0.723173 0.003307
0.843214 0.720759 0.004359
0.915687 0.718755 0.005828
0.967663 0.717244 0.007766
0.997273 0.716290 0.010228
1.000000 0.715937 0.013269
1.000000 0.716222 0.016944
0.000000 0.823383 0.011374
0.000000 0.824654 0.009154
0.011370 0.825233 0.007249
0.051015 0.825183 0.005644
0.112547 0.824541 0.004363
0.194233 0.823365 0.003415
0.293271 0.821736 0.002792
0.404866 0.819757 0.002477
0.522381 0.817554 0.002459
0.638241 0.815259 0.002741
0.745231 0.813002 0.003352
0.837606 0.810903 0.004336
0.911609 0.809067 0.005751
0.965189 0.807579 0.007656
0.996401 0.806508 0.010114
1.000000 0.805906 0.013187
1.000000 0.805814 0.016938
0.000000 0.893046 0.013324
0.000000 0.894511 0.010884
0.013083 0.895400 0.008781
0.053019 0.895776 0.006991
0.113948 0.895669 0.005538
0.194348 0.895118 0.004430
0.291669 0.894178 0.003664
0.401487 0.892918 0.003227
0.517573 0.891422 0.003108
0.632673 0.889784 0.003309
0.739681 0.888100 0.003856
0.832755 0.886467 0.004789
0.907903 0.884971 0.006166
0.962825 0.883689 0.008053
0.995478 0.882685 0.010518
1.000000 0.882013 0.013629
1.000000 0.881715 0.017455
0.000000 0.947136 0.016155
0.000000 0.948547 0.013439
0.015644 0.949517 0.011084
0.056319 0.950103 0.009058
0.117064 0.950328 0.007385
0.196544 0.950220 0.006075
0.292408 0.949814 0.005129
0.400531 0.949153 0.004539
0.515059 0.948287 0.004299
0.629069 0.947277 0.004411
0.735643 0.946185 0.004894
0.828934 0.945078 0.005786
0.904799 0.944018 0.007143
0.960732 0.943065 0.009029
0.994584 0.942272 0.011516
1.000000 0.941683 0.014677
1.000000 0.941336 0.018588
0.000000 0.984360 0.020021
0.000000 0.985426 0.016973
0.019197 0.986202 0.014313
0.061007 0.986738 0.012001
0.121953 0.987053 0.010060
0.200860 0.987167 0.008505
0.295520 0.987098 0.007341
0.402057 0.986870 0.006566
0.514946 0.986507 0.006178
0.627597 0.986038 0.006180
0.733329 0.985496 0.006591
0.826369 0.984915 0.007443
0.902502 0.984330 0.008786
0.959066 0.983779 0.010684
0.993807 0.983294 0.013208
1.000000 0.982906 0.016435
1.000000 0.982642 0.020444
0.000000 1.000000 0.024386
0.000795 1.000000 0.021673
0.023916 1.000000 0.018655
0.067207 1.000000 0.016006
0.128704 1.000000 0.013751
0.207351 1.000000 0.011909
0.301047 1.000000 0.010487
0.406111 1.000000 0.009492
0.517309 1.000000 0.008924
0.628376 1.000000 0.008791
0.732896 1.000000 0.009110
0.825237 1.000000 0.009911
0.901180 1.000000 0.011240
0.957964 1.000000 0.013155
0.993235 1.000000 0.015726
1.000000 1.000000 0.019032
1.000000 1.000000 0.023153
0.000000 1.000000 0.024386
0.001853 1.000000 0.024386
0.030006 1.000000 0.024323
0.075078 1.000000 0.021287
0.137432 1.000000 0.018672
0.216098 1.000000 0.016497
0.309041 1.000000 0.014779
0.412734 1.000000 0.013525
0.522200 1.000000 0.012743
0.631482 1.000000 0.012445
0.734453 1.000000 0.012647
0.825668 1.000000 0.013378
0.900967 1.000000 0.014680
0.957541 1.000000 0.016609
0.992942 1.000000 0.019231
1.000000 1.000000 0.022624
1.000000 1.000000 0.024386
0.000000 0.000000 0.099221
0.003904 0.000000 0.097428
0.042128 0.000000 0.094542
0.106371 0.000000 0.090895
0.191002 0.000000 0.087026
0.290718 0.000000 0.083301
0.399456 0.000000 0.079897
0.510737 0.000000 0.076887
0.618398 0.000000 0.074302
0.717292 0.000000 0.072149
0.803724 0.000000 0.070428
0.875511 0.000000 0.069136
0.931727 0.000000 0.068268
0.972189 0.000000 0.067821
0.996326 0.000000 0.067796
1.000000 0.000000 0.068092
1.000000 0.000000 0.068092
0.000000 0.001403 0.091196
0.001562 0.000841 0.089708
0.036366 0.000375 0.087242
