assets/presets/luts/mono-red/lut.cube
TITLE "Mono Red"
LUT_3D_SIZE 5
0.000000 0.000000 0.000000
0.068618 0.068618 0.068618
0.270986 0.270986 0.270986
0.568514 0.568514 0.568514
0.835411 0.835411 0.835411
0.008726 0.008726 0.008726
0.121041 0.121041 0.121041
0.364666 0.364666 0.364666
0.667611 0.667611 0.667611
0.898160 0.898160 0.898160
0.031463 0.031463 0.031463
0.188873 0.188873 0.188873
0.465636 0.465636 0.465636
0.757839 0.757839 0.757839
0.945430 0.945430 0.945430
0.068618 0.068618 0.068618
0.270986 0.270986 0.270986
0.568514 0.568514 0.568514
0.835411 0.835411 0.835411
0.977670 0.977670 0.977670
0.121041 0.121041 0.121041
0.364666 0.364666 0.364666
0.667611 0.667611 0.667611
0.898160 0.898160 0.898160
0.995791 0.995791 0.995791
0.000369 0.000369 0.000369
0.076279 0.076279 0.076279
0.285893 0.285893 0.285893
0.585442 0.585442 0.585442
0.846934 0.846934 0.846934
0.011554 0.011554 0.011554
0.131289 0.131289 0.131289
0.381123 0.381123 0.381123
0.683386 0.683386 0.683386
0.907112 0.907112 0.907112
0.036627 0.036627 0.036627
0.201619 0.201619 0.201619
0.482804 0.482804 0.482804
0.771725 0.771725 0.771725
0.951824 0.951824 0.951824
0.076279 0.076279 0.076279
0.285893 0.285893 0.285893
0.585442 0.585442 0.585442
0.846934 0.846934 0.846934
0.981647 0.981647 0.981647
0.131289 0.131289 0.131289
0.381123 0.381123 0.381123
0.683386 0.683386 0.683386
0.907112 0.907112 0.907112
0.997475 0.997475 0.997475
0.001237 0.001237 0.001237
0.084368 0.084368 0.084368
0.301109 0.301109 0.301109
0.602238 0.602238 0.602238
0.858035 0.858035 0.858035
0.014762 0.014762 0.014762
0.141965 0.141965 0.141965
0.397762 0.397762 0.397762
0.698891 0.698891 0.698891
0.915632 0.915632 0.915632
0.042197 0.042197 0.042197
0.214757 0.214757 0.214757
0.500000 0.500000 0.500000
0.785243 0.785243 0.785243
0.957803 0.957803 0.957803
0.084368 0.084368 0.084368
0.301109 0.301109 0.301109
0.602238 0.602238 0.602238
0.858035 0.858035 0.858035
0.985238 0.985238 0.985238
0.141965 0.141965 0.141965
0.397762 0.397762 0.397762
0.698891 0.698891 0.698891
0.915632 0.915632 0.915632
0.998763 0.998763 0.998763
0.002525 0.002525 0.002525
0.092888 0.092888 0.092888
0.316614 0.316614 0.316614
0.618877 0.618877 0.618877
0.868711 0.868711 0.868711
0.018353 0.018353 0.018353
0.153066 0.153066 0.153066
0.414558 0.414558 0.414558
0.714107 0.714107 0.714107
0.923721 0.923721 0.923721
0.048176 0.048176 0.048176
0.228275 0.228275 0.228275
0.517196 0.517196 0.517196
0.798381 0.798381 0.798381
0.963373 0.963373 0.963373
0.092888 0.092888 0.092888
0.316614 0.316614 0.316614
0.618877 0.618877 0.618877
0.868711 0.868711 0.868711
0.988446 0.988446 0.988446
0.153066 0.153066 0.153066
0.414558 0.414558 0.414558
0.714107 0.714107 0.714107
0.923721 0.923721 0.923721
0.999631 0.999631 0.999631
0.004209 0.004209 0.004209
0.101840 0.101840 0.101840
0.332389 0.332389 0.332389
0.635334 0.635334 0.635334
0.878959 0.878959 0.878959
0.022330 0.022330 0.022330
0.164589 0.164589 0.164589
0.431486 0.431486 0.431486
0.729014 0.729014 0.729014
0.931382 0.931382 0.931382
0.054570 0.054570 0.054570
0.242161 0.242161 0.242161
0.534364 0.534364 0.534364
0.811127 0.811127 0.811127
0.968537 0.968537 0.968537
0.101840 0.101840 0.101840
0.332389 0.332389 0.332389
0.635334 0.635334 0.635334
0.878959 0.878959 0.878959
0.991274 0.991274 0.991274
0.164589 0.164589 0.164589
0.431486 0.431486 0.431486
0.729014 0.729014 0.729014
0.931382 0.931382 0.931382
1.000000 1.000000 1.000000
