assets/presets/luts/mono-red/lut.cube
TITLE "Mono Red"
LUT_3D_SIZE 17
0.000000 0.000000 0.000000
0.005196 0.005196 0.005196
0.018353 0.018353 0.018353
0.039361 0.039361 0.039361
0.068618 0.068618 0.068618
0.106478 0.106478 0.106478
0.153066 0.153066 0.153066
0.208140 0.208140 0.208140
0.270986 0.270986 0.270986
0.340371 0.340371 0.340371
0.414558 0.414558 0.414558
0.491401 0.491401 0.491401
0.568514 0.568514 0.568514
0.643488 0.643488 0.643488
0.714107 0.714107 0.714107
0.778531 0.778531 0.778531
0.835411 0.835411 0.835411
0.000748 0.000748 0.000748
0.008726 0.008726 0.008726
0.024465 0.024465 0.024465
0.048176 0.048176 0.048176
0.080270 0.080270 0.080270
0.121041 0.121041 0.121041
0.170506 0.170506 0.170506
0.228275 0.228275 0.228275
0.293464 0.293464 0.293464
0.364666 0.364666 0.364666
0.439992 0.439992 0.439992
0.517196 0.517196 0.517196
0.593858 0.593858 0.593858
0.667611 0.667611 0.667611
0.736347 0.736347 0.736347
0.798381 0.798381 0.798381
0.852537 0.852537 0.852537
0.002525 0.002525 0.002525
0.013110 0.013110 0.013110
0.031463 0.031463 0.031463
0.057924 0.057924 0.057924
0.092888 0.092888 0.092888
0.136573 0.136573 0.136573
0.188873 0.188873 0.188873
0.249239 0.249239 0.249239
0.316614 0.316614 0.316614
0.389421 0.389421 0.389421
0.465636 0.465636 0.465636
0.542930 0.542930 0.542930
0.618877 0.618877 0.618877
0.691174 0.691174 0.691174
0.757839 0.757839 0.757839
0.817351 0.817351 0.817351
0.868711 0.868711 0.868711
0.005196 0.005196 0.005196
0.018353 0.018353 0.018353
0.039361 0.039361 0.039361
0.068618 0.068618 0.068618
0.106478 0.106478 0.106478
0.153066 0.153066 0.153066
0.208140 0.208140 0.208140
0.270986 0.270986 0.270986
0.340371 0.340371 0.340371
0.414558 0.414558 0.414558
0.491401 0.491401 0.491401
0.568514 0.568514 0.568514
0.643488 0.643488 0.643488
0.714107 0.714107 0.714107
0.778531 0.778531 0.778531
0.835411 0.835411 0.835411
0.883921 0.883921 0.883921
0.008726 0.008726 0.008726
0.024465 0.024465 0.024465
0.048176 0.048176 0.048176
0.080270 0.080270 0.080270
0.121041 0.121041 0.121041
0.170506 0.170506 0.170506
0.228275 0.228275 0.228275
0.293464 0.293464 0.293464
0.364666 0.364666 0.364666
0.439992 0.439992 0.439992
0.517196 0.517196 0.517196
0.593858 0.593858 0.593858
0.667611 0.667611 0.667611
0.736347 0.736347 0.736347
0.798381 0.798381 0.798381
0.852537 0.852537 0.852537
0.898160 0.898160 0.898160
0.013110 0.013110 0.013110
0.031463 0.031463 0.031463
0.057924 0.057924 0.057924
0.092888 0.092888 0.092888
0.136573 0.136573 0.136573
0.188873 0.188873 0.188873
0.249239 0.249239 0.249239
0.316614 0.316614 0.316614
0.389421 0.389421 0.389421
0.465636 0.465636 0.465636
0.542930 0.542930 0.542930
0.618877 0.618877 0.618877
0.691174 0.691174 0.691174
0.757839 0.757839 0.757839
0.817351 0.817351 0.817351
0.868711 0.868711 0.868711
0.911426 0.911426 0.911426
0.018353 0.018353 0.018353
0.039361 0.039361 0.039361
0.068618 0.068618 0.068618
0.106478 0.106478 0.106478
0.153066 0.153066 0.153066
0.208140 0.208140 0.208140
0.270986 0.270986 0.270986
0.340371 0.340371 0.340371
0.414558 0.414558 0.414558
0.491401 0.491401 0.491401
0.568514 0.568514 0.568514
0.643488 0.643488 0.643488
0.714107 0.714107 0.714107
0.778531 0.778531 0.778531
0.835411 0.835411 0.835411
0.883921 0.883921 0.883921
0.923721 0.923721 0.923721
0.024465 0.024465 0.024465
0.048176 0.048176 0.048176
0.080270 0.080270 0.080270
0.121041 0.121041 0.121041
0.170506 0.170506 0.170506
0.228275 0.228275 0.228275
0.293464 0.293464 0.293464
0.364666 0.364666 0.364666
0.439992 0.439992 0.439992
0.517196 0.517196 0.517196
0.593858 0.593858 0.593858
0.667611 0.667611 0.667611
0.736347 0.736347 0.736347
0.798381 0.798381 0.798381
0.852537 0.852537 0.852537
0.898160 0.898160 0.898160
0.935053 0.935053 0.935053
0.031463 0.031463 0.031463
0.057924 0.057924 0.057924
0.092888 0.092888 0.092888
0.136573 0.136573 0.136573
0.188873 0.188873 0.188873
0.249239 0.249239 0.249239
0.316614 0.316614 0.316614
0.389421 0.389421 0.389421
0.465636 0.465636 0.465636
0.542930 0.542930 0.542930
0.618877 0.618877 0.618877
0.691174 0.691174 0.691174
0.757839 0.757839 0.757839
0.817351 0.817351 0.817351
0.868711 0.868711 0.868711
0.911426 0.911426 0.911426
0.945430 0.945430 0.945430
0.039361 0.039361 0.039361
0.068618 0.068618 0.068618
0.106478 0.106478 0.106478
0.153066 0.153066 0.153066
0.208140 0.208140 0.208140
0.270986 0.270986 0.270986
0.340371 0.340371 0.340371
0.414558 0.414558 0.414558
0.491401 0.491401 0.491401
0.568514 0.568514 0.568514
0.643488 0.643488 0.643488
0.714107 0.714107 0.714107
0.778531 0.778531 0.778531
0.835411 0.835411 0.835411
0.883921 0.883921 0.883921
0.923721 0.923721 0.923721
0.954865 0.954865 0.954865
0.048176 0.048176 0.048176
0.080270 0.080270 0.080270
0.121041 0.121041 0.121041
0.170506 0.170506 0.170506
0.228275 0.228275 0.228275
0.293464 0.293464 0.293464
0.364666 0.364666 0.364666
0.439992 0.439992 0.439992
0.517196 0.517196 0.517196
0.593858 0.593858 0.593858
0.667611 0.667611 0.667611
0.736347 0.736347 0.736347
0.798381 0.798381 0.798381
0.852537 0.852537 0.852537
0.898160 0.898160 0.898160
0.935053 0.935053 0.935053
0.963373 0.963373 0.963373
0.057924 0.057924 0.057924
0.092888 0.092888 0.092888
0.136573 0.136573 0.136573
0.188873 0.188873 0.188873
0.249239 0.249239 0.249239
0.316614 0.316614 0.316614
0.389421 0.389421 0.389421
0.465636 0.465636 0.465636
0.542930 0.542930 0.542930
0.618877 0.618877 0.618877
0.691174 0.691174 0.691174
0.757839 0.757839 0.757839
0.817351 0.817351 0.817351
0.868711 0.868711 0.868711
0.911426 0.911426 0.911426
0.945430 0.945430 0.945430
0.970969 0.970969 0.970969
0.068618 0.068618 0.068618
0.106478 0.106478 0.106478
0.153066 0.153066 0.153066
0.208140 0.208140 0.208140
0.270986 0.270986 0.270986
0.340371 0.340371 0.340371
0.414558 0.414558 0.414558
0.491401 0.491401 0.491401
0.568514 0.568514 0.568514
0.643488 0.643488 0.643488
0.714107 0.714107 0.714107
0.778531 0.778531 0.778531
0.835411 0.835411 0.835411
0.883921 0.883921 0.883921
0.923721 0.923721 0.923721
0.954865 0.954865 0.954865
0.977670 0.977670 0.977670
0.080270 0.080270 0.080270
0.121041 0.121041 0.121041
0.170506 0.170506 0.170506
0.228275 0.228275 0.228275
0.293464 0.293464 0.293464
0.364666 0.364666 0.364666
0.439992 0.439992 0.439992
0.517196 0.517196 0.517196
0.593858 0.593858 0.593858
0.667611 0.667611 0.667611
0.736347 0.736347 0.736347
0.798381 0.798381 0.798381
0.852537 0.852537 0.852537
0.898160 0.898160 0.898160
0.935053 0.935053 0.935053
0.963373 0.963373 0.963373
0.983491 0.983491 0.983491
0.092888 0.092888 0.092888
0.136573 0.136573 0.136573
0.188873 0.188873 0.188873
0.249239 0.249239 0.249239
0.316614 0.316614 0.316614
0.389421 0.389421 0.389421
0.465636 0.465636 0.465636
0.542930 0.542930 0.542930
0.618877 0.618877 0.618877
0.691174 0.691174 0.691174
0.757839 0.757839 0.757839
0.817351 0.817351 0.817351
0.868711 0.868711 0.868711
0.911426 0.911426 0.911426
0.945430 0.945430 0.945430
0.970969 0.970969 0.970969
0.988446 0.988446 0.988446
0.106478 0.106478 0.106478
0.153066 0.153066 0.153066
0.208140 0.208140 0.208140
0.270986 0.270986 0.270986
0.340371 0.340371 0.340371
0.414558 0.414558 0.414558
0.491401 0.491401 0.491401
0.568514 0.568514 0.568514
0.643488 0.643488 0.643488
0.714107 0.714107 0.714107
0.778531 0.778531 0.778531
0.835411 0.835411 0.835411
0.883921 0.883921 0.883921
0.923721 0.923721 0.923721
0.954865 0.954865 0.954865
0.977670 0.977670 0.977670
0.992545 0.992545 0.992545
0.121041 0.121041 0.121041
0.170506 0.170506 0.170506
0.228275 0.228275 0.228275
0.293464 0.293464 0.293464
0.364666 0.364666 0.364666
0.439992 0.439992 0.439992
0.517196 0.517196 0.517196
0.593858 0.593858 0.593858
0.667611 0.667611 0.667611
0.736347 0.736347 0.736347
0.798381 0.798381 0.798381
0.852537 0.852537 0.852537
0.898160 0.898160 0.898160
0.935053 0.935053 0.935053
0.963373 0.963373 0.963373
0.983491 0.983491 0.983491
0.995791 0.995791 0.995791
0.000034 0.000034 0.000034
0.005725 0.005725 0.005725
0.019311 0.019311 0.019311
0.040766 0.040766 0.040766
0.070493 0.070493 0.070493
0.108838 0.108838 0.108838
0.155908 0.155908 0.155908
0.211436 0.211436 0.211436
0.274683 0.274683 0.274683
0.344385 0.344385 0.344385
0.418779 0.418779 0.418779
0.495700 0.495700 0.495700
0.572757 0.572757 0.572757
0.647544 0.647544 0.647544
0.717863 0.717863 0.717863
0.781899 0.781899 0.781899
0.838331 0.838331 0.838331
0.000979 0.000979 0.000979
0.009398 0.009398 0.009398
0.025570 0.025570 0.025570
0.049736 0.049736 0.049736
0.082305 0.082305 0.082305
0.123563 0.123563 0.123563
0.173503 0.173503 0.173503
0.231712 0.231712 0.231712
0.297277 0.297277 0.297277
0.368762 0.368762 0.368762
0.444254 0.444254 0.444254
0.521491 0.521491 0.521491
0.598053 0.598053 0.598053
0.671579 0.671579 0.671579
0.739982 0.739982 0.739982
0.801605 0.801605 0.801605
0.855300 0.855300 0.855300
0.002910 0.002910 0.002910
0.013924 0.013924 0.013924
0.032716 0.032716 0.032716
0.059640 0.059640 0.059640
0.095085 0.095085 0.095085
0.139256 0.139256 0.139256
0.192022 0.192022 0.192022
0.252810 0.252810 0.252810
0.320533 0.320533 0.320533
0.393587 0.393587 0.393587
0.469924 0.469924 0.469924
0.547207 0.547207 0.547207
0.623009 0.623009 0.623009
0.695041 0.695041 0.695041
0.761344 0.761344 0.761344
0.820425 0.820425 0.820425
0.871314 0.871314 0.871314
0.005725 0.005725 0.005725
0.019311 0.019311 0.019311
0.040766 0.040766 0.040766
0.070493 0.070493 0.070493
0.108838 0.108838 0.108838
0.155908 0.155908 0.155908
0.211436 0.211436 0.211436
0.274683 0.274683 0.274683
0.344385 0.344385 0.344385
0.418779 0.418779 0.418779
0.495700 0.495700 0.495700
0.572757 0.572757 0.572757
0.647544 0.647544 0.647544
0.717863 0.717863 0.717863
0.781899 0.781899 0.781899
0.838331 0.838331 0.838331
0.886362 0.886362 0.886362
0.009398 0.009398 0.009398
0.025570 0.025570 0.025570
0.049736 0.049736 0.049736
0.082305 0.082305 0.082305
0.123563 0.123563 0.123563
0.173503 0.173503 0.173503
0.231712 0.231712 0.231712
0.297277 0.297277 0.297277
0.368762 0.368762 0.368762
0.444254 0.444254 0.444254
0.521491 0.521491 0.521491
0.598053 0.598053 0.598053
0.671579 0.671579 0.671579
0.739982 0.739982 0.739982
0.801605 0.801605 0.801605
0.855300 0.855300 0.855300
0.900439 0.900439 0.900439
0.013924 0.013924 0.013924
0.032716 0.032716 0.032716
0.059640 0.059640 0.059640
0.095085 0.095085 0.095085
0.139256 0.139256 0.139256
0.192022 0.192022 0.192022
0.252810 0.252810 0.252810
0.320533 0.320533 0.320533
0.393587 0.393587 0.393587
0.469924 0.469924 0.469924
0.547207 0.547207 0.547207
0.623009 0.623009 0.623009
0.695041 0.695041 0.695041
0.761344 0.761344 0.761344
0.820425 0.820425 0.820425
0.871314 0.871314 0.871314
0.913542 0.913542 0.913542
0.019311 0.019311 0.019311
0.040766 0.040766 0.040766
0.070493 0.070493 0.070493
0.108838 0.108838 0.108838
0.155908 0.155908 0.155908
0.211436 0.211436 0.211436
0.274683 0.274683 0.274683
0.344385 0.344385 0.344385
0.418779 0.418779 0.418779
0.495700 0.495700 0.495700
0.572757 0.572757 0.572757
0.647544 0.647544 0.647544
0.717863 0.717863 0.717863
0.781899 0.781899 0.781899
0.838331 0.838331 0.838331
0.886362 0.886362 0.886362
0.925677 0.925677 0.925677
0.025570 0.025570 0.025570
0.049736 0.049736 0.049736
0.082305 0.082305 0.082305
0.123563 0.123563 0.123563
0.173503 0.173503 0.173503
0.231712 0.231712 0.231712
0.297277 0.297277 0.297277
0.368762 0.368762 0.368762
0.444254 0.444254 0.444254
0.521491 0.521491 0.521491
0.598053 0.598053 0.598053
0.671579 0.671579 0.671579
0.739982 0.739982 0.739982
0.801605 0.801605 0.801605
0.855300 0.855300 0.855300
0.900439 0.900439 0.900439
0.936848 0.936848 0.936848
0.032716 0.032716 0.032716
0.059640 0.059640 0.059640
0.095085 0.095085 0.095085
0.139256 0.139256 0.139256
0.192022 0.192022 0.192022
0.252810 0.252810 0.252810
0.320533 0.320533 0.320533
0.393587 0.393587 0.393587
0.469924 0.469924 0.469924
0.547207 0.547207 0.547207
0.623009 0.623009 0.623009
0.695041 0.695041 0.695041
0.761344 0.761344 0.761344
0.820425 0.820425 0.820425
0.871314 0.871314 0.871314
0.913542 0.913542 0.913542
0.947067 0.947067 0.947067
0.040766 0.040766 0.040766
0.070493 0.070493 0.070493
0.108838 0.108838 0.108838
0.155908 0.155908 0.155908
0.211436 0.211436 0.211436
0.274683 0.274683 0.274683
0.344385 0.344385 0.344385
0.418779 0.418779 0.418779
0.495700 0.495700 0.495700
0.572757 0.572757 0.572757
0.647544 0.647544 0.647544
0.717863 0.717863 0.717863
0.781899 0.781899 0.781899
0.838331 0.838331 0.838331
0.886362 0.886362 0.886362
0.925677 0.925677 0.925677
0.956347 0.956347 0.956347
0.049736 0.049736 0.049736
0.082305 0.082305 0.082305
0.123563 0.123563 0.123563
0.173503 0.173503 0.173503
0.231712 0.231712 0.231712
0.297277 0.297277 0.297277
0.368762 0.368762 0.368762
0.444254 0.444254 0.444254
0.521491 0.521491 0.521491
0.598053 0.598053 0.598053
0.671579 0.671579 0.671579
0.739982 0.739982 0.739982
0.801605 0.801605 0.801605
0.855300 0.855300 0.855300
0.900439 0.900439 0.900439
0.936848 0.936848 0.936848
0.964702 0.964702 0.964702
0.059640 0.059640 0.059640
0.095085 0.095085 0.095085
0.139256 0.139256 0.139256
0.192022 0.192022 0.192022
0.252810 0.252810 0.252810
0.320533 0.320533 0.320533
0.393587 0.393587 0.393587
0.469924 0.469924 0.469924
0.547207 0.547207 0.547207
0.623009 0.623009 0.623009
0.695041 0.695041 0.695041
0.761344 0.761344 0.761344
0.820425 0.820425 0.820425
0.871314 0.871314 0.871314
0.913542 0.913542 0.913542
0.947067 0.947067 0.947067
0.972147 0.972147 0.972147
0.070493 0.070493 0.070493
0.108838 0.108838 0.108838
0.155908 0.155908 0.155908
0.211436 0.211436 0.211436
0.274683 0.274683 0.274683
0.344385 0.344385 0.344385
0.418779 0.418779 0.418779
0.495700 0.495700 0.495700
0.572757 0.572757 0.572757
0.647544 0.647544 0.647544
0.717863 0.717863 0.717863
0.781899 0.781899 0.781899
0.838331 0.838331 0.838331
0.886362 0.886362 0.886362
0.925677 0.925677 0.925677
0.956347 0.956347 0.956347
0.978701 0.978701 0.978701
0.082305 0.082305 0.082305
0.123563 0.123563 0.123563
0.173503 0.173503 0.173503
0.231712 0.231712 0.231712
0.297277 0.297277 0.297277
0.368762 0.368762 0.368762
0.444254 0.444254 0.444254
0.521491 0.521491 0.521491
0.598053 0.598053 0.598053
0.671579 0.671579 0.671579
0.739982 0.739982 0.739982
0.801605 0.801605 0.801605
0.855300 0.855300 0.855300
0.900439 0.900439 0.900439
0.936848 0.936848 0.936848
0.964702 0.964702 0.964702
0.984376 0.984376 0.984376
0.095085 0.095085 0.095085
0.139256 0.139256 0.139256
0.192022 0.192022 0.192022
0.252810 0.252810 0.252810
0.320533 0.320533 0.320533
0.393587 0.393587 0.393587
0.469924 0.469924 0.469924
0.547207 0.547207 0.547207
0.623009 0.623009 0.623009
0.695041 0.695041 0.695041
0.761344 0.761344 0.761344
0.820425 0.820425 0.820425
0.871314 0.871314 0.871314
0.913542 0.913542 0.913542
0.947067 0.947067 0.947067
0.972147 0.972147 0.972147
0.989188 0.989188 0.989188
0.108838 0.108838 0.108838
0.155908 0.155908 0.155908
0.211436 0.211436 0.211436
0.274683 0.274683 0.274683
0.344385 0.344385 0.344385
0.418779 0.418779 0.418779
0.495700 0.495700 0.495700
0.572757 0.572757 0.572757
0.647544 0.647544 0.647544
0.717863 0.717863 0.717863
0.781899 0.781899 0.781899
0.838331 0.838331 0.838331
0.886362 0.886362 0.886362
0.925677 0.925677 0.925677
0.956347 0.956347 0.956347
0.978701 0.978701 0.978701
0.993146 0.993146 0.993146
0.123563 0.123563 0.123563
0.173503 0.173503 0.173503
0.231712 0.231712 0.231712
0.297277 0.297277 0.297277
0.368762 0.368762 0.368762
0.444254 0.444254 0.444254
0.521491 0.521491 0.521491
0.598053 0.598053 0.598053
0.671579 0.671579 0.671579
0.739982 0.739982 0.739982
0.801605 0.801605 0.801605
0.855300 0.855300 0.855300
0.900439 0.900439 0.900439
0.936848 0.936848 0.936848
0.964702 0.964702 0.964702
0.984376 0.984376 0.984376
0.996248 0.996248 0.996248
0.000111 0.000111 0.000111
0.006278 0.006278 0.006278
0.020293 0.020293 0.020293
0.042197 0.042197 0.042197
0.072395 0.072395 0.072395
0.111224 0.111224 0.111224
0.158775 0.158775 0.158775
0.214757 0.214757 0.214757
0.278400 0.278400 0.278400
0.348413 0.348413 0.348413
0.423007 0.423007 0.423007
0.500000 0.500000 0.500000
0.576993 0.576993 0.576993
0.651587 0.651587 0.651587
0.721600 0.721600 0.721600
0.785243 0.785243 0.785243
0.841225 0.841225 0.841225
0.001237 0.001237 0.001237
0.010093 0.010093 0.010093
0.026699 0.026699 0.026699
0.051321 0.051321 0.051321
0.084368 0.084368 0.084368
0.126111 0.126111 0.126111
0.176526 0.176526 0.176526
0.235173 0.235173 0.235173
0.301109 0.301109 0.301109
0.372870 0.372870 0.372870
0.448521 0.448521 0.448521
0.525785 0.525785 0.525785
0.602238 0.602238 0.602238
0.675531 0.675531 0.675531
0.743597 0.743597 0.743597
0.804804 0.804804 0.804804
0.858035 0.858035 0.858035
0.003319 0.003319 0.003319
0.014762 0.014762 0.014762
0.033995 0.033995 0.033995
0.061383 0.061383 0.061383
0.097310 0.097310 0.097310
0.141965 0.141965 0.141965
0.195196 0.195196 0.195196
0.256403 0.256403 0.256403
0.324469 0.324469 0.324469
0.397762 0.397762 0.397762
0.474215 0.474215 0.474215
0.551479 0.551479 0.551479
0.627130 0.627130 0.627130
0.698891 0.698891 0.698891
0.764827 0.764827 0.764827
0.823474 0.823474 0.823474
0.873889 0.873889 0.873889
0.006278 0.006278 0.006278
0.020293 0.020293 0.020293
0.042197 0.042197 0.042197
0.072395 0.072395 0.072395
0.111224 0.111224 0.111224
0.158775 0.158775 0.158775
0.214757 0.214757 0.214757
0.278400 0.278400 0.278400
0.348413 0.348413 0.348413
0.423007 0.423007 0.423007
0.500000 0.500000 0.500000
0.576993 0.576993 0.576993
0.651587 0.651587 0.651587
0.721600 0.721600 0.721600
0.785243 0.785243 0.785243
0.841225 0.841225 0.841225
0.888776 0.888776 0.888776
0.010093 0.010093 0.010093
0.026699 0.026699 0.026699
0.051321 0.051321 0.051321
0.084368 0.084368 0.084368
0.126111 0.126111 0.126111
0.176526 0.176526 0.176526
0.235173 0.235173 0.235173
0.301109 0.301109 0.301109
0.372870 0.372870 0.372870
0.448521 0.448521 0.448521
0.525785 0.525785 0.525785
0.602238 0.602238 0.602238
0.675531 0.675531 0.675531
0.743597 0.743597 0.743597
0.804804 0.804804 0.804804
0.858035 0.858035 0.858035
0.902690 0.902690 0.902690
0.014762 0.014762 0.014762
0.033995 0.033995 0.033995
0.061383 0.061383 0.061383
0.097310 0.097310 0.097310
0.141965 0.141965 0.141965
0.195196 0.195196 0.195196
0.256403 0.256403 0.256403
0.324469 0.324469 0.324469
0.397762 0.397762 0.397762
0.474215 0.474215 0.474215
0.551479 0.551479 0.551479
0.627130 0.627130 0.627130
0.698891 0.698891 0.698891
0.764827 0.764827 0.764827
0.823474 0.823474 0.823474
0.873889 0.873889 0.873889
0.915632 0.915632 0.915632
0.020293 0.020293 0.020293
0.042197 0.042197 0.042197
0.072395 0.072395 0.072395
0.111224 0.111224 0.111224
0.158775 0.158775 0.158775
0.214757 0.214757 0.214757
0.278400 0.278400 0.278400
0.348413 0.348413 0.348413
0.423007 0.423007 0.423007
0.500000 0.500000 0.500000
0.576993 0.576993 0.576993
0.651587 0.651587 0.651587
0.721600 0.721600 0.721600
0.785243 0.785243 0.785243
0.841225 0.841225 0.841225
0.888776 0.888776 0.888776
0.927605 0.927605 0.927605
0.026699 0.026699 0.026699
0.051321 0.051321 0.051321
0.084368 0.084368 0.084368
0.126111 0.126111 0.126111
0.176526 0.176526 0.176526
0.235173 0.235173 0.235173
0.301109 0.301109 0.301109
0.372870 0.372870 0.372870
0.448521 0.448521 0.448521
0.525785 0.525785 0.525785
0.602238 0.602238 0.602238
0.675531 0.675531 0.675531
0.743597 0.743597 0.743597
0.804804 0.804804 0.804804
0.858035 0.858035 0.858035
0.902690 0.902690 0.902690
0.938617 0.938617 0.938617
0.033995 0.033995 0.033995
0.061383 0.061383 0.061383
0.097310 0.097310 0.097310
0.141965 0.141965 0.141965
0.195196 0.195196 0.195196
0.256403 0.256403 0.256403
0.324469 0.324469 0.324469
0.397762 0.397762 0.397762
0.474215 0.474215 0.474215
0.551479 0.551479 0.551479
0.627130 0.627130 0.627130
0.698891 0.698891 0.698891
0.764827 0.764827 0.764827
0.823474 0.823474 0.823474
0.873889 0.873889 0.873889
0.915632 0.915632 0.915632
0.948679 0.948679 0.948679
0.042197 0.042197 0.042197
0.072395 0.072395 0.072395
0.111224 0.111224 0.111224
0.158775 0.158775 0.158775
0.214757 0.214757 0.214757
0.278400 0.278400 0.278400
0.348413 0.348413 0.348413
0.423007 0.423007 0.423007
0.500000 0.500000 0.500000
0.576993 0.576993 0.576993
0.651587 0.651587 0.651587
0.721600 0.721600 0.721600
0.785243 0.785243 0.785243
0.841225 0.841225 0.841225
0.888776 0.888776 0.888776
0.927605 0.927605 0.927605
0.957803 0.957803 0.957803
0.051321 0.051321 0.051321
0.084368 0.084368 0.084368
0.126111 0.126111 0.126111
0.176526 0.176526 0.176526
0.235173 0.235173 0.235173
0.301109 0.301109 0.301109
0.372870 0.372870 0.372870
0.448521 0.448521 0.448521
0.525785 0.525785 0.525785
0.602238 0.602238 0.602238
0.675531 0.675531 0.675531
0.743597 0.743597 0.743597
0.804804 0.804804 0.804804
0.858035 0.858035 0.858035
0.902690 0.902690 0.902690
0.938617 0.938617 0.938617
0.966005 0.966005 0.966005
0.061383 0.061383 0.061383
0.097310 0.097310 0.097310
0.141965 0.141965 0.141965
0.195196 0.195196 0.195196
0.256403 0.256403 0.256403
0.324469 0.324469 0.324469
0.397762 0.397762 0.397762
0.474215 0.474215 0.474215
0.551479 0.551479 0.551479
0.627130 0.627130 0.627130
0.698891 0.698891 0.698891
0.764827 0.764827 0.764827
0.823474 0.823474 0.823474
0.873889 0.873889 0.873889
0.915632 0.915632 0.915632
0.948679 0.948679 0.948679
0.973301 0.973301 0.973301
0.072395 0.072395 0.072395
0.111224 0.111224 0.111224
0.158775 0.158775 0.158775
0.214757 0.214757 0.214757
0.278400 0.278400 0.278400
0.348413 0.348413 0.348413
0.423007 0.423007 0.423007
0.500000 0.500000 0.500000
0.576993 0.576993 0.576993
0.651587 0.651587 0.651587
0.721600 0.721600 0.721600
0.785243 0.785243 0.785243
0.841225 0.841225 0.841225
0.888776 0.888776 0.888776
0.927605 0.927605 0.927605
0.957803 0.957803 0.957803
0.979707 0.979707 0.979707
0.084368 0.084368 0.084368
0.126111 0.126111 0.126111
0.176526 0.176526 0.176526
0.235173 0.235173 0.235173
0.301109 0.301109 0.301109
0.372870 0.372870 0.372870
0.448521 0.448521 0.448521
0.525785 0.525785 0.525785
0.602238 0.602238 0.602238
0.675531 0.675531 0.675531
0.743597 0.743597 0.743597
0.804804 0.804804 0.804804
0.858035 0.858035 0.858035
0.902690 0.902690 0.902690
0.938617 0.938617 0.938617
0.966005 0.966005 0.966005
0.985238 0.985238 0.985238
0.097310 0.097310 0.097310
0.141965 0.141965 0.141965
0.195196 0.195196 0.195196
0.256403 0.256403 0.256403
0.324469 0.324469 0.324469
0.397762 0.397762 0.397762
0.474215 0.474215 0.474215
0.551479 0.551479 0.551479
0.627130 0.627130 0.627130
0.698891 0.698891 0.698891
0.764827 0.764827 0.764827
0.823474 0.823474 0.823474
0.873889 0.873889 0.873889
0.915632 0.915632 0.915632
0.948679 0.948679 0.948679
0.973301 0.973301 0.973301
0.989907 0.989907 0.989907
0.111224 0.111224 0.111224
0.158775 0.158775 0.158775
0.214757 0.214757 0.214757
0.278400 0.278400 0.278400
0.348413 0.348413 0.348413
0.423007 0.423007 0.423007
0.500000 0.500000 0.500000
0.576993 0.576993 0.576993
0.651587 0.651587 0.651587
0.721600 0.721600 0.721600
0.785243 0.785243 0.785243
0.841225 0.841225 0.841225
0.888776 0.888776 0.888776
0.927605 0.927605 0.927605
0.957803 0.957803 0.957803
0.979707 0.979707 0.979707
0.993722 0.993722 0.993722
0.126111 0.126111 0.126111
0.176526 0.176526 0.176526
0.235173 0.235173 0.235173
0.301109 0.301109 0.301109
0.372870 0.372870 0.372870
0.448521 0.448521 0.448521
0.525785 0.525785 0.525785
0.602238 0.602238 0.602238
0.675531 0.675531 0.675531
0.743597 0.743597 0.743597
0.804804 0.804804 0.804804
0.858035 0.858035 0.858035
0.902690 0.902690 0.902690
0.938617 0.938617 0.938617
0.966005 0.966005 0.966005
0.985238 0.985238 0.985238
0.996681 0.996681 0.996681
0.000224 0.000224 0.000224
0.006854 0.006854 0.006854
0.021299 0.021299 0.021299
0.043653 0.043653 0.043653
0.074323 0.074323 0.074323
0.113638 0.113638 0.113638
0.161669 0.161669 0.161669
0.218101 0.218101 0.218101
0.282137 0.282137 0.282137
0.352456 0.352456 0.352456
0.427243 0.427243 0.427243
0.504300 0.504300 0.504300
0.581221 0.581221 0.581221
0.655615 0.655615 0.655615
0.725317 0.725317 0.725317
0.788564 0.788564 0.788564
0.844092 0.844092 0.844092
0.001521 0.001521 0.001521
0.010811 0.010811 0.010811
0.027853 0.027853 0.027853
