assets/presets/luts/mono-red/lut.cube
TITLE "Mono Red"
LUT_3D_SIZE 9
0.000000 0.000000 0.000000
0.018353 0.018353 0.018353
0.068618 0.068618 0.068618
0.153066 0.153066 0.153066
0.270986 0.270986 0.270986
0.414558 0.414558 0.414558
0.568514 0.568514 0.568514
0.714107 0.714107 0.714107
0.835411 0.835411 0.835411
0.002525 0.002525 0.002525
0.031463 0.031463 0.031463
0.092888 0.092888 0.092888
0.188873 0.188873 0.188873
0.316614 0.316614 0.316614
0.465636 0.465636 0.465636
0.618877 0.618877 0.618877
0.757839 0.757839 0.757839
0.868711 0.868711 0.868711
0.008726 0.008726 0.008726
0.048176 0.048176 0.048176
0.121041 0.121041 0.121041
0.228275 0.228275 0.228275
0.364666 0.364666 0.364666
0.517196 0.517196 0.517196
0.667611 0.667611 0.667611
0.798381 0.798381 0.798381
0.898160 0.898160 0.898160
0.018353 0.018353 0.018353
0.068618 0.068618 0.068618
0.153066 0.153066 0.153066
0.270986 0.270986 0.270986
0.414558 0.414558 0.414558
0.568514 0.568514 0.568514
0.714107 0.714107 0.714107
0.835411 0.835411 0.835411
0.923721 0.923721 0.923721
0.031463 0.031463 0.031463
0.092888 0.092888 0.092888
0.188873 0.188873 0.188873
0.316614 0.316614 0.316614
0.465636 0.465636 0.465636
0.618877 0.618877 0.618877
0.757839 0.757839 0.757839
0.868711 0.868711 0.868711
0.945430 0.945430 0.945430
0.048176 0.048176 0.048176
0.121041 0.121041 0.121041
0.228275 0.228275 0.228275
0.364666 0.364666 0.364666
0.517196 0.517196 0.517196
0.667611 0.667611 0.667611
0.798381 0.798381 0.798381
0.898160 0.898160 0.898160
0.963373 0.963373 0.963373
0.068618 0.068618 0.068618
0.153066 0.153066 0.153066
0.270986 0.270986 0.270986
0.414558 0.414558 0.414558
0.568514 0.568514 0.568514
0.714107 0.714107 0.714107
0.835411 0.835411 0.835411
0.923721 0.923721 0.923721
0.977670 0.977670 0.977670
0.092888 0.092888 0.092888
0.188873 0.188873 0.188873
0.316614 0.316614 0.316614
0.465636 0.465636 0.465636
0.618877 0.618877 0.618877
0.757839 0.757839 0.757839
0.868711 0.868711 0.868711
0.945430 0.945430 0.945430
0.988446 0.988446 0.988446
0.121041 0.121041 0.121041
0.228275 0.228275 0.228275
0.364666 0.364666 0.364666
0.517196 0.517196 0.517196
0.667611 0.667611 0.667611
0.798381 0.798381 0.798381
0.898160 0.898160 0.898160
0.963373 0.963373 0.963373
0.995791 0.995791 0.995791
0.000111 0.000111 0.000111
0.020293 0.020293 0.020293
0.072395 0.072395 0.072395
0.158775 0.158775 0.158775
0.278400 0.278400 0.278400
0.423007 0.423007 0.423007
0.576993 0.576993 0.576993
0.721600 0.721600 0.721600
0.841225 0.841225 0.841225
0.003319 0.003319 0.003319
0.033995 0.033995 0.033995
0.097310 0.097310 0.097310
0.195196 0.195196 0.195196
0.324469 0.324469 0.324469
0.474215 0.474215 0.474215
0.627130 0.627130 0.627130
0.764827 0.764827 0.764827
0.873889 0.873889 0.873889
0.010093 0.010093 0.010093
0.051321 0.051321 0.051321
0.126111 0.126111 0.126111
0.235173 0.235173 0.235173
0.372870 0.372870 0.372870
0.525785 0.525785 0.525785
0.675531 0.675531 0.675531
0.804804 0.804804 0.804804
0.902690 0.902690 0.902690
0.020293 0.020293 0.020293
0.072395 0.072395 0.072395
0.158775 0.158775 0.158775
0.278400 0.278400 0.278400
0.423007 0.423007 0.423007
0.576993 0.576993 0.576993
0.721600 0.721600 0.721600
0.841225 0.841225 0.841225
0.927605 0.927605 0.927605
0.033995 0.033995 0.033995
0.097310 0.097310 0.097310
0.195196 0.195196 0.195196
0.324469 0.324469 0.324469
0.474215 0.474215 0.474215
0.627130 0.627130 0.627130
0.764827 0.764827 0.764827
0.873889 0.873889 0.873889
0.948679 0.948679 0.948679
0.051321 0.051321 0.051321
0.126111 0.126111 0.126111
0.235173 0.235173 0.235173
0.372870 0.372870 0.372870
0.525785 0.525785 0.525785
0.675531 0.675531 0.675531
0.804804 0.804804 0.804804
0.902690 0.902690 0.902690
0.966005 0.966005 0.966005
0.072395 0.072395 0.072395
0.158775 0.158775 0.158775
0.278400 0.278400 0.278400
0.423007 0.423007 0.423007
0.576993 0.576993 0.576993
0.721600 0.721600 0.721600
0.841225 0.841225 0.841225
0.927605 0.927605 0.927605
0.979707 0.979707 0.979707
0.097310 0.097310 0.097310
0.195196 0.195196 0.195196
0.324469 0.324469 0.324469
0.474215 0.474215 0.474215
0.627130 0.627130 0.627130
0.764827 0.764827 0.764827
0.873889 0.873889 0.873889
0.948679 0.948679 0.948679
0.989907 0.989907 0.989907
0.126111 0.126111 0.126111
0.235173 0.235173 0.235173
0.372870 0.372870 0.372870
0.525785 0.525785 0.525785
0.675531 0.675531 0.675531
0.804804 0.804804 0.804804
0.902690 0.902690 0.902690
0.966005 0.966005 0.966005
0.996681 0.996681 0.996681
0.000369 0.000369 0.000369
0.022330 0.022330 0.022330
0.076279 0.076279 0.076279
0.164589 0.164589 0.164589
0.285893 0.285893 0.285893
0.431486 0.431486 0.431486
0.585442 0.585442 0.585442
0.729014 0.729014 0.729014
0.846934 0.846934 0.846934
0.004209 0.004209 0.004209
0.036627 0.036627 0.036627
0.101840 0.101840 0.101840
0.201619 0.201619 0.201619
0.332389 0.332389 0.332389
0.482804 0.482804 0.482804
0.635334 0.635334 0.635334
0.771725 0.771725 0.771725
0.878959 0.878959 0.878959
0.011554 0.011554 0.011554
0.054570 0.054570 0.054570
0.131289 0.131289 0.131289
0.242161 0.242161 0.242161
0.381123 0.381123 0.381123
0.534364 0.534364 0.534364
0.683386 0.683386 0.683386
0.811127 0.811127 0.811127
0.907112 0.907112 0.907112
0.022330 0.022330 0.022330
0.076279 0.076279 0.076279
0.164589 0.164589 0.164589
0.285893 0.285893 0.285893
0.431486 0.431486 0.431486
0.585442 0.585442 0.585442
0.729014 0.729014 0.729014
0.846934 0.846934 0.846934
0.931382 0.931382 0.931382
0.036627 0.036627 0.036627
0.101840 0.101840 0.101840
0.201619 0.201619 0.201619
0.332389 0.332389 0.332389
0.482804 0.482804 0.482804
0.635334 0.635334 0.635334
0.771725 0.771725 0.771725
0.878959 0.878959 0.878959
0.951824 0.951824 0.951824
0.054570 0.054570 0.054570
0.131289 0.131289 0.131289
0.242161 0.242161 0.242161
0.381123 0.381123 0.381123
0.534364 0.534364 0.534364
0.683386 0.683386 0.683386
0.811127 0.811127 0.811127
0.907112 0.907112 0.907112
0.968537 0.968537 0.968537
0.076279 0.076279 0.076279
0.164589 0.164589 0.164589
0.285893 0.285893 0.285893
0.431486 0.431486 0.431486
0.585442 0.585442 0.585442
0.729014 0.729014 0.729014
0.846934 0.846934 0.846934
0.931382 0.931382 0.931382
0.981647 0.981647 0.981647
0.101840 0.101840 0.101840
0.201619 0.201619 0.201619
0.332389 0.332389 0.332389
0.482804 0.482804 0.482804
0.635334 0.635334 0.635334
0.771725 0.771725 0.771725
0.878959 0.878959 0.878959
0.951824 0.951824 0.951824
0.991274 0.991274 0.991274
0.131289 0.131289 0.131289
0.242161 0.242161 0.242161
0.381123 0.381123 0.381123
0.534364 0.534364 0.534364
0.683386 0.683386 0.683386
0.811127 0.811127 0.811127
0.907112 0.907112 0.907112
0.968537 0.968537 0.968537
0.997475 0.997475 0.997475
0.000748 0.000748 0.000748
0.024465 0.024465 0.024465
0.080270 0.080270 0.080270
0.170506 0.170506 0.170506
0.293464 0.293464 0.293464
0.439992 0.439992 0.439992
0.593858 0.593858 0.593858
0.736347 0.736347 0.736347
0.852537 0.852537 0.852537
0.005196 0.005196 0.005196
0.039361 0.039361 0.039361
0.106478 0.106478 0.106478
0.208140 0.208140 0.208140
0.340371 0.340371 0.340371
0.491401 0.491401 0.491401
0.643488 0.643488 0.643488
0.778531 0.778531 0.778531
0.883921 0.883921 0.883921
0.013110 0.013110 0.013110
0.057924 0.057924 0.057924
0.136573 0.136573 0.136573
0.249239 0.249239 0.249239
0.389421 0.389421 0.389421
0.542930 0.542930 0.542930
0.691174 0.691174 0.691174
0.817351 0.817351 0.817351
0.911426 0.911426 0.911426
0.024465 0.024465 0.024465
0.080270 0.080270 0.080270
0.170506 0.170506 0.170506
0.293464 0.293464 0.293464
0.439992 0.439992 0.439992
0.593858 0.593858 0.593858
0.736347 0.736347 0.736347
0.852537 0.852537 0.852537
0.935053 0.935053 0.935053
0.039361 0.039361 0.039361
0.106478 0.106478 0.106478
0.208140 0.208140 0.208140
0.340371 0.340371 0.340371
0.491401 0.491401 0.491401
0.643488 0.643488 0.643488
0.778531 0.778531 0.778531
0.883921 0.883921 0.883921
0.954865 0.954865 0.954865
0.057924 0.057924 0.057924
0.136573 0.136573 0.136573
0.249239 0.249239 0.249239
0.389421 0.389421 0.389421
0.542930 0.542930 0.542930
0.691174 0.691174 0.691174
0.817351 0.817351 0.817351
0.911426 0.911426 0.911426
0.970969 0.970969 0.970969
0.080270 0.080270 0.080270
0.170506 0.170506 0.170506
0.293464 0.293464 0.293464
0.439992 0.439992 0.439992
0.593858 0.593858 0.593858
0.736347 0.736347 0.736347
0.852537 0.852537 0.852537
0.935053 0.935053 0.935053
0.983491 0.983491 0.983491
0.106478 0.106478 0.106478
0.208140 0.208140 0.208140
0.340371 0.340371 0.340371
0.491401 0.491401 0.491401
0.643488 0.643488 0.643488
0.778531 0.778531 0.778531
0.883921 0.883921 0.883921
0.954865 0.954865 0.954865
0.992545 0.992545 0.992545
0.136573 0.136573 0.136573
0.249239 0.249239 0.249239
0.389421 0.389421 0.389421
0.542930 0.542930 0.542930
0.691174 0.691174 0.691174
0.817351 0.817351 0.817351
0.911426 0.911426 0.911426
0.970969 0.970969 0.970969
0.998169 0.998169 0.998169
0.001237 0.001237 0.001237
0.026699 0.026699 0.026699
0.084368 0.084368 0.084368
0.176526 0.176526 0.176526
0.301109 0.301109 0.301109
0.448521 0.448521 0.448521
0.602238 0.602238 0.602238
0.743597 0.743597 0.743597
0.858035 0.858035 0.858035
0.006278 0.006278 0.006278
0.042197 0.042197 0.042197
0.111224 0.111224 0.111224
0.214757 0.214757 0.214757
0.348413 0.348413 0.348413
0.500000 0.500000 0.500000
0.651587 0.651587 0.651587
0.785243 0.785243 0.785243
0.888776 0.888776 0.888776
0.014762 0.014762 0.014762
0.061383 0.061383 0.061383
0.141965 0.141965 0.141965
0.256403 0.256403 0.256403
0.397762 0.397762 0.397762
0.551479 0.551479 0.551479
0.698891 0.698891 0.698891
0.823474 0.823474 0.823474
0.915632 0.915632 0.915632
0.026699 0.026699 0.026699
0.084368 0.084368 0.084368
0.176526 0.176526 0.176526
0.301109 0.301109 0.301109
0.448521 0.448521 0.448521
0.602238 0.602238 0.602238
0.743597 0.743597 0.743597
0.858035 0.858035 0.858035
0.938617 0.938617 0.938617
0.042197 0.042197 0.042197
0.111224 0.111224 0.111224
0.214757 0.214757 0.214757
0.348413 0.348413 0.348413
0.500000 0.500000 0.500000
0.651587 0.651587 0.651587
0.785243 0.785243 0.785243
0.888776 0.888776 0.888776
0.957803 0.957803 0.957803
0.061383 0.061383 0.061383
0.141965 0.141965 0.141965
0.256403 0.256403 0.256403
0.397762 0.397762 0.397762
0.551479 0.551479 0.551479
0.698891 0.698891 0.698891
0.823474 0.823474 0.823474
0.915632 0.915632 0.915632
0.973301 0.973301 0.973301
0.084368 0.084368 0.084368
0.176526 0.176526 0.176526
0.301109 0.301109 0.301109
0.448521 0.448521 0.448521
0.602238 0.602238 0.602238
0.743597 0.743597 0.743597
0.858035 0.858035 0.858035
0.938617 0.938617 0.938617
0.985238 0.985238 0.985238
0.111224 0.111224 0.111224
0.214757 0.214757 0.214757
0.348413 0.348413 0.348413
0.500000 0.500000 0.500000
0.651587 0.651587 0.651587
0.785243 0.785243 0.785243
0.888776 0.888776 0.888776
0.957803 0.957803 0.957803
0.993722 0.993722 0.993722
0.141965 0.141965 0.141965
0.256403 0.256403 0.256403
0.397762 0.397762 0.397762
0.551479 0.551479 0.551479
0.698891 0.698891 0.698891
0.823474 0.823474 0.823474
0.915632 0.915632 0.915632
0.973301 0.973301 0.973301
0.998763 0.998763 0.998763
0.001831 0.001831 0.001831
0.029031 0.029031 0.029031
0.088574 0.088574 0.088574
0.182649 0.182649 0.182649
0.308826 0.308826 0.308826
0.457070 0.457070 0.457070
0.610579 0.610579 0.610579
0.750761 0.750761 0.750761
0.863427 0.863427 0.863427
0.007455 0.007455 0.007455
0.045135 0.045135 0.045135
0.116079 0.116079 0.116079
0.221469 0.221469 0.221469
0.356512 0.356512 0.356512
0.508599 0.508599 0.508599
0.659629 0.659629 0.659629
0.791860 0.791860 0.791860
0.893522 0.893522 0.893522
0.016509 0.016509 0.016509
0.064947 0.064947 0.064947
0.147463 0.147463 0.147463
0.263653 0.263653 0.263653
0.406142 0.406142 0.406142
0.560008 0.560008 0.560008
0.706536 0.706536 0.706536
0.829494 0.829494 0.829494
0.919730 0.919730 0.919730
0.029031 0.029031 0.029031
0.088574 0.088574 0.088574
0.182649 0.182649 0.182649
0.308826 0.308826 0.308826
0.457070 0.457070 0.457070
0.610579 0.610579 0.610579
0.750761 0.750761 0.750761
0.863427 0.863427 0.863427
0.942076 0.942076 0.942076
0.045135 0.045135 0.045135
0.116079 0.116079 0.116079
0.221469 0.221469 0.221469
0.356512 0.356512 0.356512
0.508599 0.508599 0.508599
0.659629 0.659629 0.659629
0.791860 0.791860 0.791860
0.893522 0.893522 0.893522
0.960639 0.960639 0.960639
0.064947 0.064947 0.064947
0.147463 0.147463 0.147463
0.263653 0.263653 0.263653
0.406142 0.406142 0.406142
0.560008 0.560008 0.560008
0.706536 0.706536 0.706536
0.829494 0.829494 0.829494
0.919730 0.919730 0.919730
0.975535 0.975535 0.975535
0.088574 0.088574 0.088574
0.182649 0.182649 0.182649
0.308826 0.308826 0.308826
0.457070 0.457070 0.457070
0.610579 0.610579 0.610579
0.750761 0.750761 0.750761
0.863427 0.863427 0.863427
0.942076 0.942076 0.942076
0.986890 0.986890 0.986890
0.116079 0.116079 0.116079
0.221469 0.221469 0.221469
0.356512 0.356512 0.356512
0.508599 0.508599 0.508599
0.659629 0.659629 0.659629
0.791860 0.791860 0.791860
0.893522 0.893522 0.893522
0.960639 0.960639 0.960639
0.994804 0.994804 0.994804
0.147463 0.147463 0.147463
0.263653 0.263653 0.263653
0.406142 0.406142 0.406142
0.560008 0.560008 0.560008
0.706536 0.706536 0.706536
0.829494 0.829494 0.829494
0.919730 0.919730 0.919730
0.975535 0.975535 0.975535
0.999252 0.999252 0.999252
0.002525 0.002525 0.002525
0.031463 0.031463 0.031463
0.092888 0.092888 0.092888
0.188873 0.188873 0.188873
0.316614 0.316614 0.316614
0.465636 0.465636 0.465636
0.618877 0.618877 0.618877
0.757839 0.757839 0.757839
0.868711 0.868711 0.868711
0.008726 0.008726 0.008726
0.048176 0.048176 0.048176
0.121041 0.121041 0.121041
0.228275 0.228275 0.228275
0.364666 0.364666 0.364666
0.517196 0.517196 0.517196
0.667611 0.667611 0.667611
0.798381 0.798381 0.798381
0.898160 0.898160 0.898160
0.018353 0.018353 0.018353
0.068618 0.068618 0.068618
0.153066 0.153066 0.153066
0.270986 0.270986 0.270986
0.414558 0.414558 0.414558
0.568514 0.568514 0.568514
0.714107 0.714107 0.714107
0.835411 0.835411 0.835411
0.923721 0.923721 0.923721
0.031463 0.031463 0.031463
0.092888 0.092888 0.092888
0.188873 0.188873 0.188873
0.316614 0.316614 0.316614
0.465636 0.465636 0.465636
0.618877 0.618877 0.618877
0.757839 0.757839 0.757839
0.868711 0.868711 0.868711
0.945430 0.945430 0.945430
0.048176 0.048176 0.048176
0.121041 0.121041 0.121041
0.228275 0.228275 0.228275
0.364666 0.364666 0.364666
0.517196 0.517196 0.517196
0.667611 0.667611 0.667611
0.798381 0.798381 0.798381
0.898160 0.898160 0.898160
0.963373 0.963373 0.963373
0.068618 0.068618 0.068618
0.153066 0.153066 0.153066
0.270986 0.270986 0.270986
0.414558 0.414558 0.414558
0.568514 0.568514 0.568514
0.714107 0.714107 0.714107
0.835411 0.835411 0.835411
0.923721 0.923721 0.923721
0.977670 0.977670 0.977670
0.092888 0.092888 0.092888
0.188873 0.188873 0.188873
0.316614 0.316614 0.316614
0.465636 0.465636 0.465636
0.618877 0.618877 0.618877
0.757839 0.757839 0.757839
0.868711 0.868711 0.868711
0.945430 0.945430 0.945430
0.988446 0.988446 0.988446
0.121041 0.121041 0.121041
0.228275 0.228275 0.228275
0.364666 0.364666 0.364666
0.517196 0.517196 0.517196
0.667611 0.667611 0.667611
0.798381 0.798381 0.798381
0.898160 0.898160 0.898160
0.963373 0.963373 0.963373
0.995791 0.995791 0.995791
0.153066 0.153066 0.153066
0.270986 0.270986 0.270986
0.414558 0.414558 0.414558
0.568514 0.568514 0.568514
0.714107 0.714107 0.714107
0.835411 0.835411 0.835411
0.923721 0.923721 0.923721
0.977670 0.977670 0.977670
0.999631 0.999631 0.999631
0.003319 0.003319 0.003319
0.033995 0.033995 0.033995
0.097310 0.097310 0.097310
0.195196 0.195196 0.195196
0.324469 0.324469 0.324469
0.474215 0.474215 0.474215
0.627130 0.627130 0.627130
0.764827 0.764827 0.764827
0.873889 0.873889 0.873889
0.010093 0.010093 0.010093
0.051321 0.051321 0.051321
0.126111 0.126111 0.126111
0.235173 0.235173 0.235173
0.372870 0.372870 0.372870
0.525785 0.525785 0.525785
0.675531 0.675531 0.675531
0.804804 0.804804 0.804804
0.902690 0.902690 0.902690
0.020293 0.020293 0.020293
0.072395 0.072395 0.072395
0.158775 0.158775 0.158775
0.278400 0.278400 0.278400
0.423007 0.423007 0.423007
0.576993 0.576993 0.576993
0.721600 0.721600 0.721600
0.841225 0.841225 0.841225
0.927605 0.927605 0.927605
0.033995 0.033995 0.033995
0.097310 0.097310 0.097310
0.195196 0.195196 0.195196
0.324469 0.324469 0.324469
0.474215 0.474215 0.474215
0.627130 0.627130 0.627130
0.764827 0.764827 0.764827
0.873889 0.873889 0.873889
0.948679 0.948679 0.948679
0.051321 0.051321 0.051321
0.126111 0.126111 0.126111
0.235173 0.235173 0.235173
0.372870 0.372870 0.372870
0.525785 0.525785 0.525785
0.675531 0.675531 0.675531
0.804804 0.804804 0.804804
0.902690 0.902690 0.902690
0.966005 0.966005 0.966005
0.072395 0.072395 0.072395
0.158775 0.158775 0.158775
0.278400 0.278400 0.278400
0.423007 0.423007 0.423007
0.576993 0.576993 0.576993
0.721600 0.721600 0.721600
0.841225 0.841225 0.841225
0.927605 0.927605 0.927605
0.979707 0.979707 0.979707
0.097310 0.097310 0.097310
0.195196 0.195196 0.195196
0.324469 0.324469 0.324469
0.474215 0.474215 0.474215
0.627130 0.627130 0.627130
0.764827 0.764827 0.764827
0.873889 0.873889 0.873889
0.948679 0.948679 0.948679
0.989907 0.989907 0.989907
0.126111 0.126111 0.126111
0.235173 0.235173 0.235173
0.372870 0.372870 0.372870
0.525785 0.525785 0.525785
0.675531 0.675531 0.675531
0.804804 0.804804 0.804804
0.902690 0.902690 0.902690
0.966005 0.966005 0.966005
0.996681 0.996681 0.996681
0.158775 0.158775 0.158775
0.278400 0.278400 0.278400
0.423007 0.423007 0.423007
0.576993 0.576993 0.576993
0.721600 0.721600 0.721600
0.841225 0.841225 0.841225
0.927605 0.927605 0.927605
0.979707 0.979707 0.979707
0.999889 0.999889 0.999889
0.004209 0.004209 0.004209
0.036627 0.036627 0.036627
0.101840 0.101840 0.101840
0.201619 0.201619 0.201619
0.332389 0.332389 0.332389
0.482804 0.482804 0.482804
0.635334 0.635334 0.635334
0.771725 0.771725 0.771725
0.878959 0.878959 0.878959
0.011554 0.011554 0.011554
0.054570 0.054570 0.054570
0.131289 0.131289 0.131289
0.242161 0.242161 0.242161
0.381123 0.381123 0.381123
0.534364 0.534364 0.534364
0.683386 0.683386 0.683386
0.811127 0.811127 0.811127
0.907112 0.907112 0.907112
0.022330 0.022330 0.022330
0.076279 0.076279 0.076279
0.164589 0.164589 0.164589
0.285893 0.285893 0.285893
0.431486 0.431486 0.431486
0.585442 0.585442 0.585442
0.729014 0.729014 0.729014
0.846934 0.846934 0.846934
0.931382 0.931382 0.931382
0.036627 0.036627 0.036627
0.101840 0.101840 0.101840
0.201619 0.201619 0.201619
0.332389 0.332389 0.332389
0.482804 0.482804 0.482804
0.635334 0.635334 0.635334
0.771725 0.771725 0.771725
0.878959 0.878959 0.878959
0.951824 0.951824 0.951824
0.054570 0.054570 0.054570
0.131289 0.131289 0.131289
0.242161 0.242161 0.242161
0.381123 0.381123 0.381123
0.534364 0.534364 0.534364
0.683386 0.683386 0.683386
0.811127 0.811127 0.811127
0.907112 0.907112 0.907112
0.968537 0.968537 0.968537
0.076279 0.076279 0.076279
0.164589 0.164589 0.164589
0.285893 0.285893 0.285893
0.431486 0.431486 0.431486
0.585442 0.585442 0.585442
0.729014 0.729014 0.729014
0.846934 0.846934 0.846934
0.931382 0.931382 0.931382
0.981647 0.981647 0.981647
0.101840 0.101840 0.101840
0.201619 0.201619 0.201619
0.332389 0.332389 0.332389
0.482804 0.482804 0.482804
0.635334 0.635334 0.635334
0.771725 0.771725 0.771725
0.878959 0.878959 0.878959
0.951824 0.951824 0.951824
0.991274 0.991274 0.991274
0.131289 0.131289 0.131289
0.242161 0.242161 0.242161
0.381123 0.381123 0.381123
0.534364 0.534364 0.534364
0.683386 0.683386 0.683386
0.811127 0.811127 0.811127
0.907112 0.907112 0.907112
0.968537 0.968537 0.968537
0.997475 0.997475 0.997475
0.164589 0.164589 0.164589
0.285893 0.285893 0.285893
0.431486 0.431486 0.431486
0.585442 0.585442 0.585442
0.729014 0.729014 0.729014
0.846934 0.846934 0.846934
0.931382 0.931382 0.931382
0.981647 0.981647 0.981647
1.000000 1.000000 1.000000
