assets/presets/luts/eterna-soft/lut.cube
TITLE "Eterna Soft"
LUT_3D_SIZE 17
0.100626 0.103062 0.106204
0.144451 0.105029 0.108184
0.188275 0.106996 0.110164
0.232100 0.108964 0.112145
0.275925 0.110931 0.114125
0.319750 0.112898 0.116105
0.363575 0.114865 0.118086
0.407399 0.116832 0.120066
0.451224 0.118800 0.122046
0.495049 0.120767 0.124027
0.538874 0.122734 0.126007
0.582699 0.124701 0.127987
0.626523 0.126669 0.129967
0.670348 0.128636 0.131948
0.714173 0.130603 0.133928
0.757998 0.132570 0.135908
0.801822 0.134537 0.137889
0.107187 0.151741 0.112853
0.151012 0.153709 0.114833
0.194837 0.155676 0.116814
0.238661 0.157643 0.118794
0.282486 0.159610 0.120774
0.326311 0.161577 0.122755
0.370136 0.163545 0.124735
0.413961 0.165512 0.126715
0.457785 0.167479 0.128696
0.501610 0.169446 0.130676
0.545435 0.171414 0.132656
0.589260 0.173381 0.134636
0.633084 0.175348 0.136617
0.676909 0.177315 0.138597
0.720734 0.179283 0.140577
0.764559 0.181250 0.142558
0.808384 0.183217 0.144538
0.113748 0.200421 0.119502
0.157573 0.202388 0.121483
0.201398 0.204355 0.123463
0.245222 0.206323 0.125443
0.289047 0.208290 0.127424
0.332872 0.210257 0.129404
0.376697 0.212224 0.131384
0.420522 0.214191 0.133365
0.464346 0.216159 0.135345
0.508171 0.218126 0.137325
0.551996 0.220093 0.139305
0.595821 0.222060 0.141286
0.639646 0.224028 0.143266
0.683470 0.225995 0.145246
0.727295 0.227962 0.147227
0.771120 0.229929 0.149207
0.814945 0.231896 0.151187
0.120309 0.249100 0.126152
0.164134 0.251068 0.128132
0.207959 0.253035 0.130112
0.251784 0.255002 0.132093
0.295608 0.256969 0.134073
0.339433 0.258937 0.136053
0.383258 0.260904 0.138034
0.427083 0.262871 0.140014
0.470908 0.264838 0.141994
0.514732 0.266805 0.143974
0.558557 0.268773 0.145955
0.602382 0.270740 0.147935
0.646207 0.272707 0.149915
0.690032 0.274674 0.151896
0.733856 0.276642 0.153876
0.777681 0.278609 0.155856
0.821506 0.280576 0.157836
0.126870 0.297780 0.132801
0.170695 0.299747 0.134781
0.214520 0.301714 0.136762
0.258345 0.303682 0.138742
0.302170 0.305649 0.140722
0.345994 0.307616 0.142703
0.389819 0.309583 0.144683
0.433644 0.311550 0.146663
0.477469 0.313518 0.148643
0.521294 0.315485 0.150624
0.565118 0.317452 0.152604
0.608943 0.319419 0.154584
0.652768 0.321387 0.156565
0.696593 0.323354 0.158545
0.740417 0.325321 0.160525
0.784242 0.327288 0.162505
0.828067 0.329256 0.164486
0.133432 0.346459 0.139450
0.177256 0.348427 0.141431
0.221081 0.350394 0.143411
0.264906 0.352361 0.145391
0.308731 0.354328 0.147372
0.352555 0.356296 0.149352
0.396380 0.358263 0.151332
0.440205 0.360230 0.153312
0.484030 0.362197 0.155293
0.527855 0.364164 0.157273
0.571679 0.366132 0.159253
0.615504 0.368099 0.161234
0.659329 0.370066 0.163214
0.703154 0.372033 0.165194
0.746979 0.374001 0.167175
0.790803 0.375968 0.169155
0.834628 0.377935 0.171135
0.139993 0.395139 0.146100
0.183817 0.397106 0.148080
0.227642 0.399073 0.150060
0.271467 0.401041 0.152041
0.315292 0.403008 0.154021
0.359117 0.404975 0.156001
0.402941 0.406942 0.157981
0.446766 0.408909 0.159962
0.490591 0.410877 0.161942
0.534416 0.412844 0.163922
0.578241 0.414811 0.165903
0.622065 0.416778 0.167883
0.665890 0.418746 0.169863
0.709715 0.420713 0.171843
0.753540 0.422680 0.173824
0.797365 0.424647 0.175804
0.841189 0.426615 0.177784
0.146554 0.443818 0.152749
0.190379 0.445786 0.154729
0.234203 0.447753 0.156710
0.278028 0.449720 0.158690
0.321853 0.451687 0.160670
0.365678 0.453655 0.162650
0.409503 0.455622 0.164631
0.453327 0.457589 0.166611
0.497152 0.459556 0.168591
0.540977 0.461523 0.170572
0.584802 0.463491 0.172552
0.628627 0.465458 0.174532
0.672451 0.467425 0.176513
0.716276 0.469392 0.178493
0.760101 0.471360 0.180473
0.803926 0.473327 0.182453
0.847750 0.475294 0.184434
0.153115 0.492498 0.159398
0.196940 0.494465 0.161379
0.240765 0.496432 0.163359
0.284589 0.498400 0.165339
0.328414 0.500367 0.167319
0.372239 0.502334 0.169300
0.416064 0.504301 0.171280
0.459888 0.506269 0.173260
0.503713 0.508236 0.175241
0.547538 0.510203 0.177221
0.591363 0.512170 0.179201
0.635188 0.514137 0.181182
0.679012 0.516105 0.183162
0.722837 0.518072 0.185142
0.766662 0.520039 0.187122
0.810487 0.522006 0.189103
0.854312 0.523974 0.191083
0.159676 0.541177 0.166048
0.203501 0.543145 0.168028
0.247326 0.545112 0.170008
0.291150 0.547079 0.171988
0.334975 0.549046 0.173969
0.378800 0.551014 0.175949
0.422625 0.552981 0.177929
0.466450 0.554948 0.179910
0.510274 0.556915 0.181890
0.554099 0.558882 0.183870
0.597924 0.560850 0.185851
0.641749 0.562817 0.187831
0.685574 0.564784 0.189811
0.729398 0.566751 0.191791
0.773223 0.568719 0.193772
0.817048 0.570686 0.195752
0.860873 0.572653 0.197732
0.166237 0.589857 0.172697
0.210062 0.591824 0.174677
0.253887 0.593791 0.176657
0.297712 0.595759 0.178638
0.341536 0.597726 0.180618
0.385361 0.599693 0.182598
0.429186 0.601660 0.184579
0.473011 0.603628 0.186559
0.516836 0.605595 0.188539
0.560660 0.607562 0.190520
0.604485 0.609529 0.192500
0.648310 0.611496 0.194480
0.692135 0.613464 0.196460
0.735960 0.615431 0.198441
0.779784 0.617398 0.200421
0.823609 0.619365 0.202401
0.867434 0.621333 0.204382
0.172798 0.638536 0.179346
0.216623 0.640504 0.181326
0.260448 0.642471 0.183307
0.304273 0.644438 0.185287
0.348098 0.646405 0.187267
0.391922 0.648373 0.189248
0.435747 0.650340 0.191228
0.479572 0.652307 0.193208
0.523397 0.654274 0.195189
0.567221 0.656241 0.197169
0.611046 0.658209 0.199149
0.654871 0.660176 0.201129
0.698696 0.662143 0.203110
0.742521 0.664110 0.205090
0.786345 0.666078 0.207070
0.830170 0.668045 0.209051
0.873995 0.670012 0.211031
0.179359 0.687216 0.185996
0.223184 0.689183 0.187976
0.267009 0.691150 0.189956
0.310834 0.693118 0.191936
0.354659 0.695085 0.193917
0.398483 0.697052 0.195897
0.442308 0.699019 0.197877
0.486133 0.700987 0.199858
0.529958 0.702954 0.201838
0.573783 0.704921 0.203818
0.617607 0.706888 0.205798
0.661432 0.708855 0.207779
0.705257 0.710823 0.209759
0.749082 0.712790 0.211739
0.792907 0.714757 0.213720
0.836731 0.716724 0.215700
0.880556 0.718692 0.217680
0.185921 0.735895 0.192645
0.229745 0.737863 0.194625
0.273570 0.739830 0.196605
0.317395 0.741797 0.198586
0.361220 0.743764 0.200566
0.405045 0.745732 0.202546
0.448869 0.747699 0.204527
0.492694 0.749666 0.206507
0.536519 0.751633 0.208487
0.580344 0.753600 0.210467
0.624169 0.755568 0.212448
0.667993 0.757535 0.214428
0.711818 0.759502 0.216408
0.755643 0.761469 0.218389
0.799468 0.763437 0.220369
0.843292 0.765404 0.222349
0.887117 0.767371 0.224330
0.192482 0.784575 0.199294
0.236307 0.786542 0.201274
0.280131 0.788509 0.203255
0.323956 0.790477 0.205235
0.367781 0.792444 0.207215
0.411606 0.794411 0.209196
0.455431 0.796378 0.211176
0.499255 0.798346 0.213156
0.543080 0.800313 0.215136
0.586905 0.802280 0.217117
0.630730 0.804247 0.219097
0.674554 0.806214 0.221077
0.718379 0.808182 0.223058
0.762204 0.810149 0.225038
0.806029 0.812116 0.227018
0.849854 0.814083 0.228999
0.893678 0.816051 0.230979
0.199043 0.833254 0.205943
0.242868 0.835222 0.207924
0.286693 0.837189 0.209904
0.330517 0.839156 0.211884
0.374342 0.841123 0.213865
0.418167 0.843091 0.215845
0.461992 0.845058 0.217825
0.505816 0.847025 0.219805
0.549641 0.848992 0.221786
0.593466 0.850959 0.223766
0.637291 0.852927 0.225746
0.681116 0.854894 0.227727
0.724940 0.856861 0.229707
0.768765 0.858828 0.231687
0.812590 0.860796 0.233668
0.856415 0.862763 0.235648
0.900240 0.864730 0.237628
0.205604 0.881934 0.212593
0.249429 0.883901 0.214573
0.293254 0.885868 0.216553
0.337078 0.887836 0.218534
0.380903 0.889803 0.220514
0.424728 0.891770 0.222494
0.468553 0.893737 0.224474
0.512378 0.895705 0.226455
0.556202 0.897672 0.228435
0.600027 0.899639 0.230415
0.643852 0.901606 0.232396
0.687677 0.903573 0.234376
0.731502 0.905541 0.236356
0.775326 0.907508 0.238337
0.819151 0.909475 0.240317
0.862976 0.911442 0.242297
0.906801 0.913410 0.244277
0.101286 0.103727 0.149107
0.145111 0.105694 0.151087
0.188936 0.107661 0.153068
0.232761 0.109628 0.155048
0.276585 0.111596 0.157028
0.320410 0.113563 0.159009
0.364235 0.115530 0.160989
0.408060 0.117497 0.162969
0.451885 0.119465 0.164949
0.495709 0.121432 0.166930
0.539534 0.123399 0.168910
0.583359 0.125366 0.170890
0.627184 0.127334 0.172871
0.671009 0.129301 0.174851
0.714833 0.131268 0.176831
0.758658 0.133235 0.178811
0.802483 0.135202 0.180792
0.107847 0.152406 0.155756
0.151672 0.154374 0.157737
0.195497 0.156341 0.159717
0.239322 0.158308 0.161697
0.283147 0.160275 0.163678
0.326971 0.162242 0.165658
0.370796 0.164210 0.167638
0.414621 0.166177 0.169618
0.458446 0.168144 0.171599
0.502271 0.170111 0.173579
0.546095 0.172079 0.175559
0.589920 0.174046 0.177540
0.633745 0.176013 0.179520
0.677570 0.177980 0.181500
0.721395 0.179947 0.183480
0.765219 0.181915 0.185461
0.809044 0.183882 0.187441
0.114409 0.201086 0.162406
0.158233 0.203053 0.164386
0.202058 0.205020 0.166366
0.245883 0.206987 0.168347
0.289708 0.208955 0.170327
0.333533 0.210922 0.172307
0.377357 0.212889 0.174287
0.421182 0.214856 0.176268
0.465007 0.216824 0.178248
0.508832 0.218791 0.180228
0.552657 0.220758 0.182209
0.596481 0.222725 0.184189
0.640306 0.224693 0.186169
0.684131 0.226660 0.188149
0.727956 0.228627 0.190130
0.771780 0.230594 0.192110
0.815605 0.232561 0.194090
0.120970 0.249765 0.169055
0.164795 0.251733 0.171035
0.208619 0.253700 0.173016
0.252444 0.255667 0.174996
0.296269 0.257634 0.176976
0.340094 0.259601 0.178956
0.383918 0.261569 0.180937
0.427743 0.263536 0.182917
0.471568 0.265503 0.184897
0.515393 0.267470 0.186878
0.559218 0.269438 0.188858
0.603042 0.271405 0.190838
0.646867 0.273372 0.192818
0.690692 0.275339 0.194799
0.734517 0.277306 0.196779
0.778342 0.279274 0.198759
0.822166 0.281241 0.200740
0.127531 0.298445 0.175704
0.171356 0.300412 0.177685
0.215180 0.302379 0.179665
0.259005 0.304347 0.181645
0.302830 0.306314 0.183625
0.346655 0.308281 0.185606
0.390480 0.310248 0.187586
0.434304 0.312215 0.189566
0.478129 0.314183 0.191547
0.521954 0.316150 0.193527
0.565779 0.318117 0.195507
0.609604 0.320084 0.197487
0.653428 0.322052 0.199468
0.697253 0.324019 0.201448
0.741078 0.325986 0.203428
0.784903 0.327953 0.205409
0.828728 0.329920 0.207389
0.134092 0.347124 0.182354
0.177917 0.349092 0.184334
0.221742 0.351059 0.186314
0.265566 0.353026 0.188294
0.309391 0.354993 0.190275
0.353216 0.356960 0.192255
0.397041 0.358928 0.194235
0.440866 0.360895 0.196216
0.484690 0.362862 0.198196
0.528515 0.364829 0.200176
0.572340 0.366797 0.202156
0.616165 0.368764 0.204137
0.659989 0.370731 0.206117
0.703814 0.372698 0.208097
0.747639 0.374665 0.210078
0.791464 0.376633 0.212058
0.835289 0.378600 0.214038
0.140653 0.395804 0.189003
0.184478 0.397771 0.190983
0.228303 0.399738 0.192963
0.272128 0.401706 0.194944
0.315952 0.403673 0.196924
0.359777 0.405640 0.198904
0.403602 0.407607 0.200885
0.447427 0.409574 0.202865
0.491251 0.411542 0.204845
0.535076 0.413509 0.206825
0.578901 0.415476 0.208806
0.622726 0.417443 0.210786
0.666551 0.419411 0.212766
0.710375 0.421378 0.214747
0.754200 0.423345 0.216727
0.798025 0.425312 0.218707
0.841850 0.427279 0.220688
0.147214 0.444483 0.195652
0.191039 0.446451 0.197632
0.234864 0.448418 0.199613
0.278689 0.450385 0.201593
0.322513 0.452352 0.203573
0.366338 0.454319 0.205554
0.410163 0.456287 0.207534
0.453988 0.458254 0.209514
0.497813 0.460221 0.211495
0.541637 0.462188 0.213475
0.585462 0.464156 0.215455
0.629287 0.466123 0.217435
0.673112 0.468090 0.219416
0.716937 0.470057 0.221396
0.760761 0.472025 0.223376
0.804586 0.473992 0.225357
0.848411 0.475959 0.227337
0.153775 0.493163 0.202301
0.197600 0.495130 0.204282
0.241425 0.497097 0.206262
0.285250 0.499065 0.208242
0.329075 0.501032 0.210223
0.372899 0.502999 0.212203
0.416724 0.504966 0.214183
0.460549 0.506933 0.216164
0.504374 0.508901 0.218144
0.548199 0.510868 0.220124
0.592023 0.512835 0.222104
0.635848 0.514802 0.224085
0.679673 0.516770 0.226065
0.723498 0.518737 0.228045
0.767322 0.520704 0.230026
0.811147 0.522671 0.232006
0.854972 0.524638 0.233986
0.160337 0.541842 0.208951
0.204161 0.543810 0.210931
0.247986 0.545777 0.212911
0.291811 0.547744 0.214892
0.335636 0.549711 0.216872
0.379461 0.551678 0.218852
0.423285 0.553646 0.220833
0.467110 0.555613 0.222813
0.510935 0.557580 0.224793
0.554760 0.559547 0.226773
0.598584 0.561515 0.228754
0.642409 0.563482 0.230734
0.686234 0.565449 0.232714
0.730059 0.567416 0.234695
0.773884 0.569384 0.236675
0.817708 0.571351 0.238655
0.861533 0.573318 0.240635
0.166898 0.590522 0.215600
0.210722 0.592489 0.217580
0.254547 0.594456 0.219561
0.298372 0.596424 0.221541
0.342197 0.598391 0.223521
0.386022 0.600358 0.225502
0.429846 0.602325 0.227482
0.473671 0.604292 0.229462
0.517496 0.606260 0.231442
0.561321 0.608227 0.233423
0.605146 0.610194 0.235403
0.648970 0.612161 0.237383
0.692795 0.614129 0.239364
0.736620 0.616096 0.241344
0.780445 0.618063 0.243324
0.824270 0.620030 0.245304
0.868094 0.621997 0.247285
0.173459 0.639201 0.222249
0.217284 0.641169 0.224230
0.261108 0.643136 0.226210
0.304933 0.645103 0.228190
0.348758 0.647070 0.230171
0.392583 0.649037 0.232151
0.436408 0.651005 0.234131
0.480232 0.652972 0.236111
0.524057 0.654939 0.238092
0.567882 0.656906 0.240072
0.611707 0.658874 0.242052
0.655532 0.660841 0.244033
0.699356 0.662808 0.246013
0.743181 0.664775 0.247993
0.787006 0.666743 0.249973
0.830831 0.668710 0.251954
0.874655 0.670677 0.253934
0.180020 0.687881 0.228899
0.223845 0.689848 0.230879
0.267670 0.691815 0.232859
0.311494 0.693783 0.234840
0.355319 0.695750 0.236820
0.399144 0.697717 0.238800
0.442969 0.699684 0.240780
0.486794 0.701651 0.242761
0.530618 0.703619 0.244741
0.574443 0.705586 0.246721
0.618268 0.707553 0.248702
0.662093 0.709520 0.250682
0.705917 0.711488 0.252662
0.749742 0.713455 0.254642
0.793567 0.715422 0.256623
0.837392 0.717389 0.258603
0.881217 0.719357 0.260583
0.186581 0.736560 0.235548
0.230406 0.738528 0.237528
0.274231 0.740495 0.239509
0.318055 0.742462 0.241489
0.361880 0.744429 0.243469
0.405705 0.746397 0.245449
0.449530 0.748364 0.247430
0.493355 0.750331 0.249410
0.537179 0.752298 0.251390
0.581004 0.754265 0.253371
0.624829 0.756233 0.255351
0.668654 0.758200 0.257331
0.712479 0.760167 0.259311
0.756303 0.762134 0.261292
0.800128 0.764102 0.263272
0.843953 0.766069 0.265252
0.887778 0.768036 0.267233
0.193142 0.785240 0.242197
0.236967 0.787207 0.244178
0.280792 0.789174 0.246158
0.324617 0.791142 0.248138
0.368441 0.793109 0.250118
0.412266 0.795076 0.252099
0.456091 0.797043 0.254079
0.499916 0.799010 0.256059
0.543741 0.800978 0.258040
0.587565 0.802945 0.260020
0.631390 0.804912 0.262000
0.675215 0.806879 0.263981
0.719040 0.808847 0.265961
0.762865 0.810814 0.267941
0.806689 0.812781 0.269921
0.850514 0.814748 0.271902
0.894339 0.816716 0.273882
0.199703 0.833919 0.248847
0.243528 0.835887 0.250827
0.287353 0.837854 0.252807
0.331178 0.839821 0.254787
0.375003 0.841788 0.256768
0.418827 0.843756 0.258748
0.462652 0.845723 0.260728
0.506477 0.847690 0.262709
0.550302 0.849657 0.264689
0.594127 0.851624 0.266669
0.637951 0.853592 0.268650
0.681776 0.855559 0.270630
0.725601 0.857526 0.272610
0.769426 0.859493 0.274590
0.813250 0.861461 0.276571
0.857075 0.863428 0.278551
0.900900 0.865395 0.280531
0.206265 0.882599 0.255496
0.250089 0.884566 0.257476
0.293914 0.886533 0.259456
0.337739 0.888501 0.261437
0.381564 0.890468 0.263417
0.425388 0.892435 0.265397
0.469213 0.894402 0.267378
0.513038 0.896370 0.269358
0.556863 0.898337 0.271338
0.600688 0.900304 0.273319
0.644512 0.902271 0.275299
0.688337 0.904238 0.277279
0.732162 0.906206 0.279259
0.775987 0.908173 0.281240
0.819812 0.910140 0.283220
0.863636 0.912107 0.285200
0.907461 0.914075 0.287181
0.101947 0.104392 0.192010
0.145772 0.106359 0.193991
0.189596 0.108326 0.195971
0.233421 0.110293 0.197951
0.277246 0.112261 0.199931
0.321071 0.114228 0.201912
0.364896 0.116195 0.203892
0.408720 0.118162 0.205872
0.452545 0.120130 0.207853
0.496370 0.122097 0.209833
0.540195 0.124064 0.211813
0.584019 0.126031 0.213793
0.627844 0.127998 0.215774
0.671669 0.129966 0.217754
0.715494 0.131933 0.219734
0.759319 0.133900 0.221715
0.803143 0.135867 0.223695
0.108508 0.153071 0.198660
0.152333 0.155038 0.200640
0.196158 0.157006 0.202620
0.239982 0.158973 0.204600
0.283807 0.160940 0.206581
0.327632 0.162907 0.208561
0.371457 0.164875 0.210541
0.415281 0.166842 0.212522
0.459106 0.168809 0.214502
0.502931 0.170776 0.216482
0.546756 0.172743 0.218462
0.590581 0.174711 0.220443
0.634405 0.176678 0.222423
0.678230 0.178645 0.224403
0.722055 0.180612 0.226384
0.765880 0.182580 0.228364
0.809705 0.184547 0.230344
0.115069 0.201751 0.205309
0.158894 0.203718 0.207289
0.202719 0.205685 0.209269
0.246543 0.207652 0.211250
0.290368 0.209620 0.213230
0.334193 0.211587 0.215210
0.378018 0.213554 0.217191
0.421843 0.215521 0.219171
0.465667 0.217489 0.221151
0.509492 0.219456 0.223131
0.553317 0.221423 0.225112
0.597142 0.223390 0.227092
0.640967 0.225357 0.229072
0.684791 0.227325 0.231053
0.728616 0.229292 0.233033
0.772441 0.231259 0.235013
0.816266 0.233226 0.236994
0.121630 0.250430 0.211958
0.165455 0.252397 0.213938
0.209280 0.254365 0.215919
0.253105 0.256332 0.217899
0.296929 0.258299 0.219879
0.340754 0.260266 0.221860
0.384579 0.262234 0.223840
0.428404 0.264201 0.225820
0.472229 0.266168 0.227800
0.516053 0.268135 0.229781
0.559878 0.270103 0.231761
0.603703 0.272070 0.233741
0.647528 0.274037 0.235722
0.691352 0.276004 0.237702
0.735177 0.277971 0.239682
0.779002 0.279939 0.241663
0.822827 0.281906 0.243643
0.128191 0.299110 0.218607
0.172016 0.301077 0.220588
0.215841 0.303044 0.222568
0.259666 0.305011 0.224548
0.303491 0.306979 0.226529
0.347315 0.308946 0.228509
0.391140 0.310913 0.230489
0.434965 0.312880 0.232469
0.478790 0.314848 0.234450
0.522614 0.316815 0.236430
0.566439 0.318782 0.238410
0.610264 0.320749 0.240391
0.654089 0.322716 0.242371
0.697914 0.324684 0.244351
0.741738 0.326651 0.246332
0.785563 0.328618 0.248312
0.829388 0.330585 0.250292
0.134752 0.347789 0.225257
0.178577 0.349757 0.227237
0.222402 0.351724 0.229217
0.266227 0.353691 0.231198
0.310052 0.355658 0.233178
0.353876 0.357625 0.235158
0.397701 0.359593 0.237138
0.441526 0.361560 0.239119
0.485351 0.363527 0.241099
0.529176 0.365494 0.243079
0.573000 0.367462 0.245060
0.616825 0.369429 0.247040
0.660650 0.371396 0.249020
0.704475 0.373363 0.251001
0.748300 0.375330 0.252981
0.792124 0.377298 0.254961
0.835949 0.379265 0.256941
0.141314 0.396469 0.231906
0.185138 0.398436 0.233886
0.228963 0.400403 0.235867
0.272788 0.402370 0.237847
0.316613 0.404338 0.239827
0.360438 0.406305 0.241807
0.404262 0.408272 0.243788
0.448087 0.410239 0.245768
0.491912 0.412207 0.247748
0.535737 0.414174 0.249729
0.579562 0.416141 0.251709
0.623386 0.418108 0.253689
0.667211 0.420076 0.255670
0.711036 0.422043 0.257650
0.754861 0.424010 0.259630
0.798685 0.425977 0.261610
0.842510 0.427944 0.263591
0.147875 0.445148 0.238555
0.191700 0.447116 0.240536
0.235524 0.449083 0.242516
0.279349 0.451050 0.244496
0.323174 0.453017 0.246477
0.366999 0.454984 0.248457
0.410824 0.456952 0.250437
0.454648 0.458919 0.252417
0.498473 0.460886 0.254398
0.542298 0.462853 0.256378
0.586123 0.464821 0.258358
0.629947 0.466788 0.260339
0.673772 0.468755 0.262319
0.717597 0.470722 0.264299
0.761422 0.472689 0.266279
0.805247 0.474657 0.268260
0.849071 0.476624 0.270240
0.154436 0.493828 0.245205
0.198261 0.495795 0.247185
0.242085 0.497762 0.249165
0.285910 0.499729 0.251146
0.329735 0.501697 0.253126
0.373560 0.503664 0.255106
0.417385 0.505631 0.257086
0.461209 0.507598 0.259067
0.505034 0.509566 0.261047
0.548859 0.511533 0.263027
0.592684 0.513500 0.265008
0.636509 0.515467 0.266988
0.680333 0.517435 0.268968
0.724158 0.519402 0.270948
0.767983 0.521369 0.272929
0.811808 0.523336 0.274909
0.855633 0.525303 0.276889
0.160997 0.542507 0.251854
0.204822 0.544475 0.253834
0.248647 0.546442 0.255815
0.292471 0.548409 0.257795
0.336296 0.550376 0.259775
0.380121 0.552343 0.261755
0.423946 0.554311 0.263736
0.467771 0.556278 0.265716
0.511595 0.558245 0.267696
0.555420 0.560212 0.269677
0.599245 0.562180 0.271657
0.643070 0.564147 0.273637
0.686895 0.566114 0.275617
0.730719 0.568081 0.277598
0.774544 0.570048 0.279578
0.818369 0.572016 0.281558
0.862194 0.573983 0.283539
0.167558 0.591187 0.258503
0.211383 0.593154 0.260484
0.255208 0.595121 0.262464
0.299033 0.597089 0.264444
0.342857 0.599056 0.266424
0.386682 0.601023 0.268405
0.430507 0.602990 0.270385
0.474332 0.604957 0.272365
0.518157 0.606925 0.274346
0.561981 0.608892 0.276326
0.605806 0.610859 0.278306
0.649631 0.612826 0.280286
0.693456 0.614794 0.282267
0.737280 0.616761 0.284247
0.781105 0.618728 0.286227
0.824930 0.620695 0.288208
0.868755 0.622662 0.290188
0.174119 0.639866 0.265153
0.217944 0.641834 0.267133
0.261769 0.643801 0.269113
0.305594 0.645768 0.271093
0.349418 0.647735 0.273074
0.393243 0.649702 0.275054
0.437068 0.651670 0.277034
0.480893 0.653637 0.279015
0.524718 0.655604 0.280995
0.568542 0.657571 0.282975
0.612367 0.659539 0.284955
0.656192 0.661506 0.286936
0.700017 0.663473 0.288916
0.743842 0.665440 0.290896
0.787666 0.667408 0.292877
0.831491 0.669375 0.294857
0.875316 0.671342 0.296837
0.180680 0.688546 0.271802
0.224505 0.690513 0.273782
0.268330 0.692480 0.275762
0.312155 0.694448 0.277743
0.355980 0.696415 0.279723
0.399804 0.698382 0.281703
0.443629 0.700349 0.283684
0.487454 0.702316 0.285664
0.531279 0.704284 0.287644
0.575104 0.706251 0.289624
0.618928 0.708218 0.291605
0.662753 0.710185 0.293585
0.706578 0.712153 0.295565
0.750403 0.714120 0.297546
0.794228 0.716087 0.299526
0.838052 0.718054 0.301506
0.881877 0.720021 0.303487
0.187242 0.737225 0.278451
0.231066 0.739193 0.280431
0.274891 0.741160 0.282412
0.318716 0.743127 0.284392
0.362541 0.745094 0.286372
0.406366 0.747061 0.288353
0.450190 0.749029 0.290333
0.494015 0.750996 0.292313
0.537840 0.752963 0.294293
0.581665 0.754930 0.296274
0.625490 0.756898 0.298254
0.669314 0.758865 0.300234
0.713139 0.760832 0.302215
0.756964 0.762799 0.304195
0.800789 0.764767 0.306175
0.844613 0.766734 0.308156
0.888438 0.768701 0.310136
0.193803 0.785905 0.285100
0.237628 0.787872 0.287081
0.281452 0.789839 0.289061
0.325277 0.791807 0.291041
0.369102 0.793774 0.293022
0.412927 0.795741 0.295002
0.456751 0.797708 0.296982
0.500576 0.799675 0.298963
0.544401 0.801643 0.300943
0.588226 0.803610 0.302923
0.632051 0.805577 0.304903
0.675875 0.807544 0.306884
0.719700 0.809512 0.308864
0.763525 0.811479 0.310844
0.807350 0.813446 0.312825
0.851175 0.815413 0.314805
0.894999 0.817380 0.316785
0.200364 0.834584 0.291750
0.244189 0.836552 0.293730
0.288013 0.838519 0.295710
0.331838 0.840486 0.297691
0.375663 0.842453 0.299671
0.419488 0.844420 0.301651
0.463313 0.846388 0.303632
0.507137 0.848355 0.305612
0.550962 0.850322 0.307592
0.594787 0.852289 0.309572
0.638612 0.854257 0.311553
0.682437 0.856224 0.313533
0.726261 0.858191 0.315513
0.770086 0.860158 0.317494
0.813911 0.862126 0.319474
0.857736 0.864093 0.321454
0.901561 0.866060 0.323434
0.206925 0.883264 0.298399
0.250750 0.885231 0.300379
0.294575 0.887198 0.302360
0.338399 0.889166 0.304340
0.382224 0.891133 0.306320
0.426049 0.893100 0.308300
0.469874 0.895067 0.310281
0.513699 0.897034 0.312261
0.557523 0.899002 0.314241
0.601348 0.900969 0.316222
0.645173 0.902936 0.318202
0.688998 0.904903 0.320182
0.732822 0.906871 0.322163
0.776647 0.908838 0.324143
0.820472 0.910805 0.326123
0.864297 0.912772 0.328103
0.908122 0.914739 0.330084
0.102607 0.105057 0.234913
0.146432 0.107024 0.236894
0.190257 0.108991 0.238874
0.234082 0.110958 0.240854
0.277906 0.112926 0.242835
0.321731 0.114893 0.244815
0.365556 0.116860 0.246795
0.409381 0.118827 0.248775
0.453206 0.120794 0.250756
0.497030 0.122762 0.252736
0.540855 0.124729 0.254716
0.584680 0.126696 0.256697
0.628505 0.128663 0.258677
0.672330 0.130631 0.260657
0.716154 0.132598 0.262637
0.759979 0.134565 0.264618
0.803804 0.136532 0.266598
0.109168 0.153736 0.241563
0.152993 0.155703 0.243543
0.196818 0.157671 0.245523
