assets/presets/luts/eterna-soft/lut.cube
TITLE "Eterna Soft"
LUT_3D_SIZE 5
0.100626 0.103062 0.106204
0.275925 0.110931 0.114125
0.451224 0.118800 0.122046
0.626523 0.126669 0.129967
0.801822 0.134537 0.137889
0.126870 0.297780 0.132801
0.302170 0.305649 0.140722
0.477469 0.313518 0.148643
0.652768 0.321387 0.156565
0.828067 0.329256 0.164486
0.153115 0.492498 0.159398
0.328414 0.500367 0.167319
0.503713 0.508236 0.175241
0.679012 0.516105 0.183162
0.854312 0.523974 0.191083
0.179359 0.687216 0.185996
0.354659 0.695085 0.193917
0.529958 0.702954 0.201838
0.705257 0.710823 0.209759
0.880556 0.718692 0.217680
0.205604 0.881934 0.212593
0.380903 0.889803 0.220514
0.556202 0.897672 0.228435
0.731502 0.905541 0.236356
0.906801 0.913410 0.244277
0.103268 0.105722 0.277817
0.278567 0.113591 0.285738
0.453866 0.121459 0.293659
0.629165 0.129328 0.301580
0.804464 0.137197 0.309501
0.129512 0.300440 0.304414
0.304811 0.308309 0.312335
0.480111 0.316177 0.320256
0.655410 0.324046 0.328177
0.830709 0.331915 0.336098
0.155757 0.495158 0.331011
0.331056 0.503027 0.338932
0.506355 0.510895 0.346853
0.681654 0.518764 0.354774
0.856954 0.526633 0.362696
0.182001 0.689876 0.357608
0.357301 0.697745 0.365529
0.532600 0.705613 0.373451
0.707899 0.713482 0.381372
0.883198 0.721351 0.389293
0.208246 0.884594 0.384205
0.383545 0.892463 0.392127
0.558844 0.900332 0.400048
0.734143 0.908200 0.407969
0.909443 0.916069 0.415890
0.105910 0.108381 0.449429
0.281209 0.116250 0.457350
0.456508 0.124119 0.465272
0.631807 0.131988 0.473193
0.807106 0.139857 0.481114
0.132154 0.303099 0.476026
0.307453 0.310968 0.483948
0.482753 0.318837 0.491869
0.658052 0.326706 0.499790
0.833351 0.334575 0.507711
0.158399 0.497817 0.502624
0.333698 0.505686 0.510545
0.508997 0.513555 0.518466
0.684296 0.521424 0.526387
0.859595 0.529293 0.534308
0.184643 0.692535 0.529221
0.359942 0.700404 0.537142
0.535242 0.708273 0.545063
0.710541 0.716142 0.552984
0.885840 0.724011 0.560906
0.210888 0.887253 0.555818
0.386187 0.895122 0.563739
0.561486 0.902991 0.571660
0.736785 0.910860 0.579582
0.912085 0.918729 0.587503
0.108552 0.111041 0.621042
0.283851 0.118910 0.628963
0.459150 0.126779 0.636884
0.634449 0.134648 0.644805
0.809748 0.142517 0.652727
0.134796 0.305759 0.647639
0.310095 0.313628 0.655560
0.485394 0.321497 0.663481
0.660694 0.329366 0.671403
0.835993 0.337235 0.679324
0.161041 0.500477 0.674236
0.336340 0.508346 0.682157
0.511639 0.516215 0.690079
0.686938 0.524084 0.698000
0.862237 0.531953 0.705921
0.187285 0.695195 0.700833
0.362584 0.703064 0.708755
0.537884 0.710933 0.716676
0.713183 0.718802 0.724597
0.888482 0.726671 0.732518
0.213530 0.889913 0.727431
0.388829 0.897782 0.735352
0.564128 0.905651 0.743273
0.739427 0.913520 0.751194
0.914726 0.921389 0.759115
0.111194 0.113701 0.792655
0.286493 0.121570 0.800576
0.461792 0.129439 0.808497
0.637091 0.137308 0.816418
0.812390 0.145176 0.824339
0.137438 0.308419 0.819252
0.312737 0.316288 0.827173
0.488036 0.324157 0.835094
0.663336 0.332026 0.843015
0.838635 0.339895 0.850936
0.163683 0.503137 0.845849
0.338982 0.511006 0.853770
0.514281 0.518875 0.861691
0.689580 0.526744 0.869613
0.864879 0.534613 0.877534
0.189927 0.697855 0.872446
0.365226 0.705724 0.880367
0.540525 0.713593 0.888288
0.715825 0.721462 0.896210
0.891124 0.729331 0.904131
0.216172 0.892573 0.899043
0.391471 0.900442 0.906965
0.566770 0.908311 0.914886
0.742069 0.916180 0.922807
0.917368 0.924049 0.930728
