assets/presets/luts/eterna-soft/lut.cube
TITLE "Eterna Soft"
LUT_3D_SIZE 9
0.100626 0.103062 0.106204
0.188275 0.106996 0.110164
0.275925 0.110931 0.114125
0.363575 0.114865 0.118086
0.451224 0.118800 0.122046
0.538874 0.122734 0.126007
0.626523 0.126669 0.129967
0.714173 0.130603 0.133928
0.801822 0.134537 0.137889
0.113748 0.200421 0.119502
0.201398 0.204355 0.123463
0.289047 0.208290 0.127424
0.376697 0.212224 0.131384
0.464346 0.216159 0.135345
0.551996 0.220093 0.139305
0.639646 0.224028 0.143266
0.727295 0.227962 0.147227
0.814945 0.231896 0.151187
0.126870 0.297780 0.132801
0.214520 0.301714 0.136762
0.302170 0.305649 0.140722
0.389819 0.309583 0.144683
0.477469 0.313518 0.148643
0.565118 0.317452 0.152604
0.652768 0.321387 0.156565
0.740417 0.325321 0.160525
0.828067 0.329256 0.164486
0.139993 0.395139 0.146100
0.227642 0.399073 0.150060
0.315292 0.403008 0.154021
0.402941 0.406942 0.157981
0.490591 0.410877 0.161942
0.578241 0.414811 0.165903
0.665890 0.418746 0.169863
0.753540 0.422680 0.173824
0.841189 0.426615 0.177784
0.153115 0.492498 0.159398
0.240765 0.496432 0.163359
0.328414 0.500367 0.167319
0.416064 0.504301 0.171280
0.503713 0.508236 0.175241
0.591363 0.512170 0.179201
0.679012 0.516105 0.183162
0.766662 0.520039 0.187122
0.854312 0.523974 0.191083
0.166237 0.589857 0.172697
0.253887 0.593791 0.176657
0.341536 0.597726 0.180618
0.429186 0.601660 0.184579
0.516836 0.605595 0.188539
0.604485 0.609529 0.192500
0.692135 0.613464 0.196460
0.779784 0.617398 0.200421
0.867434 0.621333 0.204382
0.179359 0.687216 0.185996
0.267009 0.691150 0.189956
0.354659 0.695085 0.193917
0.442308 0.699019 0.197877
0.529958 0.702954 0.201838
0.617607 0.706888 0.205798
0.705257 0.710823 0.209759
0.792907 0.714757 0.213720
0.880556 0.718692 0.217680
0.192482 0.784575 0.199294
0.280131 0.788509 0.203255
0.367781 0.792444 0.207215
0.455431 0.796378 0.211176
0.543080 0.800313 0.215136
0.630730 0.804247 0.219097
0.718379 0.808182 0.223058
0.806029 0.812116 0.227018
0.893678 0.816051 0.230979
0.205604 0.881934 0.212593
0.293254 0.885868 0.216553
0.380903 0.889803 0.220514
0.468553 0.893737 0.224474
0.556202 0.897672 0.228435
0.643852 0.901606 0.232396
0.731502 0.905541 0.236356
0.819151 0.909475 0.240317
0.906801 0.913410 0.244277
0.101947 0.104392 0.192010
0.189596 0.108326 0.195971
0.277246 0.112261 0.199931
0.364896 0.116195 0.203892
0.452545 0.120130 0.207853
0.540195 0.124064 0.211813
0.627844 0.127998 0.215774
0.715494 0.131933 0.219734
0.803143 0.135867 0.223695
0.115069 0.201751 0.205309
0.202719 0.205685 0.209269
0.290368 0.209620 0.213230
0.378018 0.213554 0.217191
0.465667 0.217489 0.221151
0.553317 0.221423 0.225112
0.640967 0.225357 0.229072
0.728616 0.229292 0.233033
0.816266 0.233226 0.236994
0.128191 0.299110 0.218607
0.215841 0.303044 0.222568
0.303491 0.306979 0.226529
0.391140 0.310913 0.230489
0.478790 0.314848 0.234450
0.566439 0.318782 0.238410
0.654089 0.322716 0.242371
0.741738 0.326651 0.246332
0.829388 0.330585 0.250292
0.141314 0.396469 0.231906
0.228963 0.400403 0.235867
0.316613 0.404338 0.239827
0.404262 0.408272 0.243788
0.491912 0.412207 0.247748
0.579562 0.416141 0.251709
0.667211 0.420076 0.255670
0.754861 0.424010 0.259630
0.842510 0.427944 0.263591
0.154436 0.493828 0.245205
0.242085 0.497762 0.249165
0.329735 0.501697 0.253126
0.417385 0.505631 0.257086
0.505034 0.509566 0.261047
0.592684 0.513500 0.265008
0.680333 0.517435 0.268968
0.767983 0.521369 0.272929
0.855633 0.525303 0.276889
0.167558 0.591187 0.258503
0.255208 0.595121 0.262464
0.342857 0.599056 0.266424
0.430507 0.602990 0.270385
0.518157 0.606925 0.274346
0.605806 0.610859 0.278306
0.693456 0.614794 0.282267
0.781105 0.618728 0.286227
0.868755 0.622662 0.290188
0.180680 0.688546 0.271802
0.268330 0.692480 0.275762
0.355980 0.696415 0.279723
0.443629 0.700349 0.283684
0.531279 0.704284 0.287644
0.618928 0.708218 0.291605
0.706578 0.712153 0.295565
0.794228 0.716087 0.299526
0.881877 0.720021 0.303487
0.193803 0.785905 0.285100
0.281452 0.789839 0.289061
0.369102 0.793774 0.293022
0.456751 0.797708 0.296982
0.544401 0.801643 0.300943
0.632051 0.805577 0.304903
0.719700 0.809512 0.308864
0.807350 0.813446 0.312825
0.894999 0.817380 0.316785
0.206925 0.883264 0.298399
0.294575 0.887198 0.302360
0.382224 0.891133 0.306320
0.469874 0.895067 0.310281
0.557523 0.899002 0.314241
0.645173 0.902936 0.318202
0.732822 0.906871 0.322163
0.820472 0.910805 0.326123
0.908122 0.914739 0.330084
0.103268 0.105722 0.277817
0.190917 0.109656 0.281777
0.278567 0.113591 0.285738
0.366217 0.117525 0.289698
0.453866 0.121459 0.293659
0.541516 0.125394 0.297619
0.629165 0.129328 0.301580
0.716815 0.133263 0.305541
0.804464 0.137197 0.309501
0.116390 0.203081 0.291115
0.204040 0.207015 0.295076
0.291689 0.210950 0.299036
0.379339 0.214884 0.302997
0.466988 0.218818 0.306958
0.554638 0.222753 0.310918
0.642288 0.226687 0.314879
0.729937 0.230622 0.318839
0.817587 0.234556 0.322800
0.129512 0.300440 0.304414
0.217162 0.304374 0.308374
0.304811 0.308309 0.312335
0.392461 0.312243 0.316296
0.480111 0.316177 0.320256
0.567760 0.320112 0.324217
0.655410 0.324046 0.328177
0.743059 0.327981 0.332138
0.830709 0.331915 0.336098
0.142635 0.397799 0.317712
0.230284 0.401733 0.321673
0.317934 0.405668 0.325634
0.405583 0.409602 0.329594
0.493233 0.413536 0.333555
0.580882 0.417471 0.337515
0.668532 0.421405 0.341476
0.756182 0.425340 0.345436
0.843831 0.429274 0.349397
0.155757 0.495158 0.331011
0.243406 0.499092 0.334972
0.331056 0.503027 0.338932
0.418706 0.506961 0.342893
0.506355 0.510895 0.346853
0.594005 0.514830 0.350814
0.681654 0.518764 0.354774
0.769304 0.522699 0.358735
0.856954 0.526633 0.362696
0.168879 0.592517 0.344310
0.256529 0.596451 0.348270
0.344178 0.600386 0.352231
0.431828 0.604320 0.356191
0.519477 0.608254 0.360152
0.607127 0.612189 0.364112
0.694777 0.616123 0.368073
0.782426 0.620058 0.372034
0.870076 0.623992 0.375994
0.182001 0.689876 0.357608
0.269651 0.693810 0.361569
0.357301 0.697745 0.365529
0.444950 0.701679 0.369490
0.532600 0.705613 0.373451
0.620249 0.709548 0.377411
0.707899 0.713482 0.381372
0.795548 0.717417 0.385332
0.883198 0.721351 0.389293
0.195124 0.787235 0.370907
0.282773 0.791169 0.374867
0.370423 0.795104 0.378828
0.458072 0.799038 0.382789
0.545722 0.802972 0.386749
0.633372 0.806907 0.390710
0.721021 0.810841 0.394670
0.808671 0.814776 0.398631
0.896320 0.818710 0.402591
0.208246 0.884594 0.384205
0.295896 0.888528 0.388166
0.383545 0.892463 0.392127
0.471195 0.896397 0.396087
0.558844 0.900332 0.400048
0.646494 0.904266 0.404008
0.734143 0.908200 0.407969
0.821793 0.912135 0.411929
0.909443 0.916069 0.415890
0.104589 0.107051 0.363623
0.192238 0.110986 0.367583
0.279888 0.114920 0.371544
0.367537 0.118855 0.375505
0.455187 0.122789 0.379465
0.542837 0.126724 0.383426
0.630486 0.130658 0.387386
0.718136 0.134593 0.391347
0.805785 0.138527 0.395308
0.117711 0.204410 0.376921
0.205361 0.208345 0.380882
0.293010 0.212279 0.384843
0.380660 0.216214 0.388803
0.468309 0.220148 0.392764
0.555959 0.224083 0.396724
0.643609 0.228017 0.400685
0.731258 0.231952 0.404646
0.818908 0.235886 0.408606
0.130833 0.301770 0.390220
0.218483 0.305704 0.394181
0.306132 0.309638 0.398141
0.393782 0.313573 0.402102
0.481432 0.317507 0.406062
0.569081 0.321442 0.410023
0.656731 0.325376 0.413984
0.744380 0.329311 0.417944
0.832030 0.333245 0.421905
0.143956 0.399129 0.403519
0.231605 0.403063 0.407479
0.319255 0.406997 0.411440
0.406904 0.410932 0.415400
0.494554 0.414866 0.419361
0.582203 0.418801 0.423322
0.669853 0.422735 0.427282
0.757503 0.426670 0.431243
0.845152 0.430604 0.435203
0.157078 0.496488 0.416817
0.244727 0.500422 0.420778
0.332377 0.504356 0.424738
0.420027 0.508291 0.428699
0.507676 0.512225 0.432660
0.595326 0.516160 0.436620
0.682975 0.520094 0.440581
0.770625 0.524029 0.444541
0.858274 0.527963 0.448502
0.170200 0.593847 0.430116
0.257850 0.597781 0.434076
0.345499 0.601715 0.438037
0.433149 0.605650 0.441998
0.520798 0.609584 0.445958
0.608448 0.613519 0.449919
0.696098 0.617453 0.453879
0.783747 0.621388 0.457840
0.871397 0.625322 0.461801
0.183322 0.691206 0.443415
0.270972 0.695140 0.447375
0.358622 0.699075 0.451336
0.446271 0.703009 0.455296
0.533921 0.706943 0.459257
0.621570 0.710878 0.463217
0.709220 0.714812 0.467178
0.796869 0.718747 0.471139
0.884519 0.722681 0.475099
0.196445 0.788565 0.456713
0.284094 0.792499 0.460674
0.371744 0.796434 0.464634
0.459393 0.800368 0.468595
0.547043 0.804302 0.472555
0.634693 0.808237 0.476516
0.722342 0.812171 0.480477
0.809992 0.816106 0.484437
0.897641 0.820040 0.488398
0.209567 0.885924 0.470012
0.297217 0.889858 0.473972
0.384866 0.893793 0.477933
0.472516 0.897727 0.481893
0.560165 0.901661 0.485854
0.647815 0.905596 0.489815
0.735464 0.909530 0.493775
0.823114 0.913465 0.497736
0.910764 0.917399 0.501696
0.105910 0.108381 0.449429
0.193559 0.112316 0.453390
0.281209 0.116250 0.457350
0.368858 0.120185 0.461311
0.456508 0.124119 0.465272
0.544158 0.128054 0.469232
0.631807 0.131988 0.473193
0.719457 0.135923 0.477153
0.807106 0.139857 0.481114
0.119032 0.205740 0.462728
0.206682 0.209675 0.466688
0.294331 0.213609 0.470649
0.381981 0.217544 0.474610
0.469630 0.221478 0.478570
0.557280 0.225413 0.482531
0.644929 0.229347 0.486491
0.732579 0.233282 0.490452
0.820229 0.237216 0.494413
0.132154 0.303099 0.476026
0.219804 0.307034 0.479987
0.307453 0.310968 0.483948
0.395103 0.314903 0.487908
0.482753 0.318837 0.491869
0.570402 0.322772 0.495829
0.658052 0.326706 0.499790
0.745701 0.330641 0.503751
0.833351 0.334575 0.507711
0.145277 0.400458 0.489325
0.232926 0.404393 0.493286
0.320576 0.408327 0.497246
0.408225 0.412262 0.501207
0.495875 0.416196 0.505167
0.583524 0.420131 0.509128
0.671174 0.424065 0.513089
0.758824 0.428000 0.517049
0.846473 0.431934 0.521010
0.158399 0.497817 0.502624
0.246048 0.501752 0.506584
0.333698 0.505686 0.510545
0.421348 0.509621 0.514505
0.508997 0.513555 0.518466
0.596647 0.517490 0.522427
0.684296 0.521424 0.526387
0.771946 0.525359 0.530348
0.859595 0.529293 0.534308
0.171521 0.595176 0.515922
0.259171 0.599111 0.519883
0.346820 0.603045 0.523843
0.434470 0.606980 0.527804
0.522119 0.610914 0.531765
0.609769 0.614849 0.535725
0.697419 0.618783 0.539686
0.785068 0.622718 0.543646
0.872718 0.626652 0.547607
0.184643 0.692535 0.529221
0.272293 0.696470 0.533181
0.359942 0.700404 0.537142
0.447592 0.704339 0.541103
0.535242 0.708273 0.545063
0.622891 0.712208 0.549024
0.710541 0.716142 0.552984
0.798190 0.720077 0.556945
0.885840 0.724011 0.560906
0.197766 0.789894 0.542519
0.285415 0.793829 0.546480
0.373065 0.797763 0.550441
0.460714 0.801698 0.554401
0.548364 0.805632 0.558362
0.636014 0.809567 0.562322
0.723663 0.813501 0.566283
0.811313 0.817436 0.570244
0.898962 0.821370 0.574204
0.210888 0.887253 0.555818
0.298537 0.891188 0.559779
0.386187 0.895122 0.563739
0.473837 0.899057 0.567700
0.561486 0.902991 0.571660
0.649136 0.906926 0.575621
0.736785 0.910860 0.579582
0.824435 0.914795 0.583542
0.912085 0.918729 0.587503
0.107231 0.109711 0.535236
0.194880 0.113646 0.539196
0.282530 0.117580 0.543157
0.370179 0.121515 0.547117
0.457829 0.125449 0.551078
0.545479 0.129384 0.555039
0.633128 0.133318 0.558999
0.720778 0.137252 0.562960
0.808427 0.141187 0.566920
0.120353 0.207070 0.548534
0.208002 0.211005 0.552495
0.295652 0.214939 0.556455
0.383302 0.218874 0.560416
0.470951 0.222808 0.564376
0.558601 0.226743 0.568337
0.646250 0.230677 0.572298
0.733900 0.234611 0.576258
0.821550 0.238546 0.580219
0.133475 0.304429 0.561833
0.221125 0.308364 0.565793
0.308774 0.312298 0.569754
0.396424 0.316233 0.573714
0.484074 0.320167 0.577675
0.571723 0.324102 0.581636
0.659373 0.328036 0.585596
0.747022 0.331970 0.589557
0.834672 0.335905 0.593517
0.146597 0.401788 0.575131
0.234247 0.405723 0.579092
0.321897 0.409657 0.583053
0.409546 0.413592 0.587013
0.497196 0.417526 0.590974
0.584845 0.421461 0.594934
0.672495 0.425395 0.598895
0.760145 0.429329 0.602855
0.847794 0.433264 0.606816
0.159720 0.499147 0.588430
0.247369 0.503082 0.592391
0.335019 0.507016 0.596351
0.422668 0.510951 0.600312
0.510318 0.514885 0.604272
0.597968 0.518820 0.608233
0.685617 0.522754 0.612193
0.773267 0.526688 0.616154
0.860916 0.530623 0.620115
0.172842 0.596506 0.601729
0.260492 0.600441 0.605689
0.348141 0.604375 0.609650
0.435791 0.608310 0.613610
0.523440 0.612244 0.617571
0.611090 0.616179 0.621531
0.698740 0.620113 0.625492
0.786389 0.624047 0.629453
0.874039 0.627982 0.633413
0.185964 0.693865 0.615027
0.273614 0.697800 0.618988
0.361263 0.701734 0.622948
0.448913 0.705669 0.626909
0.536563 0.709603 0.630870
0.624212 0.713538 0.634830
0.711862 0.717472 0.638791
0.799511 0.721407 0.642751
0.887161 0.725341 0.646712
0.199087 0.791224 0.628326
0.286736 0.795159 0.632286
0.374386 0.799093 0.636247
0.462035 0.803028 0.640208
0.549685 0.806962 0.644168
0.637334 0.810897 0.648129
0.724984 0.814831 0.652089
0.812634 0.818766 0.656050
0.900283 0.822700 0.660010
0.212209 0.888583 0.641624
0.299858 0.892518 0.645585
0.387508 0.896452 0.649546
0.475158 0.900387 0.653506
0.562807 0.904321 0.657467
0.650457 0.908256 0.661427
0.738106 0.912190 0.665388
0.825756 0.916125 0.669348
0.913405 0.920059 0.673309
0.108552 0.111041 0.621042
0.196201 0.114976 0.625002
0.283851 0.118910 0.628963
0.371500 0.122844 0.632924
0.459150 0.126779 0.636884
0.546799 0.130713 0.640845
0.634449 0.134648 0.644805
0.722099 0.138582 0.648766
0.809748 0.142517 0.652727
0.121674 0.208400 0.634340
0.209323 0.212335 0.638301
0.296973 0.216269 0.642262
0.384623 0.220203 0.646222
0.472272 0.224138 0.650183
0.559922 0.228072 0.654143
0.647571 0.232007 0.658104
0.735221 0.235941 0.662065
0.822871 0.239876 0.666025
0.134796 0.305759 0.647639
0.222446 0.309694 0.651600
0.310095 0.313628 0.655560
0.397745 0.317562 0.659521
0.485394 0.321497 0.663481
0.573044 0.325431 0.667442
0.660694 0.329366 0.671403
0.748343 0.333300 0.675363
0.835993 0.337235 0.679324
0.147918 0.403118 0.660938
0.235568 0.407053 0.664898
0.323218 0.410987 0.668859
0.410867 0.414922 0.672819
0.498517 0.418856 0.676780
0.586166 0.422790 0.680741
0.673816 0.426725 0.684701
0.761465 0.430659 0.688662
0.849115 0.434594 0.692622
0.161041 0.500477 0.674236
0.248690 0.504412 0.678197
0.336340 0.508346 0.682157
0.423989 0.512281 0.686118
0.511639 0.516215 0.690079
0.599289 0.520149 0.694039
0.686938 0.524084 0.698000
0.774588 0.528018 0.701960
0.862237 0.531953 0.705921
0.174163 0.597836 0.687535
0.261813 0.601771 0.691495
0.349462 0.605705 0.695456
0.437112 0.609640 0.699417
0.524761 0.613574 0.703377
0.612411 0.617508 0.707338
0.700060 0.621443 0.711298
0.787710 0.625377 0.715259
0.875360 0.629312 0.719220
0.187285 0.695195 0.700833
0.274935 0.699130 0.704794
0.362584 0.703064 0.708755
0.450234 0.706999 0.712715
0.537884 0.710933 0.716676
0.625533 0.714867 0.720636
0.713183 0.718802 0.724597
0.800832 0.722736 0.728558
0.888482 0.726671 0.732518
0.200408 0.792554 0.714132
0.288057 0.796489 0.718093
0.375707 0.800423 0.722053
0.463356 0.804358 0.726014
0.551006 0.808292 0.729974
0.638655 0.812226 0.733935
0.726305 0.816161 0.737896
0.813955 0.820095 0.741856
0.901604 0.824030 0.745817
0.213530 0.889913 0.727431
0.301179 0.893848 0.731391
0.388829 0.897782 0.735352
0.476479 0.901717 0.739312
0.564128 0.905651 0.743273
0.651778 0.909585 0.747234
0.739427 0.913520 0.751194
0.827077 0.917454 0.755155
0.914726 0.921389 0.759115
0.109873 0.112371 0.706848
0.197522 0.116305 0.710809
0.285172 0.120240 0.714769
0.372821 0.124174 0.718730
0.460471 0.128109 0.722691
0.548120 0.132043 0.726651
0.635770 0.135978 0.730612
0.723420 0.139912 0.734572
0.811069 0.143847 0.738533
0.122995 0.209730 0.720147
0.210644 0.213664 0.724107
0.298294 0.217599 0.728068
0.385944 0.221533 0.732029
0.473593 0.225468 0.735989
0.561243 0.229402 0.739950
0.648892 0.233337 0.743910
0.736542 0.237271 0.747871
0.824192 0.241206 0.751832
0.136117 0.307089 0.733445
0.223767 0.311023 0.737406
0.311416 0.314958 0.741367
0.399066 0.318892 0.745327
0.486715 0.322827 0.749288
0.574365 0.326761 0.753248
0.662015 0.330696 0.757209
0.749664 0.334630 0.761170
0.837314 0.338565 0.765130
0.149239 0.404448 0.746744
0.236889 0.408382 0.750705
0.324539 0.412317 0.754665
0.412188 0.416251 0.758626
0.499838 0.420186 0.762586
0.587487 0.424120 0.766547
0.675137 0.428055 0.770508
0.762786 0.431989 0.774468
0.850436 0.435924 0.778429
0.162362 0.501807 0.760043
0.250011 0.505741 0.764003
0.337661 0.509676 0.767964
0.425310 0.513610 0.771924
0.512960 0.517545 0.775885
0.600610 0.521479 0.779846
0.688259 0.525414 0.783806
0.775909 0.529348 0.787767
0.863558 0.533283 0.791727
0.175484 0.599166 0.773341
0.263134 0.603101 0.777302
0.350783 0.607035 0.781262
0.438433 0.610969 0.785223
0.526082 0.614904 0.789184
0.613732 0.618838 0.793144
0.701381 0.622773 0.797105
0.789031 0.626707 0.801065
0.876681 0.630642 0.805026
0.188606 0.696525 0.786640
0.276256 0.700460 0.790600
0.363905 0.704394 0.794561
0.451555 0.708328 0.798522
0.539205 0.712263 0.802482
0.626854 0.716197 0.806443
0.714504 0.720132 0.810403
0.802153 0.724066 0.814364
0.889803 0.728001 0.818325
0.201728 0.793884 0.799938
0.289378 0.797819 0.803899
0.377028 0.801753 0.807860
0.464677 0.805687 0.811820
0.552327 0.809622 0.815781
0.639976 0.813556 0.819741
0.727626 0.817491 0.823702
0.815276 0.821425 0.827663
0.902925 0.825360 0.831623
0.214851 0.891243 0.813237
0.302500 0.895178 0.817198
0.390150 0.899112 0.821158
0.477800 0.903046 0.825119
0.565449 0.906981 0.829079
0.653099 0.910915 0.833040
0.740748 0.914850 0.837001
0.828398 0.918784 0.840961
0.916047 0.922719 0.844922
0.111194 0.113701 0.792655
0.198843 0.117635 0.796615
0.286493 0.121570 0.800576
0.374142 0.125504 0.804536
0.461792 0.129439 0.808497
0.549441 0.133373 0.812458
0.637091 0.137308 0.816418
0.724741 0.141242 0.820379
0.812390 0.145176 0.824339
0.124316 0.211060 0.805953
0.211965 0.214994 0.809914
0.299615 0.218929 0.813874
0.387265 0.222863 0.817835
0.474914 0.226798 0.821796
0.562564 0.230732 0.825756
0.650213 0.234667 0.829717
0.737863 0.238601 0.833677
0.825512 0.242536 0.837638
0.137438 0.308419 0.819252
0.225088 0.312353 0.823212
0.312737 0.316288 0.827173
0.400387 0.320222 0.831134
0.488036 0.324157 0.835094
0.575686 0.328091 0.839055
0.663336 0.332026 0.843015
0.750985 0.335960 0.846976
0.838635 0.339895 0.850936
0.150560 0.405778 0.832550
0.238210 0.409712 0.836511
0.325860 0.413647 0.840472
0.413509 0.417581 0.844432
0.501159 0.421516 0.848393
0.588808 0.425450 0.852353
0.676458 0.429385 0.856314
0.764107 0.433319 0.860274
0.851757 0.437254 0.864235
0.163683 0.503137 0.845849
0.251332 0.507071 0.849810
0.338982 0.511006 0.853770
0.426631 0.514940 0.857731
0.514281 0.518875 0.861691
0.601930 0.522809 0.865652
0.689580 0.526744 0.869613
0.777230 0.530678 0.873573
0.864879 0.534613 0.877534
0.176805 0.600496 0.859148
0.264454 0.604430 0.863108
0.352104 0.608365 0.867069
0.439754 0.612299 0.871029
0.527403 0.616234 0.874990
0.615053 0.620168 0.878950
0.702702 0.624103 0.882911
0.790352 0.628037 0.886872
0.878002 0.631972 0.890832
0.189927 0.697855 0.872446
0.277577 0.701789 0.876407
0.365226 0.705724 0.880367
0.452876 0.709658 0.884328
0.540525 0.713593 0.888288
0.628175 0.717527 0.892249
0.715825 0.721462 0.896210
0.803474 0.725396 0.900170
0.891124 0.729331 0.904131
0.203049 0.795214 0.885745
0.290699 0.799148 0.889705
0.378349 0.803083 0.893666
0.465998 0.807017 0.897627
0.553648 0.810952 0.901587
0.641297 0.814886 0.905548
0.728947 0.818821 0.909508
0.816597 0.822755 0.913469
0.904246 0.826690 0.917429
0.216172 0.892573 0.899043
0.303821 0.896507 0.903004
0.391471 0.900442 0.906965
0.479120 0.904376 0.910925
0.566770 0.908311 0.914886
0.654420 0.912245 0.918846
0.742069 0.916180 0.922807
0.829719 0.920114 0.926767
0.917368 0.924049 0.930728
