assets/presets/luts/mono-orange/lut.cube
TITLE "Mono Orange"
LUT_3D_SIZE 17
0.000000 0.000000 0.000000
0.005629 0.005629 0.005629
0.017374 0.017374 0.017374
0.034130 0.034130 0.034130
0.055627 0.055627 0.055627
0.081740 0.081740 0.081740
0.112357 0.112357 0.112357
0.147328 0.147328 0.147328
0.186432 0.186432 0.186432
0.229369 0.229369 0.229369
0.275738 0.275738 0.275738
0.325047 0.325047 0.325047
0.376712 0.376712 0.376712
0.430071 0.430071 0.430071
0.484403 0.484403 0.484403
0.538953 0.538953 0.538953
0.592959 0.592959 0.592959
0.003027 0.003027 0.003027
0.013031 0.013031 0.013031
0.028219 0.028219 0.028219
0.048209 0.048209 0.048209
0.072850 0.072850 0.072850
0.102033 0.102033 0.102033
0.135624 0.135624 0.135624
0.173429 0.173429 0.173429
0.215172 0.215172 0.215172
0.260487 0.260487 0.260487
0.308911 0.308911 0.308911
0.359888 0.359888 0.359888
0.412778 0.412778 0.412778
0.466879 0.466879 0.466879
0.521442 0.521442 0.521442
0.575706 0.575706 0.575706
0.628917 0.628917 0.628917
0.009217 0.009217 0.009217
0.022803 0.022803 0.022803
0.041271 0.041271 0.041271
0.064429 0.064429 0.064429
0.092165 0.092165 0.092165
0.124357 0.124357 0.124357
0.160833 0.160833 0.160833
0.201346 0.201346 0.201346
0.245559 0.245559 0.245559
0.293040 0.293040 0.293040
0.343262 0.343262 0.343262
0.395611 0.395611 0.395611
0.449402 0.449402 0.449402
0.503900 0.503900 0.503900
0.558343 0.558343 0.558343
0.611973 0.611973 0.611973
0.664058 0.664058 0.664058
0.017889 0.017889 0.017889
0.034817 0.034817 0.034817
0.056481 0.056481 0.056481
0.082757 0.082757 0.082757
0.113533 0.113533 0.113533
0.148655 0.148655 0.148655
0.187902 0.187902 0.187902
0.230968 0.230968 0.230968
0.277452 0.277452 0.277452
0.326856 0.326856 0.326856
0.378593 0.378593 0.378593
0.431999 0.431999 0.431999
0.486352 0.486352 0.486352
0.540896 0.540896 0.540896
0.594869 0.594869 0.594869
0.647527 0.647527 0.647527
0.698177 0.698177 0.698177
0.028851 0.028851 0.028851
0.049009 0.049009 0.049009
0.073815 0.073815 0.073815
0.103158 0.103158 0.103158
0.136903 0.136903 0.136903
0.174854 0.174854 0.174854
0.216732 0.216732 0.216732
0.262166 0.262166 0.262166
0.310692 0.310692 0.310692
0.361748 0.361748 0.361748
0.414694 0.414694 0.414694
0.468824 0.468824 0.468824
0.523390 0.523390 0.523390
0.577629 0.577629 0.577629
0.630788 0.630788 0.630788
0.682155 0.682155 0.682155
0.731079 0.731079 0.731079
0.042018 0.042018 0.042018
0.065341 0.065341 0.065341
0.093239 0.093239 0.093239
0.125587 0.125587 0.125587
0.162212 0.162212 0.162212
0.202863 0.202863 0.202863
0.247201 0.247201 0.247201
0.294790 0.294790 0.294790
0.345099 0.345099 0.345099
0.397511 0.397511 0.397511
0.451341 0.451341 0.451341
0.505850 0.505850 0.505850
0.560277 0.560277 0.560277
0.613864 0.613864 0.613864
0.665881 0.665881 0.665881
0.715657 0.715657 0.715657
0.762590 0.762590 0.762590
0.057340 0.057340 0.057340
0.083779 0.083779 0.083779
0.114713 0.114713 0.114713
0.149987 0.149987 0.149987
0.189376 0.189376 0.189376
0.232572 0.232572 0.232572
0.279169 0.279169 0.279169
0.328667 0.328667 0.328667
0.380476 0.380476 0.380476
0.433928 0.433928 0.433928
0.488301 0.488301 0.488301
0.542838 0.542838 0.542838
0.596776 0.596776 0.596776
0.649375 0.649375 0.649375
0.699940 0.699940 0.699940
0.747847 0.747847 0.747847
0.792556 0.792556 0.792556
0.074785 0.074785 0.074785
0.104288 0.104288 0.104288
0.138188 0.138188 0.138188
0.176284 0.176284 0.176284
0.218295 0.218295 0.218295
0.263849 0.263849 0.263849
0.312475 0.312475 0.312475
0.363610 0.363610 0.363610
0.416611 0.416611 0.416611
0.470770 0.470770 0.470770
0.525337 0.525337 0.525337
0.579550 0.579550 0.579550
0.632658 0.632658 0.632658
0.683948 0.683948 0.683948
0.732773 0.732773 0.732773
0.778563 0.778563 0.778563
0.820841 0.820841 0.820841
0.094318 0.094318 0.094318
0.126823 0.126823 0.126823
0.163596 0.163596 0.163596
0.204385 0.204385 0.204385
0.248847 0.248847 0.248847
0.296543 0.296543 0.296543
0.346938 0.346938 0.346938
0.399414 0.399414 0.399414
0.453280 0.453280 0.453280
0.507800 0.507800 0.507800
0.562210 0.562210 0.562210
0.615752 0.615752 0.615752
0.667701 0.667701 0.667701
0.717385 0.717385 0.717385
0.764207 0.764207 0.764207
0.807660 0.807660 0.807660
0.847333 0.847333 0.847333
0.115899 0.115899 0.115899
0.151324 0.151324 0.151324
0.190856 0.190856 0.190856
0.234180 0.234180 0.234180
0.280890 0.280890 0.280890
0.330481 0.330481 0.330481
0.382361 0.382361 0.382361
0.435859 0.435859 0.435859
0.490251 0.490251 0.490251
0.544779 0.544779 0.544779
0.598682 0.598682 0.598682
0.651220 0.651220 0.651220
0.701700 0.701700 0.701700
0.749502 0.749502 0.749502
0.794088 0.794088 0.794088
0.835015 0.835015 0.835015
0.871936 0.871936 0.871936
0.139477 0.139477 0.139477
0.177719 0.177719 0.177719
0.219864 0.219864 0.219864
0.265536 0.265536 0.265536
0.314262 0.314262 0.314262
0.365475 0.365475 0.365475
0.418530 0.418530 0.418530
0.472716 0.472716 0.472716
0.527284 0.527284 0.527284
0.581470 0.581470 0.581470
0.634525 0.634525 0.634525
0.685738 0.685738 0.685738
0.734464 0.734464 0.734464
0.780136 0.780136 0.780136
0.822281 0.822281 0.822281
0.860523 0.860523 0.860523
0.894576 0.894576 0.894576
0.164985 0.164985 0.164985
0.205912 0.205912 0.205912
0.250498 0.250498 0.250498
0.298300 0.298300 0.298300
0.348780 0.348780 0.348780
0.401318 0.401318 0.401318
0.455221 0.455221 0.455221
0.509749 0.509749 0.509749
0.564141 0.564141 0.564141
0.617639 0.617639 0.617639
0.669519 0.669519 0.669519
0.719110 0.719110 0.719110
0.765820 0.765820 0.765820
0.809144 0.809144 0.809144
0.848676 0.848676 0.848676
0.884101 0.884101 0.884101
0.915192 0.915192 0.915192
0.192340 0.192340 0.192340
0.235793 0.235793 0.235793
0.282615 0.282615 0.282615
0.332299 0.332299 0.332299
0.384248 0.384248 0.384248
0.437790 0.437790 0.437790
0.492200 0.492200 0.492200
0.546720 0.546720 0.546720
0.600586 0.600586 0.600586
0.653062 0.653062 0.653062
0.703457 0.703457 0.703457
0.751153 0.751153 0.751153
0.795615 0.795615 0.795615
0.836404 0.836404 0.836404
0.873177 0.873177 0.873177
0.905682 0.905682 0.905682
0.933741 0.933741 0.933741
0.221437 0.221437 0.221437
0.267227 0.267227 0.267227
0.316052 0.316052 0.316052
0.367342 0.367342 0.367342
0.420450 0.420450 0.420450
0.474663 0.474663 0.474663
0.529230 0.529230 0.529230
0.583389 0.583389 0.583389
0.636390 0.636390 0.636390
0.687525 0.687525 0.687525
0.736151 0.736151 0.736151
0.781705 0.781705 0.781705
0.823716 0.823716 0.823716
0.861812 0.861812 0.861812
0.895712 0.895712 0.895712
0.925215 0.925215 0.925215
0.950184 0.950184 0.950184
0.252153 0.252153 0.252153
0.300060 0.300060 0.300060
0.350625 0.350625 0.350625
0.403224 0.403224 0.403224
0.457162 0.457162 0.457162
0.511699 0.511699 0.511699
0.566072 0.566072 0.566072
0.619524 0.619524 0.619524
0.671333 0.671333 0.671333
0.720831 0.720831 0.720831
0.767428 0.767428 0.767428
0.810624 0.810624 0.810624
0.850013 0.850013 0.850013
0.885287 0.885287 0.885287
0.916221 0.916221 0.916221
0.942660 0.942660 0.942660
0.964490 0.964490 0.964490
0.284344 0.284344 0.284344
0.334119 0.334119 0.334119
0.386137 0.386137 0.386137
0.439723 0.439723 0.439723
0.494150 0.494150 0.494150
0.548659 0.548659 0.548659
0.602489 0.602489 0.602489
0.654901 0.654901 0.654901
0.705210 0.705210 0.705210
0.752799 0.752799 0.752799
0.797137 0.797137 0.797137
0.837788 0.837788 0.837788
0.874413 0.874413 0.874413
0.906761 0.906761 0.906761
0.934659 0.934659 0.934659
0.957982 0.957982 0.957982
0.976620 0.976620 0.976620
0.317845 0.317845 0.317845
0.369212 0.369212 0.369212
0.422371 0.422371 0.422371
0.476610 0.476610 0.476610
0.531176 0.531176 0.531176
0.585306 0.585306 0.585306
0.638252 0.638252 0.638252
0.689308 0.689308 0.689308
0.737834 0.737834 0.737834
0.783268 0.783268 0.783268
0.825146 0.825146 0.825146
0.863097 0.863097 0.863097
0.896842 0.896842 0.896842
0.926185 0.926185 0.926185
0.950991 0.950991 0.950991
0.971149 0.971149 0.971149
0.986512 0.986512 0.986512
0.000165 0.000165 0.000165
0.006631 0.006631 0.006631
0.018937 0.018937 0.018937
0.036209 0.036209 0.036209
0.058206 0.058206 0.058206
0.084808 0.084808 0.084808
0.115899 0.115899 0.115899
0.151324 0.151324 0.151324
0.190856 0.190856 0.190856
0.234180 0.234180 0.234180
0.280890 0.280890 0.280890
0.330481 0.330481 0.330481
0.382361 0.382361 0.382361
0.435859 0.435859 0.435859
0.490251 0.490251 0.490251
0.544779 0.544779 0.544779
0.598682 0.598682 0.598682
0.003825 0.003825 0.003825
0.014421 0.014421 0.014421
0.030134 0.030134 0.030134
0.050628 0.050628 0.050628
0.075761 0.075761 0.075761
0.105424 0.105424 0.105424
0.139477 0.139477 0.139477
0.177719 0.177719 0.177719
0.219864 0.219864 0.219864
0.265536 0.265536 0.265536
0.314262 0.314262 0.314262
0.365475 0.365475 0.365475
0.418530 0.418530 0.418530
0.472716 0.472716 0.472716
0.527284 0.527284 0.527284
0.581470 0.581470 0.581470
0.634525 0.634525 0.634525
0.010428 0.010428 0.010428
0.024553 0.024553 0.024553
0.043530 0.043530 0.043530
0.067183 0.067183 0.067183
0.095403 0.095403 0.095403
0.128064 0.128064 0.128064
0.164985 0.164985 0.164985
0.205912 0.205912 0.205912
0.250498 0.250498 0.250498
0.298300 0.298300 0.298300
0.348780 0.348780 0.348780
0.401318 0.401318 0.401318
0.455221 0.455221 0.455221
0.509749 0.509749 0.509749
0.564141 0.564141 0.564141
0.617639 0.617639 0.617639
0.669519 0.669519 0.669519
0.019470 0.019470 0.019470
0.036914 0.036914 0.036914
0.059077 0.059077 0.059077
0.085841 0.085841 0.085841
0.117091 0.117091 0.117091
0.152667 0.152667 0.152667
0.192340 0.192340 0.192340
0.235793 0.235793 0.235793
0.282615 0.282615 0.282615
0.332299 0.332299 0.332299
0.384248 0.384248 0.384248
0.437790 0.437790 0.437790
0.492200 0.492200 0.492200
0.546720 0.546720 0.546720
0.600586 0.600586 0.600586
0.653062 0.653062 0.653062
0.703457 0.703457 0.703457
0.030785 0.030785 0.030785
0.051447 0.051447 0.051447
0.076743 0.076743 0.076743
0.106566 0.106566 0.106566
0.140772 0.140772 0.140772
0.179158 0.179158 0.179158
0.221437 0.221437 0.221437
0.267227 0.267227 0.267227
0.316052 0.316052 0.316052
0.367342 0.367342 0.367342
0.420450 0.420450 0.420450
0.474663 0.474663 0.474663
0.529230 0.529230 0.529230
0.583389 0.583389 0.583389
0.636390 0.636390 0.636390
0.687525 0.687525 0.687525
0.736151 0.736151 0.736151
0.044295 0.044295 0.044295
0.068113 0.068113 0.068113
0.096494 0.096494 0.096494
0.129310 0.129310 0.129310
0.166380 0.166380 0.166380
0.207444 0.207444 0.207444
0.252153 0.252153 0.252153
0.300060 0.300060 0.300060
0.350625 0.350625 0.350625
0.403224 0.403224 0.403224
0.457162 0.457162 0.457162
0.511699 0.511699 0.511699
0.566072 0.566072 0.566072
0.619524 0.619524 0.619524
0.671333 0.671333 0.671333
0.720831 0.720831 0.720831
0.767428 0.767428 0.767428
0.059955 0.059955 0.059955
0.086881 0.086881 0.086881
0.118288 0.118288 0.118288
0.154015 0.154015 0.154015
0.193829 0.193829 0.193829
0.237410 0.237410 0.237410
0.284344 0.284344 0.284344
0.334119 0.334119 0.334119
0.386137 0.386137 0.386137
0.439723 0.439723 0.439723
0.494150 0.494150 0.494150
0.548659 0.548659 0.548659
0.602489 0.602489 0.602489
0.654901 0.654901 0.654901
0.705210 0.705210 0.705210
0.752799 0.752799 0.752799
0.797137 0.797137 0.797137
0.077731 0.077731 0.077731
0.107713 0.107713 0.107713
0.142073 0.142073 0.142073
0.180603 0.180603 0.180603
0.223014 0.223014 0.223014
0.268921 0.268921 0.268921
0.317845 0.317845 0.317845
0.369212 0.369212 0.369212
0.422371 0.422371 0.422371
0.476610 0.476610 0.476610
0.531176 0.531176 0.531176
0.585306 0.585306 0.585306
0.638252 0.638252 0.638252
0.689308 0.689308 0.689308
0.737834 0.737834 0.737834
0.783268 0.783268 0.783268
0.825146 0.825146 0.825146
0.097591 0.097591 0.097591
0.130562 0.130562 0.130562
0.167780 0.167780 0.167780
0.208981 0.208981 0.208981
0.253812 0.253812 0.253812
0.301823 0.301823 0.301823
0.352473 0.352473 0.352473
0.405131 0.405131 0.405131
0.459104 0.459104 0.459104
0.513648 0.513648 0.513648
0.568001 0.568001 0.568001
0.621407 0.621407 0.621407
0.673144 0.673144 0.673144
0.722548 0.722548 0.722548
0.769032 0.769032 0.769032
0.812098 0.812098 0.812098
0.851345 0.851345 0.851345
0.119491 0.119491 0.119491
0.155368 0.155368 0.155368
0.195323 0.195323 0.195323
0.239031 0.239031 0.239031
0.286076 0.286076 0.286076
0.335942 0.335942 0.335942
0.388027 0.388027 0.388027
0.441657 0.441657 0.441657
0.496100 0.496100 0.496100
0.550598 0.550598 0.550598
0.604389 0.604389 0.604389
0.656738 0.656738 0.656738
0.706960 0.706960 0.706960
0.754441 0.754441 0.754441
0.798654 0.798654 0.798654
0.839167 0.839167 0.839167
0.875643 0.875643 0.875643
0.143378 0.143378 0.143378
0.182053 0.182053 0.182053
0.224596 0.224596 0.224596
0.270620 0.270620 0.270620
0.319641 0.319641 0.319641
0.371083 0.371083 0.371083
0.424294 0.424294 0.424294
0.478558 0.478558 0.478558
0.533121 0.533121 0.533121
0.587222 0.587222 0.587222
0.640112 0.640112 0.640112
0.691089 0.691089 0.691089
0.739513 0.739513 0.739513
0.784828 0.784828 0.784828
0.826571 0.826571 0.826571
0.864376 0.864376 0.864376
0.897967 0.897967 0.897967
0.169184 0.169184 0.169184
0.210522 0.210522 0.210522
0.255475 0.255475 0.255475
0.303590 0.303590 0.303590
0.354323 0.354323 0.354323
0.407041 0.407041 0.407041
0.461047 0.461047 0.461047
0.515597 0.515597 0.515597
0.569929 0.569929 0.569929
0.623288 0.623288 0.623288
0.674953 0.674953 0.674953
0.724262 0.724262 0.724262
0.770631 0.770631 0.770631
0.813568 0.813568 0.813568
0.852672 0.852672 0.852672
0.887643 0.887643 0.887643
0.918260 0.918260 0.918260
0.196821 0.196821 0.196821
0.240657 0.240657 0.240657
0.287811 0.287811 0.287811
0.337767 0.337767 0.337767
0.389920 0.389920 0.389920
0.443592 0.443592 0.443592
0.498050 0.498050 0.498050
0.552536 0.552536 0.552536
0.606288 0.606288 0.606288
0.658572 0.658572 0.658572
0.708707 0.708707 0.708707
0.756080 0.756080 0.756080
0.800167 0.800167 0.800167
0.840541 0.840541 0.840541
0.876868 0.876868 0.876868
0.908903 0.908903 0.908903
0.936478 0.936478 0.936478
0.226183 0.226183 0.226183
0.272322 0.272322 0.272322
0.321440 0.321440 0.321440
0.372958 0.372958 0.372958
0.426219 0.426219 0.426219
0.480506 0.480506 0.480506
0.535066 0.535066 0.535066
0.589136 0.589136 0.589136
0.641970 0.641970 0.641970
0.692866 0.692866 0.692866
0.741188 0.741188 0.741188
0.786383 0.786383 0.786383
0.827991 0.827991 0.827991
0.865649 0.865649 0.865649
0.899086 0.899086 0.899086
0.928109 0.928109 0.928109
0.952586 0.952586 0.952586
0.257142 0.257142 0.257142
0.305361 0.305361 0.305361
0.356175 0.356175 0.356175
0.408952 0.408952 0.408952
0.462990 0.462990 0.462990
0.517546 0.517546 0.517546
0.571856 0.571856 0.571856
0.625166 0.625166 0.625166
0.676758 0.676758 0.676758
0.725972 0.725972 0.725972
0.772227 0.772227 0.772227
0.815032 0.815032 0.815032
0.853994 0.853994 0.853994
0.888812 0.888812 0.888812
0.919271 0.919271 0.919271
0.945221 0.945221 0.945221
0.966551 0.966551 0.966551
0.289551 0.289551 0.289551
0.339596 0.339596 0.339596
0.391815 0.391815 0.391815
0.445528 0.445528 0.445528
0.500000 0.500000 0.500000
0.554472 0.554472 0.554472
0.608185 0.608185 0.608185
0.660404 0.660404 0.660404
0.710449 0.710449 0.710449
0.757713 0.757713 0.757713
0.801675 0.801675 0.801675
0.841910 0.841910 0.841910
0.878087 0.878087 0.878087
0.909966 0.909966 0.909966
0.937378 0.937378 0.937378
0.960206 0.960206 0.960206
0.978333 0.978333 0.978333
0.323242 0.323242 0.323242
0.374834 0.374834 0.374834
0.428144 0.428144 0.428144
0.482454 0.482454 0.482454
0.537010 0.537010 0.537010
0.591048 0.591048 0.591048
0.643825 0.643825 0.643825
0.694639 0.694639 0.694639
0.742858 0.742858 0.742858
0.787933 0.787933 0.787933
0.829406 0.829406 0.829406
0.866918 0.866918 0.866918
0.900199 0.900199 0.900199
0.929062 0.929062 0.929062
0.953375 0.953375 0.953375
0.973028 0.973028 0.973028
0.987863 0.987863 0.987863
0.000490 0.000490 0.000490
0.007698 0.007698 0.007698
0.020556 0.020556 0.020556
0.038342 0.038342 0.038342
0.060838 0.060838 0.060838
0.087926 0.087926 0.087926
0.119491 0.119491 0.119491
0.155368 0.155368 0.155368
0.195323 0.195323 0.195323
0.239031 0.239031 0.239031
0.286076 0.286076 0.286076
0.335942 0.335942 0.335942
0.388027 0.388027 0.388027
0.441657 0.441657 0.441657
0.496100 0.496100 0.496100
0.550598 0.550598 0.550598
0.604389 0.604389 0.604389
0.004693 0.004693 0.004693
0.015869 0.015869 0.015869
0.032105 0.032105 0.032105
0.053101 0.053101 0.053101
0.078725 0.078725 0.078725
0.108866 0.108866 0.108866
0.143378 0.143378 0.143378
0.182053 0.182053 0.182053
0.224596 0.224596 0.224596
0.270620 0.270620 0.270620
0.319641 0.319641 0.319641
0.371083 0.371083 0.371083
0.424294 0.424294 0.424294
0.478558 0.478558 0.478558
0.533121 0.533121 0.533121
0.587222 0.587222 0.587222
0.640112 0.640112 0.640112
0.011700 0.011700 0.011700
0.026358 0.026358 0.026358
0.045842 0.045842 0.045842
0.069990 0.069990 0.069990
0.098693 0.098693 0.098693
0.131820 0.131820 0.131820
0.169184 0.169184 0.169184
0.210522 0.210522 0.210522
0.255475 0.255475 0.255475
0.303590 0.303590 0.303590
0.354323 0.354323 0.354323
0.407041 0.407041 0.407041
0.461047 0.461047 0.461047
0.515597 0.515597 0.515597
0.569929 0.569929 0.569929
0.623288 0.623288 0.623288
0.674953 0.674953 0.674953
0.021108 0.021108 0.021108
0.039065 0.039065 0.039065
0.061727 0.061727 0.061727
0.088977 0.088977 0.088977
0.120699 0.120699 0.120699
0.156726 0.156726 0.156726
0.196821 0.196821 0.196821
0.240657 0.240657 0.240657
0.287811 0.287811 0.287811
0.337767 0.337767 0.337767
0.389920 0.389920 0.389920
0.443592 0.443592 0.443592
0.498050 0.498050 0.498050
0.552536 0.552536 0.552536
0.606288 0.606288 0.606288
0.658572 0.658572 0.658572
0.708707 0.708707 0.708707
0.032774 0.032774 0.032774
0.053937 0.053937 0.053937
0.079724 0.079724 0.079724
0.110024 0.110024 0.110024
0.144690 0.144690 0.144690
0.183508 0.183508 0.183508
0.226183 0.226183 0.226183
0.272322 0.272322 0.272322
0.321440 0.321440 0.321440
0.372958 0.372958 0.372958
0.426219 0.426219 0.426219
0.480506 0.480506 0.480506
0.535066 0.535066 0.535066
0.589136 0.589136 0.589136
0.641970 0.641970 0.641970
0.692866 0.692866 0.692866
0.741188 0.741188 0.741188
0.046625 0.046625 0.046625
0.070938 0.070938 0.070938
0.099801 0.099801 0.099801
0.133082 0.133082 0.133082
0.170594 0.170594 0.170594
0.212067 0.212067 0.212067
0.257142 0.257142 0.257142
0.305361 0.305361 0.305361
0.356175 0.356175 0.356175
0.408952 0.408952 0.408952
0.462990 0.462990 0.462990
0.517546 0.517546 0.517546
0.571856 0.571856 0.571856
0.625166 0.625166 0.625166
0.676758 0.676758 0.676758
0.725972 0.725972 0.725972
0.772227 0.772227 0.772227
0.062622 0.062622 0.062622
0.090034 0.090034 0.090034
0.121913 0.121913 0.121913
0.158090 0.158090 0.158090
0.198325 0.198325 0.198325
0.242286 0.242286 0.242286
0.289551 0.289551 0.289551
0.339596 0.339596 0.339596
0.391815 0.391815 0.391815
0.445528 0.445528 0.445528
0.500000 0.500000 0.500000
0.554472 0.554472 0.554472
0.608185 0.608185 0.608185
0.660404 0.660404 0.660404
0.710449 0.710449 0.710449
0.757713 0.757713 0.757713
0.801675 0.801675 0.801675
0.080729 0.080729 0.080729
0.111188 0.111188 0.111188
0.146006 0.146006 0.146006
0.184968 0.184968 0.184968
0.227773 0.227773 0.227773
0.274028 0.274028 0.274028
0.323242 0.323242 0.323242
0.374834 0.374834 0.374834
0.428144 0.428144 0.428144
0.482454 0.482454 0.482454
0.537010 0.537010 0.537010
0.591048 0.591048 0.591048
0.643825 0.643825 0.643825
0.694639 0.694639 0.694639
0.742858 0.742858 0.742858
0.787933 0.787933 0.787933
0.829406 0.829406 0.829406
0.100914 0.100914 0.100914
0.134351 0.134351 0.134351
0.172009 0.172009 0.172009
0.213617 0.213617 0.213617
0.258812 0.258812 0.258812
0.307134 0.307134 0.307134
0.358030 0.358030 0.358030
0.410864 0.410864 0.410864
0.464934 0.464934 0.464934
0.519494 0.519494 0.519494
0.573781 0.573781 0.573781
0.627042 0.627042 0.627042
0.678560 0.678560 0.678560
0.727678 0.727678 0.727678
0.773817 0.773817 0.773817
0.816492 0.816492 0.816492
0.855310 0.855310 0.855310
0.123132 0.123132 0.123132
0.159459 0.159459 0.159459
0.199833 0.199833 0.199833
0.243920 0.243920 0.243920
0.291293 0.291293 0.291293
0.341428 0.341428 0.341428
0.393712 0.393712 0.393712
0.447464 0.447464 0.447464
0.501950 0.501950 0.501950
0.556408 0.556408 0.556408
0.610080 0.610080 0.610080
0.662233 0.662233 0.662233
0.712189 0.712189 0.712189
0.759343 0.759343 0.759343
0.803179 0.803179 0.803179
0.843274 0.843274 0.843274
0.879301 0.879301 0.879301
0.147328 0.147328 0.147328
0.186432 0.186432 0.186432
0.229369 0.229369 0.229369
0.275738 0.275738 0.275738
0.325047 0.325047 0.325047
0.376712 0.376712 0.376712
0.430071 0.430071 0.430071
0.484403 0.484403 0.484403
0.538953 0.538953 0.538953
0.592959 0.592959 0.592959
0.645677 0.645677 0.645677
0.696410 0.696410 0.696410
0.744525 0.744525 0.744525
0.789478 0.789478 0.789478
0.830816 0.830816 0.830816
0.868180 0.868180 0.868180
0.901307 0.901307 0.901307
0.173429 0.173429 0.173429
0.215172 0.215172 0.215172
0.260487 0.260487 0.260487
0.308911 0.308911 0.308911
0.359888 0.359888 0.359888
0.412778 0.412778 0.412778
0.466879 0.466879 0.466879
0.521442 0.521442 0.521442
0.575706 0.575706 0.575706
0.628917 0.628917 0.628917
0.680359 0.680359 0.680359
0.729380 0.729380 0.729380
0.775404 0.775404 0.775404
0.817947 0.817947 0.817947
0.856622 0.856622 0.856622
0.891134 0.891134 0.891134
0.921275 0.921275 0.921275
0.201346 0.201346 0.201346
0.245559 0.245559 0.245559
0.293040 0.293040 0.293040
0.343262 0.343262 0.343262
0.395611 0.395611 0.395611
0.449402 0.449402 0.449402
0.503900 0.503900 0.503900
0.558343 0.558343 0.558343
0.611973 0.611973 0.611973
0.664058 0.664058 0.664058
0.713924 0.713924 0.713924
0.760969 0.760969 0.760969
0.804677 0.804677 0.804677
0.844632 0.844632 0.844632
0.880509 0.880509 0.880509
0.912074 0.912074 0.912074
0.939162 0.939162 0.939162
0.230968 0.230968 0.230968
0.277452 0.277452 0.277452
0.326856 0.326856 0.326856
0.378593 0.378593 0.378593
0.431999 0.431999 0.431999
0.486352 0.486352 0.486352
0.540896 0.540896 0.540896
0.594869 0.594869 0.594869
0.647527 0.647527 0.647527
0.698177 0.698177 0.698177
0.746188 0.746188 0.746188
0.791019 0.791019 0.791019
0.832220 0.832220 0.832220
0.869438 0.869438 0.869438
0.902409 0.902409 0.902409
0.930951 0.930951 0.930951
0.954934 0.954934 0.954934
0.262166 0.262166 0.262166
0.310692 0.310692 0.310692
0.361748 0.361748 0.361748
0.414694 0.414694 0.414694
0.468824 0.468824 0.468824
0.523390 0.523390 0.523390
0.577629 0.577629 0.577629
0.630788 0.630788 0.630788
0.682155 0.682155 0.682155
0.731079 0.731079 0.731079
0.776986 0.776986 0.776986
0.819397 0.819397 0.819397
0.857927 0.857927 0.857927
0.892287 0.892287 0.892287
0.922269 0.922269 0.922269
0.947729 0.947729 0.947729
0.968558 0.968558 0.968558
0.294790 0.294790 0.294790
0.345099 0.345099 0.345099
0.397511 0.397511 0.397511
0.451341 0.451341 0.451341
0.505850 0.505850 0.505850
0.560277 0.560277 0.560277
0.613864 0.613864 0.613864
0.665881 0.665881 0.665881
0.715657 0.715657 0.715657
0.762590 0.762590 0.762590
0.806171 0.806171 0.806171
0.845985 0.845985 0.845985
0.881712 0.881712 0.881712
0.913119 0.913119 0.913119
0.940045 0.940045 0.940045
0.962375 0.962375 0.962375
0.979990 0.979990 0.979990
0.328667 0.328667 0.328667
0.380476 0.380476 0.380476
0.433928 0.433928 0.433928
0.488301 0.488301 0.488301
0.542838 0.542838 0.542838
0.596776 0.596776 0.596776
0.649375 0.649375 0.649375
0.699940 0.699940 0.699940
0.747847 0.747847 0.747847
0.792556 0.792556 0.792556
0.833620 0.833620 0.833620
0.870690 0.870690 0.870690
0.903506 0.903506 0.903506
0.931887 0.931887 0.931887
0.955705 0.955705 0.955705
0.974852 0.974852 0.974852
0.989155 0.989155 0.989155
0.000927 0.000927 0.000927
0.008827 0.008827 0.008827
0.022232 0.022232 0.022232
0.040529 0.040529 0.040529
0.063522 0.063522 0.063522
0.091097 0.091097 0.091097
0.123132 0.123132 0.123132
0.159459 0.159459 0.159459
0.199833 0.199833 0.199833
0.243920 0.243920 0.243920
0.291293 0.291293 0.291293
0.341428 0.341428 0.341428
0.393712 0.393712 0.393712
0.447464 0.447464 0.447464
0.501950 0.501950 0.501950
0.556408 0.556408 0.556408
0.610080 0.610080 0.610080
0.005629 0.005629 0.005629
0.017374 0.017374 0.017374
0.034130 0.034130 0.034130
