assets/presets/luts/mono-orange/lut.cube
TITLE "Mono Orange"
LUT_3D_SIZE 9
0.000000 0.000000 0.000000
0.017374 0.017374 0.017374
0.055627 0.055627 0.055627
0.112357 0.112357 0.112357
0.186432 0.186432 0.186432
0.275738 0.275738 0.275738
0.376712 0.376712 0.376712
0.484403 0.484403 0.484403
0.592959 0.592959 0.592959
0.009217 0.009217 0.009217
0.041271 0.041271 0.041271
0.092165 0.092165 0.092165
0.160833 0.160833 0.160833
0.245559 0.245559 0.245559
0.343262 0.343262 0.343262
0.449402 0.449402 0.449402
0.558343 0.558343 0.558343
0.664058 0.664058 0.664058
0.028851 0.028851 0.028851
0.073815 0.073815 0.073815
0.136903 0.136903 0.136903
0.216732 0.216732 0.216732
0.310692 0.310692 0.310692
0.414694 0.414694 0.414694
0.523390 0.523390 0.523390
0.630788 0.630788 0.630788
0.731079 0.731079 0.731079
0.057340 0.057340 0.057340
0.114713 0.114713 0.114713
0.189376 0.189376 0.189376
0.279169 0.279169 0.279169
0.380476 0.380476 0.380476
0.488301 0.488301 0.488301
0.596776 0.596776 0.596776
0.699940 0.699940 0.699940
0.792556 0.792556 0.792556
0.094318 0.094318 0.094318
0.163596 0.163596 0.163596
0.248847 0.248847 0.248847
0.346938 0.346938 0.346938
0.453280 0.453280 0.453280
0.562210 0.562210 0.562210
0.667701 0.667701 0.667701
0.764207 0.764207 0.764207
0.847333 0.847333 0.847333
0.139477 0.139477 0.139477
0.219864 0.219864 0.219864
0.314262 0.314262 0.314262
0.418530 0.418530 0.418530
0.527284 0.527284 0.527284
0.634525 0.634525 0.634525
0.734464 0.734464 0.734464
0.822281 0.822281 0.822281
0.894576 0.894576 0.894576
0.192340 0.192340 0.192340
0.282615 0.282615 0.282615
0.384248 0.384248 0.384248
0.492200 0.492200 0.492200
0.600586 0.600586 0.600586
0.703457 0.703457 0.703457
0.795615 0.795615 0.795615
0.873177 0.873177 0.873177
0.933741 0.933741 0.933741
0.252153 0.252153 0.252153
0.350625 0.350625 0.350625
0.457162 0.457162 0.457162
0.566072 0.566072 0.566072
0.671333 0.671333 0.671333
0.767428 0.767428 0.767428
0.850013 0.850013 0.850013
0.916221 0.916221 0.916221
0.964490 0.964490 0.964490
0.317845 0.317845 0.317845
0.422371 0.422371 0.422371
0.531176 0.531176 0.531176
0.638252 0.638252 0.638252
0.737834 0.737834 0.737834
0.825146 0.825146 0.825146
0.896842 0.896842 0.896842
0.950991 0.950991 0.950991
0.986512 0.986512 0.986512
0.000490 0.000490 0.000490
0.020556 0.020556 0.020556
0.060838 0.060838 0.060838
0.119491 0.119491 0.119491
0.195323 0.195323 0.195323
0.286076 0.286076 0.286076
0.388027 0.388027 0.388027
0.496100 0.496100 0.496100
0.604389 0.604389 0.604389
0.011700 0.011700 0.011700
0.045842 0.045842 0.045842
0.098693 0.098693 0.098693
0.169184 0.169184 0.169184
0.255475 0.255475 0.255475
0.354323 0.354323 0.354323
0.461047 0.461047 0.461047
0.569929 0.569929 0.569929
0.674953 0.674953 0.674953
0.032774 0.032774 0.032774
0.079724 0.079724 0.079724
0.144690 0.144690 0.144690
0.226183 0.226183 0.226183
0.321440 0.321440 0.321440
0.426219 0.426219 0.426219
0.535066 0.535066 0.535066
0.641970 0.641970 0.641970
0.741188 0.741188 0.741188
0.062622 0.062622 0.062622
0.121913 0.121913 0.121913
0.198325 0.198325 0.198325
0.289551 0.289551 0.289551
0.391815 0.391815 0.391815
0.500000 0.500000 0.500000
0.608185 0.608185 0.608185
0.710449 0.710449 0.710449
0.801675 0.801675 0.801675
0.100914 0.100914 0.100914
0.172009 0.172009 0.172009
0.258812 0.258812 0.258812
0.358030 0.358030 0.358030
0.464934 0.464934 0.464934
0.573781 0.573781 0.573781
0.678560 0.678560 0.678560
0.773817 0.773817 0.773817
0.855310 0.855310 0.855310
0.147328 0.147328 0.147328
0.229369 0.229369 0.229369
0.325047 0.325047 0.325047
0.430071 0.430071 0.430071
0.538953 0.538953 0.538953
0.645677 0.645677 0.645677
0.744525 0.744525 0.744525
0.830816 0.830816 0.830816
0.901307 0.901307 0.901307
0.201346 0.201346 0.201346
0.293040 0.293040 0.293040
0.395611 0.395611 0.395611
0.503900 0.503900 0.503900
0.611973 0.611973 0.611973
0.713924 0.713924 0.713924
0.804677 0.804677 0.804677
0.880509 0.880509 0.880509
0.939162 0.939162 0.939162
0.262166 0.262166 0.262166
0.361748 0.361748 0.361748
0.468824 0.468824 0.468824
0.577629 0.577629 0.577629
0.682155 0.682155 0.682155
0.776986 0.776986 0.776986
0.857927 0.857927 0.857927
0.922269 0.922269 0.922269
0.968558 0.968558 0.968558
0.328667 0.328667 0.328667
0.433928 0.433928 0.433928
0.542838 0.542838 0.542838
0.649375 0.649375 0.649375
0.747847 0.747847 0.747847
0.833620 0.833620 0.833620
0.903506 0.903506 0.903506
0.955705 0.955705 0.955705
0.989155 0.989155 0.989155
0.001460 0.001460 0.001460
0.023963 0.023963 0.023963
0.066259 0.066259 0.066259
0.126823 0.126823 0.126823
0.204385 0.204385 0.204385
0.296543 0.296543 0.296543
0.399414 0.399414 0.399414
0.507800 0.507800 0.507800
0.615752 0.615752 0.615752
0.014421 0.014421 0.014421
0.050628 0.050628 0.050628
0.105424 0.105424 0.105424
0.177719 0.177719 0.177719
0.265536 0.265536 0.265536
0.365475 0.365475 0.365475
0.472716 0.472716 0.472716
0.581470 0.581470 0.581470
0.685738 0.685738 0.685738
0.036914 0.036914 0.036914
0.085841 0.085841 0.085841
0.152667 0.152667 0.152667
0.235793 0.235793 0.235793
0.332299 0.332299 0.332299
0.437790 0.437790 0.437790
0.546720 0.546720 0.546720
0.653062 0.653062 0.653062
0.751153 0.751153 0.751153
0.068113 0.068113 0.068113
0.129310 0.129310 0.129310
0.207444 0.207444 0.207444
0.300060 0.300060 0.300060
0.403224 0.403224 0.403224
0.511699 0.511699 0.511699
0.619524 0.619524 0.619524
0.720831 0.720831 0.720831
0.810624 0.810624 0.810624
0.107713 0.107713 0.107713
0.180603 0.180603 0.180603
0.268921 0.268921 0.268921
0.369212 0.369212 0.369212
0.476610 0.476610 0.476610
0.585306 0.585306 0.585306
0.689308 0.689308 0.689308
0.783268 0.783268 0.783268
0.863097 0.863097 0.863097
0.155368 0.155368 0.155368
0.239031 0.239031 0.239031
0.335942 0.335942 0.335942
0.441657 0.441657 0.441657
0.550598 0.550598 0.550598
0.656738 0.656738 0.656738
0.754441 0.754441 0.754441
0.839167 0.839167 0.839167
0.907835 0.907835 0.907835
0.210522 0.210522 0.210522
0.303590 0.303590 0.303590
0.407041 0.407041 0.407041
0.515597 0.515597 0.515597
0.623288 0.623288 0.623288
0.724262 0.724262 0.724262
0.813568 0.813568 0.813568
0.887643 0.887643 0.887643
0.944373 0.944373 0.944373
0.272322 0.272322 0.272322
0.372958 0.372958 0.372958
0.480506 0.480506 0.480506
0.589136 0.589136 0.589136
0.692866 0.692866 0.692866
0.786383 0.786383 0.786383
0.865649 0.865649 0.865649
0.928109 0.928109 0.928109
0.972408 0.972408 0.972408
0.339596 0.339596 0.339596
0.445528 0.445528 0.445528
0.554472 0.554472 0.554472
0.660404 0.660404 0.660404
0.757713 0.757713 0.757713
0.841910 0.841910 0.841910
0.909966 0.909966 0.909966
0.960206 0.960206 0.960206
0.991556 0.991556 0.991556
0.002777 0.002777 0.002777
0.027592 0.027592 0.027592
0.071891 0.071891 0.071891
0.134351 0.134351 0.134351
0.213617 0.213617 0.213617
0.307134 0.307134 0.307134
0.410864 0.410864 0.410864
0.519494 0.519494 0.519494
0.627042 0.627042 0.627042
0.017374 0.017374 0.017374
0.055627 0.055627 0.055627
0.112357 0.112357 0.112357
0.186432 0.186432 0.186432
0.275738 0.275738 0.275738
0.376712 0.376712 0.376712
0.484403 0.484403 0.484403
0.592959 0.592959 0.592959
0.696410 0.696410 0.696410
0.041271 0.041271 0.041271
0.092165 0.092165 0.092165
0.160833 0.160833 0.160833
0.245559 0.245559 0.245559
0.343262 0.343262 0.343262
0.449402 0.449402 0.449402
0.558343 0.558343 0.558343
0.664058 0.664058 0.664058
0.760969 0.760969 0.760969
0.073815 0.073815 0.073815
0.136903 0.136903 0.136903
0.216732 0.216732 0.216732
0.310692 0.310692 0.310692
0.414694 0.414694 0.414694
0.523390 0.523390 0.523390
0.630788 0.630788 0.630788
0.731079 0.731079 0.731079
0.819397 0.819397 0.819397
0.114713 0.114713 0.114713
0.189376 0.189376 0.189376
0.279169 0.279169 0.279169
0.380476 0.380476 0.380476
0.488301 0.488301 0.488301
0.596776 0.596776 0.596776
0.699940 0.699940 0.699940
0.792556 0.792556 0.792556
0.870690 0.870690 0.870690
0.163596 0.163596 0.163596
0.248847 0.248847 0.248847
0.346938 0.346938 0.346938
0.453280 0.453280 0.453280
0.562210 0.562210 0.562210
0.667701 0.667701 0.667701
0.764207 0.764207 0.764207
0.847333 0.847333 0.847333
0.914159 0.914159 0.914159
0.219864 0.219864 0.219864
0.314262 0.314262 0.314262
0.418530 0.418530 0.418530
0.527284 0.527284 0.527284
0.634525 0.634525 0.634525
0.734464 0.734464 0.734464
0.822281 0.822281 0.822281
0.894576 0.894576 0.894576
0.949372 0.949372 0.949372
0.282615 0.282615 0.282615
0.384248 0.384248 0.384248
0.492200 0.492200 0.492200
0.600586 0.600586 0.600586
0.703457 0.703457 0.703457
0.795615 0.795615 0.795615
0.873177 0.873177 0.873177
0.933741 0.933741 0.933741
0.976037 0.976037 0.976037
0.350625 0.350625 0.350625
0.457162 0.457162 0.457162
0.566072 0.566072 0.566072
0.671333 0.671333 0.671333
0.767428 0.767428 0.767428
0.850013 0.850013 0.850013
0.916221 0.916221 0.916221
0.964490 0.964490 0.964490
0.993710 0.993710 0.993710
0.004396 0.004396 0.004396
0.031442 0.031442 0.031442
0.077731 0.077731 0.077731
0.142073 0.142073 0.142073
0.223014 0.223014 0.223014
0.317845 0.317845 0.317845
0.422371 0.422371 0.422371
0.531176 0.531176 0.531176
0.638252 0.638252 0.638252
0.020556 0.020556 0.020556
0.060838 0.060838 0.060838
0.119491 0.119491 0.119491
0.195323 0.195323 0.195323
0.286076 0.286076 0.286076
0.388027 0.388027 0.388027
0.496100 0.496100 0.496100
0.604389 0.604389 0.604389
0.706960 0.706960 0.706960
0.045842 0.045842 0.045842
0.098693 0.098693 0.098693
0.169184 0.169184 0.169184
0.255475 0.255475 0.255475
0.354323 0.354323 0.354323
0.461047 0.461047 0.461047
0.569929 0.569929 0.569929
0.674953 0.674953 0.674953
0.770631 0.770631 0.770631
0.079724 0.079724 0.079724
0.144690 0.144690 0.144690
0.226183 0.226183 0.226183
0.321440 0.321440 0.321440
0.426219 0.426219 0.426219
0.535066 0.535066 0.535066
0.641970 0.641970 0.641970
0.741188 0.741188 0.741188
0.827991 0.827991 0.827991
0.121913 0.121913 0.121913
0.198325 0.198325 0.198325
0.289551 0.289551 0.289551
0.391815 0.391815 0.391815
0.500000 0.500000 0.500000
0.608185 0.608185 0.608185
0.710449 0.710449 0.710449
0.801675 0.801675 0.801675
0.878087 0.878087 0.878087
0.172009 0.172009 0.172009
0.258812 0.258812 0.258812
0.358030 0.358030 0.358030
0.464934 0.464934 0.464934
0.573781 0.573781 0.573781
0.678560 0.678560 0.678560
0.773817 0.773817 0.773817
0.855310 0.855310 0.855310
0.920276 0.920276 0.920276
0.229369 0.229369 0.229369
0.325047 0.325047 0.325047
0.430071 0.430071 0.430071
0.538953 0.538953 0.538953
0.645677 0.645677 0.645677
0.744525 0.744525 0.744525
0.830816 0.830816 0.830816
0.901307 0.901307 0.901307
0.954158 0.954158 0.954158
0.293040 0.293040 0.293040
0.395611 0.395611 0.395611
0.503900 0.503900 0.503900
0.611973 0.611973 0.611973
0.713924 0.713924 0.713924
0.804677 0.804677 0.804677
0.880509 0.880509 0.880509
0.939162 0.939162 0.939162
0.979444 0.979444 0.979444
0.361748 0.361748 0.361748
0.468824 0.468824 0.468824
0.577629 0.577629 0.577629
0.682155 0.682155 0.682155
0.776986 0.776986 0.776986
0.857927 0.857927 0.857927
0.922269 0.922269 0.922269
0.968558 0.968558 0.968558
0.995604 0.995604 0.995604
0.006290 0.006290 0.006290
0.035510 0.035510 0.035510
0.083779 0.083779 0.083779
0.149987 0.149987 0.149987
0.232572 0.232572 0.232572
0.328667 0.328667 0.328667
0.433928 0.433928 0.433928
0.542838 0.542838 0.542838
0.649375 0.649375 0.649375
0.023963 0.023963 0.023963
0.066259 0.066259 0.066259
0.126823 0.126823 0.126823
0.204385 0.204385 0.204385
0.296543 0.296543 0.296543
0.399414 0.399414 0.399414
0.507800 0.507800 0.507800
0.615752 0.615752 0.615752
0.717385 0.717385 0.717385
0.050628 0.050628 0.050628
0.105424 0.105424 0.105424
0.177719 0.177719 0.177719
0.265536 0.265536 0.265536
0.365475 0.365475 0.365475
0.472716 0.472716 0.472716
0.581470 0.581470 0.581470
0.685738 0.685738 0.685738
0.780136 0.780136 0.780136
0.085841 0.085841 0.085841
0.152667 0.152667 0.152667
0.235793 0.235793 0.235793
0.332299 0.332299 0.332299
0.437790 0.437790 0.437790
0.546720 0.546720 0.546720
0.653062 0.653062 0.653062
0.751153 0.751153 0.751153
0.836404 0.836404 0.836404
0.129310 0.129310 0.129310
0.207444 0.207444 0.207444
0.300060 0.300060 0.300060
0.403224 0.403224 0.403224
0.511699 0.511699 0.511699
0.619524 0.619524 0.619524
0.720831 0.720831 0.720831
0.810624 0.810624 0.810624
0.885287 0.885287 0.885287
0.180603 0.180603 0.180603
0.268921 0.268921 0.268921
0.369212 0.369212 0.369212
0.476610 0.476610 0.476610
0.585306 0.585306 0.585306
0.689308 0.689308 0.689308
0.783268 0.783268 0.783268
0.863097 0.863097 0.863097
0.926185 0.926185 0.926185
0.239031 0.239031 0.239031
0.335942 0.335942 0.335942
0.441657 0.441657 0.441657
0.550598 0.550598 0.550598
0.656738 0.656738 0.656738
0.754441 0.754441 0.754441
0.839167 0.839167 0.839167
0.907835 0.907835 0.907835
0.958729 0.958729 0.958729
0.303590 0.303590 0.303590
0.407041 0.407041 0.407041
0.515597 0.515597 0.515597
0.623288 0.623288 0.623288
0.724262 0.724262 0.724262
0.813568 0.813568 0.813568
0.887643 0.887643 0.887643
0.944373 0.944373 0.944373
0.982626 0.982626 0.982626
0.372958 0.372958 0.372958
0.480506 0.480506 0.480506
0.589136 0.589136 0.589136
0.692866 0.692866 0.692866
0.786383 0.786383 0.786383
0.865649 0.865649 0.865649
0.928109 0.928109 0.928109
0.972408 0.972408 0.972408
0.997223 0.997223 0.997223
0.008444 0.008444 0.008444
0.039794 0.039794 0.039794
0.090034 0.090034 0.090034
0.158090 0.158090 0.158090
0.242286 0.242286 0.242286
0.339596 0.339596 0.339596
0.445528 0.445528 0.445528
0.554472 0.554472 0.554472
0.660404 0.660404 0.660404
0.027592 0.027592 0.027592
0.071891 0.071891 0.071891
0.134351 0.134351 0.134351
0.213617 0.213617 0.213617
0.307134 0.307134 0.307134
0.410864 0.410864 0.410864
0.519494 0.519494 0.519494
0.627042 0.627042 0.627042
0.727678 0.727678 0.727678
0.055627 0.055627 0.055627
0.112357 0.112357 0.112357
0.186432 0.186432 0.186432
0.275738 0.275738 0.275738
0.376712 0.376712 0.376712
0.484403 0.484403 0.484403
0.592959 0.592959 0.592959
0.696410 0.696410 0.696410
0.789478 0.789478 0.789478
0.092165 0.092165 0.092165
0.160833 0.160833 0.160833
0.245559 0.245559 0.245559
0.343262 0.343262 0.343262
0.449402 0.449402 0.449402
0.558343 0.558343 0.558343
0.664058 0.664058 0.664058
0.760969 0.760969 0.760969
0.844632 0.844632 0.844632
0.136903 0.136903 0.136903
0.216732 0.216732 0.216732
0.310692 0.310692 0.310692
0.414694 0.414694 0.414694
0.523390 0.523390 0.523390
0.630788 0.630788 0.630788
0.731079 0.731079 0.731079
0.819397 0.819397 0.819397
0.892287 0.892287 0.892287
0.189376 0.189376 0.189376
0.279169 0.279169 0.279169
0.380476 0.380476 0.380476
0.488301 0.488301 0.488301
0.596776 0.596776 0.596776
0.699940 0.699940 0.699940
0.792556 0.792556 0.792556
0.870690 0.870690 0.870690
0.931887 0.931887 0.931887
0.248847 0.248847 0.248847
0.346938 0.346938 0.346938
0.453280 0.453280 0.453280
0.562210 0.562210 0.562210
0.667701 0.667701 0.667701
0.764207 0.764207 0.764207
0.847333 0.847333 0.847333
0.914159 0.914159 0.914159
0.963086 0.963086 0.963086
0.314262 0.314262 0.314262
0.418530 0.418530 0.418530
0.527284 0.527284 0.527284
0.634525 0.634525 0.634525
0.734464 0.734464 0.734464
0.822281 0.822281 0.822281
0.894576 0.894576 0.894576
0.949372 0.949372 0.949372
0.985579 0.985579 0.985579
0.384248 0.384248 0.384248
0.492200 0.492200 0.492200
0.600586 0.600586 0.600586
0.703457 0.703457 0.703457
0.795615 0.795615 0.795615
0.873177 0.873177 0.873177
0.933741 0.933741 0.933741
0.976037 0.976037 0.976037
0.998540 0.998540 0.998540
0.010845 0.010845 0.010845
0.044295 0.044295 0.044295
0.096494 0.096494 0.096494
0.166380 0.166380 0.166380
0.252153 0.252153 0.252153
0.350625 0.350625 0.350625
0.457162 0.457162 0.457162
0.566072 0.566072 0.566072
0.671333 0.671333 0.671333
0.031442 0.031442 0.031442
0.077731 0.077731 0.077731
0.142073 0.142073 0.142073
0.223014 0.223014 0.223014
0.317845 0.317845 0.317845
0.422371 0.422371 0.422371
0.531176 0.531176 0.531176
0.638252 0.638252 0.638252
0.737834 0.737834 0.737834
0.060838 0.060838 0.060838
0.119491 0.119491 0.119491
0.195323 0.195323 0.195323
0.286076 0.286076 0.286076
0.388027 0.388027 0.388027
0.496100 0.496100 0.496100
0.604389 0.604389 0.604389
0.706960 0.706960 0.706960
0.798654 0.798654 0.798654
0.098693 0.098693 0.098693
0.169184 0.169184 0.169184
0.255475 0.255475 0.255475
0.354323 0.354323 0.354323
0.461047 0.461047 0.461047
0.569929 0.569929 0.569929
0.674953 0.674953 0.674953
0.770631 0.770631 0.770631
0.852672 0.852672 0.852672
0.144690 0.144690 0.144690
0.226183 0.226183 0.226183
0.321440 0.321440 0.321440
0.426219 0.426219 0.426219
0.535066 0.535066 0.535066
0.641970 0.641970 0.641970
0.741188 0.741188 0.741188
0.827991 0.827991 0.827991
0.899086 0.899086 0.899086
0.198325 0.198325 0.198325
0.289551 0.289551 0.289551
0.391815 0.391815 0.391815
0.500000 0.500000 0.500000
0.608185 0.608185 0.608185
0.710449 0.710449 0.710449
0.801675 0.801675 0.801675
0.878087 0.878087 0.878087
0.937378 0.937378 0.937378
0.258812 0.258812 0.258812
0.358030 0.358030 0.358030
0.464934 0.464934 0.464934
0.573781 0.573781 0.573781
0.678560 0.678560 0.678560
0.773817 0.773817 0.773817
0.855310 0.855310 0.855310
0.920276 0.920276 0.920276
0.967226 0.967226 0.967226
0.325047 0.325047 0.325047
0.430071 0.430071 0.430071
0.538953 0.538953 0.538953
0.645677 0.645677 0.645677
0.744525 0.744525 0.744525
0.830816 0.830816 0.830816
0.901307 0.901307 0.901307
0.954158 0.954158 0.954158
0.988300 0.988300 0.988300
0.395611 0.395611 0.395611
0.503900 0.503900 0.503900
0.611973 0.611973 0.611973
0.713924 0.713924 0.713924
0.804677 0.804677 0.804677
0.880509 0.880509 0.880509
0.939162 0.939162 0.939162
0.979444 0.979444 0.979444
0.999510 0.999510 0.999510
0.013488 0.013488 0.013488
0.049009 0.049009 0.049009
0.103158 0.103158 0.103158
0.174854 0.174854 0.174854
0.262166 0.262166 0.262166
0.361748 0.361748 0.361748
0.468824 0.468824 0.468824
0.577629 0.577629 0.577629
0.682155 0.682155 0.682155
0.035510 0.035510 0.035510
0.083779 0.083779 0.083779
0.149987 0.149987 0.149987
0.232572 0.232572 0.232572
0.328667 0.328667 0.328667
0.433928 0.433928 0.433928
0.542838 0.542838 0.542838
0.649375 0.649375 0.649375
0.747847 0.747847 0.747847
0.066259 0.066259 0.066259
0.126823 0.126823 0.126823
0.204385 0.204385 0.204385
0.296543 0.296543 0.296543
0.399414 0.399414 0.399414
0.507800 0.507800 0.507800
0.615752 0.615752 0.615752
0.717385 0.717385 0.717385
0.807660 0.807660 0.807660
0.105424 0.105424 0.105424
0.177719 0.177719 0.177719
0.265536 0.265536 0.265536
0.365475 0.365475 0.365475
0.472716 0.472716 0.472716
0.581470 0.581470 0.581470
0.685738 0.685738 0.685738
0.780136 0.780136 0.780136
0.860523 0.860523 0.860523
0.152667 0.152667 0.152667
0.235793 0.235793 0.235793
0.332299 0.332299 0.332299
0.437790 0.437790 0.437790
0.546720 0.546720 0.546720
0.653062 0.653062 0.653062
0.751153 0.751153 0.751153
0.836404 0.836404 0.836404
0.905682 0.905682 0.905682
0.207444 0.207444 0.207444
0.300060 0.300060 0.300060
0.403224 0.403224 0.403224
0.511699 0.511699 0.511699
0.619524 0.619524 0.619524
0.720831 0.720831 0.720831
0.810624 0.810624 0.810624
0.885287 0.885287 0.885287
0.942660 0.942660 0.942660
0.268921 0.268921 0.268921
0.369212 0.369212 0.369212
0.476610 0.476610 0.476610
0.585306 0.585306 0.585306
0.689308 0.689308 0.689308
0.783268 0.783268 0.783268
0.863097 0.863097 0.863097
0.926185 0.926185 0.926185
0.971149 0.971149 0.971149
0.335942 0.335942 0.335942
0.441657 0.441657 0.441657
0.550598 0.550598 0.550598
0.656738 0.656738 0.656738
0.754441 0.754441 0.754441
0.839167 0.839167 0.839167
0.907835 0.907835 0.907835
0.958729 0.958729 0.958729
0.990783 0.990783 0.990783
0.407041 0.407041 0.407041
0.515597 0.515597 0.515597
0.623288 0.623288 0.623288
0.724262 0.724262 0.724262
0.813568 0.813568 0.813568
0.887643 0.887643 0.887643
0.944373 0.944373 0.944373
0.982626 0.982626 0.982626
1.000000 1.000000 1.000000
