assets/presets/luts/mono-orange/lut.cube
TITLE "Mono Orange"
LUT_3D_SIZE 5
0.000000 0.000000 0.000000
0.055627 0.055627 0.055627
0.186432 0.186432 0.186432
0.376712 0.376712 0.376712
0.592959 0.592959 0.592959
0.028851 0.028851 0.028851
0.136903 0.136903 0.136903
0.310692 0.310692 0.310692
0.523390 0.523390 0.523390
0.731079 0.731079 0.731079
0.094318 0.094318 0.094318
0.248847 0.248847 0.248847
0.453280 0.453280 0.453280
0.667701 0.667701 0.667701
0.847333 0.847333 0.847333
0.192340 0.192340 0.192340
0.384248 0.384248 0.384248
0.600586 0.600586 0.600586
0.795615 0.795615 0.795615
0.933741 0.933741 0.933741
0.317845 0.317845 0.317845
0.531176 0.531176 0.531176
0.737834 0.737834 0.737834
0.896842 0.896842 0.896842
0.986512 0.986512 0.986512
0.001460 0.001460 0.001460
0.066259 0.066259 0.066259
0.204385 0.204385 0.204385
0.399414 0.399414 0.399414
0.615752 0.615752 0.615752
0.036914 0.036914 0.036914
0.152667 0.152667 0.152667
0.332299 0.332299 0.332299
0.546720 0.546720 0.546720
0.751153 0.751153 0.751153
0.107713 0.107713 0.107713
0.268921 0.268921 0.268921
0.476610 0.476610 0.476610
0.689308 0.689308 0.689308
0.863097 0.863097 0.863097
0.210522 0.210522 0.210522
0.407041 0.407041 0.407041
0.623288 0.623288 0.623288
0.813568 0.813568 0.813568
0.944373 0.944373 0.944373
0.339596 0.339596 0.339596
0.554472 0.554472 0.554472
0.757713 0.757713 0.757713
0.909966 0.909966 0.909966
0.991556 0.991556 0.991556
0.004396 0.004396 0.004396
0.077731 0.077731 0.077731
0.223014 0.223014 0.223014
0.422371 0.422371 0.422371
0.638252 0.638252 0.638252
0.045842 0.045842 0.045842
0.169184 0.169184 0.169184
0.354323 0.354323 0.354323
0.569929 0.569929 0.569929
0.770631 0.770631 0.770631
0.121913 0.121913 0.121913
0.289551 0.289551 0.289551
0.500000 0.500000 0.500000
0.710449 0.710449 0.710449
0.878087 0.878087 0.878087
0.229369 0.229369 0.229369
0.430071 0.430071 0.430071
0.645677 0.645677 0.645677
0.830816 0.830816 0.830816
0.954158 0.954158 0.954158
0.361748 0.361748 0.361748
0.577629 0.577629 0.577629
0.776986 0.776986 0.776986
0.922269 0.922269 0.922269
0.995604 0.995604 0.995604
0.008444 0.008444 0.008444
0.090034 0.090034 0.090034
0.242286 0.242286 0.242286
0.445528 0.445528 0.445528
0.660404 0.660404 0.660404
0.055627 0.055627 0.055627
0.186432 0.186432 0.186432
0.376712 0.376712 0.376712
0.592959 0.592959 0.592959
0.789478 0.789478 0.789478
0.136903 0.136903 0.136903
0.310692 0.310692 0.310692
0.523390 0.523390 0.523390
0.731079 0.731079 0.731079
0.892287 0.892287 0.892287
0.248847 0.248847 0.248847
0.453280 0.453280 0.453280
0.667701 0.667701 0.667701
0.847333 0.847333 0.847333
0.963086 0.963086 0.963086
0.384248 0.384248 0.384248
0.600586 0.600586 0.600586
0.795615 0.795615 0.795615
0.933741 0.933741 0.933741
0.998540 0.998540 0.998540
0.013488 0.013488 0.013488
0.103158 0.103158 0.103158
0.262166 0.262166 0.262166
0.468824 0.468824 0.468824
0.682155 0.682155 0.682155
0.066259 0.066259 0.066259
0.204385 0.204385 0.204385
0.399414 0.399414 0.399414
0.615752 0.615752 0.615752
0.807660 0.807660 0.807660
0.152667 0.152667 0.152667
0.332299 0.332299 0.332299
0.546720 0.546720 0.546720
0.751153 0.751153 0.751153
0.905682 0.905682 0.905682
0.268921 0.268921 0.268921
0.476610 0.476610 0.476610
0.689308 0.689308 0.689308
0.863097 0.863097 0.863097
0.971149 0.971149 0.971149
0.407041 0.407041 0.407041
0.623288 0.623288 0.623288
0.813568 0.813568 0.813568
0.944373 0.944373 0.944373
1.000000 1.000000 1.000000
