assets/presets/luts/blockbuster/lut.cube
TITLE "Blockbuster"
LUT_3D_SIZE 17
0.000000 0.000000 0.000000
0.000000 0.000000 0.000000
0.003125 0.000000 0.000000
0.026085 0.000000 0.000000
0.073943 0.000000 0.000000
0.150242 0.000000 0.000000
0.255490 0.000000 0.000000
0.384620 0.000000 0.000000
0.526276 0.000000 0.000000
0.665194 0.000000 0.000000
0.786941 0.000000 0.000000
0.882144 0.000000 0.000000
0.947810 0.000000 0.000000
0.985811 0.000000 0.000000
0.999879 0.000000 0.000000
1.000000 0.000000 0.000000
1.000000 0.000000 0.000000
0.000000 0.000250 0.000000
0.000000 0.000172 0.000000
0.002468 0.000107 0.000000
0.024244 0.000057 0.000000
0.070925 0.000021 0.000000
0.146153 0.000002 0.000000
0.250630 0.000000 0.000000
0.379485 0.000000 0.000000
0.521447 0.000000 0.000000
0.661154 0.000000 0.000000
0.783936 0.000000 0.000000
0.880164 0.000000 0.000000
0.946682 0.000000 0.000000
0.985310 0.000000 0.000000
0.999830 0.000000 0.000000
1.000000 0.000000 0.000000
1.000000 0.000000 0.000000
0.000000 0.013437 0.000000
0.000000 0.012872 0.000000
0.002027 0.012319 0.000000
0.022930 0.011778 0.000000
0.068765 0.011249 0.000000
0.143237 0.010732 0.000000
0.247183 0.010228 0.000000
0.375868 0.009736 0.000000
0.518071 0.009255 0.000000
0.658351 0.008787 0.000000
0.781864 0.008331 0.000000
0.878806 0.007888 0.000000
0.945909 0.007456 0.000000
0.984965 0.007036 0.000000
0.999791 0.006629 0.000000
1.000000 0.006233 0.000000
1.000000 0.005850 0.000000
0.000000 0.047182 0.000000
0.000000 0.046067 0.000000
0.001735 0.044965 0.000000
0.022020 0.043878 0.000000
0.067268 0.042804 0.000000
0.141225 0.041745 0.000000
0.244820 0.040700 0.000000
0.373401 0.039669 0.000000
0.515776 0.038652 0.000000
0.656445 0.037650 0.000000
0.780449 0.036661 0.000000
0.877867 0.035687 0.000000
0.945363 0.034727 0.000000
0.984712 0.033781 0.000000
0.999759 0.032849 0.000000
1.000000 0.031931 0.000000
1.000000 0.031028 0.000000
0.000000 0.104589 0.000000
0.000000 0.102847 0.000000
0.001545 0.101120 0.000000
0.021406 0.099409 0.000000
0.066257 0.097713 0.000000
0.139868 0.096033 0.000000
0.243222 0.094369 0.000000
0.371721 0.092720 0.000000
0.514188 0.091087 0.000000
0.655093 0.089470 0.000000
0.779407 0.087869 0.000000
0.877139 0.086284 0.000000
0.944911 0.084715 0.000000
0.984486 0.083161 0.000000
0.999730 0.081628 0.000000
1.000000 0.080116 0.000000
1.000000 0.078626 0.000000
0.000000 0.187621 0.000000
0.000000 0.185235 0.000000
0.001422 0.182863 0.000000
0.020994 0.180507 0.000000
0.065569 0.178165 0.000000
0.138927 0.175839 0.000000
0.242080 0.173528 0.000000
0.370467 0.171233 0.000000
0.512934 0.168953 0.000000
0.653948 0.166690 0.000000
0.778467 0.164443 0.000000
0.876535 0.162220 0.000000
0.944641 0.160021 0.000000
0.984436 0.157846 0.000000
0.999736 0.155694 0.000000
1.000000 0.153565 0.000000
1.000000 0.151459 0.000000
0.000000 0.294914 0.000000
0.000000 0.291972 0.000000
0.001338 0.289041 0.000000
0.020697 0.286122 0.000000
0.065049 0.283214 0.000000
0.138168 0.280319 0.000000
0.241088 0.277436 0.000000
0.369350 0.274570 0.000000
0.511979 0.271727 0.000000
0.653403 0.268907 0.000000
0.778400 0.266110 0.000000
0.876752 0.263335 0.000000
0.944928 0.260583 0.000000
0.984643 0.257852 0.000000
0.999772 0.255143 0.000000
1.000000 0.252455 0.000000
1.000000 0.249788 0.000000
0.000000 0.420370 0.000000
0.000000 0.417086 0.000000
0.001271 0.413807 0.000000
0.020434 0.410533 0.000000
0.064602 0.407274 0.000000
0.137658 0.404033 0.000000
0.240756 0.400810 0.000000
0.369436 0.397604 0.000000
0.512510 0.394416 0.000000
0.654254 0.391244 0.000000
0.779356 0.388090 0.000000
0.877604 0.384952 0.000000
0.945544 0.381830 0.000000
0.984977 0.378724 0.000000
0.999816 0.375634 0.000000
1.000000 0.372560 0.000000
1.000000 0.369501 0.000000
0.000000 0.553406 0.000000
0.000000 0.550099 0.000000
0.001233 0.546802 0.000000
0.020386 0.543514 0.000000
0.064705 0.540236 0.000000
0.138070 0.536966 0.000000
0.241593 0.533706 0.000000
0.370704 0.530454 0.000000
0.514076 0.527210 0.000000
0.655878 0.523975 0.000000
0.780792 0.520749 0.000000
0.878691 0.517530 0.000000
0.946234 0.514319 0.000000
0.985307 0.511116 0.000000
0.999852 0.507920 0.000000
1.000000 0.504732 0.000000
1.000000 0.501550 0.000000
0.000000 0.681411 0.000000
0.000000 0.678419 0.000000
0.001277 0.675428 0.000000
0.020633 0.672437 0.000000
0.065279 0.669446 0.000000
0.139071 0.666456 0.000000
0.243043 0.663465 0.000000
0.372497 0.660474 0.000000
0.515983 0.657483 0.000000
0.657626 0.654491 0.000000
0.782169 0.651499 0.000000
0.879616 0.648506 0.000000
0.946745 0.645512 0.000000
0.985511 0.642517 0.000000
0.999867 0.639520 0.000000
1.000000 0.636523 0.000000
1.000000 0.633524 0.000000
0.000000 0.793111 0.000000
0.000000 0.790657 0.000000
0.001371 0.788196 0.000000
0.021029 0.785729 0.000000
0.066047 0.783255 0.000000
0.140240 0.780775 0.000000
0.244547 0.778288 0.000000
0.374155 0.775793 0.000000
0.517540 0.773292 0.000000
0.658854 0.770784 0.000000
0.782956 0.768268 0.000000
0.879990 0.765745 0.000000
0.946831 0.763214 0.000000
0.985468 0.760675 0.000000
0.999852 0.758129 0.000000
1.000000 0.755574 0.000000
1.000000 0.753010 0.000000
0.000000 0.881334 0.000000
0.000000 0.879516 0.000000
0.001479 0.877688 0.000000
0.021425 0.875849 0.000000
0.066731 0.874001 0.000000
0.141152 0.872142 0.000000
0.245539 0.870272 0.000000
0.375012 0.868392 0.000000
0.518054 0.866501 0.000000
0.658919 0.864600 0.000000
0.782621 0.862687 0.000000
0.879423 0.860763 0.000000
0.946242 0.858828 0.000000
0.985076 0.856880 0.000000
0.999797 0.854918 0.000000
1.000000 0.852942 0.000000
1.000000 0.850951 0.000000
0.000000 0.943786 0.000000
0.000000 0.942593 0.000000
0.001561 0.941389 0.000000
0.021670 0.940173 0.000000
0.067043 0.938947 0.000000
0.141374 0.937709 0.000000
0.245452 0.936460 0.000000
0.374406 0.935199 0.000000
0.516832 0.933927 0.000000
0.657200 0.932642 0.000000
0.780826 0.931345 0.000000
0.877938 0.930033 0.000000
0.945262 0.928708 0.000000
0.984581 0.927369 0.000000
0.999729 0.926015 0.000000
1.000000 0.924646 0.000000
1.000000 0.923262 0.000000
0.000000 0.981901 0.000000
0.000000 0.981258 0.000000
0.001573 0.980605 0.000000
0.021605 0.979941 0.000000
0.066699 0.979267 0.000000
0.140478 0.978582 0.000000
0.243789 0.977886 0.000000
0.372063 0.977178 0.000000
0.514170 0.976458 0.000000
0.654690 0.975726 0.000000
0.778722 0.974982 0.000000
0.876355 0.974226 0.000000
0.944217 0.973457 0.000000
0.984031 0.972674 0.000000
0.999642 0.971879 0.000000
1.000000 0.971071 0.000000
1.000000 0.970249 0.000000
0.000000 0.998782 0.000000
0.000000 0.998609 0.000000
0.001473 0.998426 0.000000
0.021119 0.998233 0.000000
0.065661 0.998029 0.000000
0.138826 0.997815 0.000000
0.241601 0.997590 0.000000
0.369462 0.997354 0.000000
0.511383 0.997108 0.000000
0.652003 0.996851 0.000000
0.776392 0.996583 0.000000
0.874545 0.996304 0.000000
0.942986 0.996015 0.000000
0.983364 0.995714 0.000000
0.999521 0.995402 0.000000
1.000000 0.995079 0.000000
1.000000 0.994744 0.000000
0.000000 1.000000 0.000000
0.000000 1.000000 0.000000
0.001321 1.000000 0.000000
0.020534 1.000000 0.000000
0.064554 1.000000 0.000000
0.137108 1.000000 0.000000
0.239247 1.000000 0.000000
0.366568 1.000000 0.000000
0.508189 1.000000 0.000000
0.648839 1.000000 0.000000
0.773582 1.000000 0.000000
0.872317 1.000000 0.000000
0.941442 1.000000 0.000000
0.982510 1.000000 0.000000
0.999346 1.000000 0.000000
1.000000 1.000000 0.000000
1.000000 1.000000 0.000000
0.000000 1.000000 0.000000
0.000000 1.000000 0.000000
0.001168 1.000000 0.000000
0.019904 1.000000 0.000000
0.063319 1.000000 0.000000
0.135135 1.000000 0.000000
0.236473 1.000000 0.000000
0.363083 1.000000 0.000000
0.504268 1.000000 0.000000
0.644893 1.000000 0.000000
0.770031 1.000000 0.000000
0.869470 1.000000 0.000000
0.939448 1.000000 0.000000
0.981389 1.000000 0.000000
0.999088 1.000000 0.000000
1.000000 1.000000 0.000000
1.000000 1.000000 0.000000
0.000000 0.000000 0.009294
0.000000 0.000000 0.008802
0.003047 0.000000 0.008292
0.025871 0.000000 0.007768
0.073593 0.000000 0.007234
0.149768 0.000000 0.006695
0.254925 0.000000 0.006155
0.384022 0.000000 0.005617
0.525712 0.000000 0.005084
0.664721 0.000000 0.004562
0.786587 0.000000 0.004053
0.881910 0.000000 0.003561
0.947677 0.000000 0.003089
0.985752 0.000000 0.002640
0.999874 0.000000 0.002217
1.000000 0.000000 0.001822
1.000000 0.000000 0.001459
0.000000 0.000222 0.007575
0.000000 0.000149 0.007039
0.002415 0.000089 0.006499
0.024089 0.000043 0.005958
0.070672 0.000012 0.005422
0.145810 0.000000 0.004893
0.250223 0.000000 0.004375
0.379057 0.000000 0.003872
0.521047 0.000000 0.003387
0.660821 0.000000 0.002922
0.783689 0.000000 0.002482
0.880002 0.000000 0.002070
0.946590 0.000000 0.001686
0.985269 0.000000 0.001336
0.999825 0.000000 0.001020
1.000000 0.000000 0.000741
1.000000 0.000000 0.000502
0.000000 0.013243 0.005762
0.000000 0.012682 0.005228
0.001991 0.012133 0.004703
0.022822 0.011597 0.004190
0.068587 0.011072 0.003693
0.142997 0.010560 0.003215
0.246901 0.010059 0.002759
0.375573 0.009571 0.002329
0.517797 0.009095 0.001926
0.658123 0.008631 0.001555
0.781696 0.008179 0.001216
0.878695 0.007740 0.000914
0.945846 0.007312 0.000649
0.984936 0.006896 0.000425
0.999788 0.006493 0.000244
1.000000 0.006102 0.000109
1.000000 0.005722 0.000025
0.000000 0.046802 0.004007
0.000000 0.045691 0.003517
0.001712 0.044594 0.003046
0.021946 0.043512 0.002599
0.067146 0.042443 0.002179
0.141062 0.041389 0.001787
0.244629 0.040348 0.001428
0.373202 0.039322 0.001102
0.515590 0.038310 0.000813
0.656289 0.037312 0.000563
0.780332 0.036329 0.000354
0.877787 0.035359 0.000189
0.945316 0.034404 0.000072
0.984689 0.033463 0.000008
0.999756 0.032536 0.000000
1.000000 0.031623 0.000000
1.000000 0.030724 0.000000
0.000000 0.103996 0.002443
0.000000 0.102259 0.002033
0.001530 0.100537 0.001653
0.021356 0.098831 0.001305
0.066175 0.097141 0.000992
0.139758 0.095466 0.000717
0.243091 0.093807 0.000482
0.371581 0.092164 0.000289
0.514052 0.090536 0.000141
0.654974 0.088924 0.000042
0.779311 0.087329 0.000000
0.877069 0.085749 0.000000
0.944866 0.084185 0.000000
0.984466 0.082638 0.000000
0.999729 0.081112 0.000000
1.000000 0.079608 0.000000
1.000000 0.078125 0.000000
0.000000 0.186809 0.001187
0.000000 0.184428 0.000888
0.001412 0.182061 0.000627
0.020960 0.179710 0.000407
0.065512 0.177373 0.000230
0.138846 0.175052 0.000099
0.241978 0.172747 0.000020
0.370350 0.170457 0.000000
0.512811 0.168183 0.000000
0.653830 0.165925 0.000000
0.778398 0.163685 0.000000
0.876517 0.161471 0.000000
0.944647 0.159280 0.000000
0.984447 0.157113 0.000000
0.999739 0.154969 0.000000
1.000000 0.152848 0.000000
1.000000 0.150749 0.000000
0.000000 0.293914 0.000337
0.000000 0.290975 0.000177
0.001331 0.288048 0.000064
0.020670 0.285133 0.000005
0.065000 0.282229 0.000000
0.138093 0.279338 0.000000
0.240987 0.276460 0.000000
0.369286 0.273601 0.000000
0.511966 0.270766 0.000000
0.653435 0.267954 0.000000
0.778459 0.265165 0.000000
0.876816 0.262398 0.000000
0.944979 0.259653 0.000000
0.984673 0.256930 0.000000
0.999776 0.254228 0.000000
1.000000 0.251547 0.000000
1.000000 0.248887 0.000000
0.000000 0.419254 0.000000
0.000000 0.415972 0.000000
0.001264 0.412694 0.000000
0.020411 0.409424 0.000000
0.064583 0.406171 0.000000
0.137661 0.402936 0.000000
0.240797 0.399719 0.000000
0.369521 0.396519 0.000000
0.512633 0.393337 0.000000
0.654394 0.390171 0.000000
0.779488 0.387022 0.000000
0.877710 0.383890 0.000000
0.945615 0.380774 0.000000
0.985012 0.377673 0.000000
0.999820 0.374589 0.000000
1.000000 0.371520 0.000000
1.000000 0.368466 0.000000
0.000000 0.552282 0.000000
0.000000 0.548978 0.000000
0.001235 0.545684 0.000000
0.020400 0.542400 0.000000
0.064747 0.539124 0.000000
0.138152 0.535858 0.000000
0.241721 0.532600 0.000000
0.370872 0.529351 0.000000
0.514264 0.526111 0.000000
0.656060 0.522879 0.000000
0.780942 0.519655 0.000000
0.878798 0.516439 0.000000
0.946297 0.513231 0.000000
0.985336 0.510030 0.000000
0.999855 0.506837 0.000000
1.000000 0.503650 0.000000
1.000000 0.500471 0.000000
0.000000 0.680395 0.000000
0.000000 0.677403 0.000000
0.001285 0.674412 0.000000
0.020669 0.671421 0.000000
0.065352 0.668431 0.000000
0.139189 0.665440 0.000000
0.243202 0.662449 0.000000
0.372682 0.659458 0.000000
0.516168 0.656467 0.000000
0.657784 0.653475 0.000000
0.782284 0.650482 0.000000
0.879685 0.647489 0.000000
0.946777 0.644495 0.000000
0.985520 0.641499 0.000000
0.999868 0.638503 0.000000
1.000000 0.635505 0.000000
1.000000 0.632505 0.000000
0.000000 0.792278 0.000000
0.000000 0.789822 0.000000
0.001382 0.787359 0.000000
0.021071 0.784890 0.000000
0.066125 0.782414 0.000000
0.140351 0.779931 0.000000
0.244680 0.777441 0.000000
0.374289 0.774945 0.000000
0.517651 0.772441 0.000000
0.658924 0.769930 0.000000
0.782982 0.767412 0.000000
0.879982 0.764886 0.000000
0.946806 0.762353 0.000000
0.985445 0.759811 0.000000
0.999848 0.757262 0.000000
1.000000 0.754705 0.000000
1.000000 0.752137 0.000000
0.000000 0.880718 0.000000
0.000000 0.878896 0.000000
0.001489 0.877065 0.000000
0.021460 0.875223 0.000000
0.066784 0.873371 0.000000
0.141213 0.871508 0.000000
0.245589 0.869635 0.000000
0.375028 0.867751 0.000000
0.518021 0.865857 0.000000
0.658836 0.863951 0.000000
0.782504 0.862035 0.000000
0.879298 0.860107 0.000000
0.946143 0.858168 0.000000
0.985026 0.856216 0.000000
0.999791 0.854249 0.000000
1.000000 0.852268 0.000000
1.000000 0.850272 0.000000
0.000000 0.943382 0.000000
0.000000 0.942185 0.000000
0.001566 0.940977 0.000000
0.021680 0.939758 0.000000
0.067043 0.938528 0.000000
0.141341 0.937286 0.000000
0.245362 0.936033 0.000000
0.374237 0.934768 0.000000
0.516585 0.933492 0.000000
0.656946 0.932203 0.000000
0.780616 0.930901 0.000000
0.877783 0.929585 0.000000
0.945161 0.928255 0.000000
0.984529 0.926911 0.000000
0.999721 0.925552 0.000000
1.000000 0.924178 0.000000
1.000000 0.922789 0.000000
0.000000 0.981684 0.000000
0.000000 0.981038 0.000000
0.001568 0.980381 0.000000
0.021576 0.979714 0.000000
0.066617 0.979036 0.000000
0.140311 0.978347 0.000000
0.243568 0.977647 0.000000
0.371805 0.976935 0.000000
0.513898 0.976211 0.000000
0.654432 0.975475 0.000000
0.778501 0.974727 0.000000
0.876186 0.973966 0.000000
0.944103 0.973192 0.000000
0.983971 0.972406 0.000000
0.999631 0.971606 0.000000
1.000000 0.970794 0.000000
1.000000 0.969967 0.000000
0.000000 0.998724 0.000000
0.000000 0.998548 0.000000
0.001457 0.998362 0.000000
0.021061 0.998165 0.000000
0.065551 0.997957 0.000000
0.138659 0.997739 0.000000
0.241375 0.997511 0.000000
0.369188 0.997272 0.000000
0.511085 0.997022 0.000000
0.651711 0.996761 0.000000
0.776134 0.996490 0.000000
0.874342 0.996207 0.000000
0.942846 0.995914 0.000000
0.983288 0.995609 0.000000
0.999506 0.995293 0.000000
1.000000 0.994966 0.000000
1.000000 0.994628 0.000000
0.000000 1.000000 0.000000
0.000000 1.000000 0.000000
0.001306 1.000000 0.000000
0.020474 1.000000 0.000000
0.064437 1.000000 0.000000
0.136924 1.000000 0.000000
0.238990 1.000000 0.000000
0.366248 1.000000 0.000000
0.507831 1.000000 0.000000
0.648481 1.000000 0.000000
0.773261 1.000000 0.000000
0.872061 1.000000 0.000000
0.941263 1.000000 0.000000
0.982410 1.000000 0.000000
0.999325 1.000000 0.000000
1.000000 1.000000 0.000000
1.000000 1.000000 0.000000
0.000000 1.000000 0.000000
0.000000 1.000000 0.000000
0.001152 1.000000 0.000000
0.019836 1.000000 0.000000
0.063183 1.000000 0.000000
0.134914 1.000000 0.000000
0.236160 1.000000 0.000000
0.362687 1.000000 0.000000
0.503820 1.000000 0.000000
0.644440 1.000000 0.000000
0.769621 1.000000 0.000000
0.869140 1.000000 0.000000
0.939216 1.000000 0.000000
0.981257 1.000000 0.000000
0.999056 1.000000 0.000000
1.000000 1.000000 0.000000
1.000000 1.000000 0.000000
0.000000 0.000000 0.041846
0.000000 0.000000 0.040723
0.002971 0.000000 0.039546
0.025664 0.000000 0.038322
0.073254 0.000000 0.037057
0.149309 0.000000 0.035756
0.254378 0.000000 0.034427
0.383443 0.000000 0.033076
0.525166 0.000000 0.031708
0.664263 0.000000 0.030328
0.786246 0.000000 0.028944
0.881685 0.000000 0.027559
0.947548 0.000000 0.026178
0.985695 0.000000 0.024808
0.999868 0.000000 0.023452
1.000000 0.000000 0.022114
1.000000 0.000000 0.020799
0.000000 0.000196 0.037866
0.000000 0.000127 0.036587
0.002364 0.000071 0.035276
0.023940 0.000031 0.033938
0.070427 0.000006 0.032579
0.145479 0.000000 0.031206
0.249831 0.000000 0.029825
0.378644 0.000000 0.028439
0.520661 0.000000 0.027055
0.660500 0.000000 0.025678
0.783451 0.000000 0.024312
0.879846 0.000000 0.022962
0.946501 0.000000 0.021632
0.985230 0.000000 0.020326
0.999821 0.000000 0.019048
1.000000 0.000000 0.017800
1.000000 0.000000 0.016587
0.000000 0.013051 0.033445
0.000000 0.012495 0.032081
0.001957 0.011950 0.030704
0.022718 0.011417 0.029320
0.068415 0.010897 0.027935
0.142766 0.010388 0.026553
0.246629 0.009892 0.025179
0.375289 0.009408 0.023819
0.517533 0.008936 0.022476
0.657905 0.008476 0.021154
0.781534 0.008029 0.019858
0.878589 0.007593 0.018590
0.945785 0.007170 0.017354
0.984908 0.006758 0.016154
0.999784 0.006359 0.014990
1.000000 0.005971 0.013867
1.000000 0.005596 0.012785
0.000000 0.046423 0.028816
0.000000 0.045317 0.027431
0.001689 0.044225 0.026052
0.021875 0.043147 0.024682
0.067030 0.042083 0.023328
0.140906 0.041034 0.021992
0.244446 0.039998 0.020679
0.373010 0.038977 0.019393
0.515410 0.037970 0.018136
0.656139 0.036977 0.016913
0.780218 0.035998 0.015726
0.877710 0.035033 0.014577
0.945269 0.034083 0.013468
0.984667 0.033146 0.012402
0.999753 0.032224 0.011381
1.000000 0.031316 0.010404
1.000000 0.030422 0.009472
0.000000 0.103404 0.024187
0.000000 0.101673 0.022839
0.001516 0.099956 0.021511
0.021309 0.098256 0.020207
0.066097 0.096570 0.018932
0.139652 0.094901 0.017687
0.242965 0.093247 0.016476
0.371445 0.091609 0.015303
0.513920 0.089987 0.014168
0.654857 0.088381 0.013075
0.779216 0.086790 0.012025
0.876999 0.085216 0.011020
0.944819 0.083658 0.010060
0.984449 0.082118 0.009139
0.999728 0.080599 0.008238
1.000000 0.079102 0.007364
1.000000 0.077626 0.006523
0.000000 0.185999 0.019740
0.000000 0.183622 0.018475
0.001403 0.181261 0.017242
0.020927 0.178915 0.016045
0.065456 0.176583 0.014885
0.138767 0.174268 0.013765
0.241878 0.171967 0.012688
0.370233 0.169683 0.011654
0.512688 0.167414 0.010665
0.653713 0.165162 0.009722
0.778345 0.162931 0.008808
0.876508 0.160724 0.007917
0.944659 0.158541 0.007054
0.984461 0.156382 0.006226
0.999742 0.154246 0.005436
1.000000 0.152132 0.004689
1.000000 0.150042 0.003990
0.000000 0.292914 0.015618
0.000000 0.289980 0.014473
0.001324 0.287057 0.013368
0.020644 0.284145 0.012306
0.064950 0.281246 0.011289
0.138017 0.278359 0.010317
0.240901 0.275486 0.009387
0.369240 0.272636 0.008481
0.511969 0.269809 0.007599
0.653481 0.267005 0.006748
0.778528 0.264223 0.005933
0.876886 0.261463 0.005159
0.945034 0.258726 0.004429
0.984705 0.256010 0.003747
0.999781 0.253315 0.003117
1.000000 0.250641 0.002540
1.000000 0.247988 0.002019
0.000000 0.418139 0.011931
0.000000 0.414858 0.010929
0.001257 0.411583 0.009974
0.020393 0.408318 0.009055
0.064572 0.405071 0.008156
0.137673 0.401842 0.007285
0.240849 0.398630 0.006447
0.369618 0.395436 0.005647
0.512765 0.392260 0.004888
0.654541 0.389100 0.004175
0.779624 0.385957 0.003512
0.877818 0.382830 0.002900
0.945686 0.379719 0.002344
0.985048 0.376624 0.001843
0.999824 0.373545 0.001401
1.000000 0.370481 0.001017
1.000000 0.367432 0.000694
0.000000 0.551159 0.008725
0.000000 0.547859 0.007836
0.001237 0.544568 0.006976
0.020417 0.541286 0.006151
0.064792 0.538014 0.005365
0.138238 0.534751 0.004623
0.241854 0.531496 0.003928
0.371045 0.528250 0.003283
0.514456 0.525012 0.002691
0.656242 0.521783 0.002155
0.781092 0.518562 0.001676
0.878903 0.515348 0.001254
0.946359 0.512143 0.000893
0.985363 0.508945 0.000591
0.999857 0.505754 0.000349
1.000000 0.502570 0.000169
1.000000 0.499393 0.000051
0.000000 0.679379 0.005860
0.000000 0.676388 0.005090
0.001293 0.673397 0.004364
0.020706 0.670406 0.003687
0.065427 0.667415 0.003061
0.139307 0.664424 0.002490
0.243361 0.661434 0.001974
0.372864 0.658442 0.001515
0.516348 0.655451 0.001116
0.657937 0.652459 0.000776
0.782393 0.649466 0.000496
0.879748 0.646472 0.000277
0.946804 0.643478 0.000119
0.985526 0.640482 0.000024
0.999867 0.637485 0.000000
1.000000 0.634486 0.000000
1.000000 0.631486 0.000000
0.000000 0.791445 0.003453
0.000000 0.788986 0.002847
0.001393 0.786521 0.002295
0.021114 0.784050 0.001800
0.066201 0.781571 0.001363
0.140459 0.779086 0.000985
0.244807 0.776594 0.000667
0.374414 0.774095 0.000409
0.517750 0.771589 0.000212
0.658981 0.769076 0.000077
0.782996 0.766555 0.000007
0.879964 0.764027 0.000000
0.946774 0.761491 0.000000
0.985418 0.758947 0.000000
0.999844 0.756395 0.000000
1.000000 0.753834 0.000000
1.000000 0.751263 0.000000
0.000000 0.880100 0.001634
0.000000 0.878275 0.001219
0.001499 0.876440 0.000862
0.021492 0.874595 0.000566
0.066833 0.872739 0.000330
0.141266 0.870873 0.000155
0.245627 0.868996 0.000043
0.375029 0.867109 0.000000
0.517969 0.865211 0.000000
0.658734 0.863302 0.000000
0.782370 0.861382 0.000000
0.879159 0.859450 0.000000
0.946044 0.857507 0.000000
0.984977 0.855549 0.000000
0.999784 0.853578 0.000000
1.000000 0.851592 0.000000
1.000000 0.849590 0.000000
0.000000 0.942976 0.000473
0.000000 0.941776 0.000259
0.001570 0.940564 0.000107
0.021686 0.939342 0.000019
0.067036 0.938107 0.000000
0.141297 0.936862 0.000000
0.245253 0.935605 0.000000
0.374047 0.934336 0.000000
0.516315 0.933056 0.000000
0.656693 0.931763 0.000000
0.780407 0.930456 0.000000
0.877627 0.929135 0.000000
0.945060 0.927800 0.000000
0.984476 0.926451 0.000000
0.999713 0.925087 0.000000
1.000000 0.923708 0.000000
1.000000 0.922314 0.000000
0.000000 0.981465 0.000004
0.000000 0.980816 0.000000
0.001563 0.980155 0.000000
0.021541 0.979484 0.000000
0.066525 0.978803 0.000000
0.140142 0.978110 0.000000
0.243348 0.977406 0.000000
0.371547 0.976690 0.000000
0.513625 0.975962 0.000000
0.654172 0.975222 0.000000
0.778278 0.974470 0.000000
0.876014 0.973705 0.000000
0.943987 0.972927 0.000000
0.983908 0.972136 0.000000
0.999621 0.971332 0.000000
1.000000 0.970514 0.000000
1.000000 0.969683 0.000000
0.000000 0.998666 0.000000
0.000000 0.998486 0.000000
0.001442 0.998296 0.000000
0.021002 0.998096 0.000000
0.065442 0.997885 0.000000
0.138491 0.997663 0.000000
0.241147 0.997431 0.000000
0.368911 0.997188 0.000000
0.510782 0.996934 0.000000
0.651413 0.996670 0.000000
0.775871 0.996395 0.000000
0.874135 0.996109 0.000000
0.942704 0.995812 0.000000
0.983209 0.995503 0.000000
0.999491 0.995184 0.000000
1.000000 0.994853 0.000000
1.000000 0.994510 0.000000
0.000000 1.000000 0.000000
0.000000 1.000000 0.000000
0.001291 1.000000 0.000000
0.020413 1.000000 0.000000
0.064319 1.000000 0.000000
0.136736 1.000000 0.000000
0.238729 1.000000 0.000000
0.365922 1.000000 0.000000
0.507466 1.000000 0.000000
0.648115 1.000000 0.000000
0.772933 1.000000 0.000000
0.871799 1.000000 0.000000
0.941080 1.000000 0.000000
0.982307 1.000000 0.000000
0.999302 1.000000 0.000000
1.000000 1.000000 0.000000
1.000000 1.000000 0.000000
0.000000 1.000000 0.000000
0.000000 1.000000 0.000000
0.001136 1.000000 0.000000
0.019766 1.000000 0.000000
0.063044 1.000000 0.000000
0.134689 1.000000 0.000000
0.235840 1.000000 0.000000
0.362281 1.000000 0.000000
0.503360 1.000000 0.000000
0.643974 1.000000 0.000000
0.769201 1.000000 0.000000
0.868802 1.000000 0.000000
0.938977 1.000000 0.000000
0.981122 1.000000 0.000000
0.999022 1.000000 0.000000
1.000000 1.000000 0.000000
1.000000 1.000000 0.000000
0.000000 0.000000 0.101298
0.000000 0.000000 0.099419
0.002899 0.000000 0.097445
0.025463 0.000000 0.095385
0.072926 0.000000 0.093247
0.148863 0.000000 0.091040
0.253848 0.000000 0.088773
0.382882 0.000000 0.086454
0.524638 0.000000 0.084092
0.663820 0.000000 0.081695
0.785916 0.000000 0.079270
0.881467 0.000000 0.076826
0.947424 0.000000 0.074370
0.985639 0.000000 0.071908
0.999863 0.000000 0.069448
1.000000 0.000000 0.066997
1.000000 0.000000 0.064561
0.000000 0.000171 0.094615
0.000000 0.000106 0.092451
0.002315 0.000056 0.090221
