assets/presets/luts/blockbuster/lut.cube
TITLE "Blockbuster"
LUT_3D_SIZE 9
0.000000 0.000000 0.000000
0.003125 0.000000 0.000000
0.073943 0.000000 0.000000
0.255490 0.000000 0.000000
0.526276 0.000000 0.000000
0.786941 0.000000 0.000000
0.947810 0.000000 0.000000
0.999879 0.000000 0.000000
1.000000 0.000000 0.000000
0.000000 0.013437 0.000000
0.002027 0.012319 0.000000
0.068765 0.011249 0.000000
0.247183 0.010228 0.000000
0.518071 0.009255 0.000000
0.781864 0.008331 0.000000
0.945909 0.007456 0.000000
0.999791 0.006629 0.000000
1.000000 0.005850 0.000000
0.000000 0.104589 0.000000
0.001545 0.101120 0.000000
0.066257 0.097713 0.000000
0.243222 0.094369 0.000000
0.514188 0.091087 0.000000
0.779407 0.087869 0.000000
0.944911 0.084715 0.000000
0.999730 0.081628 0.000000
1.000000 0.078626 0.000000
0.000000 0.294914 0.000000
0.001338 0.289041 0.000000
0.065049 0.283214 0.000000
0.241088 0.277436 0.000000
0.511979 0.271727 0.000000
0.778400 0.266110 0.000000
0.944928 0.260583 0.000000
0.999772 0.255143 0.000000
1.000000 0.249788 0.000000
0.000000 0.553406 0.000000
0.001233 0.546802 0.000000
0.064705 0.540236 0.000000
0.241593 0.533706 0.000000
0.514076 0.527210 0.000000
0.780792 0.520749 0.000000
0.946234 0.514319 0.000000
0.999852 0.507920 0.000000
1.000000 0.501550 0.000000
0.000000 0.793111 0.000000
0.001371 0.788196 0.000000
0.066047 0.783255 0.000000
0.244547 0.778288 0.000000
0.517540 0.773292 0.000000
0.782956 0.768268 0.000000
0.946831 0.763214 0.000000
0.999852 0.758129 0.000000
1.000000 0.753010 0.000000
0.000000 0.943786 0.000000
0.001561 0.941389 0.000000
0.067043 0.938947 0.000000
0.245452 0.936460 0.000000
0.516832 0.933927 0.000000
0.780826 0.931345 0.000000
0.945262 0.928708 0.000000
0.999729 0.926015 0.000000
1.000000 0.923262 0.000000
0.000000 0.998782 0.000000
0.001473 0.998426 0.000000
0.065661 0.998029 0.000000
0.241601 0.997590 0.000000
0.511383 0.997108 0.000000
0.776392 0.996583 0.000000
0.942986 0.996015 0.000000
0.999521 0.995402 0.000000
1.000000 0.994744 0.000000
0.000000 1.000000 0.000000
0.001168 1.000000 0.000000
0.063319 1.000000 0.000000
0.236473 1.000000 0.000000
0.504268 1.000000 0.000000
0.770031 1.000000 0.000000
0.939448 1.000000 0.000000
0.999088 1.000000 0.000000
1.000000 1.000000 0.000000
0.000000 0.000000 0.041846
0.002971 0.000000 0.039546
0.073254 0.000000 0.037057
0.254378 0.000000 0.034427
0.525166 0.000000 0.031708
0.786246 0.000000 0.028944
0.947548 0.000000 0.026178
0.999868 0.000000 0.023452
1.000000 0.000000 0.020799
0.000000 0.013051 0.033445
0.001957 0.011950 0.030704
0.068415 0.010897 0.027935
0.246629 0.009892 0.025179
0.517533 0.008936 0.022476
0.781534 0.008029 0.019858
0.945785 0.007170 0.017354
0.999784 0.006359 0.014990
1.000000 0.005596 0.012785
0.000000 0.103404 0.024187
0.001516 0.099956 0.021511
0.066097 0.096570 0.018932
0.242965 0.093247 0.016476
0.513920 0.089987 0.014168
0.779216 0.086790 0.012025
0.944819 0.083658 0.010060
0.999728 0.080599 0.008238
1.000000 0.077626 0.006523
0.000000 0.292914 0.015618
0.001324 0.287057 0.013368
0.064950 0.281246 0.011289
0.240901 0.275486 0.009387
0.511969 0.269809 0.007599
0.778528 0.264223 0.005933
0.945034 0.258726 0.004429
0.999781 0.253315 0.003117
1.000000 0.247988 0.002019
0.000000 0.551159 0.008725
0.001237 0.544568 0.006976
0.064792 0.538014 0.005365
0.241854 0.531496 0.003928
0.514456 0.525012 0.002691
0.781092 0.518562 0.001676
0.946359 0.512143 0.000893
0.999857 0.505754 0.000349
1.000000 0.499393 0.000051
0.000000 0.791445 0.003453
0.001393 0.786521 0.002295
0.066201 0.781571 0.001363
0.244807 0.776594 0.000667
0.517750 0.771589 0.000212
0.782996 0.766555 0.000007
0.946774 0.761491 0.000000
0.999844 0.756395 0.000000
1.000000 0.751263 0.000000
0.000000 0.942976 0.000473
0.001570 0.940564 0.000107
0.067036 0.938107 0.000000
0.245253 0.935605 0.000000
0.516315 0.933056 0.000000
0.780407 0.930456 0.000000
0.945060 0.927800 0.000000
0.999713 0.925087 0.000000
1.000000 0.922314 0.000000
0.000000 0.998666 0.000000
0.001442 0.998296 0.000000
0.065442 0.997885 0.000000
0.241147 0.997431 0.000000
0.510782 0.996934 0.000000
0.775871 0.996395 0.000000
0.942704 0.995812 0.000000
0.999491 0.995184 0.000000
1.000000 0.994510 0.000000
0.000000 1.000000 0.000000
0.001136 1.000000 0.000000
0.063044 1.000000 0.000000
0.235840 1.000000 0.000000
0.503360 1.000000 0.000000
0.769201 1.000000 0.000000
0.938977 1.000000 0.000000
0.999022 1.000000 0.000000
1.000000 1.000000 0.000000
0.000000 0.000000 0.190269
0.002829 0.000000 0.184747
0.072608 0.000000 0.178709
0.253335 0.000000 0.172242
0.524128 0.000000 0.165433
0.785598 0.000000 0.158365
0.947304 0.000000 0.151119
0.999858 0.000000 0.143771
1.000000 0.000000 0.136396
0.000000 0.012672 0.169799
0.001894 0.011587 0.162886
0.068091 0.010550 0.155743
0.246116 0.009562 0.148452
0.517035 0.008623 0.141086
0.781229 0.007731 0.133717
0.945669 0.006889 0.126411
0.999778 0.006094 0.119227
1.000000 0.005348 0.112220
0.000000 0.102226 0.145775
0.001489 0.098799 0.138400
0.065949 0.095435 0.131046
0.242723 0.092133 0.123778
0.513662 0.088894 0.116653
0.779026 0.085719 0.109722
0.944733 0.082609 0.103019
0.999728 0.079580 0.096303
1.000000 0.076635 0.089552
0.000000 0.290920 0.121165
0.001311 0.285078 0.114105
0.064851 0.279284 0.107256
0.240779 0.273548 0.100585
0.512024 0.267902 0.093844
0.778694 0.262346 0.087106
0.945151 0.256879 0.080471
0.999790 0.251497 0.074025
1.000000 0.246197 0.067843
0.000000 0.548916 0.098137
0.001243 0.542338 0.091385
0.064896 0.535797 0.084674
0.242136 0.529290 0.078098
0.514844 0.522818 0.071740
0.781385 0.516378 0.065670
0.946475 0.509970 0.059943
0.999861 0.503591 0.054605
1.000000 0.497239 0.049689
0.000000 0.789775 0.075755
0.001415 0.784843 0.069494
0.066349 0.779884 0.063543
0.245041 0.774898 0.057953
0.517912 0.769883 0.052765
0.782986 0.764839 0.048008
0.946689 0.759764 0.043701
0.999833 0.754656 0.039855
1.000000 0.749510 0.036314
0.000000 0.942162 0.056016
0.001576 0.939735 0.050982
0.066999 0.937263 0.046387
0.244983 0.934744 0.042247
0.515769 0.932179 0.038546
0.779987 0.929560 0.035069
0.944854 0.926885 0.031779
0.999697 0.924152 0.028691
1.000000 0.921358 0.025814
0.000000 0.998545 0.040855
0.001411 0.998161 0.037260
0.065221 0.997735 0.033849
0.240685 0.997267 0.030631
0.510160 0.996756 0.027619
0.775329 0.996202 0.024821
0.942408 0.995603 0.022242
0.999458 0.994960 0.019885
1.000000 0.994271 0.017747
0.000000 1.000000 0.029510
0.001103 1.000000 0.026575
0.062757 1.000000 0.023856
0.235178 1.000000 0.021358
0.502407 1.000000 0.019081
0.768327 1.000000 0.017024
0.938481 1.000000 0.015181
0.998951 1.000000 0.013546
1.000000 1.000000 0.012113
0.000000 0.000000 0.443727
0.002697 0.000000 0.435798
0.072001 0.000000 0.427076
0.252358 0.000000 0.417652
0.523157 0.000000 0.407619
0.784994 0.000000 0.397073
0.947078 0.000000 0.386106
0.999848 0.000000 0.374814
1.000000 0.000000 0.363291
0.000000 0.012298 0.414065
0.001835 0.011229 0.403834
0.067791 0.010209 0.393124
0.245643 0.009238 0.382027
0.516576 0.008315 0.370640
0.780946 0.007440 0.359057
0.945560 0.006614 0.347369
0.999772 0.005836 0.335668
1.000000 0.005106 0.324040
0.000000 0.101056 0.377910
0.001464 0.097650 0.366441
0.065812 0.094306 0.354809
0.242496 0.091026 0.343106
0.513412 0.087809 0.331421
0.778835 0.084656 0.319841
0.944675 0.081571 0.308323
0.999729 0.078570 0.296422
1.000000 0.075653 0.284235
0.000000 0.288931 0.338845
0.001297 0.283105 0.327189
0.064750 0.277328 0.315668
0.240717 0.271620 0.304034
0.512139 0.266005 0.292009
0.778892 0.260480 0.279760
0.945278 0.255042 0.267445
0.999799 0.249688 0.255215
1.000000 0.244416 0.243213
0.000000 0.546678 0.299692
0.001252 0.540112 0.287567
0.065014 0.533583 0.275276
0.242434 0.527089 0.262975
0.515235 0.520627 0.250812
0.781667 0.514199 0.238925
0.946580 0.507800 0.227439
0.999864 0.501431 0.216469
1.000000 0.495089 0.206117
0.000000 0.788103 0.258523
0.001437 0.783162 0.246446
0.066489 0.778194 0.234691
0.245245 0.773198 0.223380
0.518020 0.768173 0.212624
0.782921 0.763119 0.202519
0.946571 0.758033 0.193151
0.999821 0.752914 0.184545
1.000000 0.747751 0.176240
0.000000 0.941343 0.219395
0.001579 0.938901 0.208865
0.066931 0.936413 0.199019
0.244636 0.933879 0.189939
0.515227 0.931296 0.181499
0.779564 0.928658 0.173268
0.944644 0.925964 0.165271
0.999679 0.923210 0.157554
1.000000 0.920395 0.150155
0.000000 0.998419 0.186833
0.001380 0.998021 0.178479
0.064999 0.997581 0.170327
0.240211 0.997098 0.162427
0.509517 0.996573 0.154822
0.774763 0.996003 0.147548
0.942096 0.995390 0.140640
0.999423 0.994731 0.134127
1.000000 0.994026 0.128032
0.000000 1.000000 0.159622
0.001070 1.000000 0.152133
0.062459 1.000000 0.144989
0.234485 1.000000 0.138222
0.501406 1.000000 0.131858
0.767407 1.000000 0.125921
0.937958 1.000000 0.120431
0.998873 1.000000 0.115404
1.000000 1.000000 0.110854
0.000000 0.000000 0.719910
0.002576 0.000000 0.712707
0.071433 0.000000 0.704725
0.251444 0.000000 0.696016
0.522252 0.000000 0.686635
0.784433 0.000000 0.676641
0.946868 0.000000 0.666096
0.999838 0.000000 0.655069
1.000000 0.000000 0.643631
0.000000 0.011930 0.692676
0.001782 0.010877 0.683064
0.067513 0.009874 0.672862
0.245205 0.008919 0.662134
0.516151 0.008012 0.650948
0.780683 0.007154 0.639379
0.945457 0.006344 0.627503
0.999765 0.005582 0.615404
1.000000 0.004869 0.603165
0.000000 0.099892 0.658111
0.001442 0.096507 0.646777
0.065684 0.093185 0.635087
0.242279 0.089926 0.623120
0.513167 0.086731 0.610960
0.778640 0.083600 0.598692
0.944645 0.080542 0.586065
0.999732 0.077570 0.572730
1.000000 0.074681 0.558838
0.000000 0.286947 0.618711
0.001284 0.281137 0.606501
0.064659 0.275379 0.594185
0.240712 0.269703 0.581284
0.512306 0.264119 0.567729
0.779118 0.258623 0.553673
0.945412 0.253214 0.539274
0.999808 0.247889 0.524698
1.000000 0.242644 0.510111
0.000000 0.544444 0.576417
0.001264 0.537891 0.562662
0.065145 0.531374 0.548462
0.242743 0.524891 0.533979
0.515622 0.518441 0.519380
0.781934 0.512022 0.504831
0.946672 0.505634 0.490501
0.999867 0.499274 0.476556
1.000000 0.492941 0.463160
0.000000 0.786428 0.528669
0.001459 0.781478 0.514068
0.066619 0.776500 0.499580
0.245415 0.771495 0.485370
0.518068 0.766460 0.471607
0.782797 0.761395 0.458451
0.946420 0.756298 0.446062
0.999809 0.751166 0.434333
1.000000 0.745986 0.422677
0.000000 0.940519 0.480299
0.001578 0.938061 0.466738
0.066830 0.935557 0.453844
0.244212 0.933007 0.441768
0.514686 0.930406 0.430081
0.779136 0.927749 0.418457
0.944429 0.925035 0.406974
0.999660 0.922261 0.395705
1.000000 0.919424 0.384723
0.000000 0.998289 0.437511
0.001350 0.997876 0.425838
0.064773 0.997422 0.414256
0.239725 0.996925 0.402842
0.508850 0.996384 0.391670
0.774171 0.995800 0.380810
0.941769 0.995171 0.370332
0.999385 0.994497 0.360302
1.000000 0.993776 0.350780
0.000000 1.000000 0.398743
0.001035 1.000000 0.387676
0.062147 1.000000 0.376948
0.233758 1.000000 0.366625
0.500354 1.000000 0.356773
0.766439 1.000000 0.347452
0.937407 1.000000 0.338721
0.998790 1.000000 0.330634
1.000000 1.000000 0.323245
0.000000 0.000000 0.913706
0.002463 0.000000 0.909607
0.070901 0.000000 0.905020
0.250591 0.000000 0.899952
0.521409 0.000000 0.894417
0.783912 0.000000 0.888430
0.946673 0.000000 0.882009
0.999829 0.000000 0.875180
1.000000 0.000000 0.867971
0.000000 0.011567 0.897990
0.001732 0.010531 0.892289
0.067256 0.009544 0.886141
0.244802 0.008605 0.879569
0.515758 0.007715 0.872598
0.780438 0.006873 0.865258
0.945359 0.006080 0.857588
0.999759 0.005335 0.849629
1.000000 0.004638 0.841432
0.000000 0.098736 0.877076
0.001421 0.095372 0.869967
0.065564 0.092071 0.862502
0.242070 0.088834 0.854721
0.512922 0.085660 0.846670
0.778460 0.082552 0.838380
0.944641 0.079524 0.829522
0.999736 0.076580 0.820006
1.000000 0.073718 0.809909
0.000000 0.284969 0.851819
0.001270 0.279176 0.843681
0.064600 0.273441 0.835236
0.240760 0.267796 0.826130
0.512521 0.262243 0.816393
0.779368 0.256777 0.806107
0.945551 0.251396 0.795367
0.999816 0.246098 0.784280
1.000000 0.240881 0.772968
0.000000 0.542215 0.822654
0.001278 0.535674 0.812707
0.065286 0.529168 0.802244
0.243058 0.522697 0.791365
0.516001 0.516257 0.780181
0.782180 0.509849 0.768818
0.946748 0.503471 0.757412
0.999868 0.497120 0.746109
1.000000 0.490796 0.735066
0.000000 0.784750 0.787322
0.001480 0.779791 0.776058
0.066736 0.774804 0.764663
0.245544 0.769788 0.753277
0.518052 0.764743 0.742050
0.782611 0.759668 0.731142
0.946233 0.754560 0.720716
0.999797 0.749412 0.710447
1.000000 0.744216 0.700037
0.000000 0.939689 0.749163
0.001572 0.937216 0.738034
0.066692 0.934697 0.727282
0.243768 0.932130 0.716998
0.514145 0.929510 0.706670
0.778701 0.926834 0.696225
0.944206 0.924100 0.685735
0.999641 0.921305 0.675272
1.000000 0.918447 0.664914
0.000000 0.998153 0.713256
0.001320 0.997727 0.702877
0.064543 0.997258 0.692407
0.239223 0.996746 0.681918
0.508156 0.996191 0.671485
0.773552 0.995592 0.661184
0.941425 0.994947 0.651095
0.999344 0.994257 0.641298
1.000000 0.993520 0.631875
0.000000 1.000000 0.678109
0.001000 1.000000 0.667715
0.061822 1.000000 0.657482
0.232997 1.000000 0.647490
0.499249 1.000000 0.637820
0.765421 1.000000 0.628554
0.936826 1.000000 0.619774
0.998699 1.000000 0.611561
1.000000 1.000000 0.603997
0.000000 0.000000 0.994477
0.002360 0.000000 0.993464
0.070404 0.000000 0.992270
0.249794 0.000000 0.990881
0.520625 0.000000 0.989288
0.783429 0.000000 0.987479
0.946493 0.000000 0.985450
0.999821 0.000000 0.983196
1.000000 0.000000 0.980717
0.000000 0.011210 0.990325
0.001687 0.010190 0.988654
0.067019 0.009220 0.986766
0.244429 0.008298 0.984655
0.515394 0.007424 0.982319
0.780207 0.006598 0.979760
0.945265 0.005821 0.976982
0.999753 0.005093 0.973997
1.000000 0.004412 0.970813
0.000000 0.097586 0.983831
0.001402 0.094244 0.981413
0.065451 0.090965 0.978773
0.241868 0.087749 0.975919
0.512676 0.084597 0.972862
0.778341 0.081514 0.969579
0.944661 0.078515 0.965918
0.999742 0.075599 0.961868
1.000000 0.072764 0.957445
0.000000 0.282996 0.974829
0.001257 0.277219 0.971701
0.064571 0.271514 0.968291
0.240854 0.265900 0.964488
0.512778 0.260377 0.960300
0.779638 0.254940 0.955747
0.945692 0.249588 0.950857
0.999825 0.244318 0.945672
1.000000 0.239126 0.940243
0.000000 0.539989 0.963007
0.001294 0.533461 0.958683
0.065434 0.526967 0.954004
0.243375 0.520506 0.949001
0.516365 0.514078 0.943721
0.782403 0.507680 0.938219
0.946806 0.501311 0.932565
0.999867 0.494970 0.926839
1.000000 0.488654 0.921135
0.000000 0.783069 0.947108
0.001500 0.778100 0.941740
0.066837 0.773104 0.936174
0.245630 0.768078 0.930484
0.517964 0.763023 0.924755
0.782356 0.757937 0.919084
0.946035 0.752817 0.913539
0.999784 0.747653 0.907857
1.000000 0.742440 0.901990
0.000000 0.938854 0.928398
0.001562 0.936365 0.922678
0.066516 0.933830 0.917054
0.243327 0.931247 0.911494
0.513599 0.928608 0.905741
0.778257 0.925912 0.899816
0.943976 0.923158 0.893757
0.999620 0.920341 0.887610
1.000000 0.917461 0.881423
0.000000 0.998013 0.909422
0.001289 0.997572 0.903602
0.064308 0.997089 0.897623
0.238704 0.996562 0.891527
0.507431 0.995992 0.885360
0.772901 0.995378 0.879171
0.941062 0.994718 0.873015
0.999300 0.994012 0.866953
1.000000 0.993258 0.861045
0.000000 1.000000 0.889287
0.000963 1.000000 0.883106
0.061481 1.000000 0.876923
0.232198 1.000000 0.870794
0.498089 1.000000 0.864780
0.764350 1.000000 0.858945
0.936213 1.000000 0.853354
0.998600 1.000000 0.848076
1.000000 1.000000 0.843182
0.000000 0.000000 1.000000
0.002264 0.000000 1.000000
0.069940 0.000000 1.000000
0.249053 0.000000 1.000000
0.519897 0.000000 1.000000
0.782982 0.000000 1.000000
0.946327 0.000000 1.000000
0.999812 0.000000 1.000000
1.000000 0.000000 1.000000
0.000000 0.010858 1.000000
0.001646 0.009855 1.000000
0.066800 0.008901 1.000000
0.244085 0.007995 1.000000
0.515055 0.007138 1.000000
0.779989 0.006329 1.000000
0.945173 0.005568 1.000000
0.999747 0.004856 1.000000
1.000000 0.004192 1.000000
0.000000 0.096444 1.000000
0.001384 0.093123 1.000000
0.065343 0.089866 1.000000
0.241669 0.086671 1.000000
0.512425 0.083541 1.000000
0.778281 0.080486 1.000000
0.944703 0.077515 1.000000
0.999748 0.074627 1.000000
1.000000 0.071819 1.000000
0.000000 0.281029 1.000000
0.001245 0.275271 1.000000
0.064570 0.269597 1.000000
0.240992 0.264014 1.000000
0.513071 0.258521 1.000000
0.779922 0.253113 1.000000
0.945835 0.247789 0.999963
0.999833 0.242546 0.999668
1.000000 0.237381 0.999131
0.000000 0.537768 1.000000
0.001312 0.531251 1.000000
0.065589 0.524769 1.000000
0.243690 0.518320 0.999887
0.516709 0.511902 0.999499
0.782596 0.505514 0.998882
0.946846 0.499155 0.998066
0.999866 0.492822 0.997085
1.000000 0.486515 0.995976
0.000000 0.781385 0.999774
0.001518 0.776407 0.999299
0.066921 0.771400 0.998606
0.245667 0.766365 0.997726
0.517799 0.761299 0.996694
0.782029 0.756202 0.995549
0.945838 0.751069 0.994306
0.999771 0.745888 0.992914
1.000000 0.740658 0.991378
0.000000 0.938014 0.997366
0.001547 0.935510 0.996288
0.066302 0.932959 0.995112
0.242888 0.930357 0.993817
0.513047 0.927699 0.992371
0.777801 0.924984 0.990785
0.943738 0.922208 0.989070
0.999597 0.919370 0.987241
1.000000 0.916468 0.985319
0.000000 0.997868 0.993307
0.001259 0.997413 0.991809
0.064066 0.996915 0.990175
0.238166 0.996374 0.988416
0.506675 0.995789 0.986551
0.772219 0.995159 0.984600
0.940680 0.994484 0.982587
0.999252 0.993762 0.980539
1.000000 0.992991 0.978486
0.000000 1.000000 0.987749
0.000926 1.000000 0.985850
0.061126 1.000000 0.983873
0.231361 1.000000 0.981844
0.496870 1.000000 0.979790
0.763224 1.000000 0.977743
0.935567 1.000000 0.975737
0.998494 1.000000 0.973807
1.000000 1.000000 0.971991
0.000000 0.000000 1.000000
0.002176 0.000000 1.000000
0.069508 0.000000 1.000000
0.248363 0.000000 1.000000
0.519222 0.000000 1.000000
0.782568 0.000000 1.000000
0.946173 0.000000 1.000000
0.999805 0.000000 1.000000
1.000000 0.000000 1.000000
0.000000 0.010512 1.000000
0.001608 0.009526 1.000000
0.066599 0.008588 1.000000
0.243766 0.007699 1.000000
0.514739 0.006858 1.000000
0.779782 0.006065 1.000000
0.945083 0.005321 1.000000
0.999740 0.004625 1.000000
1.000000 0.003979 1.000000
0.000000 0.095309 1.000000
0.001367 0.092010 1.000000
0.065239 0.088774 1.000000
0.241471 0.085601 1.000000
0.512197 0.082494 1.000000
0.778275 0.079467 1.000000
0.944764 0.076525 1.000000
0.999756 0.073665 1.000000
1.000000 0.070883 1.000000
0.000000 0.279067 1.000000
0.001237 0.273334 1.000000
0.064595 0.267691 1.000000
0.241168 0.262139 1.000000
0.513395 0.256675 1.000000
0.780217 0.251296 1.000000
0.945976 0.246000 1.000000
0.999840 0.240783 1.000000
1.000000 0.235644 1.000000
0.000000 0.535551 1.000000
0.001331 0.529046 1.000000
0.065746 0.522575 1.000000
0.243998 0.516137 1.000000
0.517027 0.509729 1.000000
0.782757 0.503351 1.000000
0.946863 0.497001 1.000000
0.999863 0.490677 1.000000
1.000000 0.484378 1.000000
0.000000 0.779697 1.000000
0.001535 0.774710 1.000000
0.066985 0.769694 1.000000
0.245650 0.764648 1.000000
0.517552 0.759572 1.000000
0.781627 0.754464 1.000000
0.945641 0.749315 1.000000
0.999757 0.744118 1.000000
1.000000 0.738870 1.000000
0.000000 0.937169 1.000000
0.001527 0.934649 1.000000
0.066080 0.932081 1.000000
0.242448 0.929460 1.000000
0.512487 0.926783 1.000000
0.777331 0.924048 1.000000
0.943490 0.921252 1.000000
0.999573 0.918392 1.000000
1.000000 0.915467 1.000000
0.000000 0.997718 1.000000
0.001228 0.997249 1.000000
0.063817 0.996736 1.000000
0.237606 0.996180 1.000000
0.505883 0.995580 1.000000
0.771502 0.994935 1.000000
0.940277 0.994244 1.000000
0.999200 0.993505 1.000000
1.000000 0.992719 1.000000
0.000000 1.000000 1.000000
0.000888 1.000000 1.000000
0.060753 1.000000 1.000000
0.230482 1.000000 1.000000
0.495590 1.000000 1.000000
0.762040 1.000000 1.000000
0.934888 1.000000 1.000000
0.998379 1.000000 1.000000
1.000000 1.000000 1.000000
