assets/presets/luts/blockbuster/lut.cube
TITLE "Blockbuster"
LUT_3D_SIZE 5
0.000000 0.000000 0.000000
0.073943 0.000000 0.000000
0.526276 0.000000 0.000000
0.947810 0.000000 0.000000
1.000000 0.000000 0.000000
0.000000 0.104589 0.000000
0.066257 0.097713 0.000000
0.514188 0.091087 0.000000
0.944911 0.084715 0.000000
1.000000 0.078626 0.000000
0.000000 0.553406 0.000000
0.064705 0.540236 0.000000
0.514076 0.527210 0.000000
0.946234 0.514319 0.000000
1.000000 0.501550 0.000000
0.000000 0.943786 0.000000
0.067043 0.938947 0.000000
0.516832 0.933927 0.000000
0.945262 0.928708 0.000000
1.000000 0.923262 0.000000
0.000000 1.000000 0.000000
0.063319 1.000000 0.000000
0.504268 1.000000 0.000000
0.939448 1.000000 0.000000
1.000000 1.000000 0.000000
0.000000 0.000000 0.190269
0.072608 0.000000 0.178709
0.524128 0.000000 0.165433
0.947304 0.000000 0.151119
1.000000 0.000000 0.136396
0.000000 0.102226 0.145775
0.065949 0.095435 0.131046
0.513662 0.088894 0.116653
0.944733 0.082609 0.103019
1.000000 0.076635 0.089552
0.000000 0.548916 0.098137
0.064896 0.535797 0.084674
0.514844 0.522818 0.071740
0.946475 0.509970 0.059943
1.000000 0.497239 0.049689
0.000000 0.942162 0.056016
0.066999 0.937263 0.046387
0.515769 0.932179 0.038546
0.944854 0.926885 0.031779
1.000000 0.921358 0.025814
0.000000 1.000000 0.029510
0.062757 1.000000 0.023856
0.502407 1.000000 0.019081
0.938481 1.000000 0.015181
1.000000 1.000000 0.012113
0.000000 0.000000 0.719910
0.071433 0.000000 0.704725
0.522252 0.000000 0.686635
0.946868 0.000000 0.666096
1.000000 0.000000 0.643631
0.000000 0.099892 0.658111
0.065684 0.093185 0.635087
0.513167 0.086731 0.610960
0.944645 0.080542 0.586065
1.000000 0.074681 0.558838
0.000000 0.544444 0.576417
0.065145 0.531374 0.548462
0.515622 0.518441 0.519380
0.946672 0.505634 0.490501
1.000000 0.492941 0.463160
0.000000 0.940519 0.480299
0.066830 0.935557 0.453844
0.514686 0.930406 0.430081
0.944429 0.925035 0.406974
1.000000 0.919424 0.384723
0.000000 1.000000 0.398743
0.062147 1.000000 0.376948
0.500354 1.000000 0.356773
0.937407 1.000000 0.338721
1.000000 1.000000 0.323245
0.000000 0.000000 0.994477
0.070404 0.000000 0.992270
0.520625 0.000000 0.989288
0.946493 0.000000 0.985450
1.000000 0.000000 0.980717
0.000000 0.097586 0.983831
0.065451 0.090965 0.978773
0.512676 0.084597 0.972862
0.944661 0.078515 0.965918
1.000000 0.072764 0.957445
0.000000 0.539989 0.963007
0.065434 0.526967 0.954004
0.516365 0.514078 0.943721
0.946806 0.501311 0.932565
1.000000 0.488654 0.921135
0.000000 0.938854 0.928398
0.066516 0.933830 0.917054
0.513599 0.928608 0.905741
0.943976 0.923158 0.893757
1.000000 0.917461 0.881423
0.000000 1.000000 0.889287
0.061481 1.000000 0.876923
0.498089 1.000000 0.864780
0.936213 1.000000 0.853354
1.000000 1.000000 0.843182
0.000000 0.000000 1.000000
0.069508 0.000000 1.000000
0.519222 0.000000 1.000000
0.946173 0.000000 1.000000
1.000000 0.000000 1.000000
0.000000 0.095309 1.000000
0.065239 0.088774 1.000000
0.512197 0.082494 1.000000
0.944764 0.076525 1.000000
1.000000 0.070883 1.000000
0.000000 0.535551 1.000000
0.065746 0.522575 1.000000
0.517027 0.509729 1.000000
0.946863 0.497001 1.000000
1.000000 0.484378 1.000000
0.000000 0.937169 1.000000
0.066080 0.932081 1.000000
0.512487 0.926783 1.000000
0.943490 0.921252 1.000000
1.000000 0.915467 1.000000
0.000000 1.000000 1.000000
0.060753 1.000000 1.000000
0.495590 1.000000 1.000000
0.934888 1.000000 1.000000
1.000000 1.000000 1.000000
