assets/presets/luts/ocean/lut.cube
TITLE "Ocean"
LUT_3D_SIZE 17
0.000000 0.000000 0.000000
0.037320 0.000000 0.000000
0.109743 0.000000 0.000000
0.181132 0.000000 0.000000
0.251488 0.000000 0.000000
0.320811 0.000000 0.000000
0.389100 0.000000 0.000000
0.456356 0.000000 0.000000
0.522578 0.000000 0.000000
0.587767 0.000000 0.000000
0.651922 0.000000 0.000000
0.715044 0.000000 0.000000
0.777133 0.000000 0.000000
0.838188 0.000000 0.000000
0.898210 0.000000 0.000000
0.957199 0.000000 0.000000
1.000000 0.000000 0.000000
0.000000 0.036387 0.000000
0.030563 0.033305 0.000000
0.103609 0.031397 0.000000
0.175711 0.029732 0.000000
0.246796 0.028339 0.000000
0.316853 0.027222 0.000000
0.385879 0.026383 0.000000
0.453873 0.025822 0.000000
0.520834 0.025540 0.000000
0.586763 0.025537 0.000000
0.651658 0.025813 0.000000
0.715520 0.026367 0.000000
0.778349 0.027201 0.000000
0.840145 0.028313 0.000000
0.900907 0.029705 0.000000
0.960636 0.031375 0.000000
1.000000 0.032552 0.000000
0.000000 0.107543 0.000000
0.024152 0.103229 0.000000
0.097178 0.101340 0.000000
0.169725 0.099534 0.000000
0.241425 0.097934 0.000000
0.312158 0.096585 0.000000
0.381887 0.095503 0.000000
0.450597 0.094693 0.000000
0.518283 0.094158 0.000000
0.584940 0.093900 0.000000
0.650567 0.093919 0.000000
0.715163 0.094216 0.000000
0.778728 0.094791 0.000000
0.841260 0.095644 0.000000
0.902759 0.096776 0.000000
0.963226 0.098187 0.000000
1.000000 0.099877 0.000000
0.000000 0.178109 0.000000
0.018634 0.172787 0.000000
0.091184 0.171060 0.000000
0.163715 0.169273 0.000000
0.235742 0.167576 0.000000
0.306985 0.166062 0.000000
0.377317 0.164778 0.000000
0.446680 0.163747 0.000000
0.515046 0.162978 0.000000
0.582400 0.162479 0.000000
0.648735 0.162252 0.000000
0.714047 0.162300 0.000000
0.778333 0.162624 0.000000
0.841590 0.163224 0.000000
0.903817 0.164101 0.000000
0.965014 0.165256 0.000000
1.000000 0.166689 0.000000
0.000000 0.248248 0.000000
0.013633 0.242268 0.000000
0.085987 0.240439 0.000000
0.158163 0.238780 0.000000
0.230175 0.237103 0.000000
0.301672 0.235518 0.000000
0.372431 0.234101 0.000000
0.442326 0.232896 0.000000
0.511287 0.231929 0.000000
0.579278 0.231215 0.000000
0.646277 0.230762 0.000000
0.712270 0.230576 0.000000
0.777250 0.230660 0.000000
0.841210 0.231017 0.000000
0.904147 0.231648 0.000000
0.966060 0.232554 0.000000
1.000000 0.233736 0.000000
0.000000 0.317959 0.000000
0.009014 0.311724 0.000000
0.081699 0.309448 0.000000
0.153342 0.307967 0.000000
0.225074 0.306395 0.000000
0.296557 0.304830 0.000000
0.367521 0.303359 0.000000
0.437779 0.302044 0.000000
0.507211 0.300927 0.000000
0.575744 0.300036 0.000000
0.643335 0.299386 0.000000
0.709954 0.298990 0.000000
0.775584 0.298853 0.000000
0.840212 0.298982 0.000000
0.903832 0.299379 0.000000
0.966436 0.300046 0.000000
1.000000 0.300987 0.000000
0.000000 0.387243 0.000000
0.005065 0.380959 0.000000
0.078357 0.378074 0.000000
0.149376 0.376797 0.000000
0.220658 0.375380 0.000000
0.291911 0.373905 0.000000
0.362862 0.372454 0.000000
0.433291 0.371097 0.000000
0.503036 0.369889 0.000000
0.571988 0.368867 0.000000
0.640072 0.368059 0.000000
0.707240 0.367483 0.000000
0.773459 0.367150 0.000000
0.838706 0.367071 0.000000
0.902966 0.367252 0.000000
0.966229 0.367695 0.000000
1.000000 0.368406 0.000000
0.000000 0.456100 0.000000
0.001942 0.449885 0.000000
0.075750 0.446484 0.000000
0.146321 0.445255 0.000000
0.217051 0.444022 0.000000
0.287919 0.442684 0.000000
0.358674 0.441311 0.000000
0.429090 0.439975 0.000000
0.498982 0.438733 0.000000
0.568209 0.437633 0.000000
0.636668 0.436711 0.000000
0.704287 0.435992 0.000000
0.771014 0.435496 0.000000
0.836814 0.435236 0.000000
0.901661 0.435221 0.000000
0.965536 0.435460 0.000000
1.000000 0.435957 0.000000
0.000000 0.524529 0.000000
0.000000 0.518457 0.000000
0.073750 0.514755 0.000000
0.144205 0.513333 0.000000
0.214319 0.512302 0.000000
0.284696 0.511130 0.000000
0.355115 0.509880 0.000000
0.425361 0.508614 0.000000
0.495240 0.507392 0.000000
0.564595 0.506266 0.000000
0.633298 0.505276 0.000000
0.701256 0.504457 0.000000
0.768397 0.503832 0.000000
0.834669 0.503422 0.000000
0.900035 0.503239 0.000000
0.964465 0.503295 0.000000
1.000000 0.503599 0.000000
0.000000 0.592531 0.000000
0.000000 0.586652 0.000000
0.072473 0.582793 0.000000
0.143041 0.581028 0.000000
0.212499 0.580209 0.000000
0.282314 0.579225 0.000000
0.352294 0.578127 0.000000
0.422242 0.576971 0.000000
0.491971 0.575814 0.000000
0.561314 0.574707 0.000000
0.630130 0.573696 0.000000
0.698307 0.572818 0.000000
0.765756 0.572104 0.000000
0.832409 0.571577 0.000000
0.898214 0.571256 0.000000
0.963133 0.571156 0.000000
1.000000 0.571289 0.000000
0.000000 0.660106 0.000000
0.000000 0.654453 0.000000
0.072005 0.650543 0.000000
0.142693 0.648451 0.000000
0.211612 0.647738 0.000000
0.280816 0.646954 0.000000
0.350283 0.646030 0.000000
0.419836 0.645014 0.000000
0.489298 0.643958 0.000000
0.558505 0.642911 0.000000
0.627309 0.641919 0.000000
0.695587 0.641023 0.000000
0.763235 0.640258 0.000000
0.830170 0.639650 0.000000
0.896328 0.639224 0.000000
0.961657 0.638997 0.000000
1.000000 0.638984 0.000000
0.000000 0.727253 0.000000
0.000000 0.721852 0.000000
0.072408 0.717966 0.000000
0.143066 0.715669 0.000000
0.211672 0.714886 0.000000
0.280231 0.714310 0.000000
0.349130 0.713575 0.000000
0.418212 0.712720 0.000000
0.487315 0.711793 0.000000
0.556280 0.710840 0.000000
0.624961 0.709904 0.000000
0.693228 0.709028 0.000000
0.760966 0.708248 0.000000
0.828083 0.707595 0.000000
0.894501 0.707096 0.000000
0.960158 0.706772 0.000000
1.000000 0.706642 0.000000
0.000000 0.793973 0.000000
0.000772 0.788842 0.000000
0.073727 0.785038 0.000000
0.144221 0.782627 0.000000
0.212687 0.781649 0.000000
0.280576 0.781290 0.000000
0.348868 0.780753 0.000000
0.417422 0.780076 0.000000
0.486091 0.779300 0.000000
0.554727 0.778466 0.000000
0.623188 0.777618 0.000000
0.691341 0.776794 0.000000
0.759068 0.776034 0.000000
0.826268 0.775370 0.000000
0.892853 0.774830 0.000000
0.958750 0.774440 0.000000
1.000000 0.774221 0.000000
0.000000 0.860265 0.000000
0.003600 0.855418 0.000000
0.075994 0.851741 0.000000
0.146210 0.849289 0.000000
0.214560 0.848111 0.000000
0.281863 0.847888 0.000000
0.349517 0.847559 0.000000
0.417500 0.847072 0.000000
0.485678 0.846463 0.000000
0.553914 0.845770 0.000000
0.622071 0.845034 0.000000
0.690021 0.844292 0.000000
0.757644 0.843582 0.000000
0.824832 0.842937 0.000000
0.891492 0.842388 0.000000
0.957544 0.841963 0.000000
1.000000 0.841683 0.000000
0.000000 0.926130 0.000000
0.007473 0.921579 0.000000
0.079233 0.918063 0.000000
0.149074 0.915627 0.000000
0.217219 0.914326 0.000000
0.284100 0.914105 0.000000
0.351095 0.913988 0.000000
0.418473 0.913700 0.000000
0.486113 0.913271 0.000000
0.553890 0.912737 0.000000
0.621675 0.912133 0.000000
0.689344 0.911497 0.000000
0.756778 0.910863 0.000000
0.823869 0.910266 0.000000
0.890518 0.909737 0.000000
0.956639 0.909304 0.000000
1.000000 0.909027 0.000000
0.000000 0.994340 0.000000
0.011071 0.987862 0.000000
0.083464 0.983994 0.000000
0.152847 0.981622 0.000000
0.220703 0.980259 0.000000
0.287293 0.979937 0.000000
0.353611 0.980038 0.000000
0.420358 0.979955 0.000000
0.487425 0.979716 0.000000
0.554695 0.979354 0.000000
0.622050 0.978900 0.000000
0.689371 0.978389 0.000000
0.756544 0.977855 0.000000
0.823459 0.977330 0.000000
0.890017 0.976847 0.000000
0.956138 0.976448 0.000000
1.000000 0.976448 0.000000
0.000000 1.000000 0.000000
0.009080 1.000000 0.000000
0.084546 1.000000 0.000000
0.157061 1.000000 0.000000
0.225047 1.000000 0.000000
0.291371 1.000000 0.000000
0.357073 1.000000 0.000000
0.423169 1.000000 0.000000
0.489633 1.000000 0.000000
0.556358 1.000000 0.000000
0.623236 1.000000 0.000000
0.690153 1.000000 0.000000
0.757000 1.000000 0.000000
0.823671 1.000000 0.000000
0.889996 1.000000 0.000000
0.956138 1.000000 0.000000
1.000000 1.000000 0.000000
0.000000 0.000000 0.054373
0.036597 0.000000 0.042008
0.109345 0.000000 0.039786
0.181067 0.000000 0.037713
0.251752 0.000000 0.035887
0.321401 0.000000 0.034329
0.390015 0.000000 0.033043
0.457595 0.000000 0.032034
0.524141 0.000000 0.031303
0.589654 0.000000 0.030849
0.654132 0.000000 0.030673
0.717578 0.000000 0.030776
0.779989 0.000000 0.031157
0.841367 0.000000 0.031818
0.901712 0.000000 0.032756
0.961022 0.000000 0.033974
1.000000 0.000000 0.034894
0.000000 0.041804 0.044606
0.029839 0.032603 0.035295
0.103323 0.030623 0.033294
0.175775 0.028921 0.031569
0.247194 0.027498 0.030124
0.317580 0.026355 0.028957
0.386932 0.025490 0.028069
0.455251 0.024905 0.027460
0.522536 0.024598 0.027130
0.588788 0.024570 0.027079
0.654007 0.024822 0.027308
0.718192 0.025352 0.027815
0.781344 0.026162 0.028601
0.843462 0.027251 0.029667
0.904547 0.028618 0.031011
0.964599 0.030265 0.032634
1.000000 0.032190 0.034537
0.000000 0.115382 0.024160
0.021300 0.104158 0.026642
0.096542 0.100743 0.026521
0.169621 0.098828 0.025066
0.241754 0.097157 0.023982
0.312871 0.095757 0.023202
0.382959 0.094633 0.022709
0.452016 0.093788 0.022500
0.520041 0.093221 0.022572
0.587033 0.092933 0.022925
0.652992 0.092924 0.023558
0.717918 0.093193 0.024470
0.781810 0.093741 0.025661
0.844670 0.094569 0.027132
0.906496 0.095675 0.028883
0.967289 0.097060 0.030912
1.000000 0.098724 0.033221
0.000000 0.185860 0.012455
0.012992 0.175352 0.018184
0.090126 0.170671 0.020579
0.163170 0.168780 0.018991
0.235750 0.166967 0.018000
0.307482 0.165360 0.017457
0.378248 0.164004 0.017272
0.448009 0.162915 0.017406
0.516751 0.162098 0.017841
0.584468 0.161556 0.018568
0.651156 0.161292 0.019583
0.716814 0.161304 0.020884
0.781441 0.161595 0.022467
0.845036 0.162164 0.024332
0.907599 0.163011 0.026479
0.969129 0.164137 0.028907
1.000000 0.165541 0.031615
0.000000 0.255847 0.004101
0.006013 0.245915 0.011066
0.084611 0.240230 0.015640
0.157167 0.238505 0.013853
0.229721 0.236714 0.012709
0.301779 0.235010 0.012168
0.373056 0.233489 0.012117
0.443421 0.232198 0.012472
0.512816 0.231159 0.013183
0.581214 0.230384 0.014221
0.648600 0.229878 0.015569
0.714967 0.229644 0.017219
0.780310 0.229686 0.019163
0.844627 0.230003 0.021398
0.907915 0.230596 0.023920
0.970174 0.231467 0.026728
1.000000 0.232616 0.029821
0.000000 0.325445 0.000000
0.000106 0.316050 0.005023
0.079641 0.309736 0.010995
0.151968 0.307887 0.009731
0.224157 0.306227 0.008374
0.296194 0.304545 0.007675
0.367722 0.302954 0.007579
0.438514 0.301529 0.008000
0.508442 0.300317 0.008861
0.577437 0.299343 0.010111
0.645460 0.298621 0.011716
0.712492 0.298161 0.013654
0.778517 0.297969 0.015909
0.843528 0.298046 0.018472
0.907520 0.298396 0.021336
0.970489 0.299020 0.024496
1.000000 0.299920 0.027948
0.000000 0.394654 0.000000
0.000000 0.385758 0.000055
0.075063 0.379229 0.006611
0.147683 0.376897 0.006613
0.219331 0.375417 0.005057
0.291080 0.373843 0.004145
0.362590 0.372273 0.003888
0.433584 0.370795 0.004237
0.503874 0.369474 0.005117
0.573340 0.368350 0.006465
0.641906 0.367451 0.008230
0.709530 0.366794 0.010375
0.776182 0.366390 0.012874
0.841844 0.366247 0.015709
0.906505 0.366368 0.018867
0.970156 0.366758 0.022338
1.000000 0.367419 0.026115
0.000000 0.463464 0.000000
0.000000 0.455038 0.000000
0.071152 0.448497 0.002936
0.144346 0.445525 0.004488
0.215365 0.444250 0.002754
0.286658 0.442832 0.001629
0.357931 0.441354 0.001164
0.428908 0.439898 0.001350
0.499367 0.438535 0.002141
0.569145 0.437320 0.003476
0.638130 0.436291 0.005298
0.706247 0.435475 0.007559
0.773449 0.434891 0.010223
0.839700 0.434552 0.013262
0.904980 0.434466 0.016655
0.969273 0.434639 0.020386
1.000000 0.435076 0.024444
0.000000 0.531868 0.000000
0.000000 0.523891 0.000000
0.068062 0.517451 0.000144
0.141752 0.513943 0.002959
0.212313 0.512709 0.001456
0.283048 0.511478 0.000133
0.353930 0.510138 0.000000
0.424706 0.508762 0.000000
0.495149 0.507420 0.000060
0.565072 0.506172 0.001293
0.634330 0.505065 0.003079
0.702822 0.504136 0.005366
0.770474 0.503410 0.008111
0.837235 0.502906 0.011279
0.903068 0.502639 0.014840
0.967948 0.502617 0.018773
1.000000 0.502848 0.023059
0.000000 0.599860 0.000000
0.000000 0.592316 0.000000
0.065878 0.586047 0.000000
0.139774 0.582231 0.001889
0.210200 0.580789 0.001154
0.280316 0.579760 0.000000
0.350702 0.578588 0.000000
0.421138 0.577336 0.000000
0.491406 0.576066 0.000000
0.561313 0.574839 0.000018
0.630698 0.573706 0.001693
0.699433 0.572710 0.003927
0.767423 0.571883 0.006674
0.834597 0.571251 0.009894
0.900903 0.570833 0.013554
0.966302 0.570643 0.017624
1.000000 0.570692 0.022081
0.000000 0.667437 0.000000
0.000000 0.660313 0.000000
0.064652 0.654261 0.000000
0.138521 0.650289 0.001513
0.209041 0.648485 0.001841
0.278497 0.647669 0.000170
0.348318 0.646686 0.000000
0.418311 0.645587 0.000000
0.488277 0.644429 0.000000
0.558030 0.643267 0.000000
0.627400 0.642155 0.001223
0.696246 0.641138 0.003340
0.764454 0.640253 0.006021
0.831936 0.639531 0.009224
0.898622 0.638997 0.012913
0.964461 0.638669 0.017056
1.000000 0.638562 0.021624
0.000000 0.734595 0.000000
0.000000 0.727883 0.000000
0.064417 0.722079 0.000000
0.138076 0.718057 0.001963
0.208703 0.715913 0.003253
0.277614 0.715200 0.001689
0.346820 0.714417 0.000416
0.416296 0.713493 0.000000
0.485863 0.712476 0.000000
0.555346 0.711416 0.000405
0.624577 0.710365 0.001723
0.693409 0.709368 0.003677
0.761716 0.708466 0.006235
0.829395 0.707694 0.009361
0.896363 0.707079 0.013018
0.962554 0.706646 0.017171
1.000000 0.706411 0.021790
0.000000 0.801332 0.000000
0.000000 0.795025 0.000000
0.065195 0.789493 0.000000
0.138501 0.785499 0.003316
0.209090 0.783141 0.005260
0.277678 0.782348 0.004200
0.346237 0.781776 0.002755
0.415142 0.781041 0.001899
0.484235 0.780186 0.001677
0.553354 0.779257 0.002116
0.622341 0.778300 0.003221
0.691047 0.777360 0.004983
0.759340 0.776478 0.007379
0.827109 0.775692 0.010378
0.894257 0.775033 0.013949
0.960707 0.774526 0.018057
1.000000 0.774195 0.022670
0.000000 0.867648 0.000000
0.000000 0.861740 0.000000
0.066999 0.856496 0.001205
0.139841 0.852588 0.005620
0.210261 0.850111 0.008002
0.278698 0.849113 0.007699
0.346585 0.848756 0.006094
0.414879 0.848222 0.005053
0.483442 0.847545 0.004626
0.552125 0.846768 0.004848
0.620779 0.845931 0.005734
0.689261 0.845079 0.007286
0.757440 0.844251 0.009491
0.825195 0.843485 0.012328
0.892424 0.842815 0.015769
0.959040 0.842269 0.019784
1.000000 0.841872 0.024341
0.000000 0.933540 0.000000
0.000000 0.928027 0.000000
0.069841 0.923085 0.004548
0.142126 0.919307 0.008908
0.212267 0.916787 0.011571
0.280578 0.915578 0.011995
0.347875 0.915357 0.010427
0.415531 0.915029 0.009212
0.483519 0.914543 0.008590
0.551708 0.913934 0.008600
0.619958 0.913240 0.009267
0.688135 0.912501 0.010600
0.756107 0.911755 0.012598
0.823756 0.911040 0.015247
0.890972 0.910389 0.018526
0.957662 0.909835 0.022408
1.000000 0.909402 0.026866
0.000000 1.000000 0.000000
0.000231 0.993887 0.003626
0.073727 0.989256 0.008951
0.145383 0.985644 0.013201
0.215149 0.983139 0.016029
0.283249 0.981800 0.016976
0.350117 0.981574 0.015751
0.417111 0.981460 0.014370
0.484492 0.981173 0.013562
0.552141 0.980745 0.013369
0.619930 0.980210 0.013821
0.687731 0.979604 0.014935
0.755420 0.978965 0.016716
0.822878 0.978327 0.019160
0.889994 0.977725 0.022251
0.956672 0.977191 0.025971
1.000000 0.976752 0.030295
0.000000 1.000000 0.000000
0.000000 1.000000 0.002393
0.077434 1.000000 0.013074
0.149630 1.000000 0.018515
0.218938 1.000000 0.021418
0.286745 1.000000 0.022734
0.353315 1.000000 0.022063
0.419630 1.000000 0.020525
0.486379 1.000000 0.019540
0.553451 1.000000 0.019152
0.620731 1.000000 0.019394
0.688100 1.000000 0.020290
0.755439 1.000000 0.021852
0.822633 1.000000 0.024080
0.889572 1.000000 0.026969
0.956156 1.000000 0.030503
1.000000 1.000000 0.034664
0.000000 0.000000 0.143558
0.036247 0.000000 0.120402
0.108388 0.000000 0.116603
0.180406 0.000000 0.114253
0.251426 0.000000 0.111941
0.321412 0.000000 0.109802
0.390360 0.000000 0.107891
0.458270 0.000000 0.106231
0.525144 0.000000 0.104834
0.590982 0.000000 0.103704
0.655784 0.000000 0.102847
0.719552 0.000000 0.102264
0.782286 0.000000 0.101956
0.843985 0.000000 0.101924
0.904651 0.000000 0.102169
0.964282 0.000000 0.102691
1.000000 0.000000 0.103491
0.000000 0.039453 0.146688
0.029429 0.032172 0.124259
0.102591 0.029940 0.110880
0.175361 0.028194 0.108655
0.247109 0.026738 0.106568
0.317820 0.025566 0.104726
0.387494 0.024676 0.103150
0.456134 0.024065 0.101847
0.523739 0.023734 0.100820
0.590310 0.023682 0.100070
0.655847 0.023909 0.099597
0.720351 0.024416 0.099403
0.783821 0.025202 0.099488
0.846258 0.026267 0.099851
0.907661 0.027611 0.100492
0.968030 0.029234 0.101413
1.000000 0.031136 0.102612
0.000000 0.120020 0.124362
0.006489 0.111573 0.115836
0.095819 0.100051 0.104174
0.169324 0.098066 0.102159
0.241802 0.096358 0.100416
0.313247 0.094930 0.098952
0.383659 0.093780 0.097767
0.453037 0.092910 0.096861
0.521381 0.092318 0.096234
0.588692 0.092006 0.095886
0.654970 0.091973 0.095817
0.720215 0.092218 0.096027
0.784425 0.092743 0.096517
0.847603 0.093547 0.097285
0.909747 0.094630 0.098332
0.970858 0.095991 0.099658
1.000000 0.097632 0.101263
0.000000 0.193255 0.099720
0.000000 0.184431 0.094681
0.087583 0.171903 0.095814
0.162530 0.168192 0.095372
0.235634 0.166271 0.093900
0.307794 0.164593 0.092799
0.378937 0.163187 0.092001
0.449051 0.162058 0.091491
0.518134 0.161207 0.091264
0.586184 0.160634 0.091318
0.653202 0.160340 0.091653
0.719187 0.160325 0.092268
0.784139 0.160588 0.093162
0.848057 0.161131 0.094335
0.910942 0.161952 0.095788
0.972794 0.163053 0.097520
1.000000 0.164432 0.099532
0.000000 0.263887 0.083698
0.000000 0.254453 0.082515
0.079328 0.243137 0.087384
0.156116 0.238120 0.089420
0.229170 0.236228 0.087811
0.301774 0.234409 0.086801
0.373532 0.232796 0.086241
0.444325 0.231434 0.086039
0.514112 0.230339 0.086156
0.582880 0.229516 0.086574
0.650623 0.228969 0.087284
0.717337 0.228698 0.088281
0.783022 0.228705 0.089564
0.847674 0.228989 0.091129
0.911295 0.229552 0.092977
0.973884 0.230394 0.095106
1.000000 0.231514 0.097516
0.000000 0.333617 0.072583
0.000000 0.324215 0.073932
0.072360 0.313698 0.080250
0.150609 0.307678 0.084469
0.223164 0.305954 0.082662
0.295733 0.304162 0.081497
0.367814 0.302453 0.080937
0.439117 0.300926 0.080869
0.509508 0.299628 0.081207
0.578930 0.298583 0.081901
0.647354 0.297802 0.082921
0.714767 0.297290 0.084253
0.781160 0.297051 0.085885
0.846530 0.297086 0.087812
0.910872 0.297397 0.090029
0.974187 0.297985 0.092534
1.000000 0.298850 0.095324
0.000000 0.402808 0.064422
0.000000 0.393679 0.067301
0.066465 0.383831 0.074192
0.145672 0.377206 0.079835
0.217970 0.375337 0.078530
0.290165 0.373677 0.077152
0.362218 0.371992 0.076431
0.433769 0.370396 0.076316
0.504586 0.368966 0.076719
0.574540 0.367748 0.077563
0.643561 0.366767 0.078797
0.711612 0.366040 0.080385
0.778669 0.365574 0.082305
0.844721 0.365375 0.084543
0.909758 0.365446 0.087089
0.973777 0.365790 0.089936
1.000000 0.366408 0.093078
0.000000 0.471559 0.058342
0.000000 0.462797 0.062132
0.061644 0.453537 0.069209
0.141140 0.446734 0.075473
0.213692 0.444346 0.075400
0.285340 0.442868 0.073824
0.357099 0.441293 0.072890
0.428626 0.439720 0.072613
0.499643 0.438238 0.072942
0.569958 0.436910 0.073805
0.639449 0.435781 0.075135
0.708042 0.434876 0.076882
0.775692 0.434213 0.079010
0.842370 0.433803 0.081492
0.908059 0.433653 0.084310
0.972747 0.433768 0.087451
1.000000 0.434152 0.090905
0.000000 0.539897 0.053921
0.000000 0.531542 0.058237
0.057897 0.522815 0.065301
0.137272 0.516033 0.071817
0.210363 0.512972 0.073262
0.281379 0.511700 0.071510
0.352676 0.510284 0.070364
0.423961 0.508804 0.069877
0.494957 0.507344 0.070043
0.565438 0.505977 0.070815
0.635240 0.504756 0.072131
0.704250 0.503721 0.073935
0.772394 0.502900 0.076179
0.839621 0.502310 0.078826
0.905899 0.501965 0.081848
0.971206 0.501872 0.085224
1.000000 0.502039 0.088938
0.000000 0.607828 0.050935
0.000000 0.599896 0.055530
0.055222 0.591665 0.062468
0.134220 0.585011 0.069038
0.207787 0.581397 0.071728
0.278333 0.580159 0.070201
0.349069 0.578929 0.068857
0.419958 0.577589 0.068153
0.490749 0.576211 0.068113
0.561210 0.574866 0.068721
0.631154 0.573614 0.069935
0.700437 0.572502 0.071702
0.768954 0.571567 0.073971
0.836632 0.570835 0.076699
0.903419 0.570325 0.079849
0.969278 0.570051 0.083394
1.000000 0.570023 0.087309
0.000000 0.675353 0.049259
0.000000 0.667848 0.053969
0.053621 0.660088 0.060710
0.132069 0.653627 0.067215
0.205835 0.649699 0.070661
0.276229 0.648238 0.069886
0.346342 0.647211 0.068363
0.416732 0.646041 0.067449
0.487177 0.644787 0.067190
0.557460 0.643515 0.067597
0.627386 0.642285 0.068647
0.696792 0.641147 0.070303
0.765551 0.640146 0.072518
0.833566 0.639314 0.075247
0.900765 0.638676 0.078450
0.967097 0.638252 0.082092
1.000000 0.638056 0.086145
0.000000 0.742470 0.048819
0.000000 0.735391 0.053528
0.053094 0.728084 0.060028
0.130873 0.721858 0.066390
0.204610 0.717773 0.070290
0.275079 0.715932 0.070560
0.344530 0.715119 0.068872
0.414351 0.714138 0.067762
0.484350 0.713039 0.067288
0.554328 0.711880 0.067477
0.624096 0.710716 0.068329
0.693484 0.709600 0.069821
0.762352 0.708579 0.071918
0.830584 0.707689 0.074580
0.898090 0.706962 0.077765
0.964801 0.706422 0.081436
1.000000 0.706088 0.085561
0.000000 0.809176 0.049568
0.000000 0.802521 0.054194
0.053639 0.795652 0.060420
0.130665 0.789690 0.066588
0.204194 0.785558 0.070744
0.274754 0.783363 0.071964
0.343654 0.782649 0.070379
0.412859 0.781869 0.069086
0.482337 0.780946 0.068406
0.551913 0.779928 0.068376
0.621407 0.778867 0.069013
0.690654 0.777814 0.070309
0.759506 0.776813 0.072243
0.827834 0.775907 0.074782
0.895537 0.775129 0.077889
0.962529 0.774509 0.081527
1.000000 0.774070 0.085662
0.000000 0.875469 0.051474
0.000000 0.869234 0.055957
0.055259 0.862792 0.061887
0.131467 0.857115 0.067823
0.204647 0.853015 0.072100
0.275159 0.850597 0.073966
0.343727 0.849796 0.072877
0.412281 0.849227 0.071415
0.481187 0.848494 0.070539
0.550285 0.847639 0.070296
0.619414 0.846709 0.070713
0.688414 0.845751 0.071797
0.757136 0.844808 0.073538
0.825449 0.843923 0.075913
0.893239 0.843132 0.078893
0.960410 0.842468 0.082445
1.000000 0.841956 0.086534
0.000000 0.941346 0.054516
0.000000 0.935528 0.058811
0.057951 0.929504 0.064430
0.133293 0.924127 0.070107
0.206012 0.920117 0.074405
0.276352 0.917578 0.076706
0.344755 0.916560 0.076364
0.412636 0.916206 0.074742
0.480930 0.915674 0.073681
0.549495 0.914999 0.073234
0.618185 0.914221 0.073434
0.686850 0.913384 0.074299
0.755346 0.912530 0.075829
0.823541 0.911699 0.078014
0.891316 0.910929 0.080831
0.958566 0.910255 0.084252
1.000000 0.909704 0.088248
0.000000 1.000000 0.055299
0.000000 1.000000 0.062753
0.061717 0.995789 0.068047
0.136156 0.990723 0.073444
0.208323 0.986849 0.077692
0.278380 0.984263 0.080274
0.346648 0.983026 0.080649
0.413935 0.982805 0.079063
0.481587 0.982481 0.077829
0.549577 0.981997 0.077187
0.617770 0.981388 0.077176
0.686028 0.980694 0.077821
0.754217 0.979953 0.079134
0.822204 0.979205 0.081110
0.889869 0.978487 0.083738
0.957105 0.977833 0.086997
1.000000 0.977274 0.090859
0.000000 1.000000 0.052935
0.000000 1.000000 0.062921
0.066556 1.000000 0.072740
0.140062 1.000000 0.077841
0.211604 1.000000 0.081984
0.281284 1.000000 0.084730
0.349333 1.000000 0.085623
0.416185 1.000000 0.084374
0.483174 1.000000 0.082975
0.550555 1.000000 0.082148
0.618206 1.000000 0.081934
0.686001 1.000000 0.082365
0.753812 1.000000 0.083457
0.821513 1.000000 0.085217
0.888986 1.000000 0.087640
0.956120 1.000000 0.090711
1.000000 1.000000 0.094410
0.000000 0.000000 0.229481
0.036767 0.000000 0.203759
0.107128 0.000000 0.192392
0.179225 0.000000 0.190194
0.250505 0.000000 0.187738
0.320812 0.000000 0.185252
0.390098 0.000000 0.182872
0.458347 0.000000 0.180670
0.525559 0.000000 0.178686
0.591732 0.000000 0.176942
0.656868 0.000000 0.175449
0.720966 0.000000 0.174216
0.784029 0.000000 0.173248
0.846055 0.000000 0.172548
0.907047 0.000000 0.172120
0.967003 0.000000 0.171964
1.000000 0.000000 0.172083
0.000000 0.036393 0.237540
0.028126 0.030825 0.213534
0.102334 0.029202 0.189336
