assets/presets/luts/ocean/lut.cube
TITLE "Ocean"
LUT_3D_SIZE 9
0.000000 0.000000 0.000000
0.109743 0.000000 0.000000
0.251488 0.000000 0.000000
0.389100 0.000000 0.000000
0.522578 0.000000 0.000000
0.651922 0.000000 0.000000
0.777133 0.000000 0.000000
0.898210 0.000000 0.000000
1.000000 0.000000 0.000000
0.000000 0.107543 0.000000
0.097178 0.101340 0.000000
0.241425 0.097934 0.000000
0.381887 0.095503 0.000000
0.518283 0.094158 0.000000
0.650567 0.093919 0.000000
0.778728 0.094791 0.000000
0.902759 0.096776 0.000000
1.000000 0.099877 0.000000
0.000000 0.248248 0.000000
0.085987 0.240439 0.000000
0.230175 0.237103 0.000000
0.372431 0.234101 0.000000
0.511287 0.231929 0.000000
0.646277 0.230762 0.000000
0.777250 0.230660 0.000000
0.904147 0.231648 0.000000
1.000000 0.233736 0.000000
0.000000 0.387243 0.000000
0.078357 0.378074 0.000000
0.220658 0.375380 0.000000
0.362862 0.372454 0.000000
0.503036 0.369889 0.000000
0.640072 0.368059 0.000000
0.773459 0.367150 0.000000
0.902966 0.367252 0.000000
1.000000 0.368406 0.000000
0.000000 0.524529 0.000000
0.073750 0.514755 0.000000
0.214319 0.512302 0.000000
0.355115 0.509880 0.000000
0.495240 0.507392 0.000000
0.633298 0.505276 0.000000
0.768397 0.503832 0.000000
0.900035 0.503239 0.000000
1.000000 0.503599 0.000000
0.000000 0.660106 0.000000
0.072005 0.650543 0.000000
0.211612 0.647738 0.000000
0.350283 0.646030 0.000000
0.489298 0.643958 0.000000
0.627309 0.641919 0.000000
0.763235 0.640258 0.000000
0.896328 0.639224 0.000000
1.000000 0.638984 0.000000
0.000000 0.793973 0.000000
0.073727 0.785038 0.000000
0.212687 0.781649 0.000000
0.348868 0.780753 0.000000
0.486091 0.779300 0.000000
0.623188 0.777618 0.000000
0.759068 0.776034 0.000000
0.892853 0.774830 0.000000
1.000000 0.774221 0.000000
0.000000 0.926130 0.000000
0.079233 0.918063 0.000000
0.217219 0.914326 0.000000
0.351095 0.913988 0.000000
0.486113 0.913271 0.000000
0.621675 0.912133 0.000000
0.756778 0.910863 0.000000
0.890518 0.909737 0.000000
1.000000 0.909027 0.000000
0.000000 1.000000 0.000000
0.084546 1.000000 0.000000
0.225047 1.000000 0.000000
0.357073 1.000000 0.000000
0.489633 1.000000 0.000000
0.623236 1.000000 0.000000
0.757000 1.000000 0.000000
0.889996 1.000000 0.000000
1.000000 1.000000 0.000000
0.000000 0.000000 0.143558
0.108388 0.000000 0.116603
0.251426 0.000000 0.111941
0.390360 0.000000 0.107891
0.525144 0.000000 0.104834
0.655784 0.000000 0.102847
0.782286 0.000000 0.101956
0.904651 0.000000 0.102169
1.000000 0.000000 0.103491
0.000000 0.120020 0.124362
0.095819 0.100051 0.104174
0.241802 0.096358 0.100416
0.383659 0.093780 0.097767
0.521381 0.092318 0.096234
0.654970 0.091973 0.095817
0.784425 0.092743 0.096517
0.909747 0.094630 0.098332
1.000000 0.097632 0.101263
0.000000 0.263887 0.083698
0.079328 0.243137 0.087384
0.229170 0.236228 0.087811
0.373532 0.232796 0.086241
0.514112 0.230339 0.086156
0.650623 0.228969 0.087284
0.783022 0.228705 0.089564
0.911295 0.229552 0.092977
1.000000 0.231514 0.097516
0.000000 0.402808 0.064422
0.066465 0.383831 0.074192
0.217970 0.375337 0.078530
0.362218 0.371992 0.076431
0.504586 0.368966 0.076719
0.643561 0.366767 0.078797
0.778669 0.365574 0.082305
0.909758 0.365446 0.087089
1.000000 0.366408 0.093078
0.000000 0.539897 0.053921
0.057897 0.522815 0.065301
0.210363 0.512972 0.073262
0.352676 0.510284 0.070364
0.494957 0.507344 0.070043
0.635240 0.504756 0.072131
0.772394 0.502900 0.076179
0.905899 0.501965 0.081848
1.000000 0.502039 0.088938
0.000000 0.675353 0.049259
0.053621 0.660088 0.060710
0.205835 0.649699 0.070661
0.346342 0.647211 0.068363
0.487177 0.644787 0.067190
0.627386 0.642285 0.068647
0.765551 0.640146 0.072518
0.900765 0.638676 0.078450
1.000000 0.638056 0.086145
0.000000 0.809176 0.049568
0.053639 0.795652 0.060420
0.204194 0.785558 0.070744
0.343654 0.782649 0.070379
0.482337 0.780946 0.068406
0.621407 0.778867 0.069013
0.759506 0.776813 0.072243
0.895537 0.775129 0.077889
1.000000 0.774070 0.085662
0.000000 0.941346 0.054516
0.057951 0.929504 0.064430
0.206012 0.920117 0.074405
0.344755 0.916560 0.076364
0.480930 0.915674 0.073681
0.618185 0.914221 0.073434
0.755346 0.912530 0.075829
0.891316 0.910929 0.080831
1.000000 0.909704 0.088248
0.000000 1.000000 0.052935
0.066556 1.000000 0.072740
0.211604 1.000000 0.081984
0.349333 1.000000 0.085623
0.483174 1.000000 0.082975
0.618206 1.000000 0.081934
0.753812 1.000000 0.083457
0.888986 1.000000 0.087640
1.000000 1.000000 0.094410
0.000000 0.000000 0.313624
0.107095 0.000000 0.270241
0.249110 0.000000 0.262781
0.389232 0.000000 0.257598
0.525359 0.000000 0.252580
0.657347 0.000000 0.248265
0.785183 0.000000 0.244865
0.908867 0.000000 0.242472
1.000000 0.000000 0.241130
0.000000 0.113196 0.321893
0.095236 0.099397 0.283484
0.240390 0.095106 0.254310
0.383521 0.092354 0.249634
0.522559 0.090761 0.245529
0.657445 0.090303 0.242406
0.788188 0.090968 0.240350
0.914792 0.092754 0.239387
1.000000 0.095658 0.239529
0.000000 0.272726 0.279993
0.046640 0.260137 0.267377
0.227779 0.234947 0.241929
0.373855 0.231233 0.238113
0.515814 0.228632 0.235391
0.653639 0.227147 0.233785
0.787331 0.226778 0.233296
0.916890 0.227525 0.233922
1.000000 0.229388 0.235665
0.000000 0.417151 0.234708
0.031006 0.401913 0.224653
0.212001 0.378705 0.225785
0.361169 0.371124 0.225454
0.505631 0.367670 0.223813
0.646316 0.365188 0.223659
0.782932 0.363794 0.224717
0.915434 0.363506 0.226926
1.000000 0.364330 0.230268
0.000000 0.555607 0.208078
0.024249 0.539915 0.204441
0.199186 0.519391 0.212533
0.349973 0.510236 0.216129
0.494265 0.506887 0.213947
0.636728 0.503840 0.214161
0.775809 0.501617 0.216170
0.911023 0.500398 0.219611
1.000000 0.500246 0.224326
0.000000 0.691414 0.193121
0.021479 0.676543 0.193453
0.190664 0.658367 0.203581
0.342399 0.647866 0.210813
0.484712 0.645186 0.207837
0.627052 0.642237 0.207433
0.767427 0.639629 0.209444
0.904684 0.637750 0.213422
1.000000 0.636790 0.219023
0.000000 0.825294 0.186085
0.022648 0.811723 0.188488
0.186436 0.795633 0.198930
0.337958 0.784635 0.208207
0.478393 0.782113 0.205792
0.619254 0.779690 0.204536
0.759530 0.777176 0.205910
0.897784 0.775019 0.209703
1.000000 0.773526 0.215563
0.000000 0.957439 0.185284
0.027868 0.945358 0.188582
0.186501 0.931188 0.198579
0.336430 0.920559 0.208307
0.475734 0.917547 0.207761
0.614419 0.915852 0.205709
0.753529 0.913770 0.206231
0.891697 0.911703 0.209378
1.000000 0.910001 0.214946
0.000000 1.000000 0.181296
0.037220 1.000000 0.193365
0.190860 1.000000 0.202529
0.338356 1.000000 0.211976
0.476870 1.000000 0.213697
0.613030 1.000000 0.210941
0.750304 1.000000 0.210610
0.887514 1.000000 0.212920
1.000000 1.000000 0.217839
0.000000 0.000000 0.476569
0.107441 0.000000 0.430456
0.245561 0.000000 0.409535
0.386018 0.000000 0.404940
0.523189 0.000000 0.399329
0.656465 0.000000 0.393611
0.785650 0.000000 0.388326
0.910693 0.000000 0.383760
1.000000 0.000000 0.380067
0.000000 0.107284 0.495673
0.093005 0.097048 0.453373
0.239288 0.094131 0.408012
0.381152 0.091700 0.400426
0.521361 0.089867 0.395247
0.657589 0.089205 0.390195
0.789681 0.089703 0.385829
0.917620 0.091344 0.382369
1.000000 0.094117 0.379911
0.000000 0.266798 0.479012
0.048786 0.252813 0.464167
0.229457 0.236542 0.423382
0.372384 0.229998 0.392008
0.515609 0.227219 0.387323
0.654751 0.225600 0.383164
0.789743 0.225117 0.379977
0.920590 0.225759 0.377852
1.000000 0.227521 0.376820
0.000000 0.423208 0.433243
0.000670 0.412784 0.422873
0.183851 0.400210 0.410345
0.359743 0.369843 0.379681
0.505904 0.366108 0.375812
0.647966 0.363484 0.373018
0.785895 0.361976 0.371340
0.919690 0.361583 0.370777
1.000000 0.362307 0.371331
0.000000 0.567226 0.388139
0.000000 0.555962 0.376423
0.166227 0.539909 0.365527
0.344676 0.514272 0.364188
0.493165 0.506021 0.363101
0.637726 0.502544 0.361388
0.778518 0.500038 0.361166
0.915238 0.498619 0.362154
1.000000 0.498308 0.364293
0.000000 0.705321 0.357899
0.000000 0.693541 0.348940
0.158628 0.677010 0.344363
0.331908 0.654951 0.350876
0.481976 0.645135 0.353733
0.626310 0.641782 0.351468
0.768867 0.638714 0.351606
0.908053 0.636467 0.353547
1.000000 0.635224 0.356920
0.000000 0.840238 0.339483
0.000000 0.828787 0.333418
0.155471 0.813194 0.332879
0.323433 0.793919 0.341864
0.474436 0.782760 0.348367
0.616746 0.780088 0.345315
0.759145 0.777131 0.344826
0.899611 0.774503 0.346761
1.000000 0.772600 0.350669
0.000000 0.972883 0.329960
0.000000 0.962285 0.325986
0.156436 0.948114 0.327601
0.319252 0.931177 0.337152
0.470081 0.919571 0.345756
0.610445 0.917015 0.343226
0.751330 0.914593 0.341886
0.891671 0.912068 0.343176
1.000000 0.909891 0.346892
0.000000 1.000000 0.319860
0.004416 1.000000 0.324890
0.161542 1.000000 0.327472
0.319365 1.000000 0.336741
0.468668 1.000000 0.345874
0.607815 1.000000 0.345147
0.746500 1.000000 0.343017
0.885649 1.000000 0.343453
1.000000 1.000000 0.346518
0.000000 0.000000 0.632394
0.106445 0.000000 0.587850
0.244156 0.000000 0.557458
0.381585 0.000000 0.548088
0.519112 0.000000 0.543082
0.653318 0.000000 0.537073
0.783704 0.000000 0.530784
0.910059 0.000000 0.524715
1.000000 0.000000 0.519178
0.000000 0.103315 0.657581
0.091328 0.095253 0.616140
0.240160 0.092543 0.568586
0.377598 0.091817 0.547067
0.518101 0.089832 0.542524
0.655356 0.088920 0.536924
0.788728 0.089176 0.531187
0.918016 0.090604 0.525863
1.000000 0.093192 0.521248
0.000000 0.258904 0.656954
0.054259 0.246176 0.637009
0.227287 0.234190 0.593116
0.371476 0.229216 0.545775
0.513190 0.226585 0.538065
0.653486 0.224725 0.532893
0.789816 0.224036 0.527809
0.922013 0.224508 0.523392
1.000000 0.226124 0.519874
0.000000 0.418144 0.629314
0.001916 0.406849 0.621643
0.185575 0.392388 0.606450
0.363681 0.373685 0.563275
0.504377 0.364891 0.529704
0.647693 0.362085 0.525013
0.786941 0.360440 0.520802
0.922037 0.359933 0.517550
1.000000 0.360550 0.515358
0.000000 0.571462 0.584109
0.000000 0.563205 0.575987
0.138033 0.552823 0.565732
0.321066 0.540281 0.553309
0.491710 0.504738 0.517429
0.637950 0.500984 0.513515
0.780115 0.498337 0.510648
0.918147 0.496805 0.508897
1.000000 0.496389 0.508262
0.000000 0.714584 0.540831
0.000000 0.706362 0.530109
0.123316 0.694773 0.518080
0.301452 0.677905 0.506400
0.477354 0.649839 0.502592
0.625160 0.640917 0.500752
0.769819 0.637419 0.498967
0.910716 0.634888 0.498677
1.000000 0.633445 0.499595
0.000000 0.852114 0.509515
0.000000 0.843727 0.499171
0.119980 0.831493 0.489716
0.293011 0.814104 0.484285
0.464632 0.790510 0.489220
0.613978 0.780033 0.491340
0.758352 0.776677 0.488992
0.901003 0.773589 0.489055
1.000000 0.771317 0.490927
0.000000 0.987540 0.488216
0.000000 0.978106 0.480218
0.122005 0.966196 0.473612
0.289467 0.949844 0.472305
0.456205 0.929470 0.480148
0.606472 0.917654 0.485925
0.748779 0.914990 0.482796
0.891235 0.912025 0.482223
1.000000 0.909378 0.484082
0.000000 1.000000 0.470724
0.000000 1.000000 0.470281
0.128349 1.000000 0.465770
0.290228 1.000000 0.466715
0.452071 1.000000 0.475376
0.602206 1.000000 0.483308
0.742495 1.000000 0.480663
0.883404 1.000000 0.479240
1.000000 1.000000 0.480446
0.000000 0.000000 0.781097
0.104823 0.000000 0.739629
0.243447 0.000000 0.706387
0.377265 0.000000 0.687543
0.513823 0.000000 0.682603
0.648393 0.000000 0.677206
0.779625 0.000000 0.670813
0.907096 0.000000 0.664023
1.000000 0.000000 0.657288
0.000000 0.100563 0.810589
0.090204 0.094013 0.771785
0.239544 0.091482 0.726171
0.376396 0.091539 0.695045
0.513656 0.090578 0.685564
0.651237 0.089504 0.680604
0.785523 0.089514 0.674611
0.916003 0.090686 0.668313
1.000000 0.093034 0.662216
0.000000 0.252649 0.820346
0.058480 0.241786 0.798299
0.225670 0.232393 0.755728
0.372877 0.228127 0.706710
0.509631 0.226714 0.684594
0.650181 0.224710 0.680104
0.787519 0.223772 0.674518
0.920990 0.224000 0.668763
1.000000 0.225402 0.663402
0.000000 0.409805 0.807765
0.012183 0.398457 0.798850
0.190397 0.385035 0.778393
0.361571 0.371331 0.732855
0.503666 0.364302 0.683535
0.645225 0.361470 0.675702
0.785607 0.359585 0.670538
0.922039 0.358868 0.665424
1.000000 0.359314 0.660958
0.000000 0.566940 0.775733
0.000000 0.558270 0.771965
0.139353 0.546883 0.764321
0.322366 0.531964 0.748729
0.497908 0.510829 0.703165
0.636369 0.499784 0.667397
0.779775 0.496952 0.662704
0.919127 0.495281 0.658442
1.000000 0.494749 0.655126
0.000000 0.717488 0.732589
0.000000 0.711418 0.726738
0.100520 0.703207 0.718735
0.275400 0.692860 0.708588
0.458283 0.680353 0.696269
0.623679 0.639632 0.655173
0.769993 0.635861 0.651222
0.912261 0.633190 0.648282
1.000000 0.631635 0.646458
0.000000 0.859987 0.692017
0.000000 0.853899 0.682891
0.088906 0.845508 0.672064
0.259528 0.833583 0.659734
0.436681 0.815900 0.647271
0.610034 0.785405 0.640997
0.757151 0.775814 0.638407
0.901909 0.772294 0.636550
1.000000 0.769738 0.636192
0.000000 1.000000 0.660135
0.000000 0.990828 0.650999
0.088901 0.982147 0.640421
0.255387 0.969445 0.630492
0.427397 0.951196 0.624207
0.597359 0.926067 0.627566
0.745981 0.914932 0.628952
0.890392 0.911572 0.626520
1.000000 0.908464 0.626508
0.000000 1.000000 0.634597
0.000000 1.000000 0.629135
0.095192 1.000000 0.620929
0.256919 1.000000 0.613805
0.423465 1.000000 0.611731
0.588979 1.000000 0.618434
0.738510 1.000000 0.623486
0.880811 1.000000 0.620281
1.000000 1.000000 0.619624
0.000000 0.000000 0.922679
0.103074 0.000000 0.884970
0.242067 0.000000 0.851887
0.375034 0.000000 0.828059
0.507899 0.000000 0.817299
0.642259 0.000000 0.813090
0.773861 0.000000 0.807312
0.902114 0.000000 0.800542
1.000000 0.000000 0.793292
0.000000 0.098713 0.955642
0.089633 0.093327 0.920307
0.238196 0.091045 0.878024
0.375986 0.091166 0.844099
0.509377 0.091730 0.824925
0.645930 0.090871 0.820021
0.780559 0.090715 0.814667
0.911869 0.091648 0.808292
1.000000 0.093737 0.801500
0.000000 0.247908 0.972794
0.062295 0.238764 0.950848
0.224606 0.231150 0.911218
0.372642 0.227402 0.864488
0.508636 0.226628 0.832627
0.645725 0.225470 0.823036
0.783360 0.224375 0.818125
0.917727 0.224359 0.812149
1.000000 0.225504 0.805842
0.000000 0.402213 0.971518
0.022326 0.391788 0.961609
0.194267 0.380230 0.939100
0.360014 0.369532 0.895312
0.505596 0.363710 0.844829
0.641665 0.361612 0.822117
0.782260 0.359589 0.817682
0.919680 0.358625 0.812110
1.000000 0.358826 0.806338
0.000000 0.558755 0.952523
0.000000 0.549626 0.949877
0.149187 0.537998 0.940846
0.326538 0.523894 0.919774
0.495858 0.508473 0.872589
0.635856 0.499387 0.821290
0.777259 0.496357 0.813336
0.917725 0.494445 0.808183
1.000000 0.493701 0.803040
0.000000 0.714942 0.922712
0.000000 0.707069 0.918346
0.101860 0.698402 0.914652
0.276793 0.686917 0.906995
0.459161 0.671539 0.891004
0.632138 0.647972 0.843051
0.768360 0.634678 0.805088
0.911853 0.631819 0.800395
1.000000 0.630123 0.796084
0.000000 0.865820 0.883561
0.000000 0.857424 0.875127
0.071313 0.851364 0.869353
0.238039 0.843211 0.861481
0.412769 0.832897 0.851439
0.595504 0.820423 0.839226
0.755652 0.774527 0.792913
0.902033 0.770738 0.788931
1.000000 0.768044 0.785919
0.000000 1.000000 0.844384
0.000000 0.999543 0.834151
0.063218 0.993183 0.824946
0.225646 0.984664 0.814008
0.395744 0.972392 0.801386
0.571913 0.953894 0.788141
0.742718 0.920969 0.779403
0.889141 0.910711 0.776066
1.000000 0.907169 0.774136
0.000000 1.000000 0.810742
0.000000 1.000000 0.801765
0.066407 1.000000 0.792502
0.224973 1.000000 0.781648
0.390798 1.000000 0.771265
0.561787 1.000000 0.764128
0.730089 1.000000 0.765914
0.877983 1.000000 0.766567
1.000000 1.000000 0.764052
0.000000 0.000000 1.000000
0.101480 0.000000 1.000000
0.240145 0.000000 0.992217
0.372982 0.000000 0.966693
0.503232 0.000000 0.950151
0.635395 0.000000 0.944222
0.766888 0.000000 0.939553
0.895515 0.000000 0.933400
1.000000 0.000000 0.927566
0.000000 0.097036 1.000000
0.089616 0.093196 1.000000
0.236656 0.091218 1.000000
0.374876 0.091320 0.989685
0.507323 0.092463 0.965460
0.640010 0.092909 0.954596
0.774404 0.092701 0.950448
0.906067 0.093465 0.944711
1.000000 0.095321 0.937962
0.000000 0.244511 1.000000
0.066141 0.236728 1.000000
0.224095 0.230462 1.000000
0.371569 0.227188 1.000000
0.508524 0.226523 0.981810
0.641488 0.226663 0.962305
0.778038 0.225758 0.957437
0.912724 0.225580 0.952128
1.000000 0.226487 0.945773
0.000000 0.396904 1.000000
0.031814 0.386733 1.000000
0.197885 0.376948 1.000000
0.359011 0.368287 1.000000
0.505743 0.363321 1.000000
0.640876 0.361717 0.970206
0.777793 0.360363 0.960506
0.915481 0.359248 0.955643
1.000000 0.359206 0.949685
0.000000 0.552837 1.000000
0.000000 0.541702 1.000000
0.158980 0.530921 1.000000
0.330058 0.518674 1.000000
0.494361 0.506671 1.000000
0.638316 0.499293 0.982945
0.773698 0.496511 0.959636
0.914336 0.494469 0.955257
1.000000 0.493479 0.949702
0.000000 0.710078 1.000000
0.000000 0.698806 1.000000
0.113940 0.689456 1.000000
0.286194 0.677538 1.000000
0.462683 0.662752 1.000000
0.630148 0.645613 1.000000
0.768048 0.634473 0.959041
0.909291 0.631244 0.950968
1.000000 0.629306 0.945828
0.000000 0.865543 1.000000
0.000000 0.855178 1.000000
0.073592 0.847179 1.000000
0.239593 0.838537 1.000000
0.414236 0.826951 1.000000
0.595959 0.811113 1.000000
0.766371 0.785114 0.982932
0.900349 0.769572 0.942775
1.000000 0.766688 0.938087
0.000000 1.000000 1.000000
0.000000 1.000000 1.000000
0.050411 0.997293 1.000000
0.208984 0.991333 1.000000
0.375561 0.983214 1.000000
0.550142 0.972934 0.994287
0.732728 0.960493 0.982179
0.887627 0.909420 0.930650
1.000000 0.905616 0.926643
0.000000 1.000000 0.996919
0.000000 1.000000 0.986606
0.043031 1.000000 0.976286
0.200315 1.000000 0.966998
0.362389 1.000000 0.955948
0.531963 1.000000 0.943035
0.707148 1.000000 0.929009
0.875404 1.000000 0.917811
1.000000 1.000000 0.913729
0.000000 0.000000 1.000000
0.100781 0.000000 1.000000
0.239344 0.000000 1.000000
0.370615 0.000000 1.000000
0.499731 0.000000 1.000000
0.628513 0.000000 1.000000
0.759117 0.000000 1.000000
0.889996 0.000000 1.000000
1.000000 0.000000 1.000000
0.000000 0.095248 1.000000
0.088575 0.092110 1.000000
0.235250 0.091869 1.000000
0.373185 0.092111 1.000000
0.505483 0.093435 1.000000
0.635421 0.094935 1.000000
0.767539 0.095380 1.000000
0.899073 0.096068 1.000000
1.000000 0.097754 1.000000
0.000000 0.241720 1.000000
0.066929 0.234896 1.000000
0.224138 0.230329 1.000000
0.370240 0.227517 1.000000
0.507685 0.226909 1.000000
0.639613 0.227555 1.000000
0.772122 0.227807 1.000000
0.906552 0.227581 1.000000
1.000000 0.228323 1.000000
0.000000 0.392695 1.000000
0.035724 0.383116 1.000000
0.201615 0.374733 1.000000
0.358560 0.367597 1.000000
0.504944 0.363331 1.000000
0.641064 0.361880 1.000000
0.773600 0.361595 1.000000
0.910144 0.360645 1.000000
1.000000 0.360445 1.000000
0.000000 0.547321 1.000000
0.000000 0.536174 1.000000
0.168220 0.525558 1.000000
0.333478 0.515131 1.000000
0.493418 0.505424 1.000000
0.638845 0.499241 1.000000
0.773116 0.496806 1.000000
0.909860 0.495257 1.000000
1.000000 0.494121 1.000000
0.000000 0.704177 1.000000
0.000000 0.692637 1.000000
0.127841 0.681205 1.000000
0.295638 0.670053 1.000000
0.465851 0.657117 1.000000
0.628711 0.643809 1.000000
0.771038 0.634876 1.000000
0.905731 0.631409 1.000000
1.000000 0.629350 1.000000
0.000000 0.861267 1.000000
0.000000 0.850218 1.000000
0.085824 0.838857 1.000000
0.251434 0.829289 1.000000
0.423204 0.817078 1.000000
0.598830 0.801610 1.000000
0.764440 0.782754 1.000000
0.900240 0.769559 1.000000
1.000000 0.766132 1.000000
0.000000 1.000000 1.000000
0.000000 1.000000 1.000000
0.046108 0.995414 1.000000
0.211521 0.987318 1.000000
0.377329 0.978671 1.000000
0.551682 0.966984 1.000000
0.732760 0.950687 1.000000
0.900606 0.922256 1.000000
1.000000 0.904467 1.000000
0.000000 1.000000 1.000000
0.000000 1.000000 1.000000
0.019398 1.000000 1.000000
0.188234 1.000000 1.000000
0.346658 1.000000 1.000000
0.513086 1.000000 1.000000
0.687518 1.000000 1.000000
0.869955 1.000000 1.000000
1.000000 1.000000 1.000000
