assets/presets/luts/ocean/lut.cube
TITLE "Ocean"
LUT_3D_SIZE 5
0.000000 0.000000 0.000000
0.251488 0.000000 0.000000
0.522578 0.000000 0.000000
0.777133 0.000000 0.000000
1.000000 0.000000 0.000000
0.000000 0.248248 0.000000
0.230175 0.237103 0.000000
0.511287 0.231929 0.000000
0.777250 0.230660 0.000000
1.000000 0.233736 0.000000
0.000000 0.524529 0.000000
0.214319 0.512302 0.000000
0.495240 0.507392 0.000000
0.768397 0.503832 0.000000
1.000000 0.503599 0.000000
0.000000 0.793973 0.000000
0.212687 0.781649 0.000000
0.486091 0.779300 0.000000
0.759068 0.776034 0.000000
1.000000 0.774221 0.000000
0.000000 1.000000 0.000000
0.225047 1.000000 0.000000
0.489633 1.000000 0.000000
0.757000 1.000000 0.000000
1.000000 1.000000 0.000000
0.000000 0.000000 0.313624
0.249110 0.000000 0.262781
0.525359 0.000000 0.252580
0.785183 0.000000 0.244865
1.000000 0.000000 0.241130
0.000000 0.272726 0.279993
0.227779 0.234947 0.241929
0.515814 0.228632 0.235391
0.787331 0.226778 0.233296
1.000000 0.229388 0.235665
0.000000 0.555607 0.208078
0.199186 0.519391 0.212533
0.494265 0.506887 0.213947
0.775809 0.501617 0.216170
1.000000 0.500246 0.224326
0.000000 0.825294 0.186085
0.186436 0.795633 0.198930
0.478393 0.782113 0.205792
0.759530 0.777176 0.205910
1.000000 0.773526 0.215563
0.000000 1.000000 0.181296
0.190860 1.000000 0.202529
0.476870 1.000000 0.213697
0.750304 1.000000 0.210610
1.000000 1.000000 0.217839
0.000000 0.000000 0.632394
0.244156 0.000000 0.557458
0.519112 0.000000 0.543082
0.783704 0.000000 0.530784
1.000000 0.000000 0.519178
0.000000 0.258904 0.656954
0.227287 0.234190 0.593116
0.513190 0.226585 0.538065
0.789816 0.224036 0.527809
1.000000 0.226124 0.519874
0.000000 0.571462 0.584109
0.138033 0.552823 0.565732
0.491710 0.504738 0.517429
0.780115 0.498337 0.510648
1.000000 0.496389 0.508262
0.000000 0.852114 0.509515
0.119980 0.831493 0.489716
0.464632 0.790510 0.489220
0.758352 0.776677 0.488992
1.000000 0.771317 0.490927
0.000000 1.000000 0.470724
0.128349 1.000000 0.465770
0.452071 1.000000 0.475376
0.742495 1.000000 0.480663
1.000000 1.000000 0.480446
0.000000 0.000000 0.922679
0.242067 0.000000 0.851887
0.507899 0.000000 0.817299
0.773861 0.000000 0.807312
1.000000 0.000000 0.793292
0.000000 0.247908 0.972794
0.224606 0.231150 0.911218
0.508636 0.226628 0.832627
0.783360 0.224375 0.818125
1.000000 0.225504 0.805842
0.000000 0.558755 0.952523
0.149187 0.537998 0.940846
0.495858 0.508473 0.872589
0.777259 0.496357 0.813336
1.000000 0.493701 0.803040
0.000000 0.865820 0.883561
0.071313 0.851364 0.869353
0.412769 0.832897 0.851439
0.755652 0.774527 0.792913
1.000000 0.768044 0.785919
0.000000 1.000000 0.810742
0.066407 1.000000 0.792502
0.390798 1.000000 0.771265
0.730089 1.000000 0.765914
1.000000 1.000000 0.764052
0.000000 0.000000 1.000000
0.239344 0.000000 1.000000
0.499731 0.000000 1.000000
0.759117 0.000000 1.000000
1.000000 0.000000 1.000000
0.000000 0.241720 1.000000
0.224138 0.230329 1.000000
0.507685 0.226909 1.000000
0.772122 0.227807 1.000000
1.000000 0.228323 1.000000
0.000000 0.547321 1.000000
0.168220 0.525558 1.000000
0.493418 0.505424 1.000000
0.773116 0.496806 1.000000
1.000000 0.494121 1.000000
0.000000 0.861267 1.000000
0.085824 0.838857 1.000000
0.423204 0.817078 1.000000
0.764440 0.782754 1.000000
1.000000 0.766132 1.000000
0.000000 1.000000 1.000000
0.019398 1.000000 1.000000
0.346658 1.000000 1.000000
0.687518 1.000000 1.000000
1.000000 1.000000 1.000000
