assets/presets/luts/desert-heat/lut.cube
TITLE "Desert Heat"
LUT_3D_SIZE 9
0.000000 0.000000 0.000000
0.091603 0.000000 0.000000
0.222962 0.000000 0.000000
0.354320 0.000000 0.000000
0.485679 0.000000 0.000000
0.617038 0.000000 0.000000
0.748396 0.000000 0.000000
0.879755 0.000000 0.000000
1.000000 0.000000 0.000000
0.000000 0.088766 0.000000
0.096338 0.090241 0.000000
0.227697 0.091695 0.000000
0.359055 0.093149 0.000000
0.490414 0.094602 0.000000
0.621773 0.096056 0.000000
0.753131 0.097509 0.000000
0.884490 0.098963 0.000000
1.000000 0.100416 0.000000
0.000000 0.219168 0.000000
0.101069 0.220643 0.000000
0.232427 0.222097 0.000000
0.363786 0.223550 0.000000
0.495145 0.225004 0.000000
0.626503 0.226458 0.000000
0.757862 0.227911 0.000000
0.889220 0.229365 0.000000
1.000000 0.230818 0.000000
0.000000 0.349569 0.000000
0.105799 0.351045 0.000000
0.237158 0.352499 0.000000
0.368516 0.353952 0.000000
0.499875 0.355406 0.000000
0.631234 0.356859 0.000000
0.762592 0.358313 0.000000
0.893951 0.359766 0.000000
1.000000 0.361220 0.000000
0.000000 0.479971 0.000000
0.110530 0.481447 0.000000
0.241888 0.482900 0.000000
0.373247 0.484354 0.000000
0.504606 0.485808 0.000000
0.635964 0.487261 0.000000
0.767323 0.488715 0.000000
0.898681 0.490168 0.000000
1.000000 0.491622 0.000000
0.000000 0.610373 0.000000
0.115260 0.611849 0.000000
0.246619 0.613302 0.000000
0.377977 0.614756 0.000000
0.509336 0.616209 0.000000
0.640695 0.617663 0.000000
0.772053 0.619117 0.000000
0.903412 0.620570 0.000000
1.000000 0.622024 0.000000
0.000000 0.740775 0.000000
0.119991 0.742251 0.000000
0.251349 0.743704 0.000000
0.382708 0.745158 0.000000
0.514067 0.746611 0.000000
0.645425 0.748065 0.000000
0.776784 0.749518 0.000000
0.908143 0.750972 0.000000
1.000000 0.752425 0.000000
0.000000 0.871177 0.000000
0.124721 0.872652 0.000000
0.256080 0.874106 0.000000
0.387439 0.875560 0.000000
0.518797 0.877013 0.000000
0.650156 0.878467 0.000000
0.781514 0.879920 0.000102
0.912873 0.881374 0.001555
1.000000 0.882827 0.003009
0.000000 1.000000 0.000000
0.129452 1.000000 0.000000
0.260810 1.000000 0.000000
0.392169 1.000000 0.000472
0.523528 1.000000 0.001925
0.654886 1.000000 0.003379
0.786245 1.000000 0.004832
0.917604 1.000000 0.006286
1.000000 1.000000 0.007739
0.000000 0.000000 0.045264
0.092057 0.000000 0.079561
0.223415 0.000000 0.081015
0.354774 0.000000 0.082469
0.486133 0.000000 0.083922
0.617491 0.000000 0.085376
0.748850 0.000000 0.086829
0.880209 0.000000 0.088283
1.000000 0.000000 0.089736
0.000000 0.081662 0.077041
0.096792 0.090695 0.084296
0.228150 0.092149 0.085750
0.359509 0.093602 0.087204
0.490868 0.095056 0.088657
0.622226 0.096509 0.090111
0.753585 0.097963 0.091564
0.884944 0.099417 0.093018
1.000000 0.100870 0.094471
0.000000 0.213646 0.094103
0.101522 0.221097 0.089027
0.232881 0.222551 0.090481
0.364240 0.224004 0.091934
0.495598 0.225458 0.093388
0.626957 0.226911 0.094841
0.758316 0.228365 0.096295
0.889674 0.229818 0.097748
1.000000 0.231272 0.099202
0.000000 0.345486 0.099583
0.106253 0.351499 0.093758
0.237611 0.352952 0.095211
0.368970 0.354406 0.096665
0.500329 0.355859 0.098118
0.631687 0.357313 0.099572
0.763046 0.358767 0.101025
0.894405 0.360220 0.102479
1.000000 0.361674 0.103932
0.000000 0.476805 0.103705
0.110983 0.481901 0.098488
0.242342 0.483354 0.099942
0.373701 0.484808 0.101395
0.505059 0.486261 0.102849
0.636418 0.487715 0.104302
0.767777 0.489168 0.105756
0.899135 0.490622 0.107209
1.000000 0.492076 0.108663
0.000000 0.607824 0.107712
0.115714 0.612302 0.103219
0.247073 0.613756 0.104672
0.378431 0.615210 0.106126
0.509790 0.616663 0.107579
0.641148 0.618117 0.109033
0.772507 0.619570 0.110486
0.903866 0.621024 0.111940
1.000000 0.622477 0.113394
0.000000 0.738667 0.111799
0.120444 0.742704 0.107949
0.251803 0.744158 0.109403
0.383162 0.745611 0.110856
0.514520 0.747065 0.112310
0.645879 0.748519 0.113763
0.777238 0.749972 0.115217
0.908596 0.751426 0.116671
1.000000 0.752879 0.118124
0.000000 0.869397 0.115989
0.125175 0.873106 0.112680
0.256534 0.874560 0.114133
0.387892 0.876013 0.115587
0.519251 0.877467 0.117040
0.650609 0.878920 0.118494
0.781968 0.880374 0.119947
0.913327 0.881827 0.121401
1.000000 0.883281 0.122855
0.001749 1.000000 0.120287
0.129905 1.000000 0.117410
0.261264 1.000000 0.118864
0.392623 1.000000 0.120317
0.523981 1.000000 0.121771
0.655340 1.000000 0.123224
0.786699 1.000000 0.124678
0.918057 1.000000 0.126132
1.000000 1.000000 0.127585
0.000000 0.000000 0.133627
0.084991 0.000000 0.184260
0.223876 0.000000 0.202703
0.355235 0.000000 0.204157
0.486593 0.000000 0.205611
0.617952 0.000000 0.207064
0.749311 0.000000 0.208518
0.880669 0.000000 0.209971
1.000000 0.000000 0.211425
0.006795 0.082304 0.151233
0.098219 0.093811 0.176838
0.228611 0.092609 0.207438
0.359970 0.094063 0.208892
0.491328 0.095516 0.210346
0.622687 0.096970 0.211799
0.754046 0.098424 0.213253
0.885404 0.099877 0.214706
1.000000 0.101331 0.216160
0.023970 0.204858 0.197059
0.126518 0.214672 0.206679
0.233342 0.223011 0.212169
0.364700 0.224465 0.213623
0.496059 0.225918 0.215076
0.627418 0.227372 0.216530
0.758776 0.228825 0.217983
0.890135 0.230279 0.219437
1.000000 0.231733 0.220890
0.018006 0.336479 0.221200
0.122139 0.346741 0.221719
0.238072 0.353413 0.216899
0.369431 0.354867 0.218353
0.500789 0.356320 0.219807
0.632148 0.357774 0.221260
0.763507 0.359227 0.222714
0.894865 0.360681 0.224167
1.000000 0.362134 0.225621
0.014332 0.468786 0.231813
0.122331 0.478463 0.226729
0.242803 0.483815 0.221630
0.374161 0.485268 0.223084
0.505520 0.486722 0.224537
0.636879 0.488176 0.225991
0.768237 0.489629 0.227444
0.899596 0.491083 0.228898
1.000000 0.492536 0.230351
0.013099 0.600802 0.238109
0.124553 0.609680 0.230776
0.247533 0.614217 0.226361
0.378892 0.615670 0.227814
0.510250 0.617124 0.229268
0.641609 0.618577 0.230721
0.772968 0.620031 0.232175
0.904326 0.621484 0.233628
1.000000 0.622938 0.235082
0.013483 0.732491 0.242891
0.127707 0.740621 0.234807
0.252264 0.744618 0.231091
0.383622 0.746072 0.232545
0.514981 0.747526 0.233998
0.646340 0.748979 0.235452
0.777698 0.750433 0.236905
0.909057 0.751886 0.238359
1.000000 0.753340 0.239813
0.014932 0.863919 0.247119
0.131358 0.871404 0.238944
0.256994 0.875020 0.235822
0.388353 0.876474 0.237275
0.519712 0.877927 0.238729
0.651070 0.879381 0.240182
0.782429 0.880835 0.241636
0.913787 0.882288 0.243089
1.000000 0.883742 0.244543
0.017192 0.995119 0.251216
0.135329 1.000000 0.243209
0.261725 1.000000 0.240552
0.393083 1.000000 0.242006
0.524442 1.000000 0.243459
0.655801 1.000000 0.244913
0.787159 1.000000 0.246366
0.918518 1.000000 0.247820
1.000000 1.000000 0.249274
0.000000 0.000000 0.221989
0.080965 0.000000 0.275382
0.217898 0.000000 0.314375
0.355695 0.000000 0.325845
0.487054 0.000000 0.327299
0.618413 0.000000 0.328753
0.749771 0.000000 0.330206
0.881130 0.000000 0.331660
1.000000 0.000000 0.333113
0.009446 0.086373 0.230732
0.101227 0.096880 0.265189
0.222069 0.096644 0.314343
0.360430 0.094524 0.330580
0.491789 0.095977 0.332034
0.623148 0.097431 0.333488
0.754506 0.098884 0.334941
0.885865 0.100338 0.336395
1.000000 0.101791 0.337848
0.047656 0.203188 0.271463
0.143271 0.215041 0.281296
0.233759 0.226132 0.307634
0.365161 0.224925 0.335311
0.496520 0.226379 0.336765
0.627878 0.227833 0.338218
0.759237 0.229286 0.339672
0.890595 0.230740 0.341125
1.000000 0.232193 0.342579
0.057125 0.328055 0.317073
0.159687 0.337858 0.326753
0.260657 0.347554 0.336038
0.369891 0.355327 0.340041
0.501250 0.356781 0.341495
0.632609 0.358234 0.342949
0.763967 0.359688 0.344402
0.895326 0.361142 0.345856
1.000000 0.362595 0.347309
0.051009 0.459352 0.344876
0.153768 0.469599 0.349576
0.256725 0.479672 0.349281
0.374622 0.485729 0.344772
0.505981 0.487183 0.346226
0.637339 0.488636 0.347679
0.768698 0.490090 0.349133
0.900056 0.491543 0.350586
1.000000 0.492997 0.352040
0.045842 0.591638 0.360086
0.150403 0.601886 0.359476
0.257397 0.611285 0.353961
0.379352 0.616131 0.349503
0.510711 0.617584 0.350956
0.642070 0.619038 0.352410
0.773428 0.620492 0.353863
0.904787 0.621945 0.355317
1.000000 0.623399 0.356770
0.042629 0.723926 0.369522
0.149468 0.733848 0.365430
0.259924 0.742414 0.357975
0.384083 0.746533 0.354233
0.515442 0.747986 0.355687
0.646800 0.749440 0.357140
0.778159 0.750893 0.358594
0.909518 0.752347 0.360047
1.000000 0.753801 0.361501
0.041049 0.856005 0.376220
0.150103 0.865478 0.370053
0.263283 0.873291 0.362040
0.388814 0.876935 0.358964
0.520172 0.878388 0.360417
0.651531 0.879842 0.361871
0.782889 0.881295 0.363324
0.914248 0.882749 0.364778
1.000000 0.884202 0.366231
0.040885 0.987791 0.381650
0.151860 0.996815 0.374279
0.267108 1.000000 0.366250
0.393544 1.000000 0.363694
0.524903 1.000000 0.365148
0.656261 1.000000 0.366601
0.787620 1.000000 0.368055
0.918979 1.000000 0.369508
1.000000 1.000000 0.370962
0.000000 0.000000 0.310352
0.080279 0.000000 0.364462
0.209534 0.000000 0.411095
0.351375 0.000000 0.441155
0.487515 0.000000 0.448987
0.618873 0.000000 0.450441
0.750232 0.000000 0.451895
0.881591 0.000000 0.453348
1.000000 0.000000 0.454802
0.011333 0.090248 0.314394
0.104266 0.099939 0.353547
0.217479 0.101642 0.405953
0.355215 0.097530 0.443767
0.492250 0.096438 0.453722
0.623608 0.097891 0.455176
0.754967 0.099345 0.456630
0.886326 0.100799 0.458083
1.000000 0.102252 0.459537
0.055383 0.206316 0.345336
0.145857 0.219109 0.360997
0.236669 0.229232 0.395969
0.359207 0.228572 0.444329
0.496980 0.226840 0.458453
0.628339 0.228293 0.459907
0.759697 0.229747 0.461360
0.891056 0.231200 0.462814
1.000000 0.232654 0.464267
0.084910 0.325061 0.392522
0.184097 0.335936 0.401528
0.278357 0.347589 0.411180
0.369418 0.358417 0.438438
0.501711 0.357241 0.463183
0.633069 0.358695 0.464637
0.764428 0.360149 0.466091
0.895787 0.361602 0.467544
1.000000 0.363056 0.468998
0.090280 0.451251 0.437087
0.192847 0.461051 0.446785
0.293849 0.470721 0.456242
0.394781 0.480457 0.465244
0.506441 0.487643 0.467914
0.637800 0.489097 0.469368
0.769159 0.490550 0.470821
0.900517 0.492004 0.472275
1.000000 0.493458 0.473728
0.084217 0.582312 0.467075
0.186692 0.592455 0.473648
0.288000 0.602566 0.477831
0.391391 0.612588 0.476756
0.511172 0.618045 0.472645
0.642530 0.619499 0.474098
0.773889 0.620952 0.475552
0.905248 0.622406 0.477005
1.000000 0.623859 0.478459
0.078352 0.714450 0.485810
0.181692 0.724759 0.488186
0.284920 0.734828 0.487126
0.392545 0.744085 0.481172
0.515902 0.748447 0.477375
0.647261 0.749901 0.478829
0.778620 0.751354 0.480282
0.909978 0.752808 0.481736
1.000000 0.754261 0.483189
0.073917 0.846795 0.498275
0.178689 0.857027 0.497200
0.284246 0.866741 0.492807
0.395369 0.875126 0.485181
0.520633 0.878849 0.482106
0.651991 0.880302 0.483559
0.783350 0.881756 0.485013
0.914709 0.883209 0.486466
1.000000 0.884663 0.487920
0.071214 0.978970 0.507334
0.177528 0.988998 0.503739
0.285222 0.998274 0.497387
0.398959 1.000000 0.489321
0.525363 1.000000 0.486836
0.656722 1.000000 0.488290
0.788081 1.000000 0.489743
0.919439 1.000000 0.491197
1.000000 1.000000 0.492650
0.000000 0.000000 0.398714
0.081092 0.000000 0.453027
0.204429 0.000000 0.503040
0.341870 0.000000 0.542635
0.484532 0.000000 0.566456
0.619334 0.000000 0.572129
0.750693 0.000000 0.573583
0.882051 0.000000 0.575037
1.000000 0.000000 0.576490
0.013428 0.093876 0.399900
0.107313 0.102995 0.441907
0.216477 0.105816 0.495171
0.346580 0.103141 0.541222
0.488635 0.098644 0.570119
0.624069 0.098352 0.576864
0.755428 0.099806 0.578318
0.886786 0.101259 0.579772
1.000000 0.102713 0.581225
0.058585 0.210371 0.423350
0.147754 0.222959 0.444876
0.239679 0.232300 0.484320
0.354038 0.233686 0.536501
0.492527 0.229476 0.573056
0.628799 0.228754 0.581595
0.760158 0.230207 0.583049
0.891517 0.231661 0.584502
1.000000 0.233115 0.585956
0.097644 0.326850 0.464914
0.191858 0.339053 0.475399
0.280929 0.351654 0.490951
0.372159 0.361568 0.526759
0.496404 0.360494 0.574204
0.633530 0.359156 0.586325
0.764889 0.360609 0.587779
0.896247 0.362063 0.589233
1.000000 0.363516 0.590686
0.120546 0.447431 0.513417
0.221244 0.457841 0.522583
0.319060 0.468516 0.531457
0.413443 0.480137 0.541064
0.505214 0.490662 0.569236
0.638261 0.489558 0.591056
0.769619 0.491011 0.592510
0.900978 0.492465 0.593963
1.000000 0.493918 0.595417
0.123435 0.574448 0.557101
0.226005 0.584246 0.566808
0.327018 0.593907 0.576313
0.427998 0.603594 0.585667
0.528899 0.613379 0.594271
0.642991 0.619959 0.595787
0.774350 0.621413 0.597240
0.905708 0.622867 0.598694
1.000000 0.624320 0.600147
0.117469 0.705334 0.588529
0.219879 0.715398 0.596074
0.320841 0.725408 0.602281
0.422255 0.735532 0.606017
0.526147 0.745485 0.604151
0.647722 0.750361 0.600517
0.779080 0.751815 0.601971
0.910439 0.753268 0.603424
1.000000 0.754722 0.604878
0.111273 0.837300 0.609944
0.214105 0.847569 0.614219
0.316000 0.857725 0.616224
0.419472 0.867765 0.614730
0.527781 0.876859 0.608372
0.652452 0.880763 0.605248
0.783811 0.882217 0.606701
0.915169 0.883670 0.608155
1.000000 0.885124 0.609608
0.106477 0.969476 0.625143
0.210160 0.979801 0.626357
0.313455 0.989882 0.624985
0.419230 0.999566 0.620247
0.530938 1.000000 0.612437
0.657183 1.000000 0.609978
0.788541 1.000000 0.611432
0.919900 1.000000 0.612885
1.000000 1.000000 0.614339
0.000000 0.000000 0.487077
0.082667 0.000000 0.541427
0.201735 0.000000 0.593134
0.334079 0.000000 0.637927
0.475224 0.000000 0.671633
0.617353 0.000000 0.690984
0.751153 0.000000 0.695271
0.882512 0.000000 0.696725
1.000000 0.000000 0.698179
0.015748 0.097341 0.486355
0.110363 0.106050 0.530268
0.217104 0.109566 0.583786
0.341158 0.108321 0.633474
0.479124 0.104031 0.672377
0.621683 0.100004 0.695138
0.755888 0.100266 0.700006
0.887247 0.101720 0.701460
1.000000 0.103173 0.702914
0.060638 0.214456 0.504442
0.149884 0.226560 0.530550
0.242711 0.235361 0.572677
0.352699 0.237944 0.625875
0.483655 0.235077 0.671305
0.625863 0.230658 0.698990
0.760619 0.230668 0.704737
0.891977 0.232122 0.706191
1.000000 0.233575 0.707644
0.103970 0.330328 0.539439
0.195016 0.343113 0.553499
0.282835 0.355490 0.574951
0.375121 0.364652 0.615101
0.490654 0.365716 0.667013
0.629829 0.361437 0.702238
0.765349 0.361070 0.709467
0.896708 0.362523 0.710921
1.000000 0.363977 0.712375
0.137236 0.448052 0.585733
0.234125 0.459586 0.594970
0.326945 0.471601 0.605283
0.416002 0.484199 0.620908
0.507702 0.493888 0.657556
0.633650 0.492413 0.703956
0.770080 0.491472 0.714198
0.901438 0.492925 0.715652
1.000000 0.494379 0.717105
0.155345 0.570070 0.634115
0.256783 0.580241 0.643459
0.356062 0.590464 0.652507
0.454015 0.601098 0.661387
0.548529 0.612686 0.670948
0.641170 0.622861 0.700012
0.774810 0.621874 0.718929
0.906169 0.623327 0.720382
1.000000 0.624781 0.721836
0.156590 0.697644 0.677114
0.259161 0.707442 0.686827
0.360180 0.717099 0.696355
0.461179 0.726770 0.705801
0.562136 0.736477 0.715023
0.663026 0.746319 0.723097
0.779541 0.752275 0.723659
0.910900 0.753729 0.725113
1.000000 0.755183 0.726566
0.150724 0.828398 0.709559
0.253126 0.838408 0.717672
0.354003 0.848336 0.724928
0.454997 0.858363 0.730866
0.556534 0.868499 0.734132
0.661005 0.878360 0.731476
0.784271 0.882677 0.728390
0.915630 0.884131 0.729843
1.000000 0.885584 0.731297
0.144886 0.960045 0.733080
0.247451 0.970265 0.738628
0.348742 0.980400 0.742617
0.450674 0.990576 0.744319
0.554294 1.000000 0.742391
0.663180 1.000000 0.735618
0.789002 1.000000 0.733120
0.920361 1.000000 0.734574
1.000000 1.000000 0.736027
0.000000 0.000000 0.575439
0.084677 0.000000 0.629766
0.200604 0.000000 0.682393
0.328545 0.000000 0.730253
0.466097 0.000000 0.770046
0.608755 0.000000 0.799036
0.749914 0.000000 0.815060
0.882973 0.000000 0.818413
1.000000 0.000000 0.819867
0.018234 0.100701 0.573356
0.113414 0.109105 0.618630
0.218560 0.113089 0.672207
0.338223 0.112966 0.723719
0.471114 0.109634 0.768068
0.612538 0.104910 0.801071
0.754397 0.101532 0.819468
0.887708 0.102181 0.823148
1.000000 0.103634 0.824602
0.062496 0.218403 0.587487
0.152240 0.230001 0.617131
0.245753 0.238419 0.661036
0.353126 0.241747 0.714549
0.477912 0.240320 0.763890
0.616389 0.235950 0.802071
0.758791 0.232080 0.823738
0.892438 0.232582 0.827879
1.000000 0.234036 0.829333
0.107485 0.334350 0.616854
0.197048 0.347193 0.634706
0.284987 0.359073 0.660726
0.378132 0.367720 0.703452
0.488960 0.370061 0.756565
0.620763 0.367009 0.801340
0.763055 0.362692 0.827768
0.897169 0.362984 0.832609
1.000000 0.364438 0.834063
0.146789 0.450733 0.658652
0.240445 0.463065 0.669502
0.330097 0.475661 0.683398
0.417917 0.488019 0.705033
0.510596 0.496993 0.745888
0.627327 0.497733 0.797487
0.767112 0.493414 0.831306
0.901899 0.493386 0.837340
1.000000 0.494840 0.838794
0.175106 0.569740 0.706804
0.273678 0.580799 0.715798
0.369166 0.592145 0.724882
0.462031 0.604149 0.735167
0.551074 0.616743 0.750870
0.643302 0.626191 0.788358
0.770934 0.624335 0.833572
0.906630 0.623788 0.842071
1.000000 0.625241 0.843524
0.189661 0.692867 0.754663
0.291504 0.702905 0.764135
0.391488 0.712901 0.773359
0.490869 0.723092 0.782428
0.588963 0.733683 0.791318
0.683614 0.745234 0.800833
0.777307 0.755011 0.830744
0.911360 0.754190 0.846801
1.000000 0.755643 0.848255
0.189745 0.820841 0.797127
0.292317 0.830638 0.806843
0.393339 0.840293 0.816384
0.494348 0.849957 0.825872
0.595332 0.859640 0.835247
0.696266 0.869370 0.844304
0.797181 0.879274 0.851695
0.916091 0.884591 0.851532
1.000000 0.886045 0.852985
0.184561 0.951321 0.830277
0.286958 0.961294 0.838769
0.387800 0.971169 0.846658
0.488654 0.981120 0.853764
0.589630 0.991177 0.859456
0.691198 1.000000 0.862272
0.796101 1.000000 0.858817
0.920821 1.000000 0.856262
1.000000 1.000000 0.857716
0.000000 0.000000 0.663802
0.086956 0.000000 0.718084
0.200505 0.000000 0.771235
0.324839 0.000000 0.821014
0.458625 0.000000 0.864758
0.599125 0.000000 0.900183
0.742194 0.000000 0.925388
0.882280 0.000000 0.938848
1.000000 0.000000 0.941555
0.020841 0.103991 0.660700
0.116466 0.112160 0.706992
0.220488 0.116479 0.760555
0.336916 0.117217 0.813060
0.465361 0.114883 0.860619
0.603297 0.110560 0.899922
0.746063 0.105912 0.928234
0.886862 0.103175 0.943398
1.000000 0.104095 0.946290
0.064412 0.222202 0.671815
0.154759 0.233342 0.704230
0.248799 0.241476 0.749396
0.354454 0.245306 0.802994
0.474728 0.245022 0.854297
0.608167 0.241574 0.898181
0.749851 0.236846 0.930459
0.891393 0.233661 0.947879
1.000000 0.234497 0.951021
0.109861 0.338472 0.696636
0.198906 0.351128 0.717864
0.287366 0.362500 0.747386
0.381160 0.370782 0.791808
0.489178 0.373920 0.845305
0.614698 0.372312 0.894279
0.753668 0.367871 0.931713
0.895854 0.364179 0.952257
1.000000 0.364898 0.955751
0.152557 0.454340 0.733542
0.243928 0.467092 0.746969
0.332121 0.479738 0.764656
0.420092 0.491585 0.790911
0.513575 0.500071 0.834233
0.625262 0.502168 0.887239
0.757903 0.498937 0.931323
0.900203 0.494748 0.956448
1.000000 0.495300 0.960482
0.187563 0.571621 0.779094
0.283275 0.583468 0.788705
0.375532 0.595613 0.799386
0.465178 0.608209 0.813297
0.553001 0.620547 0.835124
0.646104 0.629324 0.876680
0.764057 0.629736 0.927920
0.904364 0.625413 0.960253
1.000000 0.625702 0.965213
0.211838 0.691769 0.827854
0.311497 0.702502 0.836870
0.408648 0.713377 0.845726
0.504205 0.724704 0.854795
0.597117 0.736698 0.865051
0.686146 0.749287 0.880836
0.778964 0.758475 0.919162
0.908242 0.756265 0.963038
1.000000 0.756104 0.969943
0.223673 0.815766 0.875101
0.325758 0.825724 0.884661
0.426123 0.835593 0.894009
0.526180 0.845565 0.903255
0.625663 0.855723 0.912348
0.723902 0.866270 0.921249
0.818700 0.877782 0.930718
0.913661 0.887100 0.961444
1.000000 0.886506 0.974674
0.223537 0.943863 0.916996
0.326109 0.953659 0.926719
0.427132 0.963313 0.936274
0.528144 0.972973 0.945793
0.629137 0.982645 0.955247
0.730095 0.992342 0.964558
0.830978 1.000000 0.973462
0.931803 1.000000 0.980126
1.000000 1.000000 0.979404
