assets/presets/luts/desert-heat/lut.cube
TITLE "Desert Heat"
LUT_3D_SIZE 5
0.000000 0.000000 0.000000
0.222962 0.000000 0.000000
0.485679 0.000000 0.000000
0.748396 0.000000 0.000000
1.000000 0.000000 0.000000
0.000000 0.219168 0.000000
0.232427 0.222097 0.000000
0.495145 0.225004 0.000000
0.757862 0.227911 0.000000
1.000000 0.230818 0.000000
0.000000 0.479971 0.000000
0.241888 0.482900 0.000000
0.504606 0.485808 0.000000
0.767323 0.488715 0.000000
1.000000 0.491622 0.000000
0.000000 0.740775 0.000000
0.251349 0.743704 0.000000
0.514067 0.746611 0.000000
0.776784 0.749518 0.000000
1.000000 0.752425 0.000000
0.000000 1.000000 0.000000
0.260810 1.000000 0.000000
0.523528 1.000000 0.001925
0.786245 1.000000 0.004832
1.000000 1.000000 0.007739
0.000000 0.000000 0.133627
0.223876 0.000000 0.202703
0.486593 0.000000 0.205611
0.749311 0.000000 0.208518
1.000000 0.000000 0.211425
0.023970 0.204858 0.197059
0.233342 0.223011 0.212169
0.496059 0.225918 0.215076
0.758776 0.228825 0.217983
1.000000 0.231733 0.220890
0.014332 0.468786 0.231813
0.242803 0.483815 0.221630
0.505520 0.486722 0.224537
0.768237 0.489629 0.227444
1.000000 0.492536 0.230351
0.013483 0.732491 0.242891
0.252264 0.744618 0.231091
0.514981 0.747526 0.233998
0.777698 0.750433 0.236905
1.000000 0.753340 0.239813
0.017192 0.995119 0.251216
0.261725 1.000000 0.240552
0.524442 1.000000 0.243459
0.787159 1.000000 0.246366
1.000000 1.000000 0.249274
0.000000 0.000000 0.310352
0.209534 0.000000 0.411095
0.487515 0.000000 0.448987
0.750232 0.000000 0.451895
1.000000 0.000000 0.454802
0.055383 0.206316 0.345336
0.236669 0.229232 0.395969
0.496980 0.226840 0.458453
0.759697 0.229747 0.461360
1.000000 0.232654 0.464267
0.090280 0.451251 0.437087
0.293849 0.470721 0.456242
0.506441 0.487643 0.467914
0.769159 0.490550 0.470821
1.000000 0.493458 0.473728
0.078352 0.714450 0.485810
0.284920 0.734828 0.487126
0.515902 0.748447 0.477375
0.778620 0.751354 0.480282
1.000000 0.754261 0.483189
0.071214 0.978970 0.507334
0.285222 0.998274 0.497387
0.525363 1.000000 0.486836
0.788081 1.000000 0.489743
1.000000 1.000000 0.492650
0.000000 0.000000 0.487077
0.201735 0.000000 0.593134
0.475224 0.000000 0.671633
0.751153 0.000000 0.695271
1.000000 0.000000 0.698179
0.060638 0.214456 0.504442
0.242711 0.235361 0.572677
0.483655 0.235077 0.671305
0.760619 0.230668 0.704737
1.000000 0.233575 0.707644
0.137236 0.448052 0.585733
0.326945 0.471601 0.605283
0.507702 0.493888 0.657556
0.770080 0.491472 0.714198
1.000000 0.494379 0.717105
0.156590 0.697644 0.677114
0.360180 0.717099 0.696355
0.562136 0.736477 0.715023
0.779541 0.752275 0.723659
1.000000 0.755183 0.726566
0.144886 0.960045 0.733080
0.348742 0.980400 0.742617
0.554294 1.000000 0.742391
0.789002 1.000000 0.733120
1.000000 1.000000 0.736027
0.000000 0.000000 0.663802
0.200505 0.000000 0.771235
0.458625 0.000000 0.864758
0.742194 0.000000 0.925388
1.000000 0.000000 0.941555
0.064412 0.222202 0.671815
0.248799 0.241476 0.749396
0.474728 0.245022 0.854297
0.749851 0.236846 0.930459
1.000000 0.234497 0.951021
0.152557 0.454340 0.733542
0.332121 0.479738 0.764656
0.513575 0.500071 0.834233
0.757903 0.498937 0.931323
1.000000 0.495300 0.960482
0.211838 0.691769 0.827854
0.408648 0.713377 0.845726
0.597117 0.736698 0.865051
0.778964 0.758475 0.919162
1.000000 0.756104 0.969943
0.223537 0.943863 0.916996
0.427132 0.963313 0.936274
0.629137 0.982645 0.955247
0.830978 1.000000 0.973462
1.000000 1.000000 0.979404
