assets/presets/luts/desert-heat/lut.cube
TITLE "Desert Heat"
LUT_3D_SIZE 17
0.000000 0.000000 0.000000
0.025924 0.000000 0.000000
0.091603 0.000000 0.000000
0.157282 0.000000 0.000000
0.222962 0.000000 0.000000
0.288641 0.000000 0.000000
0.354320 0.000000 0.000000
0.420000 0.000000 0.000000
0.485679 0.000000 0.000000
0.551358 0.000000 0.000000
0.617038 0.000000 0.000000
0.682717 0.000000 0.000000
0.748396 0.000000 0.000000
0.814076 0.000000 0.000000
0.879755 0.000000 0.000000
0.945434 0.000000 0.000000
1.000000 0.000000 0.000000
0.000000 0.023565 0.000000
0.028293 0.024314 0.000000
0.093973 0.025041 0.000000
0.159652 0.025767 0.000000
0.225331 0.026494 0.000000
0.291011 0.027221 0.000000
0.356690 0.027948 0.000000
0.422369 0.028674 0.000000
0.488049 0.029401 0.000000
0.553728 0.030128 0.000000
0.619407 0.030855 0.000000
0.685087 0.031582 0.000000
0.750766 0.032308 0.000000
0.816445 0.033035 0.000000
0.882125 0.033762 0.000000
0.947804 0.034489 0.000000
1.000000 0.035216 0.000000
0.000000 0.088766 0.000000
0.030659 0.089515 0.000000
0.096338 0.090241 0.000000
0.162017 0.090968 0.000000
0.227697 0.091695 0.000000
0.293376 0.092422 0.000000
0.359055 0.093149 0.000000
0.424735 0.093875 0.000000
0.490414 0.094602 0.000000
0.556093 0.095329 0.000000
0.621773 0.096056 0.000000
0.687452 0.096782 0.000000
0.753131 0.097509 0.000000
0.818811 0.098236 0.000000
0.884490 0.098963 0.000000
0.950169 0.099690 0.000000
1.000000 0.100416 0.000000
0.000000 0.153967 0.000000
0.033024 0.154716 0.000000
0.098703 0.155442 0.000000
0.164383 0.156169 0.000000
0.230062 0.156896 0.000000
0.295741 0.157623 0.000000
0.361421 0.158349 0.000000
0.427100 0.159076 0.000000
0.492779 0.159803 0.000000
0.558459 0.160530 0.000000
0.624138 0.161257 0.000000
0.689817 0.161983 0.000000
0.755497 0.162710 0.000000
0.821176 0.163437 0.000000
0.886855 0.164164 0.000000
0.952534 0.164891 0.000000
1.000000 0.165617 0.000000
0.000000 0.219168 0.000000
0.035389 0.219916 0.000000
0.101069 0.220643 0.000000
0.166748 0.221370 0.000000
0.232427 0.222097 0.000000
0.298107 0.222824 0.000000
0.363786 0.223550 0.000000
0.429465 0.224277 0.000000
0.495145 0.225004 0.000000
0.560824 0.225731 0.000000
0.626503 0.226458 0.000000
0.692182 0.227184 0.000000
0.757862 0.227911 0.000000
0.823541 0.228638 0.000000
0.889220 0.229365 0.000000
0.954900 0.230091 0.000000
1.000000 0.230818 0.000000
0.000000 0.284368 0.000000
0.037755 0.285117 0.000000
0.103434 0.285844 0.000000
0.169113 0.286571 0.000000
0.234793 0.287298 0.000000
0.300472 0.288025 0.000000
0.366151 0.288751 0.000000
0.431830 0.289478 0.000000
0.497510 0.290205 0.000000
0.563189 0.290932 0.000000
0.628868 0.291658 0.000000
0.694548 0.292385 0.000000
0.760227 0.293112 0.000000
0.825906 0.293839 0.000000
0.891586 0.294566 0.000000
0.957265 0.295292 0.000000
1.000000 0.296019 0.000000
0.000000 0.349569 0.000000
0.040120 0.350318 0.000000
0.105799 0.351045 0.000000
0.171478 0.351772 0.000000
0.237158 0.352499 0.000000
0.302837 0.353225 0.000000
0.368516 0.353952 0.000000
0.434196 0.354679 0.000000
0.499875 0.355406 0.000000
0.565554 0.356133 0.000000
0.631234 0.356859 0.000000
0.696913 0.357586 0.000000
0.762592 0.358313 0.000000
0.828272 0.359040 0.000000
0.893951 0.359766 0.000000
0.959630 0.360493 0.000000
1.000000 0.361220 0.000000
0.000000 0.414770 0.000000
0.042485 0.415519 0.000000
0.108164 0.416246 0.000000
0.173844 0.416973 0.000000
0.239523 0.417700 0.000000
0.305202 0.418426 0.000000
0.370882 0.419153 0.000000
0.436561 0.419880 0.000000
0.502240 0.420607 0.000000
0.567920 0.421333 0.000000
0.633599 0.422060 0.000000
0.699278 0.422787 0.000000
0.764958 0.423514 0.000000
0.830637 0.424241 0.000000
0.896316 0.424967 0.000000
0.961996 0.425694 0.000000
1.000000 0.426421 0.000000
0.000000 0.479971 0.000000
0.044850 0.480720 0.000000
0.110530 0.481447 0.000000
0.176209 0.482174 0.000000
0.241888 0.482900 0.000000
0.307568 0.483627 0.000000
0.373247 0.484354 0.000000
0.438926 0.485081 0.000000
0.504606 0.485808 0.000000
0.570285 0.486534 0.000000
0.635964 0.487261 0.000000
0.701644 0.487988 0.000000
0.767323 0.488715 0.000000
0.833002 0.489442 0.000000
0.898681 0.490168 0.000000
0.964361 0.490895 0.000000
1.000000 0.491622 0.000000
0.000000 0.545172 0.000000
0.047216 0.545921 0.000000
0.112895 0.546648 0.000000
0.178574 0.547375 0.000000
0.244254 0.548101 0.000000
0.309933 0.548828 0.000000
0.375612 0.549555 0.000000
0.441292 0.550282 0.000000
0.506971 0.551009 0.000000
0.572650 0.551735 0.000000
0.638330 0.552462 0.000000
0.704009 0.553189 0.000000
0.769688 0.553916 0.000000
0.835367 0.554642 0.000000
0.901047 0.555369 0.000000
0.966726 0.556096 0.000000
1.000000 0.556823 0.000000
0.000000 0.610373 0.000000
0.049581 0.611122 0.000000
0.115260 0.611849 0.000000
0.180940 0.612575 0.000000
0.246619 0.613302 0.000000
0.312298 0.614029 0.000000
0.377977 0.614756 0.000000
0.443657 0.615483 0.000000
0.509336 0.616209 0.000000
0.575015 0.616936 0.000000
0.640695 0.617663 0.000000
0.706374 0.618390 0.000000
0.772053 0.619117 0.000000
0.837733 0.619843 0.000000
0.903412 0.620570 0.000000
0.969091 0.621297 0.000000
1.000000 0.622024 0.000000
0.000000 0.675574 0.000000
0.051946 0.676323 0.000000
0.117625 0.677050 0.000000
0.183305 0.677776 0.000000
0.248984 0.678503 0.000000
0.314663 0.679230 0.000000
0.380343 0.679957 0.000000
0.446022 0.680684 0.000000
0.511701 0.681410 0.000000
0.577381 0.682137 0.000000
0.643060 0.682864 0.000000
0.708739 0.683591 0.000000
0.774419 0.684317 0.000000
0.840098 0.685044 0.000000
0.905777 0.685771 0.000000
0.971457 0.686498 0.000000
1.000000 0.687225 0.000000
0.000000 0.740775 0.000000
0.054311 0.741524 0.000000
0.119991 0.742251 0.000000
0.185670 0.742977 0.000000
0.251349 0.743704 0.000000
0.317029 0.744431 0.000000
0.382708 0.745158 0.000000
0.448387 0.745884 0.000000
0.514067 0.746611 0.000000
0.579746 0.747338 0.000000
0.645425 0.748065 0.000000
0.711105 0.748792 0.000000
0.776784 0.749518 0.000000
0.842463 0.750245 0.000000
0.908143 0.750972 0.000000
0.973822 0.751699 0.000000
1.000000 0.752425 0.000000
0.000000 0.805976 0.000000
0.056677 0.806725 0.000000
0.122356 0.807451 0.000000
0.188035 0.808178 0.000000
0.253715 0.808905 0.000000
0.319394 0.809632 0.000000
0.385073 0.810359 0.000000
0.450753 0.811085 0.000000
0.516432 0.811812 0.000000
0.582111 0.812539 0.000000
0.647791 0.813266 0.000000
0.713470 0.813993 0.000000
0.779149 0.814719 0.000000
0.844828 0.815446 0.000000
0.910508 0.816173 0.000000
0.976187 0.816900 0.000000
1.000000 0.817626 0.000644
0.000000 0.871177 0.000000
0.059042 0.871926 0.000000
0.124721 0.872652 0.000000
0.190401 0.873379 0.000000
0.256080 0.874106 0.000000
0.321759 0.874833 0.000000
0.387439 0.875560 0.000000
0.453118 0.876286 0.000000
0.518797 0.877013 0.000000
0.584476 0.877740 0.000000
0.650156 0.878467 0.000000
0.715835 0.879193 0.000000
0.781514 0.879920 0.000102
0.847194 0.880647 0.000829
0.912873 0.881374 0.001555
0.978552 0.882101 0.002282
1.000000 0.882827 0.003009
0.000000 0.936378 0.000000
0.061407 0.937126 0.000000
0.127087 0.937853 0.000000
0.192766 0.938580 0.000000
0.258445 0.939307 0.000000
0.324124 0.940034 0.000000
0.389804 0.940760 0.000000
0.455483 0.941487 0.000000
0.521162 0.942214 0.000000
0.586842 0.942941 0.000287
0.652521 0.943668 0.001014
0.718200 0.944394 0.001740
0.783880 0.945121 0.002467
0.849559 0.945848 0.003194
0.915238 0.946575 0.003921
0.980918 0.947301 0.004647
1.000000 0.948028 0.005374
0.000000 1.000000 0.000000
0.063772 1.000000 0.000000
0.129452 1.000000 0.000000
0.195131 1.000000 0.000000
0.260810 1.000000 0.000000
0.326490 1.000000 0.000000
0.392169 1.000000 0.000472
0.457848 1.000000 0.001198
0.523528 1.000000 0.001925
0.589207 1.000000 0.002652
0.654886 1.000000 0.003379
0.720566 1.000000 0.004106
0.786245 1.000000 0.004832
0.851924 1.000000 0.005559
0.917604 1.000000 0.006286
0.983283 1.000000 0.007013
1.000000 1.000000 0.007739
0.000000 0.000000 0.003935
0.026147 0.000000 0.017990
0.091826 0.000000 0.018717
0.157506 0.000000 0.019444
0.223185 0.000000 0.020171
0.288864 0.000000 0.020898
0.354544 0.000000 0.021624
0.420223 0.000000 0.022351
0.485902 0.000000 0.023078
0.551582 0.000000 0.023805
0.617261 0.000000 0.024531
0.682940 0.000000 0.025258
0.748620 0.000000 0.025985
0.814299 0.000000 0.026712
0.879978 0.000000 0.027439
0.945658 0.000000 0.028165
1.000000 0.000000 0.028892
0.000000 0.020607 0.017401
0.028517 0.024537 0.020360
0.094196 0.025264 0.021087
0.159875 0.025991 0.021814
0.225555 0.026717 0.022541
0.291234 0.027444 0.023267
0.356913 0.028171 0.023994
0.422593 0.028898 0.024721
0.488272 0.029625 0.025448
0.553951 0.030351 0.026174
0.619631 0.031078 0.026901
0.685310 0.031805 0.027628
0.750989 0.032532 0.028355
0.816669 0.033259 0.029082
0.882348 0.033985 0.029808
0.948027 0.034712 0.030535
1.000000 0.035439 0.031262
0.000000 0.086075 0.025246
0.030882 0.089738 0.022725
0.096561 0.090465 0.023452
0.162241 0.091192 0.024179
0.227920 0.091918 0.024906
0.293599 0.092645 0.025633
0.359279 0.093372 0.026359
0.424958 0.094099 0.027086
0.490637 0.094825 0.027813
0.556317 0.095552 0.028540
0.621996 0.096279 0.029267
0.687675 0.097006 0.029993
0.753355 0.097733 0.030720
0.819034 0.098459 0.031447
0.884713 0.099186 0.032174
0.950393 0.099913 0.032900
1.000000 0.100640 0.033627
0.000000 0.151983 0.027928
0.033247 0.154939 0.025091
0.098927 0.155666 0.025817
0.164606 0.156392 0.026544
0.230285 0.157119 0.027271
0.295965 0.157846 0.027998
0.361644 0.158573 0.028725
0.427323 0.159300 0.029451
0.493003 0.160026 0.030178
0.558682 0.160753 0.030905
0.624361 0.161480 0.031632
0.690041 0.162207 0.032359
0.755720 0.162934 0.033085
0.821399 0.163660 0.033812
0.887079 0.164387 0.034539
0.952758 0.165114 0.035266
1.000000 0.165841 0.035992
0.000000 0.217632 0.029979
0.035613 0.220140 0.027456
0.101292 0.220867 0.028183
0.166971 0.221593 0.028910
0.232651 0.222320 0.029636
0.298330 0.223047 0.030363
0.364009 0.223774 0.031090
0.429689 0.224501 0.031817
0.495368 0.225227 0.032543
0.561047 0.225954 0.033270
0.626727 0.226681 0.033997
0.692406 0.227408 0.034724
0.758085 0.228134 0.035451
0.823764 0.228861 0.036177
0.889444 0.229588 0.036904
0.955123 0.230315 0.037631
1.000000 0.231042 0.038358
0.000000 0.283133 0.031984
0.037978 0.285341 0.029821
0.103657 0.286068 0.030548
0.169337 0.286794 0.031275
0.235016 0.287521 0.032002
0.300695 0.288248 0.032728
0.366374 0.288975 0.033455
0.432054 0.289701 0.034182
0.497733 0.290428 0.034909
0.563412 0.291155 0.035636
0.629092 0.291882 0.036362
0.694771 0.292609 0.037089
0.760450 0.293335 0.037816
0.826130 0.294062 0.038543
0.891809 0.294789 0.039269
0.957488 0.295516 0.039996
1.000000 0.296243 0.040723
0.000000 0.348549 0.034032
0.040343 0.350542 0.032187
0.106022 0.351268 0.032913
0.171702 0.351995 0.033640
0.237381 0.352722 0.034367
0.303060 0.353449 0.035094
0.368740 0.354176 0.035820
0.434419 0.354902 0.036547
0.500098 0.355629 0.037274
0.565778 0.356356 0.038001
0.631457 0.357083 0.038728
0.697136 0.357809 0.039454
0.762816 0.358536 0.040181
0.828495 0.359263 0.040908
0.894174 0.359990 0.041635
0.959854 0.360717 0.042361
1.000000 0.361443 0.043088
0.000000 0.413910 0.036132
0.042708 0.415743 0.034552
0.108388 0.416469 0.035279
0.174067 0.417196 0.036005
0.239746 0.417923 0.036732
0.305426 0.418650 0.037459
0.371105 0.419376 0.038186
0.436784 0.420103 0.038912
0.502464 0.420830 0.039639
0.568143 0.421557 0.040366
0.633822 0.422284 0.041093
0.699502 0.423010 0.041820
0.765181 0.423737 0.042546
0.830860 0.424464 0.043273
0.896540 0.425191 0.044000
0.962219 0.425918 0.044727
1.000000 0.426644 0.045454
0.000000 0.479234 0.038276
0.045074 0.480943 0.036917
0.110753 0.481670 0.037644
0.176432 0.482397 0.038371
0.242112 0.483124 0.039097
0.307791 0.483851 0.039824
0.373470 0.484577 0.040551
0.439150 0.485304 0.041278
0.504829 0.486031 0.042005
0.570508 0.486758 0.042731
0.636188 0.487485 0.043458
0.701867 0.488211 0.044185
0.767546 0.488938 0.044912
0.833226 0.489665 0.045638
0.898905 0.490392 0.046365
0.964584 0.491118 0.047092
1.000000 0.491845 0.047819
0.000000 0.544534 0.040456
0.047439 0.546144 0.039282
0.113118 0.546871 0.040009
0.178798 0.547598 0.040736
0.244477 0.548325 0.041463
0.310156 0.549052 0.042189
0.375836 0.549778 0.042916
0.441515 0.550505 0.043643
0.507194 0.551232 0.044370
0.572874 0.551959 0.045097
0.638553 0.552685 0.045823
0.704232 0.553412 0.046550
0.769911 0.554139 0.047277
0.835591 0.554866 0.048004
0.901270 0.555593 0.048731
0.966949 0.556319 0.049457
1.000000 0.557046 0.050184
0.000000 0.609815 0.042664
0.049804 0.611345 0.041648
0.115484 0.612072 0.042374
0.181163 0.612799 0.043101
0.246842 0.613526 0.043828
0.312522 0.614252 0.044555
0.378201 0.614979 0.045281
0.443880 0.615706 0.046008
0.509559 0.616433 0.046735
0.575239 0.617160 0.047462
0.640918 0.617886 0.048189
0.706597 0.618613 0.048915
0.772277 0.619340 0.049642
0.837956 0.620067 0.050369
0.903635 0.620793 0.051096
0.969315 0.621520 0.051823
1.000000 0.622247 0.052549
0.000000 0.675083 0.044896
0.052170 0.676546 0.044013
0.117849 0.677273 0.044740
0.183528 0.678000 0.045466
0.249207 0.678727 0.046193
0.314887 0.679453 0.046920
0.380566 0.680180 0.047647
0.446245 0.680907 0.048374
0.511925 0.681634 0.049100
0.577604 0.682360 0.049827
0.643283 0.683087 0.050554
0.708963 0.683814 0.051281
0.774642 0.684541 0.052007
0.840321 0.685268 0.052734
0.906001 0.685994 0.053461
0.971680 0.686721 0.054188
1.000000 0.687448 0.054915
0.000000 0.740340 0.047145
0.054535 0.741747 0.046378
0.120214 0.742474 0.047105
0.185893 0.743201 0.047832
0.251573 0.743927 0.048558
0.317252 0.744654 0.049285
0.382931 0.745381 0.050012
0.448611 0.746108 0.050739
0.514290 0.746835 0.051466
0.579969 0.747561 0.052192
0.645649 0.748288 0.052919
0.711328 0.749015 0.053646
0.777007 0.749742 0.054373
0.842687 0.750469 0.055100
0.908366 0.751195 0.055826
0.974045 0.751922 0.056553
1.000000 0.752649 0.057280
0.000000 0.805589 0.049410
0.056900 0.806948 0.048743
0.122579 0.807675 0.049470
0.188259 0.808402 0.050197
0.253938 0.809128 0.050924
0.319617 0.809855 0.051651
0.385297 0.810582 0.052377
0.450976 0.811309 0.053104
0.516655 0.812036 0.053831
0.582335 0.812762 0.054558
0.648014 0.813489 0.055284
0.713693 0.814216 0.056011
0.779373 0.814943 0.056738
0.845052 0.815669 0.057465
0.910731 0.816396 0.058192
0.976411 0.817123 0.058918
1.000000 0.817850 0.059645
0.000000 0.870831 0.051687
0.059265 0.872149 0.051109
0.124945 0.872876 0.051835
0.190624 0.873603 0.052562
0.256303 0.874329 0.053289
0.321983 0.875056 0.054016
0.387662 0.875783 0.054743
0.453341 0.876510 0.055469
0.519021 0.877236 0.056196
0.584700 0.877963 0.056923
0.650379 0.878690 0.057650
0.716058 0.879417 0.058376
0.781738 0.880144 0.059103
0.847417 0.880870 0.059830
0.913096 0.881597 0.060557
0.978776 0.882324 0.061284
1.000000 0.883051 0.062010
0.000000 0.936068 0.053974
0.061631 0.937350 0.053474
0.127310 0.938077 0.054201
0.192989 0.938803 0.054927
0.258669 0.939530 0.055654
0.324348 0.940257 0.056381
0.390027 0.940984 0.057108
0.455706 0.941711 0.057835
0.521386 0.942437 0.058561
0.587065 0.943164 0.059288
0.652744 0.943891 0.060015
0.718424 0.944618 0.060742
0.784103 0.945344 0.061469
0.849782 0.946071 0.062195
0.915462 0.946798 0.062922
0.981141 0.947525 0.063649
1.000000 0.948252 0.064376
0.000000 1.000000 0.056275
0.063996 1.000000 0.055839
0.129675 1.000000 0.056566
0.195354 1.000000 0.057293
0.261034 1.000000 0.058020
0.326713 1.000000 0.058746
0.392392 1.000000 0.059473
0.458072 1.000000 0.060200
0.523751 1.000000 0.060927
0.589430 1.000000 0.061653
0.655110 1.000000 0.062380
0.720789 1.000000 0.063107
0.786468 1.000000 0.063834
0.852148 1.000000 0.064561
0.917827 1.000000 0.065287
0.983506 1.000000 0.066014
1.000000 1.000000 0.066741
0.000000 0.000000 0.045264
0.022725 0.000000 0.070836
0.092057 0.000000 0.079561
0.157736 0.000000 0.080288
0.223415 0.000000 0.081015
0.289095 0.000000 0.081742
0.354774 0.000000 0.082469
0.420453 0.000000 0.083195
0.486133 0.000000 0.083922
0.551812 0.000000 0.084649
0.617491 0.000000 0.085376
0.683171 0.000000 0.086102
0.748850 0.000000 0.086829
0.814529 0.000000 0.087556
0.880209 0.000000 0.088283
0.945888 0.000000 0.089010
1.000000 0.000000 0.089736
0.000000 0.020298 0.054183
0.028940 0.025776 0.070644
0.094426 0.025494 0.081931
0.160106 0.026221 0.082658
0.225785 0.026948 0.083385
0.291464 0.027675 0.084112
0.357144 0.028401 0.084838
0.422823 0.029128 0.085565
0.488502 0.029855 0.086292
0.554182 0.030582 0.087019
0.619861 0.031308 0.087745
0.685540 0.032035 0.088472
0.751220 0.032762 0.089199
0.816899 0.033489 0.089926
0.882578 0.034216 0.090653
0.948258 0.034942 0.091379
1.000000 0.035669 0.092106
0.000000 0.081662 0.077041
0.040270 0.087379 0.082257
0.096792 0.090695 0.084296
0.162471 0.091422 0.085023
0.228150 0.092149 0.085750
0.293830 0.092875 0.086477
0.359509 0.093602 0.087204
0.425188 0.094329 0.087930
0.490868 0.095056 0.088657
0.556547 0.095783 0.089384
0.622226 0.096509 0.090111
0.687906 0.097236 0.090838
0.753585 0.097963 0.091564
0.819264 0.098690 0.092291
0.884944 0.099417 0.093018
0.950623 0.100143 0.093745
1.000000 0.100870 0.094471
0.000000 0.147495 0.088892
0.040754 0.152696 0.089009
0.099157 0.155896 0.086662
0.164836 0.156623 0.087388
0.230516 0.157350 0.088115
0.296195 0.158076 0.088842
0.361874 0.158803 0.089569
0.427554 0.159530 0.090296
0.493233 0.160257 0.091022
0.558912 0.160984 0.091749
0.624592 0.161710 0.092476
0.690271 0.162437 0.093203
0.755950 0.163164 0.093930
0.821630 0.163891 0.094656
0.887309 0.164617 0.095383
0.952988 0.165344 0.096110
1.000000 0.166071 0.096837
0.000000 0.213646 0.094103
0.040955 0.218534 0.091437
0.101522 0.221097 0.089027
0.167202 0.221824 0.089754
0.232881 0.222551 0.090481
0.298560 0.223277 0.091207
0.364240 0.224004 0.091934
0.429919 0.224731 0.092661
0.495598 0.225458 0.093388
0.561278 0.226184 0.094114
0.626957 0.226911 0.094841
0.692636 0.227638 0.095568
0.758316 0.228365 0.096295
0.823995 0.229092 0.097022
0.889674 0.229818 0.097748
0.955353 0.230545 0.098475
1.000000 0.231272 0.099202
0.000000 0.279648 0.097210
0.042134 0.284123 0.093451
0.103888 0.286298 0.091392
0.169567 0.287025 0.092119
0.235246 0.287751 0.092846
0.300926 0.288478 0.093573
0.366605 0.289205 0.094299
0.432284 0.289932 0.095026
0.497963 0.290659 0.095753
0.563643 0.291385 0.096480
0.629322 0.292112 0.097207
0.695001 0.292839 0.097933
0.760681 0.293566 0.098660
0.826360 0.294292 0.099387
0.892039 0.295019 0.100114
0.957719 0.295746 0.100840
1.000000 0.296473 0.101567
0.000000 0.345486 0.099583
0.043756 0.349579 0.095474
0.106253 0.351499 0.093758
0.171932 0.352226 0.094484
0.237611 0.352952 0.095211
0.303291 0.353679 0.095938
0.368970 0.354406 0.096665
0.434649 0.355133 0.097391
0.500329 0.355859 0.098118
0.566008 0.356586 0.098845
0.631687 0.357313 0.099572
0.697367 0.358040 0.100299
0.763046 0.358767 0.101025
0.828725 0.359493 0.101752
0.894405 0.360220 0.102479
0.960084 0.360947 0.103206
1.000000 0.361674 0.103932
0.000000 0.411194 0.101689
0.045614 0.414960 0.097553
0.108618 0.416700 0.096123
0.174297 0.417426 0.096850
0.239977 0.418153 0.097576
0.305656 0.418880 0.098303
0.371335 0.419607 0.099030
0.437015 0.420334 0.099757
0.502694 0.421060 0.100483
0.568373 0.421787 0.101210
0.634053 0.422514 0.101937
0.699732 0.423241 0.102664
0.765411 0.423968 0.103391
0.831091 0.424694 0.104117
0.896770 0.425421 0.104844
0.962449 0.426148 0.105571
1.000000 0.426875 0.106298
0.000000 0.476805 0.103705
0.047611 0.480294 0.099685
0.110983 0.481901 0.098488
0.176663 0.482627 0.099215
0.242342 0.483354 0.099942
0.308021 0.484081 0.100668
0.373701 0.484808 0.101395
0.439380 0.485535 0.102122
0.505059 0.486261 0.102849
0.570739 0.486988 0.103576
0.636418 0.487715 0.104302
0.702097 0.488442 0.105029
0.767777 0.489168 0.105756
0.833456 0.489895 0.106483
0.899135 0.490622 0.107209
0.964814 0.491349 0.107936
1.000000 0.492076 0.108663
0.000000 0.542343 0.105703
0.049697 0.545597 0.101859
0.113349 0.547101 0.100853
0.179028 0.547828 0.101580
0.244707 0.548555 0.102307
0.310387 0.549282 0.103034
0.376066 0.550009 0.103760
0.441745 0.550735 0.104487
0.507425 0.551462 0.105214
0.573104 0.552189 0.105941
0.638783 0.552916 0.106668
0.704462 0.553643 0.107394
0.770142 0.554369 0.108121
0.835821 0.555096 0.108848
0.901500 0.555823 0.109575
0.967180 0.556550 0.110302
1.000000 0.557276 0.111028
0.000000 0.607824 0.107712
0.051843 0.610879 0.104066
0.115714 0.612302 0.103219
0.181393 0.613029 0.103945
0.247073 0.613756 0.104672
0.312752 0.614483 0.105399
0.378431 0.615210 0.106126
0.444110 0.615936 0.106852
0.509790 0.616663 0.107579
0.575469 0.617390 0.108306
0.641148 0.618117 0.109033
0.706828 0.618843 0.109760
0.772507 0.619570 0.110486
0.838186 0.620297 0.111213
0.903866 0.621024 0.111940
0.969545 0.621751 0.112667
1.000000 0.622477 0.113394
0.000000 0.673263 0.109743
0.054032 0.676146 0.106299
0.118079 0.677503 0.105584
0.183758 0.678230 0.106311
0.249438 0.678957 0.107037
0.315117 0.679684 0.107764
0.380796 0.680410 0.108491
0.446476 0.681137 0.109218
0.512155 0.681864 0.109945
0.577834 0.682591 0.110671
0.643514 0.683318 0.111398
0.709193 0.684044 0.112125
0.774872 0.684771 0.112852
0.840552 0.685498 0.113578
0.906231 0.686225 0.114305
0.971910 0.686952 0.115032
1.000000 0.687678 0.115759
0.000000 0.738667 0.111799
0.056252 0.741401 0.108552
0.120444 0.742704 0.107949
0.186124 0.743431 0.108676
0.251803 0.744158 0.109403
0.317482 0.744885 0.110129
0.383162 0.745611 0.110856
0.448841 0.746338 0.111583
0.514520 0.747065 0.112310
0.580200 0.747792 0.113037
0.645879 0.748519 0.113763
0.711558 0.749245 0.114490
0.777238 0.749972 0.115217
0.842917 0.750699 0.115944
0.908596 0.751426 0.116671
0.974276 0.752152 0.117397
1.000000 0.752879 0.118124
0.000000 0.804043 0.113882
0.058496 0.806648 0.110820
0.122810 0.807905 0.110314
0.188489 0.808632 0.111041
0.254168 0.809359 0.111768
0.319848 0.810085 0.112495
0.385527 0.810812 0.113222
0.451206 0.811539 0.113948
0.516886 0.812266 0.114675
0.582565 0.812993 0.115402
0.648244 0.813719 0.116129
0.713924 0.814446 0.116855
0.779603 0.815173 0.117582
0.845282 0.815900 0.118309
0.910962 0.816627 0.119036
0.976641 0.817353 0.119763
1.000000 0.818080 0.120489
0.000000 0.869397 0.115989
0.060758 0.871888 0.113102
0.125175 0.873106 0.112680
0.190854 0.873833 0.113406
0.256534 0.874560 0.114133
0.322213 0.875286 0.114860
0.387892 0.876013 0.115587
0.453572 0.876740 0.116314
0.519251 0.877467 0.117040
0.584930 0.878194 0.117767
0.650609 0.878920 0.118494
0.716289 0.879647 0.119221
0.781968 0.880374 0.119947
0.847647 0.881101 0.120674
0.913327 0.881827 0.121401
0.979006 0.882554 0.122128
1.000000 0.883281 0.122855
0.000000 0.934733 0.118118
0.063035 0.937123 0.115394
0.127540 0.938307 0.115045
0.193220 0.939034 0.115772
0.258899 0.939761 0.116498
0.324578 0.940487 0.117225
0.390257 0.941214 0.117952
0.455937 0.941941 0.118679
0.521616 0.942668 0.119406
0.587295 0.943394 0.120132
0.652975 0.944121 0.120859
0.718654 0.944848 0.121586
0.784333 0.945575 0.122313
0.850013 0.946302 0.123040
0.915692 0.947028 0.123766
0.981371 0.947755 0.124493
1.000000 0.948482 0.125220
0.001749 1.000000 0.120287
0.065328 1.000000 0.117700
0.129905 1.000000 0.117410
0.195585 1.000000 0.118137
0.261264 1.000000 0.118864
0.326943 1.000000 0.119591
0.392623 1.000000 0.120317
0.458302 1.000000 0.121044
0.523981 1.000000 0.121771
0.589661 1.000000 0.122498
0.655340 1.000000 0.123224
0.721019 1.000000 0.123951
0.786699 1.000000 0.124678
0.852378 1.000000 0.125405
0.918057 1.000000 0.126132
0.983737 1.000000 0.126858
1.000000 1.000000 0.127585
0.000000 0.000000 0.089446
0.020584 0.000000 0.116504
0.089236 0.000000 0.135739
0.157966 0.000000 0.141132
0.223646 0.000000 0.141859
0.289325 0.000000 0.142586
0.355004 0.000000 0.143313
0.420684 0.000000 0.144040
0.486363 0.000000 0.144766
0.552042 0.000000 0.145493
0.617722 0.000000 0.146220
0.683401 0.000000 0.146947
0.749080 0.000000 0.147673
0.814760 0.000000 0.148400
0.880439 0.000000 0.149127
0.946118 0.000000 0.149854
1.000000 0.000000 0.150581
0.000000 0.022331 0.093877
0.030488 0.027638 0.111445
0.091281 0.027427 0.135855
