assets/presets/luts/matte-black/lut.cube
TITLE "Matte Black"
LUT_3D_SIZE 17
0.080000 0.080000 0.080000
0.137500 0.080000 0.080000
0.195000 0.080000 0.080000
0.252500 0.080000 0.080000
0.310000 0.080000 0.080000
0.367500 0.080000 0.080000
0.425000 0.080000 0.080000
0.482500 0.080000 0.080000
0.540000 0.080000 0.080000
0.597500 0.080000 0.080000
0.655000 0.080000 0.080000
0.712500 0.080000 0.080000
0.770000 0.080000 0.080000
0.827500 0.080000 0.080000
0.885000 0.080000 0.080000
0.942500 0.080000 0.080000
1.000000 0.080000 0.080000
0.080000 0.137500 0.080000
0.137500 0.137500 0.080000
0.195000 0.137500 0.080000
0.252500 0.137500 0.080000
0.310000 0.137500 0.080000
0.367500 0.137500 0.080000
0.425000 0.137500 0.080000
0.482500 0.137500 0.080000
0.540000 0.137500 0.080000
0.597500 0.137500 0.080000
0.655000 0.137500 0.080000
0.712500 0.137500 0.080000
0.770000 0.137500 0.080000
0.827500 0.137500 0.080000
0.885000 0.137500 0.080000
0.942500 0.137500 0.080000
1.000000 0.137500 0.080000
0.080000 0.195000 0.080000
0.137500 0.195000 0.080000
0.195000 0.195000 0.080000
0.252500 0.195000 0.080000
0.310000 0.195000 0.080000
0.367500 0.195000 0.080000
0.425000 0.195000 0.080000
0.482500 0.195000 0.080000
0.540000 0.195000 0.080000
0.597500 0.195000 0.080000
0.655000 0.195000 0.080000
0.712500 0.195000 0.080000
0.770000 0.195000 0.080000
0.827500 0.195000 0.080000
0.885000 0.195000 0.080000
0.942500 0.195000 0.080000
1.000000 0.195000 0.080000
0.080000 0.252500 0.080000
0.137500 0.252500 0.080000
0.195000 0.252500 0.080000
0.252500 0.252500 0.080000
0.310000 0.252500 0.080000
0.367500 0.252500 0.080000
0.425000 0.252500 0.080000
0.482500 0.252500 0.080000
0.540000 0.252500 0.080000
0.597500 0.252500 0.080000
0.655000 0.252500 0.080000
0.712500 0.252500 0.080000
0.770000 0.252500 0.080000
0.827500 0.252500 0.080000
0.885000 0.252500 0.080000
0.942500 0.252500 0.080000
1.000000 0.252500 0.080000
0.080000 0.310000 0.080000
0.137500 0.310000 0.080000
0.195000 0.310000 0.080000
0.252500 0.310000 0.080000
0.310000 0.310000 0.080000
0.367500 0.310000 0.080000
0.425000 0.310000 0.080000
0.482500 0.310000 0.080000
0.540000 0.310000 0.080000
0.597500 0.310000 0.080000
0.655000 0.310000 0.080000
0.712500 0.310000 0.080000
0.770000 0.310000 0.080000
0.827500 0.310000 0.080000
0.885000 0.310000 0.080000
0.942500 0.310000 0.080000
1.000000 0.310000 0.080000
0.080000 0.367500 0.080000
0.137500 0.367500 0.080000
0.195000 0.367500 0.080000
0.252500 0.367500 0.080000
0.310000 0.367500 0.080000
0.367500 0.367500 0.080000
0.425000 0.367500 0.080000
0.482500 0.367500 0.080000
0.540000 0.367500 0.080000
0.597500 0.367500 0.080000
0.655000 0.367500 0.080000
0.712500 0.367500 0.080000
0.770000 0.367500 0.080000
0.827500 0.367500 0.080000
0.885000 0.367500 0.080000
0.942500 0.367500 0.080000
1.000000 0.367500 0.080000
0.080000 0.425000 0.080000
0.137500 0.425000 0.080000
0.195000 0.425000 0.080000
0.252500 0.425000 0.080000
0.310000 0.425000 0.080000
0.367500 0.425000 0.080000
0.425000 0.425000 0.080000
0.482500 0.425000 0.080000
0.540000 0.425000 0.080000
0.597500 0.425000 0.080000
0.655000 0.425000 0.080000
0.712500 0.425000 0.080000
0.770000 0.425000 0.080000
0.827500 0.425000 0.080000
0.885000 0.425000 0.080000
0.942500 0.425000 0.080000
1.000000 0.425000 0.080000
0.080000 0.482500 0.080000
0.137500 0.482500 0.080000
0.195000 0.482500 0.080000
0.252500 0.482500 0.080000
0.310000 0.482500 0.080000
0.367500 0.482500 0.080000
0.425000 0.482500 0.080000
0.482500 0.482500 0.080000
0.540000 0.482500 0.080000
0.597500 0.482500 0.080000
0.655000 0.482500 0.080000
0.712500 0.482500 0.080000
0.770000 0.482500 0.080000
0.827500 0.482500 0.080000
0.885000 0.482500 0.080000
0.942500 0.482500 0.080000
1.000000 0.482500 0.080000
0.080000 0.540000 0.080000
0.137500 0.540000 0.080000
0.195000 0.540000 0.080000
0.252500 0.540000 0.080000
0.310000 0.540000 0.080000
0.367500 0.540000 0.080000
0.425000 0.540000 0.080000
0.482500 0.540000 0.080000
0.540000 0.540000 0.080000
0.597500 0.540000 0.080000
0.655000 0.540000 0.080000
0.712500 0.540000 0.080000
0.770000 0.540000 0.080000
0.827500 0.540000 0.080000
0.885000 0.540000 0.080000
0.942500 0.540000 0.080000
1.000000 0.540000 0.080000
0.080000 0.597500 0.080000
0.137500 0.597500 0.080000
0.195000 0.597500 0.080000
0.252500 0.597500 0.080000
0.310000 0.597500 0.080000
0.367500 0.597500 0.080000
0.425000 0.597500 0.080000
0.482500 0.597500 0.080000
0.540000 0.597500 0.080000
0.597500 0.597500 0.080000
0.655000 0.597500 0.080000
0.712500 0.597500 0.080000
0.770000 0.597500 0.080000
0.827500 0.597500 0.080000
0.885000 0.597500 0.080000
0.942500 0.597500 0.080000
1.000000 0.597500 0.080000
0.080000 0.655000 0.080000
0.137500 0.655000 0.080000
0.195000 0.655000 0.080000
0.252500 0.655000 0.080000
0.310000 0.655000 0.080000
0.367500 0.655000 0.080000
0.425000 0.655000 0.080000
0.482500 0.655000 0.080000
0.540000 0.655000 0.080000
0.597500 0.655000 0.080000
0.655000 0.655000 0.080000
0.712500 0.655000 0.080000
0.770000 0.655000 0.080000
0.827500 0.655000 0.080000
0.885000 0.655000 0.080000
0.942500 0.655000 0.080000
1.000000 0.655000 0.080000
0.080000 0.712500 0.080000
0.137500 0.712500 0.080000
0.195000 0.712500 0.080000
0.252500 0.712500 0.080000
0.310000 0.712500 0.080000
0.367500 0.712500 0.080000
0.425000 0.712500 0.080000
0.482500 0.712500 0.080000
0.540000 0.712500 0.080000
0.597500 0.712500 0.080000
0.655000 0.712500 0.080000
0.712500 0.712500 0.080000
0.770000 0.712500 0.080000
0.827500 0.712500 0.080000
0.885000 0.712500 0.080000
0.942500 0.712500 0.080000
1.000000 0.712500 0.080000
0.080000 0.770000 0.080000
0.137500 0.770000 0.080000
0.195000 0.770000 0.080000
0.252500 0.770000 0.080000
0.310000 0.770000 0.080000
0.367500 0.770000 0.080000
0.425000 0.770000 0.080000
0.482500 0.770000 0.080000
0.540000 0.770000 0.080000
0.597500 0.770000 0.080000
0.655000 0.770000 0.080000
0.712500 0.770000 0.080000
0.770000 0.770000 0.080000
0.827500 0.770000 0.080000
0.885000 0.770000 0.080000
0.942500 0.770000 0.080000
1.000000 0.770000 0.080000
0.080000 0.827500 0.080000
0.137500 0.827500 0.080000
0.195000 0.827500 0.080000
0.252500 0.827500 0.080000
0.310000 0.827500 0.080000
0.367500 0.827500 0.080000
0.425000 0.827500 0.080000
0.482500 0.827500 0.080000
0.540000 0.827500 0.080000
0.597500 0.827500 0.080000
0.655000 0.827500 0.080000
0.712500 0.827500 0.080000
0.770000 0.827500 0.080000
0.827500 0.827500 0.080000
0.885000 0.827500 0.080000
0.942500 0.827500 0.080000
1.000000 0.827500 0.080000
0.080000 0.885000 0.080000
0.137500 0.885000 0.080000
0.195000 0.885000 0.080000
0.252500 0.885000 0.080000
0.310000 0.885000 0.080000
0.367500 0.885000 0.080000
0.425000 0.885000 0.080000
0.482500 0.885000 0.080000
0.540000 0.885000 0.080000
0.597500 0.885000 0.080000
0.655000 0.885000 0.080000
0.712500 0.885000 0.080000
0.770000 0.885000 0.080000
0.827500 0.885000 0.080000
0.885000 0.885000 0.080000
0.942500 0.885000 0.080000
1.000000 0.885000 0.080000
0.080000 0.942500 0.080000
0.137500 0.942500 0.080000
0.195000 0.942500 0.080000
0.252500 0.942500 0.080000
0.310000 0.942500 0.080000
0.367500 0.942500 0.080000
0.425000 0.942500 0.080000
0.482500 0.942500 0.080000
0.540000 0.942500 0.080000
0.597500 0.942500 0.080000
0.655000 0.942500 0.080000
0.712500 0.942500 0.080000
0.770000 0.942500 0.080000
0.827500 0.942500 0.080000
0.885000 0.942500 0.080000
0.942500 0.942500 0.080000
1.000000 0.942500 0.080000
0.080000 1.000000 0.080000
0.137500 1.000000 0.080000
0.195000 1.000000 0.080000
0.252500 1.000000 0.080000
0.310000 1.000000 0.080000
0.367500 1.000000 0.080000
0.425000 1.000000 0.080000
0.482500 1.000000 0.080000
0.540000 1.000000 0.080000
0.597500 1.000000 0.080000
0.655000 1.000000 0.080000
0.712500 1.000000 0.080000
0.770000 1.000000 0.080000
0.827500 1.000000 0.080000
0.885000 1.000000 0.080000
0.942500 1.000000 0.080000
1.000000 1.000000 0.080000
0.080000 0.080000 0.137500
0.137500 0.080000 0.137500
0.195000 0.080000 0.137500
0.252500 0.080000 0.137500
0.310000 0.080000 0.137500
0.367500 0.080000 0.137500
0.425000 0.080000 0.137500
0.482500 0.080000 0.137500
0.540000 0.080000 0.137500
0.597500 0.080000 0.137500
0.655000 0.080000 0.137500
0.712500 0.080000 0.137500
0.770000 0.080000 0.137500
0.827500 0.080000 0.137500
0.885000 0.080000 0.137500
0.942500 0.080000 0.137500
1.000000 0.080000 0.137500
0.080000 0.137500 0.137500
0.137500 0.137500 0.137500
0.195000 0.137500 0.137500
0.252500 0.137500 0.137500
0.310000 0.137500 0.137500
0.367500 0.137500 0.137500
0.425000 0.137500 0.137500
0.482500 0.137500 0.137500
0.540000 0.137500 0.137500
0.597500 0.137500 0.137500
0.655000 0.137500 0.137500
0.712500 0.137500 0.137500
0.770000 0.137500 0.137500
0.827500 0.137500 0.137500
0.885000 0.137500 0.137500
0.942500 0.137500 0.137500
1.000000 0.137500 0.137500
0.080000 0.195000 0.137500
0.137500 0.195000 0.137500
0.195000 0.195000 0.137500
0.252500 0.195000 0.137500
0.310000 0.195000 0.137500
0.367500 0.195000 0.137500
0.425000 0.195000 0.137500
0.482500 0.195000 0.137500
0.540000 0.195000 0.137500
0.597500 0.195000 0.137500
0.655000 0.195000 0.137500
0.712500 0.195000 0.137500
0.770000 0.195000 0.137500
0.827500 0.195000 0.137500
0.885000 0.195000 0.137500
0.942500 0.195000 0.137500
1.000000 0.195000 0.137500
0.080000 0.252500 0.137500
0.137500 0.252500 0.137500
0.195000 0.252500 0.137500
0.252500 0.252500 0.137500
0.310000 0.252500 0.137500
0.367500 0.252500 0.137500
0.425000 0.252500 0.137500
0.482500 0.252500 0.137500
0.540000 0.252500 0.137500
0.597500 0.252500 0.137500
0.655000 0.252500 0.137500
0.712500 0.252500 0.137500
0.770000 0.252500 0.137500
0.827500 0.252500 0.137500
0.885000 0.252500 0.137500
0.942500 0.252500 0.137500
1.000000 0.252500 0.137500
0.080000 0.310000 0.137500
0.137500 0.310000 0.137500
0.195000 0.310000 0.137500
0.252500 0.310000 0.137500
0.310000 0.310000 0.137500
0.367500 0.310000 0.137500
0.425000 0.310000 0.137500
0.482500 0.310000 0.137500
0.540000 0.310000 0.137500
0.597500 0.310000 0.137500
0.655000 0.310000 0.137500
0.712500 0.310000 0.137500
0.770000 0.310000 0.137500
0.827500 0.310000 0.137500
0.885000 0.310000 0.137500
0.942500 0.310000 0.137500
1.000000 0.310000 0.137500
0.080000 0.367500 0.137500
0.137500 0.367500 0.137500
0.195000 0.367500 0.137500
0.252500 0.367500 0.137500
0.310000 0.367500 0.137500
0.367500 0.367500 0.137500
0.425000 0.367500 0.137500
0.482500 0.367500 0.137500
0.540000 0.367500 0.137500
0.597500 0.367500 0.137500
0.655000 0.367500 0.137500
0.712500 0.367500 0.137500
0.770000 0.367500 0.137500
0.827500 0.367500 0.137500
0.885000 0.367500 0.137500
0.942500 0.367500 0.137500
1.000000 0.367500 0.137500
0.080000 0.425000 0.137500
0.137500 0.425000 0.137500
0.195000 0.425000 0.137500
0.252500 0.425000 0.137500
0.310000 0.425000 0.137500
0.367500 0.425000 0.137500
0.425000 0.425000 0.137500
0.482500 0.425000 0.137500
0.540000 0.425000 0.137500
0.597500 0.425000 0.137500
0.655000 0.425000 0.137500
0.712500 0.425000 0.137500
0.770000 0.425000 0.137500
0.827500 0.425000 0.137500
0.885000 0.425000 0.137500
0.942500 0.425000 0.137500
1.000000 0.425000 0.137500
0.080000 0.482500 0.137500
0.137500 0.482500 0.137500
0.195000 0.482500 0.137500
0.252500 0.482500 0.137500
0.310000 0.482500 0.137500
0.367500 0.482500 0.137500
0.425000 0.482500 0.137500
0.482500 0.482500 0.137500
0.540000 0.482500 0.137500
0.597500 0.482500 0.137500
0.655000 0.482500 0.137500
0.712500 0.482500 0.137500
0.770000 0.482500 0.137500
0.827500 0.482500 0.137500
0.885000 0.482500 0.137500
0.942500 0.482500 0.137500
1.000000 0.482500 0.137500
0.080000 0.540000 0.137500
0.137500 0.540000 0.137500
0.195000 0.540000 0.137500
0.252500 0.540000 0.137500
0.310000 0.540000 0.137500
0.367500 0.540000 0.137500
0.425000 0.540000 0.137500
0.482500 0.540000 0.137500
0.540000 0.540000 0.137500
0.597500 0.540000 0.137500
0.655000 0.540000 0.137500
0.712500 0.540000 0.137500
0.770000 0.540000 0.137500
0.827500 0.540000 0.137500
0.885000 0.540000 0.137500
0.942500 0.540000 0.137500
1.000000 0.540000 0.137500
0.080000 0.597500 0.137500
0.137500 0.597500 0.137500
0.195000 0.597500 0.137500
0.252500 0.597500 0.137500
0.310000 0.597500 0.137500
0.367500 0.597500 0.137500
0.425000 0.597500 0.137500
0.482500 0.597500 0.137500
0.540000 0.597500 0.137500
0.597500 0.597500 0.137500
0.655000 0.597500 0.137500
0.712500 0.597500 0.137500
0.770000 0.597500 0.137500
0.827500 0.597500 0.137500
0.885000 0.597500 0.137500
0.942500 0.597500 0.137500
1.000000 0.597500 0.137500
0.080000 0.655000 0.137500
0.137500 0.655000 0.137500
0.195000 0.655000 0.137500
0.252500 0.655000 0.137500
0.310000 0.655000 0.137500
0.367500 0.655000 0.137500
0.425000 0.655000 0.137500
0.482500 0.655000 0.137500
0.540000 0.655000 0.137500
0.597500 0.655000 0.137500
0.655000 0.655000 0.137500
0.712500 0.655000 0.137500
0.770000 0.655000 0.137500
0.827500 0.655000 0.137500
0.885000 0.655000 0.137500
0.942500 0.655000 0.137500
1.000000 0.655000 0.137500
0.080000 0.712500 0.137500
0.137500 0.712500 0.137500
0.195000 0.712500 0.137500
0.252500 0.712500 0.137500
0.310000 0.712500 0.137500
0.367500 0.712500 0.137500
0.425000 0.712500 0.137500
0.482500 0.712500 0.137500
0.540000 0.712500 0.137500
0.597500 0.712500 0.137500
0.655000 0.712500 0.137500
0.712500 0.712500 0.137500
0.770000 0.712500 0.137500
0.827500 0.712500 0.137500
0.885000 0.712500 0.137500
0.942500 0.712500 0.137500
1.000000 0.712500 0.137500
0.080000 0.770000 0.137500
0.137500 0.770000 0.137500
0.195000 0.770000 0.137500
0.252500 0.770000 0.137500
0.310000 0.770000 0.137500
0.367500 0.770000 0.137500
0.425000 0.770000 0.137500
0.482500 0.770000 0.137500
0.540000 0.770000 0.137500
0.597500 0.770000 0.137500
0.655000 0.770000 0.137500
0.712500 0.770000 0.137500
0.770000 0.770000 0.137500
0.827500 0.770000 0.137500
0.885000 0.770000 0.137500
0.942500 0.770000 0.137500
1.000000 0.770000 0.137500
0.080000 0.827500 0.137500
0.137500 0.827500 0.137500
0.195000 0.827500 0.137500
0.252500 0.827500 0.137500
0.310000 0.827500 0.137500
0.367500 0.827500 0.137500
0.425000 0.827500 0.137500
0.482500 0.827500 0.137500
0.540000 0.827500 0.137500
0.597500 0.827500 0.137500
0.655000 0.827500 0.137500
0.712500 0.827500 0.137500
0.770000 0.827500 0.137500
0.827500 0.827500 0.137500
0.885000 0.827500 0.137500
0.942500 0.827500 0.137500
1.000000 0.827500 0.137500
0.080000 0.885000 0.137500
0.137500 0.885000 0.137500
0.195000 0.885000 0.137500
0.252500 0.885000 0.137500
0.310000 0.885000 0.137500
0.367500 0.885000 0.137500
0.425000 0.885000 0.137500
0.482500 0.885000 0.137500
0.540000 0.885000 0.137500
0.597500 0.885000 0.137500
0.655000 0.885000 0.137500
0.712500 0.885000 0.137500
0.770000 0.885000 0.137500
0.827500 0.885000 0.137500
0.885000 0.885000 0.137500
0.942500 0.885000 0.137500
1.000000 0.885000 0.137500
0.080000 0.942500 0.137500
0.137500 0.942500 0.137500
0.195000 0.942500 0.137500
0.252500 0.942500 0.137500
0.310000 0.942500 0.137500
0.367500 0.942500 0.137500
0.425000 0.942500 0.137500
0.482500 0.942500 0.137500
0.540000 0.942500 0.137500
0.597500 0.942500 0.137500
0.655000 0.942500 0.137500
0.712500 0.942500 0.137500
0.770000 0.942500 0.137500
0.827500 0.942500 0.137500
0.885000 0.942500 0.137500
0.942500 0.942500 0.137500
1.000000 0.942500 0.137500
0.080000 1.000000 0.137500
0.137500 1.000000 0.137500
0.195000 1.000000 0.137500
0.252500 1.000000 0.137500
0.310000 1.000000 0.137500
0.367500 1.000000 0.137500
0.425000 1.000000 0.137500
0.482500 1.000000 0.137500
0.540000 1.000000 0.137500
0.597500 1.000000 0.137500
0.655000 1.000000 0.137500
0.712500 1.000000 0.137500
0.770000 1.000000 0.137500
0.827500 1.000000 0.137500
0.885000 1.000000 0.137500
0.942500 1.000000 0.137500
1.000000 1.000000 0.137500
0.080000 0.080000 0.195000
0.137500 0.080000 0.195000
0.195000 0.080000 0.195000
0.252500 0.080000 0.195000
0.310000 0.080000 0.195000
0.367500 0.080000 0.195000
0.425000 0.080000 0.195000
0.482500 0.080000 0.195000
0.540000 0.080000 0.195000
0.597500 0.080000 0.195000
0.655000 0.080000 0.195000
0.712500 0.080000 0.195000
0.770000 0.080000 0.195000
0.827500 0.080000 0.195000
0.885000 0.080000 0.195000
0.942500 0.080000 0.195000
1.000000 0.080000 0.195000
0.080000 0.137500 0.195000
0.137500 0.137500 0.195000
0.195000 0.137500 0.195000
0.252500 0.137500 0.195000
0.310000 0.137500 0.195000
0.367500 0.137500 0.195000
0.425000 0.137500 0.195000
0.482500 0.137500 0.195000
0.540000 0.137500 0.195000
0.597500 0.137500 0.195000
0.655000 0.137500 0.195000
0.712500 0.137500 0.195000
0.770000 0.137500 0.195000
0.827500 0.137500 0.195000
0.885000 0.137500 0.195000
0.942500 0.137500 0.195000
1.000000 0.137500 0.195000
0.080000 0.195000 0.195000
0.137500 0.195000 0.195000
0.195000 0.195000 0.195000
0.252500 0.195000 0.195000
0.310000 0.195000 0.195000
0.367500 0.195000 0.195000
0.425000 0.195000 0.195000
0.482500 0.195000 0.195000
0.540000 0.195000 0.195000
0.597500 0.195000 0.195000
0.655000 0.195000 0.195000
0.712500 0.195000 0.195000
0.770000 0.195000 0.195000
0.827500 0.195000 0.195000
0.885000 0.195000 0.195000
0.942500 0.195000 0.195000
1.000000 0.195000 0.195000
0.080000 0.252500 0.195000
0.137500 0.252500 0.195000
0.195000 0.252500 0.195000
0.252500 0.252500 0.195000
0.310000 0.252500 0.195000
0.367500 0.252500 0.195000
0.425000 0.252500 0.195000
0.482500 0.252500 0.195000
0.540000 0.252500 0.195000
0.597500 0.252500 0.195000
0.655000 0.252500 0.195000
0.712500 0.252500 0.195000
0.770000 0.252500 0.195000
0.827500 0.252500 0.195000
0.885000 0.252500 0.195000
0.942500 0.252500 0.195000
1.000000 0.252500 0.195000
0.080000 0.310000 0.195000
0.137500 0.310000 0.195000
0.195000 0.310000 0.195000
0.252500 0.310000 0.195000
0.310000 0.310000 0.195000
0.367500 0.310000 0.195000
0.425000 0.310000 0.195000
0.482500 0.310000 0.195000
0.540000 0.310000 0.195000
0.597500 0.310000 0.195000
0.655000 0.310000 0.195000
0.712500 0.310000 0.195000
0.770000 0.310000 0.195000
0.827500 0.310000 0.195000
0.885000 0.310000 0.195000
0.942500 0.310000 0.195000
1.000000 0.310000 0.195000
0.080000 0.367500 0.195000
0.137500 0.367500 0.195000
0.195000 0.367500 0.195000
0.252500 0.367500 0.195000
0.310000 0.367500 0.195000
0.367500 0.367500 0.195000
0.425000 0.367500 0.195000
0.482500 0.367500 0.195000
0.540000 0.367500 0.195000
0.597500 0.367500 0.195000
0.655000 0.367500 0.195000
0.712500 0.367500 0.195000
0.770000 0.367500 0.195000
0.827500 0.367500 0.195000
0.885000 0.367500 0.195000
0.942500 0.367500 0.195000
1.000000 0.367500 0.195000
0.080000 0.425000 0.195000
0.137500 0.425000 0.195000
0.195000 0.425000 0.195000
0.252500 0.425000 0.195000
0.310000 0.425000 0.195000
0.367500 0.425000 0.195000
0.425000 0.425000 0.195000
0.482500 0.425000 0.195000
0.540000 0.425000 0.195000
0.597500 0.425000 0.195000
0.655000 0.425000 0.195000
0.712500 0.425000 0.195000
0.770000 0.425000 0.195000
0.827500 0.425000 0.195000
0.885000 0.425000 0.195000
0.942500 0.425000 0.195000
1.000000 0.425000 0.195000
0.080000 0.482500 0.195000
0.137500 0.482500 0.195000
0.195000 0.482500 0.195000
0.252500 0.482500 0.195000
0.310000 0.482500 0.195000
0.367500 0.482500 0.195000
0.425000 0.482500 0.195000
0.482500 0.482500 0.195000
0.540000 0.482500 0.195000
0.597500 0.482500 0.195000
0.655000 0.482500 0.195000
0.712500 0.482500 0.195000
0.770000 0.482500 0.195000
0.827500 0.482500 0.195000
0.885000 0.482500 0.195000
0.942500 0.482500 0.195000
1.000000 0.482500 0.195000
0.080000 0.540000 0.195000
0.137500 0.540000 0.195000
0.195000 0.540000 0.195000
0.252500 0.540000 0.195000
0.310000 0.540000 0.195000
0.367500 0.540000 0.195000
0.425000 0.540000 0.195000
0.482500 0.540000 0.195000
0.540000 0.540000 0.195000
0.597500 0.540000 0.195000
0.655000 0.540000 0.195000
0.712500 0.540000 0.195000
0.770000 0.540000 0.195000
0.827500 0.540000 0.195000
0.885000 0.540000 0.195000
0.942500 0.540000 0.195000
1.000000 0.540000 0.195000
0.080000 0.597500 0.195000
0.137500 0.597500 0.195000
0.195000 0.597500 0.195000
0.252500 0.597500 0.195000
0.310000 0.597500 0.195000
0.367500 0.597500 0.195000
0.425000 0.597500 0.195000
0.482500 0.597500 0.195000
0.540000 0.597500 0.195000
0.597500 0.597500 0.195000
0.655000 0.597500 0.195000
0.712500 0.597500 0.195000
0.770000 0.597500 0.195000
0.827500 0.597500 0.195000
0.885000 0.597500 0.195000
0.942500 0.597500 0.195000
1.000000 0.597500 0.195000
0.080000 0.655000 0.195000
0.137500 0.655000 0.195000
0.195000 0.655000 0.195000
0.252500 0.655000 0.195000
0.310000 0.655000 0.195000
0.367500 0.655000 0.195000
0.425000 0.655000 0.195000
0.482500 0.655000 0.195000
0.540000 0.655000 0.195000
0.597500 0.655000 0.195000
0.655000 0.655000 0.195000
0.712500 0.655000 0.195000
0.770000 0.655000 0.195000
0.827500 0.655000 0.195000
0.885000 0.655000 0.195000
0.942500 0.655000 0.195000
1.000000 0.655000 0.195000
0.080000 0.712500 0.195000
0.137500 0.712500 0.195000
0.195000 0.712500 0.195000
0.252500 0.712500 0.195000
0.310000 0.712500 0.195000
0.367500 0.712500 0.195000
0.425000 0.712500 0.195000
0.482500 0.712500 0.195000
0.540000 0.712500 0.195000
0.597500 0.712500 0.195000
0.655000 0.712500 0.195000
0.712500 0.712500 0.195000
0.770000 0.712500 0.195000
0.827500 0.712500 0.195000
0.885000 0.712500 0.195000
0.942500 0.712500 0.195000
1.000000 0.712500 0.195000
0.080000 0.770000 0.195000
0.137500 0.770000 0.195000
0.195000 0.770000 0.195000
0.252500 0.770000 0.195000
0.310000 0.770000 0.195000
0.367500 0.770000 0.195000
0.425000 0.770000 0.195000
0.482500 0.770000 0.195000
0.540000 0.770000 0.195000
0.597500 0.770000 0.195000
0.655000 0.770000 0.195000
0.712500 0.770000 0.195000
0.770000 0.770000 0.195000
0.827500 0.770000 0.195000
0.885000 0.770000 0.195000
0.942500 0.770000 0.195000
1.000000 0.770000 0.195000
0.080000 0.827500 0.195000
0.137500 0.827500 0.195000
0.195000 0.827500 0.195000
0.252500 0.827500 0.195000
0.310000 0.827500 0.195000
0.367500 0.827500 0.195000
0.425000 0.827500 0.195000
0.482500 0.827500 0.195000
0.540000 0.827500 0.195000
0.597500 0.827500 0.195000
0.655000 0.827500 0.195000
0.712500 0.827500 0.195000
0.770000 0.827500 0.195000
0.827500 0.827500 0.195000
0.885000 0.827500 0.195000
0.942500 0.827500 0.195000
1.000000 0.827500 0.195000
0.080000 0.885000 0.195000
0.137500 0.885000 0.195000
0.195000 0.885000 0.195000
0.252500 0.885000 0.195000
0.310000 0.885000 0.195000
0.367500 0.885000 0.195000
0.425000 0.885000 0.195000
0.482500 0.885000 0.195000
0.540000 0.885000 0.195000
0.597500 0.885000 0.195000
0.655000 0.885000 0.195000
0.712500 0.885000 0.195000
0.770000 0.885000 0.195000
0.827500 0.885000 0.195000
0.885000 0.885000 0.195000
0.942500 0.885000 0.195000
1.000000 0.885000 0.195000
0.080000 0.942500 0.195000
0.137500 0.942500 0.195000
0.195000 0.942500 0.195000
0.252500 0.942500 0.195000
0.310000 0.942500 0.195000
0.367500 0.942500 0.195000
0.425000 0.942500 0.195000
0.482500 0.942500 0.195000
0.540000 0.942500 0.195000
0.597500 0.942500 0.195000
0.655000 0.942500 0.195000
0.712500 0.942500 0.195000
0.770000 0.942500 0.195000
0.827500 0.942500 0.195000
0.885000 0.942500 0.195000
0.942500 0.942500 0.195000
1.000000 0.942500 0.195000
0.080000 1.000000 0.195000
0.137500 1.000000 0.195000
0.195000 1.000000 0.195000
0.252500 1.000000 0.195000
0.310000 1.000000 0.195000
0.367500 1.000000 0.195000
0.425000 1.000000 0.195000
0.482500 1.000000 0.195000
0.540000 1.000000 0.195000
0.597500 1.000000 0.195000
0.655000 1.000000 0.195000
0.712500 1.000000 0.195000
0.770000 1.000000 0.195000
0.827500 1.000000 0.195000
0.885000 1.000000 0.195000
0.942500 1.000000 0.195000
1.000000 1.000000 0.195000
0.080000 0.080000 0.252500
0.137500 0.080000 0.252500
0.195000 0.080000 0.252500
0.252500 0.080000 0.252500
0.310000 0.080000 0.252500
0.367500 0.080000 0.252500
0.425000 0.080000 0.252500
0.482500 0.080000 0.252500
0.540000 0.080000 0.252500
0.597500 0.080000 0.252500
0.655000 0.080000 0.252500
0.712500 0.080000 0.252500
0.770000 0.080000 0.252500
0.827500 0.080000 0.252500
0.885000 0.080000 0.252500
0.942500 0.080000 0.252500
1.000000 0.080000 0.252500
0.080000 0.137500 0.252500
0.137500 0.137500 0.252500
0.195000 0.137500 0.252500
