assets/presets/luts/matte-black/lut.cube
TITLE "Matte Black"
LUT_3D_SIZE 9
0.080000 0.080000 0.080000
0.195000 0.080000 0.080000
0.310000 0.080000 0.080000
0.425000 0.080000 0.080000
0.540000 0.080000 0.080000
0.655000 0.080000 0.080000
0.770000 0.080000 0.080000
0.885000 0.080000 0.080000
1.000000 0.080000 0.080000
0.080000 0.195000 0.080000
0.195000 0.195000 0.080000
0.310000 0.195000 0.080000
0.425000 0.195000 0.080000
0.540000 0.195000 0.080000
0.655000 0.195000 0.080000
0.770000 0.195000 0.080000
0.885000 0.195000 0.080000
1.000000 0.195000 0.080000
0.080000 0.310000 0.080000
0.195000 0.310000 0.080000
0.310000 0.310000 0.080000
0.425000 0.310000 0.080000
0.540000 0.310000 0.080000
0.655000 0.310000 0.080000
0.770000 0.310000 0.080000
0.885000 0.310000 0.080000
1.000000 0.310000 0.080000
0.080000 0.425000 0.080000
0.195000 0.425000 0.080000
0.310000 0.425000 0.080000
0.425000 0.425000 0.080000
0.540000 0.425000 0.080000
0.655000 0.425000 0.080000
0.770000 0.425000 0.080000
0.885000 0.425000 0.080000
1.000000 0.425000 0.080000
0.080000 0.540000 0.080000
0.195000 0.540000 0.080000
0.310000 0.540000 0.080000
0.425000 0.540000 0.080000
0.540000 0.540000 0.080000
0.655000 0.540000 0.080000
0.770000 0.540000 0.080000
0.885000 0.540000 0.080000
1.000000 0.540000 0.080000
0.080000 0.655000 0.080000
0.195000 0.655000 0.080000
0.310000 0.655000 0.080000
0.425000 0.655000 0.080000
0.540000 0.655000 0.080000
0.655000 0.655000 0.080000
0.770000 0.655000 0.080000
0.885000 0.655000 0.080000
1.000000 0.655000 0.080000
0.080000 0.770000 0.080000
0.195000 0.770000 0.080000
0.310000 0.770000 0.080000
0.425000 0.770000 0.080000
0.540000 0.770000 0.080000
0.655000 0.770000 0.080000
0.770000 0.770000 0.080000
0.885000 0.770000 0.080000
1.000000 0.770000 0.080000
0.080000 0.885000 0.080000
0.195000 0.885000 0.080000
0.310000 0.885000 0.080000
0.425000 0.885000 0.080000
0.540000 0.885000 0.080000
0.655000 0.885000 0.080000
0.770000 0.885000 0.080000
0.885000 0.885000 0.080000
1.000000 0.885000 0.080000
0.080000 1.000000 0.080000
0.195000 1.000000 0.080000
0.310000 1.000000 0.080000
0.425000 1.000000 0.080000
0.540000 1.000000 0.080000
0.655000 1.000000 0.080000
0.770000 1.000000 0.080000
0.885000 1.000000 0.080000
1.000000 1.000000 0.080000
0.080000 0.080000 0.195000
0.195000 0.080000 0.195000
0.310000 0.080000 0.195000
0.425000 0.080000 0.195000
0.540000 0.080000 0.195000
0.655000 0.080000 0.195000
0.770000 0.080000 0.195000
0.885000 0.080000 0.195000
1.000000 0.080000 0.195000
0.080000 0.195000 0.195000
0.195000 0.195000 0.195000
0.310000 0.195000 0.195000
0.425000 0.195000 0.195000
0.540000 0.195000 0.195000
0.655000 0.195000 0.195000
0.770000 0.195000 0.195000
0.885000 0.195000 0.195000
1.000000 0.195000 0.195000
0.080000 0.310000 0.195000
0.195000 0.310000 0.195000
0.310000 0.310000 0.195000
0.425000 0.310000 0.195000
0.540000 0.310000 0.195000
0.655000 0.310000 0.195000
0.770000 0.310000 0.195000
0.885000 0.310000 0.195000
1.000000 0.310000 0.195000
0.080000 0.425000 0.195000
0.195000 0.425000 0.195000
0.310000 0.425000 0.195000
0.425000 0.425000 0.195000
0.540000 0.425000 0.195000
0.655000 0.425000 0.195000
0.770000 0.425000 0.195000
0.885000 0.425000 0.195000
1.000000 0.425000 0.195000
0.080000 0.540000 0.195000
0.195000 0.540000 0.195000
0.310000 0.540000 0.195000
0.425000 0.540000 0.195000
0.540000 0.540000 0.195000
0.655000 0.540000 0.195000
0.770000 0.540000 0.195000
0.885000 0.540000 0.195000
1.000000 0.540000 0.195000
0.080000 0.655000 0.195000
0.195000 0.655000 0.195000
0.310000 0.655000 0.195000
0.425000 0.655000 0.195000
0.540000 0.655000 0.195000
0.655000 0.655000 0.195000
0.770000 0.655000 0.195000
0.885000 0.655000 0.195000
1.000000 0.655000 0.195000
0.080000 0.770000 0.195000
0.195000 0.770000 0.195000
0.310000 0.770000 0.195000
0.425000 0.770000 0.195000
0.540000 0.770000 0.195000
0.655000 0.770000 0.195000
0.770000 0.770000 0.195000
0.885000 0.770000 0.195000
1.000000 0.770000 0.195000
0.080000 0.885000 0.195000
0.195000 0.885000 0.195000
0.310000 0.885000 0.195000
0.425000 0.885000 0.195000
0.540000 0.885000 0.195000
0.655000 0.885000 0.195000
0.770000 0.885000 0.195000
0.885000 0.885000 0.195000
1.000000 0.885000 0.195000
0.080000 1.000000 0.195000
0.195000 1.000000 0.195000
0.310000 1.000000 0.195000
0.425000 1.000000 0.195000
0.540000 1.000000 0.195000
0.655000 1.000000 0.195000
0.770000 1.000000 0.195000
0.885000 1.000000 0.195000
1.000000 1.000000 0.195000
0.080000 0.080000 0.310000
0.195000 0.080000 0.310000
0.310000 0.080000 0.310000
0.425000 0.080000 0.310000
0.540000 0.080000 0.310000
0.655000 0.080000 0.310000
0.770000 0.080000 0.310000
0.885000 0.080000 0.310000
1.000000 0.080000 0.310000
0.080000 0.195000 0.310000
0.195000 0.195000 0.310000
0.310000 0.195000 0.310000
0.425000 0.195000 0.310000
0.540000 0.195000 0.310000
0.655000 0.195000 0.310000
0.770000 0.195000 0.310000
0.885000 0.195000 0.310000
1.000000 0.195000 0.310000
0.080000 0.310000 0.310000
0.195000 0.310000 0.310000
0.310000 0.310000 0.310000
0.425000 0.310000 0.310000
0.540000 0.310000 0.310000
0.655000 0.310000 0.310000
0.770000 0.310000 0.310000
0.885000 0.310000 0.310000
1.000000 0.310000 0.310000
0.080000 0.425000 0.310000
0.195000 0.425000 0.310000
0.310000 0.425000 0.310000
0.425000 0.425000 0.310000
0.540000 0.425000 0.310000
0.655000 0.425000 0.310000
0.770000 0.425000 0.310000
0.885000 0.425000 0.310000
1.000000 0.425000 0.310000
0.080000 0.540000 0.310000
0.195000 0.540000 0.310000
0.310000 0.540000 0.310000
0.425000 0.540000 0.310000
0.540000 0.540000 0.310000
0.655000 0.540000 0.310000
0.770000 0.540000 0.310000
0.885000 0.540000 0.310000
1.000000 0.540000 0.310000
0.080000 0.655000 0.310000
0.195000 0.655000 0.310000
0.310000 0.655000 0.310000
0.425000 0.655000 0.310000
0.540000 0.655000 0.310000
0.655000 0.655000 0.310000
0.770000 0.655000 0.310000
0.885000 0.655000 0.310000
1.000000 0.655000 0.310000
0.080000 0.770000 0.310000
0.195000 0.770000 0.310000
0.310000 0.770000 0.310000
0.425000 0.770000 0.310000
0.540000 0.770000 0.310000
0.655000 0.770000 0.310000
0.770000 0.770000 0.310000
0.885000 0.770000 0.310000
1.000000 0.770000 0.310000
0.080000 0.885000 0.310000
0.195000 0.885000 0.310000
0.310000 0.885000 0.310000
0.425000 0.885000 0.310000
0.540000 0.885000 0.310000
0.655000 0.885000 0.310000
0.770000 0.885000 0.310000
0.885000 0.885000 0.310000
1.000000 0.885000 0.310000
0.080000 1.000000 0.310000
0.195000 1.000000 0.310000
0.310000 1.000000 0.310000
0.425000 1.000000 0.310000
0.540000 1.000000 0.310000
0.655000 1.000000 0.310000
0.770000 1.000000 0.310000
0.885000 1.000000 0.310000
1.000000 1.000000 0.310000
0.080000 0.080000 0.425000
0.195000 0.080000 0.425000
0.310000 0.080000 0.425000
0.425000 0.080000 0.425000
0.540000 0.080000 0.425000
0.655000 0.080000 0.425000
0.770000 0.080000 0.425000
0.885000 0.080000 0.425000
1.000000 0.080000 0.425000
0.080000 0.195000 0.425000
0.195000 0.195000 0.425000
0.310000 0.195000 0.425000
0.425000 0.195000 0.425000
0.540000 0.195000 0.425000
0.655000 0.195000 0.425000
0.770000 0.195000 0.425000
0.885000 0.195000 0.425000
1.000000 0.195000 0.425000
0.080000 0.310000 0.425000
0.195000 0.310000 0.425000
0.310000 0.310000 0.425000
0.425000 0.310000 0.425000
0.540000 0.310000 0.425000
0.655000 0.310000 0.425000
0.770000 0.310000 0.425000
0.885000 0.310000 0.425000
1.000000 0.310000 0.425000
0.080000 0.425000 0.425000
0.195000 0.425000 0.425000
0.310000 0.425000 0.425000
0.425000 0.425000 0.425000
0.540000 0.425000 0.425000
0.655000 0.425000 0.425000
0.770000 0.425000 0.425000
0.885000 0.425000 0.425000
1.000000 0.425000 0.425000
0.080000 0.540000 0.425000
0.195000 0.540000 0.425000
0.310000 0.540000 0.425000
0.425000 0.540000 0.425000
0.540000 0.540000 0.425000
0.655000 0.540000 0.425000
0.770000 0.540000 0.425000
0.885000 0.540000 0.425000
1.000000 0.540000 0.425000
0.080000 0.655000 0.425000
0.195000 0.655000 0.425000
0.310000 0.655000 0.425000
0.425000 0.655000 0.425000
0.540000 0.655000 0.425000
0.655000 0.655000 0.425000
0.770000 0.655000 0.425000
0.885000 0.655000 0.425000
1.000000 0.655000 0.425000
0.080000 0.770000 0.425000
0.195000 0.770000 0.425000
0.310000 0.770000 0.425000
0.425000 0.770000 0.425000
0.540000 0.770000 0.425000
0.655000 0.770000 0.425000
0.770000 0.770000 0.425000
0.885000 0.770000 0.425000
1.000000 0.770000 0.425000
0.080000 0.885000 0.425000
0.195000 0.885000 0.425000
0.310000 0.885000 0.425000
0.425000 0.885000 0.425000
0.540000 0.885000 0.425000
0.655000 0.885000 0.425000
0.770000 0.885000 0.425000
0.885000 0.885000 0.425000
1.000000 0.885000 0.425000
0.080000 1.000000 0.425000
0.195000 1.000000 0.425000
0.310000 1.000000 0.425000
0.425000 1.000000 0.425000
0.540000 1.000000 0.425000
0.655000 1.000000 0.425000
0.770000 1.000000 0.425000
0.885000 1.000000 0.425000
1.000000 1.000000 0.425000
0.080000 0.080000 0.540000
0.195000 0.080000 0.540000
0.310000 0.080000 0.540000
0.425000 0.080000 0.540000
0.540000 0.080000 0.540000
0.655000 0.080000 0.540000
0.770000 0.080000 0.540000
0.885000 0.080000 0.540000
1.000000 0.080000 0.540000
0.080000 0.195000 0.540000
0.195000 0.195000 0.540000
0.310000 0.195000 0.540000
0.425000 0.195000 0.540000
0.540000 0.195000 0.540000
0.655000 0.195000 0.540000
0.770000 0.195000 0.540000
0.885000 0.195000 0.540000
1.000000 0.195000 0.540000
0.080000 0.310000 0.540000
0.195000 0.310000 0.540000
0.310000 0.310000 0.540000
0.425000 0.310000 0.540000
0.540000 0.310000 0.540000
0.655000 0.310000 0.540000
0.770000 0.310000 0.540000
0.885000 0.310000 0.540000
1.000000 0.310000 0.540000
0.080000 0.425000 0.540000
0.195000 0.425000 0.540000
0.310000 0.425000 0.540000
0.425000 0.425000 0.540000
0.540000 0.425000 0.540000
0.655000 0.425000 0.540000
0.770000 0.425000 0.540000
0.885000 0.425000 0.540000
1.000000 0.425000 0.540000
0.080000 0.540000 0.540000
0.195000 0.540000 0.540000
0.310000 0.540000 0.540000
0.425000 0.540000 0.540000
0.540000 0.540000 0.540000
0.655000 0.540000 0.540000
0.770000 0.540000 0.540000
0.885000 0.540000 0.540000
1.000000 0.540000 0.540000
0.080000 0.655000 0.540000
0.195000 0.655000 0.540000
0.310000 0.655000 0.540000
0.425000 0.655000 0.540000
0.540000 0.655000 0.540000
0.655000 0.655000 0.540000
0.770000 0.655000 0.540000
0.885000 0.655000 0.540000
1.000000 0.655000 0.540000
0.080000 0.770000 0.540000
0.195000 0.770000 0.540000
0.310000 0.770000 0.540000
0.425000 0.770000 0.540000
0.540000 0.770000 0.540000
0.655000 0.770000 0.540000
0.770000 0.770000 0.540000
0.885000 0.770000 0.540000
1.000000 0.770000 0.540000
0.080000 0.885000 0.540000
0.195000 0.885000 0.540000
0.310000 0.885000 0.540000
0.425000 0.885000 0.540000
0.540000 0.885000 0.540000
0.655000 0.885000 0.540000
0.770000 0.885000 0.540000
0.885000 0.885000 0.540000
1.000000 0.885000 0.540000
0.080000 1.000000 0.540000
0.195000 1.000000 0.540000
0.310000 1.000000 0.540000
0.425000 1.000000 0.540000
0.540000 1.000000 0.540000
0.655000 1.000000 0.540000
0.770000 1.000000 0.540000
0.885000 1.000000 0.540000
1.000000 1.000000 0.540000
0.080000 0.080000 0.655000
0.195000 0.080000 0.655000
0.310000 0.080000 0.655000
0.425000 0.080000 0.655000
0.540000 0.080000 0.655000
0.655000 0.080000 0.655000
0.770000 0.080000 0.655000
0.885000 0.080000 0.655000
1.000000 0.080000 0.655000
0.080000 0.195000 0.655000
0.195000 0.195000 0.655000
0.310000 0.195000 0.655000
0.425000 0.195000 0.655000
0.540000 0.195000 0.655000
0.655000 0.195000 0.655000
0.770000 0.195000 0.655000
0.885000 0.195000 0.655000
1.000000 0.195000 0.655000
0.080000 0.310000 0.655000
0.195000 0.310000 0.655000
0.310000 0.310000 0.655000
0.425000 0.310000 0.655000
0.540000 0.310000 0.655000
0.655000 0.310000 0.655000
0.770000 0.310000 0.655000
0.885000 0.310000 0.655000
1.000000 0.310000 0.655000
0.080000 0.425000 0.655000
0.195000 0.425000 0.655000
0.310000 0.425000 0.655000
0.425000 0.425000 0.655000
0.540000 0.425000 0.655000
0.655000 0.425000 0.655000
0.770000 0.425000 0.655000
0.885000 0.425000 0.655000
1.000000 0.425000 0.655000
0.080000 0.540000 0.655000
0.195000 0.540000 0.655000
0.310000 0.540000 0.655000
0.425000 0.540000 0.655000
0.540000 0.540000 0.655000
0.655000 0.540000 0.655000
0.770000 0.540000 0.655000
0.885000 0.540000 0.655000
1.000000 0.540000 0.655000
0.080000 0.655000 0.655000
0.195000 0.655000 0.655000
0.310000 0.655000 0.655000
0.425000 0.655000 0.655000
0.540000 0.655000 0.655000
0.655000 0.655000 0.655000
0.770000 0.655000 0.655000
0.885000 0.655000 0.655000
1.000000 0.655000 0.655000
0.080000 0.770000 0.655000
0.195000 0.770000 0.655000
0.310000 0.770000 0.655000
0.425000 0.770000 0.655000
0.540000 0.770000 0.655000
0.655000 0.770000 0.655000
0.770000 0.770000 0.655000
0.885000 0.770000 0.655000
1.000000 0.770000 0.655000
0.080000 0.885000 0.655000
0.195000 0.885000 0.655000
0.310000 0.885000 0.655000
0.425000 0.885000 0.655000
0.540000 0.885000 0.655000
0.655000 0.885000 0.655000
0.770000 0.885000 0.655000
0.885000 0.885000 0.655000
1.000000 0.885000 0.655000
0.080000 1.000000 0.655000
0.195000 1.000000 0.655000
0.310000 1.000000 0.655000
0.425000 1.000000 0.655000
0.540000 1.000000 0.655000
0.655000 1.000000 0.655000
0.770000 1.000000 0.655000
0.885000 1.000000 0.655000
1.000000 1.000000 0.655000
0.080000 0.080000 0.770000
0.195000 0.080000 0.770000
0.310000 0.080000 0.770000
0.425000 0.080000 0.770000
0.540000 0.080000 0.770000
0.655000 0.080000 0.770000
0.770000 0.080000 0.770000
0.885000 0.080000 0.770000
1.000000 0.080000 0.770000
0.080000 0.195000 0.770000
0.195000 0.195000 0.770000
0.310000 0.195000 0.770000
0.425000 0.195000 0.770000
0.540000 0.195000 0.770000
0.655000 0.195000 0.770000
0.770000 0.195000 0.770000
0.885000 0.195000 0.770000
1.000000 0.195000 0.770000
0.080000 0.310000 0.770000
0.195000 0.310000 0.770000
0.310000 0.310000 0.770000
0.425000 0.310000 0.770000
0.540000 0.310000 0.770000
0.655000 0.310000 0.770000
0.770000 0.310000 0.770000
0.885000 0.310000 0.770000
1.000000 0.310000 0.770000
0.080000 0.425000 0.770000
0.195000 0.425000 0.770000
0.310000 0.425000 0.770000
0.425000 0.425000 0.770000
0.540000 0.425000 0.770000
0.655000 0.425000 0.770000
0.770000 0.425000 0.770000
0.885000 0.425000 0.770000
1.000000 0.425000 0.770000
0.080000 0.540000 0.770000
0.195000 0.540000 0.770000
0.310000 0.540000 0.770000
0.425000 0.540000 0.770000
0.540000 0.540000 0.770000
0.655000 0.540000 0.770000
0.770000 0.540000 0.770000
0.885000 0.540000 0.770000
1.000000 0.540000 0.770000
0.080000 0.655000 0.770000
0.195000 0.655000 0.770000
0.310000 0.655000 0.770000
0.425000 0.655000 0.770000
0.540000 0.655000 0.770000
0.655000 0.655000 0.770000
0.770000 0.655000 0.770000
0.885000 0.655000 0.770000
1.000000 0.655000 0.770000
0.080000 0.770000 0.770000
0.195000 0.770000 0.770000
0.310000 0.770000 0.770000
0.425000 0.770000 0.770000
0.540000 0.770000 0.770000
0.655000 0.770000 0.770000
0.770000 0.770000 0.770000
0.885000 0.770000 0.770000
1.000000 0.770000 0.770000
0.080000 0.885000 0.770000
0.195000 0.885000 0.770000
0.310000 0.885000 0.770000
0.425000 0.885000 0.770000
0.540000 0.885000 0.770000
0.655000 0.885000 0.770000
0.770000 0.885000 0.770000
0.885000 0.885000 0.770000
1.000000 0.885000 0.770000
0.080000 1.000000 0.770000
0.195000 1.000000 0.770000
0.310000 1.000000 0.770000
0.425000 1.000000 0.770000
0.540000 1.000000 0.770000
0.655000 1.000000 0.770000
0.770000 1.000000 0.770000
0.885000 1.000000 0.770000
1.000000 1.000000 0.770000
0.080000 0.080000 0.885000
0.195000 0.080000 0.885000
0.310000 0.080000 0.885000
0.425000 0.080000 0.885000
0.540000 0.080000 0.885000
0.655000 0.080000 0.885000
0.770000 0.080000 0.885000
0.885000 0.080000 0.885000
1.000000 0.080000 0.885000
0.080000 0.195000 0.885000
0.195000 0.195000 0.885000
0.310000 0.195000 0.885000
0.425000 0.195000 0.885000
0.540000 0.195000 0.885000
0.655000 0.195000 0.885000
0.770000 0.195000 0.885000
0.885000 0.195000 0.885000
1.000000 0.195000 0.885000
0.080000 0.310000 0.885000
0.195000 0.310000 0.885000
0.310000 0.310000 0.885000
0.425000 0.310000 0.885000
0.540000 0.310000 0.885000
0.655000 0.310000 0.885000
0.770000 0.310000 0.885000
0.885000 0.310000 0.885000
1.000000 0.310000 0.885000
0.080000 0.425000 0.885000
0.195000 0.425000 0.885000
0.310000 0.425000 0.885000
0.425000 0.425000 0.885000
0.540000 0.425000 0.885000
0.655000 0.425000 0.885000
0.770000 0.425000 0.885000
0.885000 0.425000 0.885000
1.000000 0.425000 0.885000
0.080000 0.540000 0.885000
0.195000 0.540000 0.885000
0.310000 0.540000 0.885000
0.425000 0.540000 0.885000
0.540000 0.540000 0.885000
0.655000 0.540000 0.885000
0.770000 0.540000 0.885000
0.885000 0.540000 0.885000
1.000000 0.540000 0.885000
0.080000 0.655000 0.885000
0.195000 0.655000 0.885000
0.310000 0.655000 0.885000
0.425000 0.655000 0.885000
0.540000 0.655000 0.885000
0.655000 0.655000 0.885000
0.770000 0.655000 0.885000
0.885000 0.655000 0.885000
1.000000 0.655000 0.885000
0.080000 0.770000 0.885000
0.195000 0.770000 0.885000
0.310000 0.770000 0.885000
0.425000 0.770000 0.885000
0.540000 0.770000 0.885000
0.655000 0.770000 0.885000
0.770000 0.770000 0.885000
0.885000 0.770000 0.885000
1.000000 0.770000 0.885000
0.080000 0.885000 0.885000
0.195000 0.885000 0.885000
0.310000 0.885000 0.885000
0.425000 0.885000 0.885000
0.540000 0.885000 0.885000
0.655000 0.885000 0.885000
0.770000 0.885000 0.885000
0.885000 0.885000 0.885000
1.000000 0.885000 0.885000
0.080000 1.000000 0.885000
0.195000 1.000000 0.885000
0.310000 1.000000 0.885000
0.425000 1.000000 0.885000
0.540000 1.000000 0.885000
0.655000 1.000000 0.885000
0.770000 1.000000 0.885000
0.885000 1.000000 0.885000
1.000000 1.000000 0.885000
0.080000 0.080000 1.000000
0.195000 0.080000 1.000000
0.310000 0.080000 1.000000
0.425000 0.080000 1.000000
0.540000 0.080000 1.000000
0.655000 0.080000 1.000000
0.770000 0.080000 1.000000
0.885000 0.080000 1.000000
1.000000 0.080000 1.000000
0.080000 0.195000 1.000000
0.195000 0.195000 1.000000
0.310000 0.195000 1.000000
0.425000 0.195000 1.000000
0.540000 0.195000 1.000000
0.655000 0.195000 1.000000
0.770000 0.195000 1.000000
0.885000 0.195000 1.000000
1.000000 0.195000 1.000000
0.080000 0.310000 1.000000
0.195000 0.310000 1.000000
0.310000 0.310000 1.000000
0.425000 0.310000 1.000000
0.540000 0.310000 1.000000
0.655000 0.310000 1.000000
0.770000 0.310000 1.000000
0.885000 0.310000 1.000000
1.000000 0.310000 1.000000
0.080000 0.425000 1.000000
0.195000 0.425000 1.000000
0.310000 0.425000 1.000000
0.425000 0.425000 1.000000
0.540000 0.425000 1.000000
0.655000 0.425000 1.000000
0.770000 0.425000 1.000000
0.885000 0.425000 1.000000
1.000000 0.425000 1.000000
0.080000 0.540000 1.000000
0.195000 0.540000 1.000000
0.310000 0.540000 1.000000
0.425000 0.540000 1.000000
0.540000 0.540000 1.000000
0.655000 0.540000 1.000000
0.770000 0.540000 1.000000
0.885000 0.540000 1.000000
1.000000 0.540000 1.000000
0.080000 0.655000 1.000000
0.195000 0.655000 1.000000
0.310000 0.655000 1.000000
0.425000 0.655000 1.000000
0.540000 0.655000 1.000000
0.655000 0.655000 1.000000
0.770000 0.655000 1.000000
0.885000 0.655000 1.000000
1.000000 0.655000 1.000000
0.080000 0.770000 1.000000
0.195000 0.770000 1.000000
0.310000 0.770000 1.000000
0.425000 0.770000 1.000000
0.540000 0.770000 1.000000
0.655000 0.770000 1.000000
0.770000 0.770000 1.000000
0.885000 0.770000 1.000000
1.000000 0.770000 1.000000
0.080000 0.885000 1.000000
0.195000 0.885000 1.000000
0.310000 0.885000 1.000000
0.425000 0.885000 1.000000
0.540000 0.885000 1.000000
0.655000 0.885000 1.000000
0.770000 0.885000 1.000000
0.885000 0.885000 1.000000
1.000000 0.885000 1.000000
0.080000 1.000000 1.000000
0.195000 1.000000 1.000000
0.310000 1.000000 1.000000
0.425000 1.000000 1.000000
0.540000 1.000000 1.000000
0.655000 1.000000 1.000000
0.770000 1.000000 1.000000
0.885000 1.000000 1.000000
1.000000 1.000000 1.000000
