assets/presets/luts/matte-black/lut.cube
TITLE "Matte Black"
LUT_3D_SIZE 5
0.080000 0.080000 0.080000
0.310000 0.080000 0.080000
0.540000 0.080000 0.080000
0.770000 0.080000 0.080000
1.000000 0.080000 0.080000
0.080000 0.310000 0.080000
0.310000 0.310000 0.080000
0.540000 0.310000 0.080000
0.770000 0.310000 0.080000
1.000000 0.310000 0.080000
0.080000 0.540000 0.080000
0.310000 0.540000 0.080000
0.540000 0.540000 0.080000
0.770000 0.540000 0.080000
1.000000 0.540000 0.080000
0.080000 0.770000 0.080000
0.310000 0.770000 0.080000
0.540000 0.770000 0.080000
0.770000 0.770000 0.080000
1.000000 0.770000 0.080000
0.080000 1.000000 0.080000
0.310000 1.000000 0.080000
0.540000 1.000000 0.080000
0.770000 1.000000 0.080000
1.000000 1.000000 0.080000
0.080000 0.080000 0.310000
0.310000 0.080000 0.310000
0.540000 0.080000 0.310000
0.770000 0.080000 0.310000
1.000000 0.080000 0.310000
0.080000 0.310000 0.310000
0.310000 0.310000 0.310000
0.540000 0.310000 0.310000
0.770000 0.310000 0.310000
1.000000 0.310000 0.310000
0.080000 0.540000 0.310000
0.310000 0.540000 0.310000
0.540000 0.540000 0.310000
0.770000 0.540000 0.310000
1.000000 0.540000 0.310000
0.080000 0.770000 0.310000
0.310000 0.770000 0.310000
0.540000 0.770000 0.310000
0.770000 0.770000 0.310000
1.000000 0.770000 0.310000
0.080000 1.000000 0.310000
0.310000 1.000000 0.310000
0.540000 1.000000 0.310000
0.770000 1.000000 0.310000
1.000000 1.000000 0.310000
0.080000 0.080000 0.540000
0.310000 0.080000 0.540000
0.540000 0.080000 0.540000
0.770000 0.080000 0.540000
1.000000 0.080000 0.540000
0.080000 0.310000 0.540000
0.310000 0.310000 0.540000
0.540000 0.310000 0.540000
0.770000 0.310000 0.540000
1.000000 0.310000 0.540000
0.080000 0.540000 0.540000
0.310000 0.540000 0.540000
0.540000 0.540000 0.540000
0.770000 0.540000 0.540000
1.000000 0.540000 0.540000
0.080000 0.770000 0.540000
0.310000 0.770000 0.540000
0.540000 0.770000 0.540000
0.770000 0.770000 0.540000
1.000000 0.770000 0.540000
0.080000 1.000000 0.540000
0.310000 1.000000 0.540000
0.540000 1.000000 0.540000
0.770000 1.000000 0.540000
1.000000 1.000000 0.540000
0.080000 0.080000 0.770000
0.310000 0.080000 0.770000
0.540000 0.080000 0.770000
0.770000 0.080000 0.770000
1.000000 0.080000 0.770000
0.080000 0.310000 0.770000
0.310000 0.310000 0.770000
0.540000 0.310000 0.770000
0.770000 0.310000 0.770000
1.000000 0.310000 0.770000
0.080000 0.540000 0.770000
0.310000 0.540000 0.770000
0.540000 0.540000 0.770000
0.770000 0.540000 0.770000
1.000000 0.540000 0.770000
0.080000 0.770000 0.770000
0.310000 0.770000 0.770000
0.540000 0.770000 0.770000
0.770000 0.770000 0.770000
1.000000 0.770000 0.770000
0.080000 1.000000 0.770000
0.310000 1.000000 0.770000
0.540000 1.000000 0.770000
0.770000 1.000000 0.770000
1.000000 1.000000 0.770000
0.080000 0.080000 1.000000
0.310000 0.080000 1.000000
0.540000 0.080000 1.000000
0.770000 0.080000 1.000000
1.000000 0.080000 1.000000
0.080000 0.310000 1.000000
0.310000 0.310000 1.000000
0.540000 0.310000 1.000000
0.770000 0.310000 1.000000
1.000000 0.310000 1.000000
0.080000 0.540000 1.000000
0.310000 0.540000 1.000000
0.540000 0.540000 1.000000
0.770000 0.540000 1.000000
1.000000 0.540000 1.000000
0.080000 0.770000 1.000000
0.310000 0.770000 1.000000
0.540000 0.770000 1.000000
0.770000 0.770000 1.000000
1.000000 0.770000 1.000000
0.080000 1.000000 1.000000
0.310000 1.000000 1.000000
0.540000 1.000000 1.000000
0.770000 1.000000 1.000000
1.000000 1.000000 1.000000
