assets/presets/luts/nordic-noir/lut.cube
TITLE "Nordic Noir"
LUT_3D_SIZE 17
0.004944 0.008400 0.012720
0.047522 0.013292 0.017592
0.091496 0.018345 0.022623
0.135471 0.023397 0.027655
0.179446 0.028450 0.032686
0.223421 0.033503 0.037718
0.267395 0.038555 0.042750
0.311370 0.043608 0.047781
0.355345 0.048661 0.052813
0.399320 0.053713 0.057844
0.443294 0.058766 0.062876
0.487269 0.063819 0.067908
0.531244 0.068871 0.072939
0.575219 0.073924 0.077971
0.619194 0.078976 0.083002
0.663168 0.084029 0.088034
0.707143 0.089082 0.093066
0.022547 0.065969 0.030192
0.065125 0.070862 0.035063
0.109100 0.075914 0.040095
0.153074 0.080967 0.045127
0.197049 0.086020 0.050158
0.241024 0.091072 0.055190
0.284999 0.096125 0.060221
0.328973 0.101177 0.065253
0.372948 0.106230 0.070285
0.416923 0.111283 0.075316
0.460898 0.116335 0.080348
0.504873 0.121388 0.085379
0.548847 0.126441 0.090411
0.592822 0.131493 0.095442
0.636797 0.136546 0.100474
0.680772 0.141599 0.105506
0.724746 0.146651 0.110537
0.040182 0.123641 0.047694
0.082759 0.128533 0.052566
0.126734 0.133586 0.057598
0.170709 0.138638 0.062629
0.214684 0.143691 0.067661
0.258658 0.148744 0.072692
0.302633 0.153796 0.077724
0.346608 0.158849 0.082756
0.390583 0.163901 0.087787
0.434557 0.168954 0.092819
0.478532 0.174007 0.097850
0.522507 0.179059 0.102882
0.566482 0.184112 0.107913
0.610456 0.189165 0.112945
0.654431 0.194217 0.117977
0.698406 0.199270 0.123008
0.742381 0.204323 0.128040
0.057816 0.181312 0.065197
0.100394 0.186204 0.070069
0.144368 0.191257 0.075100
0.188343 0.196310 0.080132
0.232318 0.201362 0.085163
0.276293 0.206415 0.090195
0.320267 0.211468 0.095227
0.364242 0.216520 0.100258
0.408217 0.221573 0.105290
0.452192 0.226625 0.110321
0.496167 0.231678 0.115353
0.540141 0.236731 0.120384
0.584116 0.241783 0.125416
0.628091 0.246836 0.130448
0.672066 0.251889 0.135479
0.716040 0.256941 0.140511
0.760015 0.261994 0.145542
0.075450 0.238984 0.082699
0.118028 0.243876 0.087571
0.162003 0.248928 0.092603
0.205978 0.253981 0.097634
0.249952 0.259034 0.102666
0.293927 0.264086 0.107697
0.337902 0.269139 0.112729
0.381877 0.274191 0.117761
0.425851 0.279244 0.122792
0.469826 0.284297 0.127824
0.513801 0.289349 0.132855
0.557776 0.294402 0.137887
0.601750 0.299455 0.142919
0.645725 0.304507 0.147950
0.689700 0.309560 0.152982
0.733675 0.314613 0.158013
0.777650 0.319665 0.163045
0.093085 0.296655 0.100202
0.135662 0.301547 0.105074
0.179637 0.306600 0.110105
0.223612 0.311652 0.115137
0.267587 0.316705 0.120168
0.311562 0.321758 0.125200
0.355536 0.326810 0.130232
0.399511 0.331863 0.135263
0.443486 0.336915 0.140295
0.487461 0.341968 0.145326
0.531435 0.347021 0.150358
0.575410 0.352073 0.155390
0.619385 0.357126 0.160421
0.663360 0.362179 0.165453
0.707334 0.367231 0.170484
0.751309 0.372284 0.175516
0.795284 0.377337 0.180548
0.110719 0.354326 0.117705
0.153297 0.359218 0.122576
0.197272 0.364271 0.127608
0.241246 0.369324 0.132639
0.285221 0.374376 0.137671
0.329196 0.379429 0.142703
0.373171 0.384482 0.147734
0.417145 0.389534 0.152766
0.461120 0.394587 0.157797
0.505095 0.399639 0.162829
0.549070 0.404692 0.167861
0.593045 0.409745 0.172892
0.637019 0.414797 0.177924
0.680994 0.419850 0.182955
0.724969 0.424903 0.187987
0.768944 0.429955 0.193019
0.812918 0.435008 0.198050
0.128354 0.411998 0.135207
0.170931 0.416890 0.140079
0.214906 0.421942 0.145110
0.258881 0.426995 0.150142
0.302856 0.432048 0.155174
0.346830 0.437100 0.160205
0.390805 0.442153 0.165237
0.434780 0.447206 0.170268
0.478755 0.452258 0.175300
0.522729 0.457311 0.180332
0.566704 0.462363 0.185363
0.610679 0.467416 0.190395
0.654654 0.472469 0.195426
0.698628 0.477521 0.200458
0.742603 0.482574 0.205490
0.786578 0.487627 0.210521
0.830553 0.492679 0.215553
0.145988 0.469669 0.152710
0.188566 0.474561 0.157581
0.232540 0.479614 0.162613
0.276515 0.484666 0.167645
0.320490 0.489719 0.172676
0.364465 0.494772 0.177708
0.408439 0.499824 0.182739
0.452414 0.504877 0.187771
0.496389 0.509930 0.192803
0.540364 0.514982 0.197834
0.584339 0.520035 0.202866
0.628313 0.525087 0.207897
0.672288 0.530140 0.212929
0.716263 0.535193 0.217961
0.760238 0.540245 0.222992
0.804212 0.545298 0.228024
0.848187 0.550351 0.233055
0.163622 0.527340 0.170212
0.206200 0.532232 0.175084
0.250175 0.537285 0.180116
0.294150 0.542338 0.185147
0.338124 0.547390 0.190179
0.382099 0.552443 0.195210
0.426074 0.557496 0.200242
0.470049 0.562548 0.205274
0.514023 0.567601 0.210305
0.557998 0.572654 0.215337
0.601973 0.577706 0.220368
0.645948 0.582759 0.225400
0.689922 0.587811 0.230432
0.733897 0.592864 0.235463
0.777872 0.597917 0.240495
0.821847 0.602969 0.245526
0.865822 0.608022 0.250558
0.181257 0.585012 0.187715
0.223834 0.589904 0.192587
0.267809 0.594956 0.197618
0.311784 0.600009 0.202650
0.355759 0.605062 0.207681
0.399734 0.610114 0.212713
0.443708 0.615167 0.217745
0.487683 0.620220 0.222776
0.531658 0.625272 0.227808
0.575633 0.630325 0.232839
0.619607 0.635378 0.237871
0.663582 0.640430 0.242903
0.707557 0.645483 0.247934
0.751532 0.650535 0.252966
0.795506 0.655588 0.257997
0.839481 0.660641 0.263029
0.883456 0.665693 0.268060
0.198891 0.642683 0.205217
0.241469 0.647575 0.210089
0.285444 0.652628 0.215121
0.329418 0.657680 0.220152
0.373393 0.662733 0.225184
0.417368 0.667786 0.230216
0.461343 0.672838 0.235247
0.505317 0.677891 0.240279
0.549292 0.682944 0.245310
0.593267 0.687996 0.250342
0.637242 0.693049 0.255374
0.681216 0.698102 0.260405
0.725191 0.703154 0.265437
0.769166 0.708207 0.270468
0.813141 0.713259 0.275500
0.857116 0.718312 0.280531
0.901090 0.723365 0.285563
0.216526 0.700354 0.222720
0.259103 0.705246 0.227592
0.303078 0.710299 0.232623
0.347053 0.715352 0.237655
0.391028 0.720404 0.242687
0.435002 0.725457 0.247718
0.478977 0.730510 0.252750
0.522952 0.735562 0.257781
0.566927 0.740615 0.262813
0.610901 0.745668 0.267844
0.654876 0.750720 0.272876
0.698851 0.755773 0.277908
0.742826 0.760826 0.282939
0.786800 0.765878 0.287971
0.830775 0.770931 0.293002
0.874750 0.775983 0.298034
0.918725 0.781036 0.303066
0.234160 0.758026 0.240223
0.276738 0.762918 0.245094
0.320712 0.767970 0.250126
0.364687 0.773023 0.255158
0.408662 0.778076 0.260189
0.452637 0.783128 0.265221
0.496611 0.788181 0.270252
0.540586 0.793234 0.275284
0.584561 0.798286 0.280315
0.628536 0.803339 0.285347
0.672511 0.808392 0.290379
0.716485 0.813444 0.295410
0.760460 0.818497 0.300442
0.804435 0.823550 0.305473
0.848410 0.828602 0.310505
0.892384 0.833655 0.315537
0.936359 0.838707 0.320568
0.251794 0.815697 0.257725
0.294372 0.820589 0.262597
0.338347 0.825642 0.267629
0.382322 0.830694 0.272660
0.426296 0.835747 0.277692
0.470271 0.840800 0.282723
0.514246 0.845852 0.287755
0.558221 0.850905 0.292786
0.602195 0.855958 0.297818
0.646170 0.861010 0.302850
0.690145 0.866063 0.307881
0.734120 0.871116 0.312913
0.778094 0.876168 0.317944
0.822069 0.881221 0.322976
0.866044 0.886274 0.328008
0.910019 0.891326 0.333039
0.953993 0.896379 0.338071
0.269429 0.873368 0.275228
0.312006 0.878260 0.280100
0.355981 0.883313 0.285131
0.399956 0.888366 0.290163
0.443931 0.893418 0.295194
0.487906 0.898471 0.300226
0.531880 0.903524 0.305257
0.575855 0.908576 0.310289
0.619830 0.913629 0.315321
0.663805 0.918682 0.320352
0.707779 0.923734 0.325384
0.751754 0.928787 0.330415
0.795729 0.933840 0.335447
0.839704 0.938892 0.340479
0.883678 0.943945 0.345510
0.927653 0.948997 0.350542
0.971628 0.954050 0.355573
0.287063 0.931040 0.292730
0.329641 0.935932 0.297602
0.373616 0.940984 0.302634
0.417590 0.946037 0.307665
0.461565 0.951090 0.312697
0.505540 0.956142 0.317728
0.549515 0.961195 0.322760
0.593489 0.966248 0.327792
0.637464 0.971300 0.332823
0.681439 0.976353 0.337855
0.725414 0.981406 0.342886
0.769388 0.986458 0.347918
0.813363 0.991511 0.352950
0.857338 0.996564 0.357981
0.901313 1.000000 0.363013
0.945288 1.000000 0.368044
0.989262 1.000000 0.373076
0.006826 0.010276 0.056808
0.049404 0.015168 0.061679
0.093379 0.020221 0.066711
0.137353 0.025273 0.071743
0.181328 0.030326 0.076774
0.225303 0.035379 0.081806
0.269278 0.040431 0.086837
0.313253 0.045484 0.091869
0.357227 0.050537 0.096901
0.401202 0.055589 0.101932
0.445177 0.060642 0.106964
0.489152 0.065695 0.111995
0.533126 0.070747 0.117027
0.577101 0.075800 0.122058
0.621076 0.080853 0.127090
0.665051 0.085905 0.132122
0.709025 0.090958 0.137153
0.024430 0.067846 0.074279
0.067007 0.072738 0.079151
0.110982 0.077790 0.084183
0.154957 0.082843 0.089214
0.198932 0.087896 0.094246
0.242906 0.092948 0.099277
0.286881 0.098001 0.104309
0.330856 0.103054 0.109341
0.374831 0.108106 0.114372
0.418805 0.113159 0.119404
0.462780 0.118211 0.124435
0.506755 0.123264 0.129467
0.550730 0.128317 0.134499
0.594704 0.133369 0.139530
0.638679 0.138422 0.144562
0.682654 0.143475 0.149593
0.726629 0.148527 0.154625
0.042064 0.125517 0.091782
0.084642 0.130409 0.096654
0.128616 0.135462 0.101685
0.172591 0.140514 0.106717
0.216566 0.145567 0.111748
0.260541 0.150620 0.116780
0.304515 0.155672 0.121812
0.348490 0.160725 0.126843
0.392465 0.165778 0.131875
0.436440 0.170830 0.136906
0.480415 0.175883 0.141938
0.524389 0.180935 0.146970
0.568364 0.185988 0.152001
0.612339 0.191041 0.157033
0.656314 0.196093 0.162064
0.700288 0.201146 0.167096
0.744263 0.206199 0.172128
0.059698 0.183188 0.109285
0.102276 0.188080 0.114156
0.146251 0.193133 0.119188
0.190226 0.198186 0.124219
0.234200 0.203238 0.129251
0.278175 0.208291 0.134283
0.322150 0.213344 0.139314
0.366125 0.218396 0.144346
0.410099 0.223449 0.149377
0.454074 0.228502 0.154409
0.498049 0.233554 0.159441
0.542024 0.238607 0.164472
0.585998 0.243659 0.169504
0.629973 0.248712 0.174535
0.673948 0.253765 0.179567
0.717923 0.258817 0.184599
0.761898 0.263870 0.189630
0.077333 0.240860 0.126787
0.119910 0.245752 0.131659
0.163885 0.250804 0.136690
0.207860 0.255857 0.141722
0.251835 0.260910 0.146754
0.295809 0.265962 0.151785
0.339784 0.271015 0.156817
0.383759 0.276068 0.161848
0.427734 0.281120 0.166880
0.471709 0.286173 0.171912
0.515683 0.291226 0.176943
0.559658 0.296278 0.181975
0.603633 0.301331 0.187006
0.647608 0.306383 0.192038
0.691582 0.311436 0.197069
0.735557 0.316489 0.202101
0.779532 0.321541 0.207133
0.094967 0.298531 0.144290
0.137545 0.303423 0.149161
0.181520 0.308476 0.154193
0.225494 0.313528 0.159225
0.269469 0.318581 0.164256
0.313444 0.323634 0.169288
0.357419 0.328686 0.174319
0.401393 0.333739 0.179351
0.445368 0.338792 0.184383
0.489343 0.343844 0.189414
0.533318 0.348897 0.194446
0.577292 0.353950 0.199477
0.621267 0.359002 0.204509
0.665242 0.364055 0.209540
0.709217 0.369107 0.214572
0.753192 0.374160 0.219604
0.797166 0.379213 0.224635
0.112602 0.356202 0.161792
0.155179 0.361094 0.166664
0.199154 0.366147 0.171696
0.243129 0.371200 0.176727
0.287104 0.376252 0.181759
0.331078 0.381305 0.186790
0.375053 0.386358 0.191822
0.419028 0.391410 0.196854
0.463003 0.396463 0.201885
0.506977 0.401516 0.206917
0.550952 0.406568 0.211948
0.594927 0.411621 0.216980
0.638902 0.416674 0.222011
0.682876 0.421726 0.227043
0.726851 0.426779 0.232075
0.770826 0.431831 0.237106
0.814801 0.436884 0.242138
0.130236 0.413874 0.179295
0.172814 0.418766 0.184167
0.216788 0.423818 0.189198
0.260763 0.428871 0.194230
0.304738 0.433924 0.199261
0.348713 0.438976 0.204293
0.392687 0.444029 0.209325
0.436662 0.449082 0.214356
0.480637 0.454134 0.219388
0.524612 0.459187 0.224419
0.568586 0.464240 0.229451
0.612561 0.469292 0.234482
0.656536 0.474345 0.239514
0.700511 0.479398 0.244546
0.744486 0.484450 0.249577
0.788460 0.489503 0.254609
0.832435 0.494555 0.259640
0.147870 0.471545 0.196797
0.190448 0.476437 0.201669
0.234423 0.481490 0.206701
0.278398 0.486542 0.211732
0.322372 0.491595 0.216764
0.366347 0.496648 0.221796
0.410322 0.501700 0.226827
0.454297 0.506753 0.231859
0.498271 0.511806 0.236890
0.542246 0.516858 0.241922
0.586221 0.521911 0.246953
0.630196 0.526964 0.251985
0.674170 0.532016 0.257017
0.718145 0.537069 0.262048
0.762120 0.542121 0.267080
0.806095 0.547174 0.272111
0.850069 0.552227 0.277143
0.165505 0.529216 0.214300
0.208082 0.534109 0.219172
0.252057 0.539161 0.224203
0.296032 0.544214 0.229235
0.340007 0.549266 0.234267
0.383981 0.554319 0.239298
0.427956 0.559372 0.244330
0.471931 0.564424 0.249361
0.515906 0.569477 0.254393
0.559881 0.574530 0.259424
0.603855 0.579582 0.264456
0.647830 0.584635 0.269488
0.691805 0.589688 0.274519
0.735780 0.594740 0.279551
0.779754 0.599793 0.284582
0.823729 0.604845 0.289614
0.867704 0.609898 0.294646
0.183139 0.586888 0.231803
0.225717 0.591780 0.236674
0.269692 0.596832 0.241706
0.313666 0.601885 0.246737
0.357641 0.606938 0.251769
0.401616 0.611990 0.256801
0.445591 0.617043 0.261832
0.489565 0.622096 0.266864
0.533540 0.627148 0.271895
0.577515 0.632201 0.276927
0.621490 0.637254 0.281959
0.665464 0.642306 0.286990
0.709439 0.647359 0.292022
0.753414 0.652412 0.297053
0.797389 0.657464 0.302085
0.841363 0.662517 0.307117
0.885338 0.667569 0.312148
0.200774 0.644559 0.249305
0.243351 0.649451 0.254177
0.287326 0.654504 0.259209
0.331301 0.659556 0.264240
0.375275 0.664609 0.269272
0.419250 0.669662 0.274303
0.463225 0.674714 0.279335
0.507200 0.679767 0.284366
0.551175 0.684820 0.289398
0.595149 0.689872 0.294430
0.639124 0.694925 0.299461
0.683099 0.699978 0.304493
0.727074 0.705030 0.309524
0.771048 0.710083 0.314556
0.815023 0.715136 0.319588
0.858998 0.720188 0.324619
0.902973 0.725241 0.329651
0.218408 0.702230 0.266808
0.260986 0.707123 0.271679
0.304960 0.712175 0.276711
0.348935 0.717228 0.281743
0.392910 0.722280 0.286774
0.436885 0.727333 0.291806
0.480859 0.732386 0.296837
0.524834 0.737438 0.301869
0.568809 0.742491 0.306901
0.612784 0.747544 0.311932
0.656758 0.752596 0.316964
0.700733 0.757649 0.321995
0.744708 0.762702 0.327027
0.788683 0.767754 0.332059
0.832658 0.772807 0.337090
0.876632 0.777860 0.342122
0.920607 0.782912 0.347153
0.236042 0.759902 0.284310
0.278620 0.764794 0.289182
0.322595 0.769846 0.294214
0.366570 0.774899 0.299245
0.410544 0.779952 0.304277
0.454519 0.785004 0.309308
0.498494 0.790057 0.314340
0.542469 0.795110 0.319372
0.586443 0.800162 0.324403
0.630418 0.805215 0.329435
0.674393 0.810268 0.334466
0.718368 0.815320 0.339498
0.762342 0.820373 0.344530
0.806317 0.825426 0.349561
0.850292 0.830478 0.354593
0.894267 0.835531 0.359624
0.938241 0.840584 0.364656
0.253677 0.817573 0.301813
0.296254 0.822465 0.306685
0.340229 0.827518 0.311716
0.384204 0.832570 0.316748
0.428179 0.837623 0.321779
0.472153 0.842676 0.326811
0.516128 0.847728 0.331843
0.560103 0.852781 0.336874
0.604078 0.857834 0.341906
0.648053 0.862886 0.346937
0.692027 0.867939 0.351969
0.736002 0.872992 0.357001
0.779977 0.878044 0.362032
0.823952 0.883097 0.367064
0.867926 0.888150 0.372095
0.911901 0.893202 0.377127
0.955876 0.898255 0.382158
0.271311 0.875244 0.319315
0.313889 0.880137 0.324187
0.357864 0.885189 0.329219
0.401838 0.890242 0.334250
0.445813 0.895294 0.339282
0.489788 0.900347 0.344314
0.533763 0.905400 0.349345
0.577737 0.910452 0.354377
0.621712 0.915505 0.359408
0.665687 0.920558 0.364440
0.709662 0.925610 0.369472
0.753636 0.930663 0.374503
0.797611 0.935716 0.379535
0.841586 0.940768 0.384566
0.885561 0.945821 0.389598
0.929536 0.950874 0.394629
0.973510 0.955926 0.399661
0.288946 0.932916 0.336818
0.331523 0.937808 0.341690
0.375498 0.942861 0.346721
0.419473 0.947913 0.351753
0.463448 0.952966 0.356785
0.507422 0.958018 0.361816
0.551397 0.963071 0.366848
0.595372 0.968124 0.371879
0.639347 0.973176 0.376911
0.683321 0.978229 0.381943
0.727296 0.983282 0.386974
0.771271 0.988334 0.392006
0.815246 0.993387 0.397037
0.859220 0.998440 0.402069
0.903195 1.000000 0.407100
0.947170 1.000000 0.412132
0.991145 1.000000 0.417164
0.008663 0.012106 0.099815
0.051240 0.016998 0.104686
0.095215 0.022051 0.109718
0.139190 0.027104 0.114750
0.183164 0.032156 0.119781
0.227139 0.037209 0.124813
0.271114 0.042262 0.129844
0.315089 0.047314 0.134876
0.359064 0.052367 0.139908
0.403038 0.057419 0.144939
0.447013 0.062472 0.149971
0.490988 0.067525 0.155002
0.534963 0.072577 0.160034
0.578937 0.077630 0.165066
0.622912 0.082683 0.170097
0.666887 0.087735 0.175129
0.710862 0.092788 0.180160
0.026266 0.069676 0.117286
0.068843 0.074568 0.122158
0.112818 0.079620 0.127190
0.156793 0.084673 0.132221
0.200768 0.089726 0.137253
0.244742 0.094778 0.142284
0.288717 0.099831 0.147316
0.332692 0.104884 0.152348
0.376667 0.109936 0.157379
0.420642 0.114989 0.162411
0.464616 0.120042 0.167442
0.508591 0.125094 0.172474
0.552566 0.130147 0.177506
0.596541 0.135200 0.182537
0.640515 0.140252 0.187569
0.684490 0.145305 0.192600
0.728465 0.150357 0.197632
0.043900 0.127347 0.134789
0.086478 0.132239 0.139661
0.130453 0.137292 0.144692
0.174427 0.142344 0.149724
0.218402 0.147397 0.154755
0.262377 0.152450 0.159787
0.306352 0.157502 0.164819
0.350326 0.162555 0.169850
0.394301 0.167608 0.174882
0.438276 0.172660 0.179913
0.482251 0.177713 0.184945
0.526225 0.182766 0.189977
0.570200 0.187818 0.195008
0.614175 0.192871 0.200040
0.658150 0.197923 0.205071
0.702125 0.202976 0.210103
0.746099 0.208029 0.215135
0.061535 0.185018 0.152292
0.104112 0.189911 0.157163
0.148087 0.194963 0.162195
0.192062 0.200016 0.167226
0.236037 0.205068 0.172258
0.280011 0.210121 0.177290
0.323986 0.215174 0.182321
0.367961 0.220226 0.187353
0.411936 0.225279 0.192384
0.455910 0.230332 0.197416
0.499885 0.235384 0.202448
0.543860 0.240437 0.207479
0.587835 0.245490 0.212511
0.631809 0.250542 0.217542
0.675784 0.255595 0.222574
0.719759 0.260648 0.227606
0.763734 0.265700 0.232637
0.079169 0.242690 0.169794
0.121747 0.247582 0.174666
0.165721 0.252634 0.179697
0.209696 0.257687 0.184729
0.253671 0.262740 0.189761
0.297646 0.267792 0.194792
0.341620 0.272845 0.199824
0.385595 0.277898 0.204855
0.429570 0.282950 0.209887
0.473545 0.288003 0.214919
0.517520 0.293056 0.219950
0.561494 0.298108 0.224982
0.605469 0.303161 0.230013
0.649444 0.308214 0.235045
0.693419 0.313266 0.240077
0.737393 0.318319 0.245108
0.781368 0.323371 0.250140
0.096803 0.300361 0.187297
0.139381 0.305253 0.192168
0.183356 0.310306 0.197200
0.227331 0.315358 0.202232
0.271305 0.320411 0.207263
0.315280 0.325464 0.212295
0.359255 0.330516 0.217326
0.403230 0.335569 0.222358
0.447204 0.340622 0.227390
0.491179 0.345674 0.232421
0.535154 0.350727 0.237453
0.579129 0.355780 0.242484
0.623103 0.360832 0.247516
0.667078 0.365885 0.252548
0.711053 0.370938 0.257579
0.755028 0.375990 0.262611
0.799002 0.381043 0.267642
0.114438 0.358032 0.204799
0.157015 0.362925 0.209671
0.200990 0.367977 0.214703
0.244965 0.373030 0.219734
0.288940 0.378082 0.224766
0.332914 0.383135 0.229797
0.376889 0.388188 0.234829
0.420864 0.393240 0.239861
0.464839 0.398293 0.244892
0.508814 0.403346 0.249924
0.552788 0.408398 0.254955
0.596763 0.413451 0.259987
0.640738 0.418504 0.265019
0.684713 0.423556 0.270050
0.728687 0.428609 0.275082
0.772662 0.433662 0.280113
0.816637 0.438714 0.285145
0.132072 0.415704 0.222302
0.174650 0.420596 0.227174
0.218625 0.425649 0.232205
0.262599 0.430701 0.237237
0.306574 0.435754 0.242268
0.350549 0.440806 0.247300
0.394524 0.445859 0.252332
0.438498 0.450912 0.257363
0.482473 0.455964 0.262395
0.526448 0.461017 0.267426
0.570423 0.466070 0.272458
0.614397 0.471122 0.277490
0.658372 0.476175 0.282521
0.702347 0.481228 0.287553
0.746322 0.486280 0.292584
0.790296 0.491333 0.297616
0.834271 0.496386 0.302647
0.149707 0.473375 0.239804
0.192284 0.478267 0.244676
0.236259 0.483320 0.249708
0.280234 0.488373 0.254739
0.324209 0.493425 0.259771
0.368183 0.498478 0.264803
0.412158 0.503530 0.269834
0.456133 0.508583 0.274866
0.500108 0.513636 0.279897
0.544082 0.518688 0.284929
0.588057 0.523741 0.289961
0.632032 0.528794 0.294992
0.676007 0.533846 0.300024
0.719981 0.538899 0.305055
0.763956 0.543952 0.310087
0.807931 0.549004 0.315118
0.851906 0.554057 0.320150
0.167341 0.531047 0.257307
0.209919 0.535939 0.262179
0.253893 0.540991 0.267210
0.297868 0.546044 0.272242
0.341843 0.551096 0.277274
0.385818 0.556149 0.282305
0.429792 0.561202 0.287337
0.473767 0.566254 0.292368
0.517742 0.571307 0.297400
0.561717 0.576360 0.302431
0.605691 0.581412 0.307463
0.649666 0.586465 0.312495
0.693641 0.591518 0.317526
0.737616 0.596570 0.322558
0.781591 0.601623 0.327589
0.825565 0.606676 0.332621
0.869540 0.611728 0.337653
0.184975 0.588718 0.274810
0.227553 0.593610 0.279681
0.271528 0.598663 0.284713
0.315503 0.603715 0.289745
0.359477 0.608768 0.294776
0.403452 0.613820 0.299808
0.447427 0.618873 0.304839
0.491402 0.623926 0.309871
0.535376 0.628978 0.314902
0.579351 0.634031 0.319934
0.623326 0.639084 0.324966
0.667301 0.644136 0.329997
0.711275 0.649189 0.335029
0.755250 0.654242 0.340060
0.799225 0.659294 0.345092
0.843200 0.664347 0.350124
0.887174 0.669400 0.355155
0.202610 0.646389 0.292312
0.245187 0.651281 0.297184
0.289162 0.656334 0.302216
0.333137 0.661387 0.307247
0.377112 0.666439 0.312279
0.421086 0.671492 0.317310
0.465061 0.676544 0.322342
0.509036 0.681597 0.327373
0.553011 0.686650 0.332405
0.596986 0.691702 0.337437
0.640960 0.696755 0.342468
0.684935 0.701808 0.347500
0.728910 0.706860 0.352531
0.772885 0.711913 0.357563
0.816859 0.716966 0.362595
0.860834 0.722018 0.367626
0.904809 0.727071 0.372658
0.220244 0.704061 0.309815
0.262822 0.708953 0.314687
0.306797 0.714005 0.319718
0.350771 0.719058 0.324750
0.394746 0.724111 0.329781
0.438721 0.729163 0.334813
0.482696 0.734216 0.339844
0.526670 0.739268 0.344876
0.570645 0.744321 0.349908
0.614620 0.749374 0.354939
0.658595 0.754426 0.359971
0.702569 0.759479 0.365002
0.746544 0.764532 0.370034
0.790519 0.769584 0.375066
0.834494 0.774637 0.380097
0.878469 0.779690 0.385129
0.922443 0.784742 0.390160
0.237879 0.761732 0.327317
0.280456 0.766624 0.332189
0.324431 0.771677 0.337221
0.368406 0.776729 0.342252
0.412381 0.781782 0.347284
0.456355 0.786835 0.352315
0.500330 0.791887 0.357347
0.544305 0.796940 0.362379
0.588280 0.801992 0.367410
0.632254 0.807045 0.372442
0.676229 0.812098 0.377473
0.720204 0.817150 0.382505
0.764179 0.822203 0.387537
0.808153 0.827256 0.392568
0.852128 0.832308 0.397600
0.896103 0.837361 0.402631
0.940078 0.842414 0.407663
0.255513 0.819403 0.344820
0.298091 0.824295 0.349692
0.342065 0.829348 0.354723
0.386040 0.834401 0.359755
0.430015 0.839453 0.364786
0.473990 0.844506 0.369818
0.517964 0.849559 0.374850
0.561939 0.854611 0.379881
0.605914 0.859664 0.384913
0.649889 0.864716 0.389944
0.693864 0.869769 0.394976
0.737838 0.874822 0.400008
0.781813 0.879874 0.405039
0.825788 0.884927 0.410071
0.869763 0.889980 0.415102
0.913737 0.895032 0.420134
0.957712 0.900085 0.425166
0.273147 0.877075 0.362323
0.315725 0.881967 0.367194
0.359700 0.887019 0.372226
0.403675 0.892072 0.377257
0.447649 0.897125 0.382289
0.491624 0.902177 0.387321
0.535599 0.907230 0.392352
0.579574 0.912283 0.397384
0.623548 0.917335 0.402415
0.667523 0.922388 0.407447
0.711498 0.927440 0.412479
0.755473 0.932493 0.417510
0.799447 0.937546 0.422542
0.843422 0.942598 0.427573
0.887397 0.947651 0.432605
0.931372 0.952704 0.437637
0.975347 0.957756 0.442668
0.290782 0.934746 0.379825
0.333359 0.939638 0.384697
0.377334 0.944691 0.389728
0.421309 0.949743 0.394760
0.465284 0.954796 0.399792
0.509258 0.959849 0.404823
0.553233 0.964901 0.409855
0.597208 0.969954 0.414886
0.641183 0.975007 0.419918
0.685158 0.980059 0.424950
0.729132 0.985112 0.429981
0.773107 0.990164 0.435013
0.817082 0.995217 0.440044
0.861057 1.000000 0.445076
0.905031 1.000000 0.450108
0.949006 1.000000 0.455139
0.992981 1.000000 0.460171
0.010499 0.013936 0.142822
0.053076 0.018828 0.147694
0.097051 0.023881 0.152725
0.141026 0.028934 0.157757
0.185001 0.033986 0.162788
0.228975 0.039039 0.167820
0.272950 0.044092 0.172851
0.316925 0.049144 0.177883
0.360900 0.054197 0.182915
0.404875 0.059250 0.187946
0.448849 0.064302 0.192978
0.492824 0.069355 0.198009
0.536799 0.074407 0.203041
0.580774 0.079460 0.208073
0.624748 0.084513 0.213104
0.668723 0.089565 0.218136
0.712698 0.094618 0.223167
0.028102 0.071506 0.160293
0.070680 0.076398 0.165165
0.114654 0.081451 0.170197
