assets/presets/luts/nordic-noir/lut.cube
TITLE "Nordic Noir"
LUT_3D_SIZE 9
0.004944 0.008400 0.012720
0.091496 0.018345 0.022623
0.179446 0.028450 0.032686
0.267395 0.038555 0.042750
0.355345 0.048661 0.052813
0.443294 0.058766 0.062876
0.531244 0.068871 0.072939
0.619194 0.078976 0.083002
0.707143 0.089082 0.093066
0.040182 0.123641 0.047694
0.126734 0.133586 0.057598
0.214684 0.143691 0.067661
0.302633 0.153796 0.077724
0.390583 0.163901 0.087787
0.478532 0.174007 0.097850
0.566482 0.184112 0.107913
0.654431 0.194217 0.117977
0.742381 0.204323 0.128040
0.075450 0.238984 0.082699
0.162003 0.248928 0.092603
0.249952 0.259034 0.102666
0.337902 0.269139 0.112729
0.425851 0.279244 0.122792
0.513801 0.289349 0.132855
0.601750 0.299455 0.142919
0.689700 0.309560 0.152982
0.777650 0.319665 0.163045
0.110719 0.354326 0.117705
0.197272 0.364271 0.127608
0.285221 0.374376 0.137671
0.373171 0.384482 0.147734
0.461120 0.394587 0.157797
0.549070 0.404692 0.167861
0.637019 0.414797 0.177924
0.724969 0.424903 0.187987
0.812918 0.435008 0.198050
0.145988 0.469669 0.152710
0.232540 0.479614 0.162613
0.320490 0.489719 0.172676
0.408439 0.499824 0.182739
0.496389 0.509930 0.192803
0.584339 0.520035 0.202866
0.672288 0.530140 0.212929
0.760238 0.540245 0.222992
0.848187 0.550351 0.233055
0.181257 0.585012 0.187715
0.267809 0.594956 0.197618
0.355759 0.605062 0.207681
0.443708 0.615167 0.217745
0.531658 0.625272 0.227808
0.619607 0.635378 0.237871
0.707557 0.645483 0.247934
0.795506 0.655588 0.257997
0.883456 0.665693 0.268060
0.216526 0.700354 0.222720
0.303078 0.710299 0.232623
0.391028 0.720404 0.242687
0.478977 0.730510 0.252750
0.566927 0.740615 0.262813
0.654876 0.750720 0.272876
0.742826 0.760826 0.282939
0.830775 0.770931 0.293002
0.918725 0.781036 0.303066
0.251794 0.815697 0.257725
0.338347 0.825642 0.267629
0.426296 0.835747 0.277692
0.514246 0.845852 0.287755
0.602195 0.855958 0.297818
0.690145 0.866063 0.307881
0.778094 0.876168 0.317944
0.866044 0.886274 0.328008
0.953993 0.896379 0.338071
0.287063 0.931040 0.292730
0.373616 0.940984 0.302634
0.461565 0.951090 0.312697
0.549515 0.961195 0.322760
0.637464 0.971300 0.332823
0.725414 0.981406 0.342886
0.813363 0.991511 0.352950
0.901313 1.000000 0.363013
0.989262 1.000000 0.373076
0.008663 0.012106 0.099815
0.095215 0.022051 0.109718
0.183164 0.032156 0.119781
0.271114 0.042262 0.129844
0.359064 0.052367 0.139908
0.447013 0.062472 0.149971
0.534963 0.072577 0.160034
0.622912 0.082683 0.170097
0.710862 0.092788 0.180160
0.043900 0.127347 0.134789
0.130453 0.137292 0.144692
0.218402 0.147397 0.154755
0.306352 0.157502 0.164819
0.394301 0.167608 0.174882
0.482251 0.177713 0.184945
0.570200 0.187818 0.195008
0.658150 0.197923 0.205071
0.746099 0.208029 0.215135
0.079169 0.242690 0.169794
0.165721 0.252634 0.179697
0.253671 0.262740 0.189761
0.341620 0.272845 0.199824
0.429570 0.282950 0.209887
0.517520 0.293056 0.219950
0.605469 0.303161 0.230013
0.693419 0.313266 0.240077
0.781368 0.323371 0.250140
0.114438 0.358032 0.204799
0.200990 0.367977 0.214703
0.288940 0.378082 0.224766
0.376889 0.388188 0.234829
0.464839 0.398293 0.244892
0.552788 0.408398 0.254955
0.640738 0.418504 0.265019
0.728687 0.428609 0.275082
0.816637 0.438714 0.285145
0.149707 0.473375 0.239804
0.236259 0.483320 0.249708
0.324209 0.493425 0.259771
0.412158 0.503530 0.269834
0.500108 0.513636 0.279897
0.588057 0.523741 0.289961
0.676007 0.533846 0.300024
0.763956 0.543952 0.310087
0.851906 0.554057 0.320150
0.184975 0.588718 0.274810
0.271528 0.598663 0.284713
0.359477 0.608768 0.294776
0.447427 0.618873 0.304839
0.535376 0.628978 0.314902
0.623326 0.639084 0.324966
0.711275 0.649189 0.335029
0.799225 0.659294 0.345092
0.887174 0.669400 0.355155
0.220244 0.704061 0.309815
0.306797 0.714005 0.319718
0.394746 0.724111 0.329781
0.482696 0.734216 0.339844
0.570645 0.744321 0.349908
0.658595 0.754426 0.359971
0.746544 0.764532 0.370034
0.834494 0.774637 0.380097
0.922443 0.784742 0.390160
0.255513 0.819403 0.344820
0.342065 0.829348 0.354723
0.430015 0.839453 0.364786
0.517964 0.849559 0.374850
0.605914 0.859664 0.384913
0.693864 0.869769 0.394976
0.781813 0.879874 0.405039
0.869763 0.889980 0.415102
0.957712 0.900085 0.425166
0.290782 0.934746 0.379825
0.377334 0.944691 0.389728
0.465284 0.954796 0.399792
0.553233 0.964901 0.409855
0.641183 0.975007 0.419918
0.729132 0.985112 0.429981
0.817082 0.995217 0.440044
0.905031 1.000000 0.450108
0.992981 1.000000 0.460171
0.012335 0.015766 0.185829
0.098887 0.025711 0.195732
0.186837 0.035816 0.205795
0.274786 0.045922 0.215859
0.362736 0.056027 0.225922
0.450685 0.066132 0.235985
0.538635 0.076238 0.246048
0.626585 0.086343 0.256111
0.714534 0.096448 0.266174
0.047573 0.131007 0.220803
0.134125 0.140952 0.230706
0.222075 0.151057 0.240770
0.310024 0.161163 0.250833
0.397974 0.171268 0.260896
0.485923 0.181373 0.270959
0.573873 0.191478 0.281022
0.661822 0.201584 0.291085
0.749772 0.211689 0.301149
0.082841 0.246350 0.255808
0.169394 0.256295 0.265712
0.257343 0.266400 0.275775
0.345293 0.276505 0.285838
0.433242 0.286611 0.295901
0.521192 0.296716 0.305964
0.609141 0.306821 0.316027
0.697091 0.316926 0.326091
0.785040 0.327032 0.336154
0.118110 0.361693 0.290813
0.204663 0.371637 0.300717
0.292612 0.381743 0.310780
0.380562 0.391848 0.320843
0.468511 0.401953 0.330906
0.556461 0.412059 0.340969
0.644410 0.422164 0.351033
0.732360 0.432269 0.361096
0.820309 0.442374 0.371159
0.153379 0.477035 0.325819
0.239931 0.486980 0.335722
0.327881 0.497085 0.345785
0.415830 0.507191 0.355848
0.503780 0.517296 0.365911
0.591730 0.527401 0.375975
0.679679 0.537507 0.386038
0.767629 0.547612 0.396101
0.855578 0.557717 0.406164
0.188648 0.592378 0.360824
0.275200 0.602323 0.370727
0.363150 0.612428 0.380790
0.451099 0.622533 0.390853
0.539049 0.632639 0.400917
0.626998 0.642744 0.410980
0.714948 0.652849 0.421043
0.802897 0.662955 0.431106
0.890847 0.673060 0.441169
0.223917 0.707721 0.395829
0.310469 0.717665 0.405732
0.398419 0.727771 0.415795
0.486368 0.737876 0.425859
0.574318 0.747981 0.435922
0.662267 0.758087 0.445985
0.750217 0.768192 0.456048
0.838166 0.778297 0.466111
0.926116 0.788402 0.476174
0.259185 0.823063 0.430834
0.345738 0.833008 0.440737
0.433687 0.843113 0.450801
0.521637 0.853219 0.460864
0.609586 0.863324 0.470927
0.697536 0.873429 0.480990
0.785485 0.883535 0.491053
0.873435 0.893640 0.501116
0.961384 0.903745 0.511180
0.294454 0.938406 0.465839
0.381007 0.948351 0.475743
0.468956 0.958456 0.485806
0.556906 0.968561 0.495869
0.644855 0.978667 0.505932
0.732805 0.988772 0.515995
0.820754 0.998877 0.526058
0.908704 1.000000 0.536122
0.996653 1.000000 0.546185
0.016007 0.019427 0.271843
0.102560 0.029371 0.281746
0.190509 0.039477 0.291809
0.278459 0.049582 0.301873
0.366408 0.059687 0.311936
0.454358 0.069793 0.321999
0.542307 0.079898 0.332062
0.630257 0.090003 0.342125
0.718206 0.100108 0.352189
0.051245 0.134667 0.306817
0.137797 0.144612 0.316721
0.225747 0.154718 0.326784
0.313696 0.164823 0.336847
0.401646 0.174928 0.346910
0.489596 0.185033 0.356973
0.577545 0.195139 0.367036
0.665495 0.205244 0.377100
0.753444 0.215349 0.387163
0.086514 0.250010 0.341822
0.173066 0.259955 0.351726
0.261016 0.270060 0.361789
0.348965 0.280165 0.371852
0.436915 0.290271 0.381915
0.524864 0.300376 0.391978
0.612814 0.310481 0.402042
0.700763 0.320587 0.412105
0.788713 0.330692 0.422168
0.121783 0.365353 0.376828
0.208335 0.375298 0.386731
0.296285 0.385403 0.396794
0.384234 0.395508 0.406857
0.472184 0.405613 0.416920
0.560133 0.415719 0.426984
0.648083 0.425824 0.437047
0.736032 0.435929 0.447110
0.823982 0.446035 0.457173
0.157051 0.480696 0.411833
0.243604 0.490640 0.421736
0.331553 0.500746 0.431799
0.419503 0.510851 0.441862
0.507452 0.520956 0.451926
0.595402 0.531061 0.461989
0.683351 0.541167 0.472052
0.771301 0.551272 0.482115
0.859251 0.561377 0.492178
0.192320 0.596038 0.446838
0.278873 0.605983 0.456741
0.366822 0.616088 0.466804
0.454772 0.626194 0.476868
0.542721 0.636299 0.486931
0.630671 0.646404 0.496994
0.718620 0.656509 0.507057
0.806570 0.666615 0.517120
0.894519 0.676720 0.527183
0.227589 0.711381 0.481843
0.314141 0.721326 0.491746
0.402091 0.731431 0.501809
0.490040 0.741536 0.511873
0.577990 0.751642 0.521936
0.665940 0.761747 0.531999
0.753889 0.771852 0.542062
0.841839 0.781957 0.552125
0.929788 0.792063 0.562189
0.262858 0.826724 0.516848
0.349410 0.836668 0.526752
0.437360 0.846774 0.536815
0.525309 0.856879 0.546878
0.613259 0.866984 0.556941
0.701208 0.877090 0.567004
0.789158 0.887195 0.577067
0.877107 0.897300 0.587131
0.965057 0.907405 0.597194
0.298127 0.942066 0.551853
0.384679 0.952011 0.561757
0.472629 0.962116 0.571820
0.560578 0.972222 0.581883
0.648528 0.982327 0.591946
0.736477 0.992432 0.602009
0.824427 1.000000 0.612073
0.912376 1.000000 0.622136
1.000000 1.000000 0.632199
0.019680 0.023087 0.357857
0.106232 0.033032 0.367760
0.194182 0.043137 0.377824
0.282131 0.053242 0.387887
0.370081 0.063347 0.397950
0.458030 0.073453 0.408013
0.545980 0.083558 0.418076
0.633929 0.093663 0.428139
0.721879 0.103769 0.438203
0.054917 0.138328 0.392831
0.141470 0.148272 0.402735
0.229419 0.158378 0.412798
0.317369 0.168483 0.422861
0.405318 0.178588 0.432924
0.493268 0.188694 0.442987
0.581217 0.198799 0.453051
0.669167 0.208904 0.463114
0.757117 0.219009 0.473177
0.090186 0.253670 0.427836
0.176739 0.263615 0.437740
0.264688 0.273720 0.447803
0.352638 0.283826 0.457866
0.440587 0.293931 0.467929
0.528537 0.304036 0.477993
0.616486 0.314142 0.488056
0.704436 0.324247 0.498119
0.792385 0.334352 0.508182
0.125455 0.369013 0.462842
0.212007 0.378958 0.472745
0.299957 0.389063 0.482808
0.387906 0.399168 0.492871
0.475856 0.409274 0.502934
0.563806 0.419379 0.512998
0.651755 0.429484 0.523061
0.739705 0.439590 0.533124
0.827654 0.449695 0.543187
0.160724 0.484356 0.497847
0.247276 0.494301 0.507750
0.335226 0.504406 0.517813
0.423175 0.514511 0.527876
0.511125 0.524616 0.537940
0.599074 0.534722 0.548003
0.687024 0.544827 0.558066
0.774973 0.554932 0.568129
0.862923 0.565038 0.578192
0.195993 0.599698 0.532852
0.282545 0.609643 0.542755
0.370495 0.619749 0.552818
0.458444 0.629854 0.562882
0.546394 0.639959 0.572945
0.634343 0.650064 0.583008
0.722293 0.660170 0.593071
0.810242 0.670275 0.603134
0.898192 0.680380 0.613198
0.231261 0.715041 0.567857
0.317814 0.724986 0.577760
0.405763 0.735091 0.587824
0.493713 0.745197 0.597887
0.581662 0.755302 0.607950
0.669612 0.765407 0.618013
0.757562 0.775512 0.628076
0.845511 0.785618 0.638139
0.933461 0.795723 0.648203
0.266530 0.830384 0.602862
0.353083 0.840329 0.612766
0.441032 0.850434 0.622829
0.528982 0.860539 0.632892
0.616931 0.870645 0.642955
0.704881 0.880750 0.653018
0.792830 0.890855 0.663081
0.880780 0.900960 0.673145
0.968729 0.911066 0.683208
0.301799 0.945727 0.637867
0.388351 0.955671 0.647771
0.476301 0.965777 0.657834
0.564250 0.975882 0.667897
0.652200 0.985987 0.677960
0.740150 0.996092 0.688023
0.828099 1.000000 0.698087
0.916049 1.000000 0.708150
1.000000 1.000000 0.718213
0.023352 0.026747 0.443871
0.109905 0.036692 0.453774
0.197854 0.046797 0.463838
0.285804 0.056902 0.473901
0.373753 0.067008 0.483964
0.461703 0.077113 0.494027
0.549652 0.087218 0.504090
0.637602 0.097324 0.514154
0.725551 0.107429 0.524217
0.058590 0.141988 0.478845
0.145142 0.151933 0.488749
0.233092 0.162038 0.498812
0.321041 0.172143 0.508875
0.408991 0.182249 0.518938
0.496940 0.192354 0.529001
0.584890 0.202459 0.539065
0.672839 0.212564 0.549128
0.760789 0.222670 0.559191
0.093859 0.257331 0.513851
0.180411 0.267275 0.523754
0.268361 0.277381 0.533817
0.356310 0.287486 0.543880
0.444260 0.297591 0.553943
0.532209 0.307696 0.564007
0.620159 0.317802 0.574070
0.708108 0.327907 0.584133
0.796058 0.338012 0.594196
0.129127 0.372673 0.548856
0.215680 0.382618 0.558759
0.303629 0.392723 0.568822
0.391579 0.402829 0.578885
0.479528 0.412934 0.588949
0.567478 0.423039 0.599012
0.655428 0.433144 0.609075
0.743377 0.443250 0.619138
0.831327 0.453355 0.629201
0.164396 0.488016 0.583861
0.250949 0.497961 0.593764
0.338898 0.508066 0.603827
0.426848 0.518171 0.613891
0.514797 0.528277 0.623954
0.602747 0.538382 0.634017
0.690696 0.548487 0.644080
0.778646 0.558592 0.654143
0.866595 0.568698 0.664206
0.199665 0.603359 0.618866
0.286217 0.613303 0.628769
0.374167 0.623409 0.638833
0.462117 0.633514 0.648896
0.550066 0.643619 0.658959
0.638016 0.653725 0.669022
0.725965 0.663830 0.679085
0.813915 0.673935 0.689148
0.901864 0.684040 0.699212
0.234934 0.718701 0.653871
0.321486 0.728646 0.663775
0.409436 0.738751 0.673838
0.497385 0.748857 0.683901
0.585335 0.758962 0.693964
0.673284 0.769067 0.704027
0.761234 0.779173 0.714090
0.849183 0.789278 0.724154
0.937133 0.799383 0.734217
0.270203 0.834044 0.688876
0.356755 0.843989 0.698780
0.444705 0.854094 0.708843
0.532654 0.864199 0.718906
0.620604 0.874305 0.728969
0.708553 0.884410 0.739032
0.796503 0.894515 0.749096
0.884452 0.904621 0.759159
0.972402 0.914726 0.769222
0.305471 0.949387 0.723882
0.392024 0.959332 0.733785
0.479973 0.969437 0.743848
0.567923 0.979542 0.753911
0.655872 0.989647 0.763974
0.743822 0.999753 0.774038
0.831771 1.000000 0.784101
0.919721 1.000000 0.794164
1.000000 1.000000 0.804227
0.027025 0.030407 0.529885
0.113577 0.040352 0.539789
0.201527 0.050457 0.549852
0.289476 0.060563 0.559915
0.377426 0.070668 0.569978
0.465375 0.080773 0.580041
0.553325 0.090878 0.590104
0.641274 0.100984 0.600168
0.729224 0.111089 0.610231
0.062262 0.145648 0.564860
0.148815 0.155593 0.574763
0.236764 0.165698 0.584826
0.324714 0.175803 0.594889
0.412663 0.185909 0.604952
0.500613 0.196014 0.615016
0.588562 0.206119 0.625079
0.676512 0.216225 0.635142
0.764461 0.226330 0.645205
0.097531 0.260991 0.599865
0.184083 0.270936 0.609768
0.272033 0.281041 0.619831
0.359983 0.291146 0.629894
0.447932 0.301251 0.639958
0.535882 0.311357 0.650021
0.623831 0.321462 0.660084
0.711781 0.331567 0.670147
0.799730 0.341673 0.680210
0.132800 0.376334 0.634870
0.219352 0.386278 0.644773
0.307302 0.396384 0.654836
0.395251 0.406489 0.664900
0.483201 0.416594 0.674963
0.571150 0.426699 0.685026
0.659100 0.436805 0.695089
0.747049 0.446910 0.705152
0.834999 0.457015 0.715215
0.168069 0.491676 0.669875
0.254621 0.501621 0.679778
0.342571 0.511726 0.689842
0.430520 0.521832 0.699905
0.518470 0.531937 0.709968
0.606419 0.542042 0.720031
0.694369 0.552147 0.730094
0.782318 0.562253 0.740157
0.870268 0.572358 0.750221
0.203338 0.607019 0.704880
0.289890 0.616964 0.714783
0.377839 0.627069 0.724847
0.465789 0.637174 0.734910
0.553738 0.647280 0.744973
0.641688 0.657385 0.755036
0.729638 0.667490 0.765099
0.817587 0.677595 0.775163
0.905537 0.687701 0.785226
0.238606 0.722362 0.739885
0.325159 0.732306 0.749789
0.413108 0.742412 0.759852
0.501058 0.752517 0.769915
0.589007 0.762622 0.779978
0.676957 0.772727 0.790041
0.764906 0.782833 0.800104
0.852856 0.792938 0.810168
0.940805 0.803043 0.820231
0.273875 0.837704 0.774890
0.360427 0.847649 0.784794
0.448377 0.857754 0.794857
0.536327 0.867860 0.804920
0.624276 0.877965 0.814983
0.712226 0.888070 0.825047
0.800175 0.898175 0.835110
0.888125 0.908281 0.845173
0.976074 0.918386 0.855236
0.309144 0.953047 0.809896
0.395696 0.962992 0.819799
0.483646 0.973097 0.829862
0.571595 0.983202 0.839925
0.659545 0.993308 0.849989
0.747494 1.000000 0.860052
0.835444 1.000000 0.870115
0.923393 1.000000 0.880178
1.000000 1.000000 0.890241
0.030697 0.034068 0.615899
0.117249 0.044012 0.625803
0.205199 0.054118 0.635866
0.293149 0.064223 0.645929
0.381098 0.074328 0.655992
0.469048 0.084433 0.666055
0.556997 0.094539 0.676119
0.644947 0.104644 0.686182
0.732896 0.114749 0.696245
0.065935 0.149308 0.650874
0.152487 0.159253 0.660777
0.240437 0.169358 0.670840
0.328386 0.179464 0.680903
0.416336 0.189569 0.690966
0.504285 0.199674 0.701030
0.592235 0.209780 0.711093
0.680184 0.219885 0.721156
0.768134 0.229990 0.731219
0.101204 0.264651 0.685879
0.187756 0.274596 0.695782
0.275705 0.284701 0.705845
0.363655 0.294806 0.715908
0.451604 0.304912 0.725972
0.539554 0.315017 0.736035
0.627504 0.325122 0.746098
0.715453 0.335228 0.756161
0.803403 0.345333 0.766224
0.136472 0.379994 0.720884
0.223025 0.389939 0.730787
0.310974 0.400044 0.740850
0.398924 0.410149 0.750914
0.486873 0.420254 0.760977
0.574823 0.430360 0.771040
0.662772 0.440465 0.781103
0.750722 0.450570 0.791166
0.838671 0.460675 0.801229
0.171741 0.495336 0.755889
0.258294 0.505281 0.765792
0.346243 0.515386 0.775856
0.434193 0.525492 0.785919
0.522142 0.535597 0.795982
0.610092 0.545702 0.806045
0.698041 0.555808 0.816108
0.785991 0.565913 0.826171
0.873940 0.576018 0.836235
0.207010 0.610679 0.790894
0.293562 0.620624 0.800798
0.381512 0.630729 0.810861
0.469461 0.640834 0.820924
0.557411 0.650940 0.830987
0.645360 0.661045 0.841050
0.733310 0.671150 0.851113
0.821259 0.681256 0.861177
0.909209 0.691361 0.871240
0.242279 0.726022 0.825899
0.328831 0.735967 0.835803
0.416781 0.746072 0.845866
0.504730 0.756177 0.855929
0.592680 0.766282 0.865992
0.680629 0.776388 0.876055
0.768579 0.786493 0.886119
0.856528 0.796598 0.896182
0.944478 0.806704 0.906245
0.277548 0.841365 0.860905
0.364100 0.851309 0.870808
0.452049 0.861415 0.880871
0.539999 0.871520 0.890934
0.627948 0.881625 0.900997
0.715898 0.891730 0.911061
0.803848 0.901836 0.921124
0.891797 0.911941 0.931187
0.979747 0.922046 0.941250
0.312816 0.956707 0.895910
0.399369 0.966652 0.905813
0.487318 0.976757 0.915876
0.575268 0.986863 0.925939
0.663217 0.996968 0.936003
0.751167 1.000000 0.946066
0.839116 1.000000 0.956129
0.927066 1.000000 0.966192
1.000000 1.000000 0.976255
0.034369 0.037728 0.701913
0.120922 0.047672 0.711817
0.208871 0.057778 0.721880
0.296821 0.067883 0.731943
0.384770 0.077988 0.742006
0.472720 0.088094 0.752069
0.560669 0.098199 0.762133
0.648619 0.108304 0.772196
0.736569 0.118409 0.782259
0.069607 0.152969 0.736888
0.156160 0.162913 0.746791
0.244109 0.173019 0.756854
0.332059 0.183124 0.766917
0.420008 0.193229 0.776981
0.507958 0.203334 0.787044
0.595907 0.213440 0.797107
0.683857 0.223545 0.807170
0.771806 0.233650 0.817233
0.104876 0.268311 0.771893
0.191428 0.278256 0.781796
0.279378 0.288361 0.791859
0.367327 0.298467 0.801923
0.455277 0.308572 0.811986
0.543226 0.318677 0.822049
0.631176 0.328782 0.832112
0.719126 0.338888 0.842175
0.807075 0.348993 0.852238
0.140145 0.383654 0.806898
0.226697 0.393599 0.816801
0.314647 0.403704 0.826865
0.402596 0.413809 0.836928
0.490546 0.423915 0.846991
0.578495 0.434020 0.857054
0.666445 0.444125 0.867117
0.754394 0.454230 0.877180
0.842344 0.464336 0.887244
0.175414 0.498997 0.841903
0.261966 0.508941 0.851807
0.349915 0.519047 0.861870
0.437865 0.529152 0.871933
0.525815 0.539257 0.881996
0.613764 0.549363 0.892059
0.701714 0.559468 0.902122
0.789663 0.569573 0.912186
0.877613 0.579678 0.922249
0.210682 0.614339 0.876908
0.297235 0.624284 0.886812
0.385184 0.634389 0.896875
0.473134 0.644495 0.906938
0.561083 0.654600 0.917001
0.649033 0.664705 0.927064
0.736982 0.674811 0.937128
0.824932 0.684916 0.947191
0.912881 0.695021 0.957254
0.245951 0.729682 0.911914
0.332504 0.739627 0.921817
0.420453 0.749732 0.931880
0.508403 0.759837 0.941943
0.596352 0.769943 0.952006
0.684302 0.780048 0.962070
0.772251 0.790153 0.972133
0.860201 0.800259 0.982196
0.948150 0.810364 0.992259
0.281220 0.845025 0.946919
0.367772 0.854970 0.956822
0.455722 0.865075 0.966885
0.543671 0.875180 0.976948
0.631621 0.885285 0.987012
0.719570 0.895391 0.997075
0.807520 0.905496 1.000000
0.895469 0.915601 1.000000
0.983419 0.925707 1.000000
0.316489 0.960367 0.981924
0.403041 0.970312 0.991827
0.490991 0.980417 1.000000
0.578940 0.990523 1.000000
0.666890 1.000000 1.000000
0.754839 1.000000 1.000000
0.842789 1.000000 1.000000
0.930738 1.000000 1.000000
1.000000 1.000000 1.000000
