assets/presets/luts/nordic-noir/lut.cube
TITLE "Nordic Noir"
LUT_3D_SIZE 5
0.004944 0.008400 0.012720
0.179446 0.028450 0.032686
0.355345 0.048661 0.052813
0.531244 0.068871 0.072939
0.707143 0.089082 0.093066
0.075450 0.238984 0.082699
0.249952 0.259034 0.102666
0.425851 0.279244 0.122792
0.601750 0.299455 0.142919
0.777650 0.319665 0.163045
0.145988 0.469669 0.152710
0.320490 0.489719 0.172676
0.496389 0.509930 0.192803
0.672288 0.530140 0.212929
0.848187 0.550351 0.233055
0.216526 0.700354 0.222720
0.391028 0.720404 0.242687
0.566927 0.740615 0.262813
0.742826 0.760826 0.282939
0.918725 0.781036 0.303066
0.287063 0.931040 0.292730
0.461565 0.951090 0.312697
0.637464 0.971300 0.332823
0.813363 0.991511 0.352950
0.989262 1.000000 0.373076
0.012335 0.015766 0.185829
0.186837 0.035816 0.205795
0.362736 0.056027 0.225922
0.538635 0.076238 0.246048
0.714534 0.096448 0.266174
0.082841 0.246350 0.255808
0.257343 0.266400 0.275775
0.433242 0.286611 0.295901
0.609141 0.306821 0.316027
0.785040 0.327032 0.336154
0.153379 0.477035 0.325819
0.327881 0.497085 0.345785
0.503780 0.517296 0.365911
0.679679 0.537507 0.386038
0.855578 0.557717 0.406164
0.223917 0.707721 0.395829
0.398419 0.727771 0.415795
0.574318 0.747981 0.435922
0.750217 0.768192 0.456048
0.926116 0.788402 0.476174
0.294454 0.938406 0.465839
0.468956 0.958456 0.485806
0.644855 0.978667 0.505932
0.820754 0.998877 0.526058
0.996653 1.000000 0.546185
0.019680 0.023087 0.357857
0.194182 0.043137 0.377824
0.370081 0.063347 0.397950
0.545980 0.083558 0.418076
0.721879 0.103769 0.438203
0.090186 0.253670 0.427836
0.264688 0.273720 0.447803
0.440587 0.293931 0.467929
0.616486 0.314142 0.488056
0.792385 0.334352 0.508182
0.160724 0.484356 0.497847
0.335226 0.504406 0.517813
0.511125 0.524616 0.537940
0.687024 0.544827 0.558066
0.862923 0.565038 0.578192
0.231261 0.715041 0.567857
0.405763 0.735091 0.587824
0.581662 0.755302 0.607950
0.757562 0.775512 0.628076
0.933461 0.795723 0.648203
0.301799 0.945727 0.637867
0.476301 0.965777 0.657834
0.652200 0.985987 0.677960
0.828099 1.000000 0.698087
1.000000 1.000000 0.718213
0.027025 0.030407 0.529885
0.201527 0.050457 0.549852
0.377426 0.070668 0.569978
0.553325 0.090878 0.590104
0.729224 0.111089 0.610231
0.097531 0.260991 0.599865
0.272033 0.281041 0.619831
0.447932 0.301251 0.639958
0.623831 0.321462 0.660084
0.799730 0.341673 0.680210
0.168069 0.491676 0.669875
0.342571 0.511726 0.689842
0.518470 0.531937 0.709968
0.694369 0.552147 0.730094
0.870268 0.572358 0.750221
0.238606 0.722362 0.739885
0.413108 0.742412 0.759852
0.589007 0.762622 0.779978
0.764906 0.782833 0.800104
0.940805 0.803043 0.820231
0.309144 0.953047 0.809896
0.483646 0.973097 0.829862
0.659545 0.993308 0.849989
0.835444 1.000000 0.870115
1.000000 1.000000 0.890241
0.034369 0.037728 0.701913
0.208871 0.057778 0.721880
0.384770 0.077988 0.742006
0.560669 0.098199 0.762133
0.736569 0.118409 0.782259
0.104876 0.268311 0.771893
0.279378 0.288361 0.791859
0.455277 0.308572 0.811986
0.631176 0.328782 0.832112
0.807075 0.348993 0.852238
0.175414 0.498997 0.841903
0.349915 0.519047 0.861870
0.525815 0.539257 0.881996
0.701714 0.559468 0.902122
0.877613 0.579678 0.922249
0.245951 0.729682 0.911914
0.420453 0.749732 0.931880
0.596352 0.769943 0.952006
0.772251 0.790153 0.972133
0.948150 0.810364 0.992259
0.316489 0.960367 0.981924
0.490991 0.980417 1.000000
0.666890 1.000000 1.000000
0.842789 1.000000 1.000000
1.000000 1.000000 1.000000
