assets/presets/luts/scan-neutral/lut.cube
TITLE "Scan Neutral"
LUT_3D_SIZE 5
0.105951 0.105951 0.105951
0.289144 0.110179 0.110179
0.472336 0.114406 0.114406
0.655529 0.118634 0.118634
0.838721 0.122861 0.122861
0.120173 0.299138 0.120173
0.303365 0.303365 0.124400
0.486558 0.307593 0.128628
0.669750 0.311820 0.132855
0.852943 0.316048 0.137083
0.134394 0.492325 0.134394
0.317587 0.496552 0.138622
0.500780 0.500780 0.142850
0.683972 0.505007 0.147077
0.867165 0.509235 0.151305
0.148616 0.685511 0.148616
0.331809 0.689739 0.152844
0.515001 0.693966 0.157071
0.698194 0.698194 0.161299
0.881386 0.702421 0.165526
0.162838 0.878698 0.162838
0.346031 0.882926 0.167066
0.529223 0.887153 0.171293
0.712416 0.891381 0.175521
0.895608 0.895608 0.179748
0.107387 0.107387 0.286352
0.290579 0.111614 0.290579
0.473772 0.115842 0.294807
0.656964 0.120069 0.299034
0.840157 0.124297 0.303262
0.121608 0.300573 0.300573
0.304801 0.304801 0.304801
0.487994 0.309029 0.309029
0.671186 0.313256 0.313256
0.854379 0.317484 0.317484
0.135830 0.493760 0.314795
0.319023 0.497988 0.319023
0.502215 0.502215 0.323250
0.685408 0.506443 0.327478
0.868600 0.510670 0.331705
0.150052 0.686947 0.329017
0.333245 0.691175 0.333245
0.516437 0.695402 0.337472
0.699630 0.699630 0.341700
0.882822 0.703857 0.345927
0.164274 0.880134 0.343239
0.347466 0.884361 0.347466
0.530659 0.888589 0.351694
0.713851 0.892816 0.355921
0.897044 0.897044 0.360149
0.108822 0.108822 0.466752
0.292015 0.113050 0.470980
0.475208 0.117277 0.475208
0.658400 0.121505 0.479435
0.841593 0.125733 0.483663
0.123044 0.302009 0.480974
0.306237 0.306237 0.485202
0.489429 0.310464 0.489429
0.672622 0.314692 0.493657
0.855814 0.318919 0.497884
0.137266 0.495196 0.495196
0.320458 0.499423 0.499423
0.503651 0.503651 0.503651
0.686844 0.507879 0.507879
0.870036 0.512106 0.512106
0.151488 0.688383 0.509418
0.334680 0.692610 0.513645
0.517873 0.696838 0.517873
0.701065 0.701065 0.522100
0.884258 0.705293 0.526328
0.165709 0.881569 0.523639
0.348902 0.885797 0.527867
0.532094 0.890024 0.532094
0.715287 0.894252 0.536322
0.898480 0.898480 0.540550
0.110258 0.110258 0.647153
0.293451 0.114486 0.651381
0.476643 0.118713 0.655608
0.659836 0.122941 0.659836
0.843028 0.127168 0.664063
0.124480 0.303445 0.661375
0.307672 0.307672 0.665602
0.490865 0.311900 0.669830
0.674057 0.316128 0.674057
0.857250 0.320355 0.678285
0.138702 0.496632 0.675597
0.321894 0.500859 0.679824
0.505087 0.505087 0.684052
0.688279 0.509314 0.688279
0.871472 0.513542 0.692507
0.152923 0.689818 0.689818
0.336116 0.694046 0.694046
0.519308 0.698273 0.698273
0.702501 0.702501 0.702501
0.885694 0.706729 0.706729
0.167145 0.883005 0.704040
0.350338 0.887233 0.708268
0.533530 0.891460 0.712495
0.716723 0.895688 0.716723
0.899915 0.899915 0.720950
0.111694 0.111694 0.827554
0.294886 0.115921 0.831781
0.478079 0.120149 0.836009
0.661271 0.124376 0.840236
0.844464 0.128604 0.844464
0.125916 0.304881 0.841776
0.309108 0.309108 0.846003
0.492301 0.313336 0.850231
0.675493 0.317563 0.854458
0.858686 0.321791 0.858686
0.140137 0.498067 0.855997
0.323330 0.502295 0.860225
0.506522 0.506522 0.864452
0.689715 0.510750 0.868680
0.872908 0.514978 0.872908
0.154359 0.691254 0.870219
0.337552 0.695482 0.874447
0.520744 0.699709 0.878674
0.703937 0.703937 0.882902
0.887129 0.708164 0.887129
0.168581 0.884441 0.884441
0.351773 0.888668 0.888668
0.534966 0.892896 0.892896
0.718158 0.897123 0.897123
0.901351 0.901351 0.901351
