assets/presets/luts/scan-neutral/lut.cube
TITLE "Scan Neutral"
LUT_3D_SIZE 9
0.105951 0.105951 0.105951
0.197547 0.108065 0.108065
0.289144 0.110179 0.110179
0.380740 0.112292 0.112292
0.472336 0.114406 0.114406
0.563932 0.116520 0.116520
0.655529 0.118634 0.118634
0.747125 0.120747 0.120747
0.838721 0.122861 0.122861
0.113062 0.202544 0.113062
0.204658 0.204658 0.115176
0.296254 0.206772 0.117289
0.387851 0.208886 0.119403
0.479447 0.210999 0.121517
0.571043 0.213113 0.123631
0.662640 0.215227 0.125745
0.754236 0.217341 0.127858
0.845832 0.219455 0.129972
0.120173 0.299138 0.120173
0.211769 0.301252 0.122287
0.303365 0.303365 0.124400
0.394962 0.305479 0.126514
0.486558 0.307593 0.128628
0.578154 0.309707 0.130742
0.669750 0.311820 0.132855
0.761347 0.313934 0.134969
0.852943 0.316048 0.137083
0.127284 0.395731 0.127284
0.218880 0.397845 0.129397
0.310476 0.399959 0.131511
0.402072 0.402072 0.133625
0.493669 0.404186 0.135739
0.585265 0.406300 0.137853
0.676861 0.408414 0.139966
0.768458 0.410528 0.142080
0.860054 0.412641 0.144194
0.134394 0.492325 0.134394
0.225991 0.494438 0.136508
0.317587 0.496552 0.138622
0.409183 0.498666 0.140736
0.500780 0.500780 0.142850
0.592376 0.502893 0.144963
0.683972 0.505007 0.147077
0.775568 0.507121 0.149191
0.867165 0.509235 0.151305
0.141505 0.588918 0.141505
0.233102 0.591032 0.143619
0.324698 0.593145 0.145733
0.416294 0.595259 0.147847
0.507890 0.597373 0.149960
0.599487 0.599487 0.152074
0.691083 0.601601 0.154188
0.782679 0.603714 0.156302
0.874276 0.605828 0.158416
0.148616 0.685511 0.148616
0.240213 0.687625 0.150730
0.331809 0.689739 0.152844
0.423405 0.691853 0.154958
0.515001 0.693966 0.157071
0.606598 0.696080 0.159185
0.698194 0.698194 0.161299
0.789790 0.700308 0.163413
0.881386 0.702421 0.165526
0.155727 0.782105 0.155727
0.247323 0.784218 0.157841
0.338920 0.786332 0.159955
0.430516 0.788446 0.162068
0.522112 0.790560 0.164182
0.613708 0.792674 0.166296
0.705305 0.794787 0.168410
0.796901 0.796901 0.170524
0.888497 0.799015 0.172637
0.162838 0.878698 0.162838
0.254434 0.880812 0.164952
0.346031 0.882926 0.167066
0.437627 0.885039 0.169179
0.529223 0.887153 0.171293
0.620819 0.889267 0.173407
0.712416 0.891381 0.175521
0.804012 0.893494 0.177634
0.895608 0.895608 0.179748
0.106669 0.106669 0.196151
0.198265 0.108783 0.198265
0.289861 0.110896 0.200379
0.381458 0.113010 0.202493
0.473054 0.115124 0.204606
0.564650 0.117238 0.206720
0.656246 0.119351 0.208834
0.747843 0.121465 0.210948
0.839439 0.123579 0.213062
0.113780 0.203262 0.203262
0.205376 0.205376 0.205376
0.296972 0.207490 0.207490
0.388569 0.209604 0.209604
0.480165 0.211717 0.211717
0.571761 0.213831 0.213831
0.663357 0.215945 0.215945
0.754954 0.218059 0.218059
0.846550 0.220172 0.220172
0.120891 0.299856 0.210373
0.212487 0.301969 0.212487
0.304083 0.304083 0.214601
0.395679 0.306197 0.216714
0.487276 0.308311 0.218828
0.578872 0.310424 0.220942
0.670468 0.312538 0.223056
0.762065 0.314652 0.225170
0.853661 0.316766 0.227283
0.128001 0.396449 0.217484
0.219598 0.398563 0.219598
0.311194 0.400677 0.221712
0.402790 0.402790 0.223825
0.494387 0.404904 0.225939
0.585983 0.407018 0.228053
0.677579 0.409132 0.230167
0.769175 0.411245 0.232280
0.860772 0.413359 0.234394
0.135112 0.493042 0.224595
0.226709 0.495156 0.226709
0.318305 0.497270 0.228822
0.409901 0.499384 0.230936
0.501497 0.501497 0.233050
0.593094 0.503611 0.235164
0.684690 0.505725 0.237278
0.776286 0.507839 0.239391
0.867883 0.509953 0.241505
0.142223 0.589636 0.231706
0.233819 0.591749 0.233819
0.325416 0.593863 0.235933
0.417012 0.595977 0.238047
0.508608 0.598091 0.240161
0.600205 0.600205 0.242275
0.691801 0.602318 0.244388
0.783397 0.604432 0.246502
0.874993 0.606546 0.248616
0.149334 0.686229 0.238817
0.240930 0.688343 0.240930
0.332527 0.690457 0.243044
0.424123 0.692570 0.245158
0.515719 0.694684 0.247272
0.607315 0.696798 0.249385
0.698912 0.698912 0.251499
0.790508 0.701026 0.253613
0.882104 0.703139 0.255727
0.156445 0.782822 0.245927
0.248041 0.784936 0.248041
0.339638 0.787050 0.250155
0.431234 0.789164 0.252269
0.522830 0.791278 0.254383
0.614426 0.793391 0.256496
0.706023 0.795505 0.258610
0.797619 0.797619 0.260724
0.889215 0.799733 0.262838
0.163556 0.879416 0.253038
0.255152 0.881530 0.255152
0.346748 0.883643 0.257266
0.438345 0.885757 0.259380
0.529941 0.887871 0.261493
0.621537 0.889985 0.263607
0.713134 0.892098 0.265721
0.804730 0.894212 0.267835
0.896326 0.896326 0.269949
0.107387 0.107387 0.286352
0.198983 0.109500 0.288465
0.290579 0.111614 0.290579
0.382176 0.113728 0.292693
0.473772 0.115842 0.294807
0.565368 0.117956 0.296921
0.656964 0.120069 0.299034
0.748561 0.122183 0.301148
0.840157 0.124297 0.303262
0.114498 0.203980 0.293463
0.206094 0.206094 0.295576
0.297690 0.208208 0.297690
0.389286 0.210321 0.299804
0.480883 0.212435 0.301918
0.572479 0.214549 0.304031
0.664075 0.216663 0.306145
0.755672 0.218776 0.308259
0.847268 0.220890 0.310373
0.121608 0.300573 0.300573
0.213205 0.302687 0.302687
0.304801 0.304801 0.304801
0.396397 0.306915 0.306915
0.487994 0.309029 0.309029
0.579590 0.311142 0.311142
0.671186 0.313256 0.313256
0.762782 0.315370 0.315370
0.854379 0.317484 0.317484
0.128719 0.397167 0.307684
0.220316 0.399281 0.309798
0.311912 0.401394 0.311912
0.403508 0.403508 0.314026
0.495104 0.405622 0.316139
0.586701 0.407736 0.318253
0.678297 0.409849 0.320367
0.769893 0.411963 0.322481
0.861490 0.414077 0.324595
0.135830 0.493760 0.314795
0.227426 0.495874 0.316909
0.319023 0.497988 0.319023
0.410619 0.500102 0.321137
0.502215 0.502215 0.323250
0.593812 0.504329 0.325364
0.685408 0.506443 0.327478
0.777004 0.508557 0.329592
0.868600 0.510670 0.331705
0.142941 0.590354 0.321906
0.234537 0.592467 0.324020
0.326134 0.594581 0.326134
0.417730 0.596695 0.328247
0.509326 0.598809 0.330361
0.600922 0.600922 0.332475
0.692519 0.603036 0.334589
0.784115 0.605150 0.336702
0.875711 0.607264 0.338816
0.150052 0.686947 0.329017
0.241648 0.689061 0.331131
0.333245 0.691175 0.333245
0.424841 0.693288 0.335358
0.516437 0.695402 0.337472
0.608033 0.697516 0.339586
0.699630 0.699630 0.341700
0.791226 0.701743 0.343813
0.882822 0.703857 0.345927
0.157163 0.783540 0.336128
0.248759 0.785654 0.338242
0.340355 0.787768 0.340355
0.431952 0.789882 0.342469
0.523548 0.791995 0.344583
0.615144 0.794109 0.346697
0.706740 0.796223 0.348810
0.798337 0.798337 0.350924
0.889933 0.800451 0.353038
0.164274 0.880134 0.343239
0.255870 0.882248 0.345352
0.347466 0.884361 0.347466
0.439063 0.886475 0.349580
0.530659 0.888589 0.351694
0.622255 0.890703 0.353808
0.713851 0.892816 0.355921
0.805448 0.894930 0.358035
0.897044 0.897044 0.360149
0.108105 0.108105 0.376552
0.199701 0.110218 0.378666
0.291297 0.112332 0.380780
0.382893 0.114446 0.382893
0.474490 0.116560 0.385007
0.566086 0.118673 0.387121
0.657682 0.120787 0.389235
0.749278 0.122901 0.391348
0.840875 0.125015 0.393462
0.115215 0.204698 0.383663
0.206812 0.206812 0.385777
0.298408 0.208925 0.387890
0.390004 0.211039 0.390004
0.481601 0.213153 0.392118
0.573197 0.215267 0.394232
0.664793 0.217381 0.396346
0.756389 0.219494 0.398459
0.847986 0.221608 0.400573
0.122326 0.301291 0.390774
0.213923 0.303405 0.392888
0.305519 0.305519 0.395001
0.397115 0.307633 0.397115
0.488711 0.309746 0.399229
0.580308 0.311860 0.401343
0.671904 0.313974 0.403456
0.763500 0.316088 0.405570
0.855097 0.318202 0.407684
0.129437 0.397885 0.397885
0.221033 0.399998 0.399998
0.312630 0.402112 0.402112
0.404226 0.404226 0.404226
0.495822 0.406340 0.406340
0.587419 0.408454 0.408454
0.679015 0.410567 0.410567
0.770611 0.412681 0.412681
0.862207 0.414795 0.414795
0.136548 0.494478 0.404996
0.228144 0.496592 0.407109
0.319741 0.498706 0.409223
0.411337 0.500819 0.411337
0.502933 0.502933 0.413451
0.594529 0.505047 0.415564
0.686126 0.507161 0.417678
0.777722 0.509274 0.419792
0.869318 0.511388 0.421906
0.143659 0.591071 0.412106
0.235255 0.593185 0.414220
0.326851 0.595299 0.416334
0.418448 0.597413 0.418448
0.510044 0.599527 0.420562
0.601640 0.601640 0.422675
0.693237 0.603754 0.424789
0.784833 0.605868 0.426903
0.876429 0.607982 0.429017
0.150770 0.687665 0.419217
0.242366 0.689779 0.421331
0.333962 0.691892 0.423445
0.425559 0.694006 0.425559
0.517155 0.696120 0.427672
0.608751 0.698234 0.429786
0.700347 0.700347 0.431900
0.791944 0.702461 0.434014
0.883540 0.704575 0.436128
0.157881 0.784258 0.426328
0.249477 0.786372 0.428442
0.341073 0.788486 0.430556
0.432669 0.790600 0.432669
0.524266 0.792713 0.434783
0.615862 0.794827 0.436897
0.707458 0.796941 0.439011
0.799055 0.799055 0.441125
0.890651 0.801168 0.443238
0.164992 0.880852 0.433439
0.256588 0.882965 0.435553
0.348184 0.885079 0.437667
0.439780 0.887193 0.439780
0.531377 0.889307 0.441894
0.622973 0.891420 0.444008
0.714569 0.893534 0.446122
0.806165 0.895648 0.448235
0.897762 0.897762 0.450349
0.108822 0.108822 0.466752
0.200419 0.110936 0.468866
0.292015 0.113050 0.470980
0.383611 0.115164 0.473094
0.475208 0.117277 0.475208
0.566804 0.119391 0.477321
0.658400 0.121505 0.479435
0.749996 0.123619 0.481549
0.841593 0.125733 0.483663
0.115933 0.205416 0.473863
0.207530 0.207530 0.475977
0.299126 0.209643 0.478091
0.390722 0.211757 0.480205
0.482318 0.213871 0.482318
0.573915 0.215985 0.484432
0.665511 0.218098 0.486546
0.757107 0.220212 0.488660
0.848704 0.222326 0.490773
0.123044 0.302009 0.480974
0.214640 0.304123 0.483088
0.306237 0.306237 0.485202
0.397833 0.308350 0.487315
0.489429 0.310464 0.489429
0.581026 0.312578 0.491543
0.672622 0.314692 0.493657
0.764218 0.316806 0.495771
0.855814 0.318919 0.497884
0.130155 0.398603 0.488085
0.221751 0.400716 0.490199
0.313348 0.402830 0.492313
0.404944 0.404944 0.494426
0.496540 0.407058 0.496540
0.588136 0.409171 0.498654
0.679733 0.411285 0.500768
0.771329 0.413399 0.502881
0.862925 0.415513 0.504995
0.137266 0.495196 0.495196
0.228862 0.497310 0.497310
0.320458 0.499423 0.499423
0.412055 0.501537 0.501537
0.503651 0.503651 0.503651
0.595247 0.505765 0.505765
0.686844 0.507879 0.507879
0.778440 0.509992 0.509992
0.870036 0.512106 0.512106
0.144377 0.591789 0.502307
0.235973 0.593903 0.504421
0.327569 0.596017 0.506534
0.419166 0.598131 0.508648
0.510762 0.600244 0.510762
0.602358 0.602358 0.512876
0.693954 0.604472 0.514989
0.785551 0.606586 0.517103
0.877147 0.608700 0.519217
0.151488 0.688383 0.509418
0.243084 0.690496 0.511531
0.334680 0.692610 0.513645
0.426276 0.694724 0.515759
0.517873 0.696838 0.517873
0.609469 0.698952 0.519987
0.701065 0.701065 0.522100
0.792662 0.703179 0.524214
0.884258 0.705293 0.526328
0.158599 0.784976 0.516529
0.250195 0.787090 0.518642
0.341791 0.789204 0.520756
0.433387 0.791317 0.522870
0.524984 0.793431 0.524984
0.616580 0.795545 0.527097
0.708176 0.797659 0.529211
0.799772 0.799772 0.531325
0.891369 0.801886 0.533439
0.165709 0.881569 0.523639
0.257306 0.883683 0.525753
0.348902 0.885797 0.527867
0.440498 0.887911 0.529981
0.532094 0.890024 0.532094
0.623691 0.892138 0.534208
0.715287 0.894252 0.536322
0.806883 0.896366 0.538436
0.898480 0.898480 0.540550
0.109540 0.109540 0.556953
0.201137 0.111654 0.559067
0.292733 0.113768 0.561180
0.384329 0.115882 0.563294
0.475925 0.117995 0.565408
0.567522 0.120109 0.567522
0.659118 0.122223 0.569635
0.750714 0.124337 0.571749
0.842310 0.126450 0.573863
0.116651 0.206134 0.564064
0.208247 0.208247 0.566177
0.299844 0.210361 0.568291
0.391440 0.212475 0.570405
0.483036 0.214589 0.572519
0.574633 0.216702 0.574633
0.666229 0.218816 0.576746
0.757825 0.220930 0.578860
0.849421 0.223044 0.580974
0.123762 0.302727 0.571175
0.215358 0.304841 0.573288
0.306955 0.306955 0.575402
0.398551 0.309068 0.577516
0.490147 0.311182 0.579630
0.581743 0.313296 0.581743
0.673340 0.315410 0.583857
0.764936 0.317523 0.585971
0.856532 0.319637 0.588085
0.130873 0.399320 0.578285
0.222469 0.401434 0.580399
0.314065 0.403548 0.582513
0.405662 0.405662 0.584627
0.497258 0.407775 0.586740
0.588854 0.409889 0.588854
0.680450 0.412003 0.590968
0.772047 0.414117 0.593082
0.863643 0.416231 0.595196
0.137984 0.495914 0.585396
0.229580 0.498028 0.587510
0.321176 0.500141 0.589624
0.412773 0.502255 0.591738
0.504369 0.504369 0.593851
0.595965 0.506483 0.595965
0.687561 0.508596 0.598079
0.779158 0.510710 0.600193
0.870754 0.512824 0.602306
0.145095 0.592507 0.592507
0.236691 0.594621 0.594621
0.328287 0.596735 0.596735
0.419883 0.598848 0.598848
0.511480 0.600962 0.600962
0.603076 0.603076 0.603076
0.694672 0.605190 0.605190
0.786269 0.607304 0.607304
0.877865 0.609417 0.609417
0.152205 0.689101 0.599618
0.243802 0.691214 0.601732
0.335398 0.693328 0.603846
0.426994 0.695442 0.605959
0.518591 0.697556 0.608073
0.610187 0.699669 0.610187
0.701783 0.701783 0.612301
0.793379 0.703897 0.614414
0.884976 0.706011 0.616528
0.159316 0.785694 0.606729
0.250913 0.787808 0.608843
0.342509 0.789921 0.610956
0.434105 0.792035 0.613070
0.525701 0.794149 0.615184
0.617298 0.796263 0.617298
0.708894 0.798377 0.619412
0.800490 0.800490 0.621525
0.892087 0.802604 0.623639
0.166427 0.882287 0.613840
0.258024 0.884401 0.615954
0.349620 0.886515 0.618067
0.441216 0.888629 0.620181
0.532812 0.890742 0.622295
0.624409 0.892856 0.624409
0.716005 0.894970 0.626522
0.807601 0.897084 0.628636
0.899197 0.899197 0.630750
0.110258 0.110258 0.647153
0.201854 0.112372 0.649267
0.293451 0.114486 0.651381
0.385047 0.116599 0.653494
0.476643 0.118713 0.655608
0.568239 0.120827 0.657722
0.659836 0.122941 0.659836
0.751432 0.125055 0.661950
0.843028 0.127168 0.664063
0.117369 0.206851 0.654264
0.208965 0.208965 0.656378
0.300562 0.211079 0.658491
0.392158 0.213193 0.660605
0.483754 0.215307 0.662719
0.575350 0.217420 0.664833
0.666947 0.219534 0.666947
0.758543 0.221648 0.669060
0.850139 0.223762 0.671174
0.124480 0.303445 0.661375
0.216076 0.305559 0.663489
0.307672 0.307672 0.665602
0.399269 0.309786 0.667716
0.490865 0.311900 0.669830
0.582461 0.314014 0.671944
0.674057 0.316128 0.674057
0.765654 0.318241 0.676171
0.857250 0.320355 0.678285
0.131591 0.400038 0.668486
0.223187 0.402152 0.670600
0.314783 0.404266 0.672713
0.406380 0.406380 0.674827
0.497976 0.408493 0.676941
0.589572 0.410607 0.679055
0.681168 0.412721 0.681168
0.772765 0.414835 0.683282
0.864361 0.416948 0.685396
0.138702 0.496632 0.675597
0.230298 0.498745 0.677710
0.321894 0.500859 0.679824
0.413490 0.502973 0.681938
0.505087 0.505087 0.684052
0.596683 0.507200 0.686165
0.688279 0.509314 0.688279
0.779876 0.511428 0.690393
0.871472 0.513542 0.692507
0.145812 0.593225 0.682707
0.237409 0.595339 0.684821
0.329005 0.597453 0.686935
0.420601 0.599566 0.689049
0.512198 0.601680 0.691163
0.603794 0.603794 0.693276
0.695390 0.605908 0.695390
0.786986 0.608021 0.697504
0.878583 0.610135 0.699618
0.152923 0.689818 0.689818
0.244520 0.691932 0.691932
0.336116 0.694046 0.694046
0.427712 0.696160 0.696160
0.519308 0.698273 0.698273
0.610905 0.700387 0.700387
0.702501 0.702501 0.702501
0.794097 0.704615 0.704615
0.885694 0.706729 0.706729
0.160034 0.786412 0.696929
0.251630 0.788526 0.699043
0.343227 0.790639 0.701157
0.434823 0.792753 0.703271
0.526419 0.794867 0.705384
0.618016 0.796981 0.707498
0.709612 0.799094 0.709612
0.801208 0.801208 0.711726
0.892804 0.803322 0.713839
0.167145 0.883005 0.704040
0.258741 0.885119 0.706154
0.350338 0.887233 0.708268
0.441934 0.889346 0.710381
0.533530 0.891460 0.712495
0.625126 0.893574 0.714609
0.716723 0.895688 0.716723
0.808319 0.897802 0.718837
0.899915 0.899915 0.720950
0.110976 0.110976 0.737353
0.202572 0.113090 0.739467
0.294169 0.115203 0.741581
0.385765 0.117317 0.743695
0.477361 0.119431 0.745809
0.568957 0.121545 0.747922
0.660554 0.123659 0.750036
0.752150 0.125772 0.752150
0.843746 0.127886 0.754264
0.118087 0.207569 0.744464
0.209683 0.209683 0.746578
0.301279 0.211797 0.748692
0.392876 0.213911 0.750806
0.484472 0.216024 0.752919
0.576068 0.218138 0.755033
0.667664 0.220252 0.757147
0.759261 0.222366 0.759261
0.850857 0.224480 0.761375
0.125198 0.304163 0.751575
0.216794 0.306276 0.753689
0.308390 0.308390 0.755803
0.399987 0.310504 0.757917
0.491583 0.312618 0.760030
0.583179 0.314732 0.762144
0.674775 0.316845 0.764258
0.766372 0.318959 0.766372
0.857968 0.321073 0.768485
0.132309 0.400756 0.758686
0.223905 0.402870 0.760800
0.315501 0.404984 0.762914
0.407097 0.407097 0.765027
0.498694 0.409211 0.767141
0.590290 0.411325 0.769255
0.681886 0.413439 0.771369
0.773483 0.415552 0.773483
0.865079 0.417666 0.775596
0.139419 0.497349 0.765797
0.231016 0.499463 0.767911
0.322612 0.501577 0.770024
0.414208 0.503691 0.772138
0.505805 0.505805 0.774252
0.597401 0.507918 0.776366
0.688997 0.510032 0.778480
0.780593 0.512146 0.780593
0.872190 0.514260 0.782707
0.146530 0.593943 0.772908
0.238127 0.596057 0.775022
0.329723 0.598170 0.777135
0.421319 0.600284 0.779249
0.512915 0.602398 0.781363
0.604512 0.604512 0.783477
0.696108 0.606625 0.785590
0.787704 0.608739 0.787704
0.879301 0.610853 0.789818
0.153641 0.690536 0.780019
0.245237 0.692650 0.782132
0.336834 0.694764 0.784246
0.428430 0.696878 0.786360
0.520026 0.698991 0.788474
0.611623 0.701105 0.790588
0.703219 0.703219 0.792701
0.794815 0.705333 0.794815
0.886411 0.707446 0.796929
0.160752 0.787130 0.787130
0.252348 0.789243 0.789243
0.343945 0.791357 0.791357
0.435541 0.793471 0.793471
0.527137 0.795585 0.795585
0.618733 0.797698 0.797698
0.710330 0.799812 0.799812
0.801926 0.801926 0.801926
0.893522 0.804040 0.804040
0.167863 0.883723 0.794240
0.259459 0.885837 0.796354
0.351056 0.887950 0.798468
0.442652 0.890064 0.800582
0.534248 0.892178 0.802696
0.625844 0.894292 0.804809
0.717441 0.896406 0.806923
0.809037 0.898519 0.809037
0.900633 0.900633 0.811151
0.111694 0.111694 0.827554
0.203290 0.113808 0.829668
0.294886 0.115921 0.831781
0.386483 0.118035 0.833895
0.478079 0.120149 0.836009
0.569675 0.122263 0.838123
0.661271 0.124376 0.840236
0.752868 0.126490 0.842350
0.844464 0.128604 0.844464
0.118805 0.208287 0.834665
0.210401 0.210401 0.836778
0.301997 0.212515 0.838892
0.393593 0.214628 0.841006
0.485190 0.216742 0.843120
0.576786 0.218856 0.845234
0.668382 0.220970 0.847347
0.759979 0.223084 0.849461
0.851575 0.225197 0.851575
0.125916 0.304881 0.841776
0.217512 0.306994 0.843889
0.309108 0.309108 0.846003
0.400704 0.311222 0.848117
0.492301 0.313336 0.850231
0.583897 0.315449 0.852344
0.675493 0.317563 0.854458
0.767089 0.319677 0.856572
0.858686 0.321791 0.858686
0.133026 0.401474 0.848886
0.224623 0.403588 0.851000
0.316219 0.405701 0.853114
0.407815 0.407815 0.855228
0.499412 0.409929 0.857342
0.591008 0.412043 0.859455
0.682604 0.414157 0.861569
0.774200 0.416270 0.863683
0.865797 0.418384 0.865797
0.140137 0.498067 0.855997
0.231734 0.500181 0.858111
0.323330 0.502295 0.860225
0.414926 0.504409 0.862339
0.506522 0.506522 0.864452
0.598119 0.508636 0.866566
0.689715 0.510750 0.868680
0.781311 0.512864 0.870794
0.872908 0.514978 0.872908
0.147248 0.594661 0.863108
0.238844 0.596774 0.865222
0.330441 0.598888 0.867336
0.422037 0.601002 0.869449
0.513633 0.603116 0.871563
0.605230 0.605230 0.873677
0.696826 0.607343 0.875791
0.788422 0.609457 0.877905
0.880018 0.611571 0.880018
0.154359 0.691254 0.870219
0.245955 0.693368 0.872333
0.337552 0.695482 0.874447
0.429148 0.697595 0.876560
0.520744 0.699709 0.878674
0.612340 0.701823 0.880788
0.703937 0.703937 0.882902
0.795533 0.706050 0.885015
0.887129 0.708164 0.887129
0.161470 0.787847 0.877330
0.253066 0.789961 0.879444
0.344662 0.792075 0.881557
0.436259 0.794189 0.883671
0.527855 0.796302 0.885785
0.619451 0.798416 0.887899
0.711048 0.800530 0.890013
0.802644 0.802644 0.892126
0.894240 0.804758 0.894240
0.168581 0.884441 0.884441
0.260177 0.886555 0.886555
0.351773 0.888668 0.888668
0.443370 0.890782 0.890782
0.534966 0.892896 0.892896
0.626562 0.895010 0.895010
0.718158 0.897123 0.897123
0.809755 0.899237 0.899237
0.901351 0.901351 0.901351
