assets/presets/luts/scan-neutral/lut.cube
TITLE "Scan Neutral"
LUT_3D_SIZE 17
0.105951 0.105951 0.105951
0.151749 0.107008 0.107008
0.197547 0.108065 0.108065
0.243345 0.109122 0.109122
0.289144 0.110179 0.110179
0.334942 0.111235 0.111235
0.380740 0.112292 0.112292
0.426538 0.113349 0.113349
0.472336 0.114406 0.114406
0.518134 0.115463 0.115463
0.563932 0.116520 0.116520
0.609731 0.117577 0.117577
0.655529 0.118634 0.118634
0.701327 0.119691 0.119691
0.747125 0.120747 0.120747
0.792923 0.121804 0.121804
0.838721 0.122861 0.122861
0.109506 0.154248 0.109506
0.155305 0.155305 0.110563
0.201103 0.156361 0.111620
0.246901 0.157418 0.112677
0.292699 0.158475 0.113734
0.338497 0.159532 0.114791
0.384295 0.160589 0.115848
0.430093 0.161646 0.116905
0.475892 0.162703 0.117962
0.521690 0.163760 0.119018
0.567488 0.164817 0.120075
0.613286 0.165873 0.121132
0.659084 0.166930 0.122189
0.704882 0.167987 0.123246
0.750680 0.169044 0.124303
0.796479 0.170101 0.125360
0.842277 0.171158 0.126417
0.113062 0.202544 0.113062
0.158860 0.203601 0.114119
0.204658 0.204658 0.115176
0.250456 0.205715 0.116233
0.296254 0.206772 0.117289
0.342053 0.207829 0.118346
0.387851 0.208886 0.119403
0.433649 0.209943 0.120460
0.479447 0.210999 0.121517
0.525245 0.212056 0.122574
0.571043 0.213113 0.123631
0.616841 0.214170 0.124688
0.662640 0.215227 0.125745
0.708438 0.216284 0.126801
0.754236 0.217341 0.127858
0.800034 0.218398 0.128915
0.845832 0.219455 0.129972
0.116617 0.250841 0.116617
0.162415 0.251898 0.117674
0.208214 0.252955 0.118731
0.254012 0.254012 0.119788
0.299810 0.255069 0.120845
0.345608 0.256126 0.121902
0.391406 0.257182 0.122959
0.437204 0.258239 0.124016
0.483002 0.259296 0.125072
0.528801 0.260353 0.126129
0.574599 0.261410 0.127186
0.620397 0.262467 0.128243
0.666195 0.263524 0.129300
0.711993 0.264581 0.130357
0.757791 0.265637 0.131414
0.803589 0.266694 0.132471
0.849388 0.267751 0.133528
0.120173 0.299138 0.120173
0.165971 0.300195 0.121230
0.211769 0.301252 0.122287
0.257567 0.302308 0.123343
0.303365 0.303365 0.124400
0.349163 0.304422 0.125457
0.394962 0.305479 0.126514
0.440760 0.306536 0.127571
0.486558 0.307593 0.128628
0.532356 0.308650 0.129685
0.578154 0.309707 0.130742
0.623952 0.310764 0.131799
0.669750 0.311820 0.132855
0.715549 0.312877 0.133912
0.761347 0.313934 0.134969
0.807145 0.314991 0.136026
0.852943 0.316048 0.137083
0.123728 0.347434 0.123728
0.169526 0.348491 0.124785
0.215324 0.349548 0.125842
0.261123 0.350605 0.126899
0.306921 0.351662 0.127956
0.352719 0.352719 0.129013
0.398517 0.353776 0.130070
0.444315 0.354833 0.131126
0.490113 0.355890 0.132183
0.535911 0.356946 0.133240
0.581710 0.358003 0.134297
0.627508 0.359060 0.135354
0.673306 0.360117 0.136411
0.719104 0.361174 0.137468
0.764902 0.362231 0.138525
0.810700 0.363288 0.139582
0.856498 0.364345 0.140638
0.127284 0.395731 0.127284
0.173082 0.396788 0.128341
0.218880 0.397845 0.129397
0.264678 0.398902 0.130454
0.310476 0.399959 0.131511
0.356274 0.401016 0.132568
0.402072 0.402072 0.133625
0.447871 0.403129 0.134682
0.493669 0.404186 0.135739
0.539467 0.405243 0.136796
0.585265 0.406300 0.137853
0.631063 0.407357 0.138909
0.676861 0.408414 0.139966
0.722659 0.409471 0.141023
0.768458 0.410528 0.142080
0.814256 0.411584 0.143137
0.860054 0.412641 0.144194
0.130839 0.444028 0.130839
0.176637 0.445085 0.131896
0.222435 0.446142 0.132953
0.268233 0.447198 0.134010
0.314032 0.448255 0.135067
0.359830 0.449312 0.136124
0.405628 0.450369 0.137180
0.451426 0.451426 0.138237
0.497224 0.452483 0.139294
0.543022 0.453540 0.140351
0.588820 0.454597 0.141408
0.634619 0.455654 0.142465
0.680417 0.456710 0.143522
0.726215 0.457767 0.144579
0.772013 0.458824 0.145636
0.817811 0.459881 0.146692
0.863609 0.460938 0.147749
0.134394 0.492325 0.134394
0.180193 0.493381 0.135451
0.225991 0.494438 0.136508
0.271789 0.495495 0.137565
0.317587 0.496552 0.138622
0.363385 0.497609 0.139679
0.409183 0.498666 0.140736
0.454981 0.499723 0.141793
0.500780 0.500780 0.142850
0.546578 0.501836 0.143906
0.592376 0.502893 0.144963
0.638174 0.503950 0.146020
0.683972 0.505007 0.147077
0.729770 0.506064 0.148134
0.775568 0.507121 0.149191
0.821367 0.508178 0.150248
0.867165 0.509235 0.151305
0.137950 0.540621 0.137950
0.183748 0.541678 0.139007
0.229546 0.542735 0.140064
0.275344 0.543792 0.141121
0.321142 0.544849 0.142177
0.366941 0.545906 0.143234
0.412739 0.546962 0.144291
0.458537 0.548019 0.145348
0.504335 0.549076 0.146405
0.550133 0.550133 0.147462
0.595931 0.551190 0.148519
0.641729 0.552247 0.149576
0.687528 0.553304 0.150633
0.733326 0.554361 0.151689
0.779124 0.555418 0.152746
0.824922 0.556475 0.153803
0.870720 0.557531 0.154860
0.141505 0.588918 0.141505
0.187304 0.589975 0.142562
0.233102 0.591032 0.143619
0.278900 0.592089 0.144676
0.324698 0.593145 0.145733
0.370496 0.594202 0.146790
0.416294 0.595259 0.147847
0.462092 0.596316 0.148904
0.507890 0.597373 0.149960
0.553689 0.598430 0.151017
0.599487 0.599487 0.152074
0.645285 0.600544 0.153131
0.691083 0.601601 0.154188
0.736881 0.602657 0.155245
0.782679 0.603714 0.156302
0.828477 0.604771 0.157359
0.874276 0.605828 0.158416
0.145061 0.637215 0.145061
0.190859 0.638271 0.146118
0.236657 0.639328 0.147175
0.282455 0.640385 0.148231
0.328253 0.641442 0.149288
0.374052 0.642499 0.150345
0.419850 0.643556 0.151402
0.465648 0.644613 0.152459
0.511446 0.645670 0.153516
0.557244 0.646727 0.154573
0.603042 0.647783 0.155630
0.648840 0.648840 0.156687
0.694638 0.649897 0.157743
0.740437 0.650954 0.158800
0.786235 0.652011 0.159857
0.832033 0.653068 0.160914
0.877831 0.654125 0.161971
0.148616 0.685511 0.148616
0.194414 0.686568 0.149673
0.240213 0.687625 0.150730
0.286011 0.688682 0.151787
0.331809 0.689739 0.152844
0.377607 0.690796 0.153901
0.423405 0.691853 0.154958
0.469203 0.692909 0.156014
0.515001 0.693966 0.157071
0.560799 0.695023 0.158128
0.606598 0.696080 0.159185
0.652396 0.697137 0.160242
0.698194 0.698194 0.161299
0.743992 0.699251 0.162356
0.789790 0.700308 0.163413
0.835588 0.701365 0.164470
0.881386 0.702421 0.165526
0.152172 0.733808 0.152172
0.197970 0.734865 0.153229
0.243768 0.735922 0.154285
0.289566 0.736979 0.155342
0.335364 0.738036 0.156399
0.381162 0.739092 0.157456
0.426961 0.740149 0.158513
0.472759 0.741206 0.159570
0.518557 0.742263 0.160627
0.564355 0.743320 0.161684
0.610153 0.744377 0.162741
0.655951 0.745434 0.163797
0.701749 0.746491 0.164854
0.747548 0.747548 0.165911
0.793346 0.748604 0.166968
0.839144 0.749661 0.168025
0.884942 0.750718 0.169082
0.155727 0.782105 0.155727
0.201525 0.783162 0.156784
0.247323 0.784218 0.157841
0.293122 0.785275 0.158898
0.338920 0.786332 0.159955
0.384718 0.787389 0.161012
0.430516 0.788446 0.162068
0.476314 0.789503 0.163125
0.522112 0.790560 0.164182
0.567910 0.791617 0.165239
0.613708 0.792674 0.166296
0.659507 0.793730 0.167353
0.705305 0.794787 0.168410
0.751103 0.795844 0.169467
0.796901 0.796901 0.170524
0.842699 0.797958 0.171580
0.888497 0.799015 0.172637
0.159283 0.830401 0.159283
0.205081 0.831458 0.160339
0.250879 0.832515 0.161396
0.296677 0.833572 0.162453
0.342475 0.834629 0.163510
0.388273 0.835686 0.164567
0.434071 0.836743 0.165624
0.479870 0.837800 0.166681
0.525668 0.838856 0.167738
0.571466 0.839913 0.168795
0.617264 0.840970 0.169851
0.663062 0.842027 0.170908
0.708860 0.843084 0.171965
0.754658 0.844141 0.173022
0.800457 0.845198 0.174079
0.846255 0.846255 0.175136
0.892053 0.847311 0.176193
0.162838 0.878698 0.162838
0.208636 0.879755 0.163895
0.254434 0.880812 0.164952
0.300232 0.881869 0.166009
0.346031 0.882926 0.167066
0.391829 0.883982 0.168122
0.437627 0.885039 0.169179
0.483425 0.886096 0.170236
0.529223 0.887153 0.171293
0.575021 0.888210 0.172350
0.620819 0.889267 0.173407
0.666618 0.890324 0.174464
0.712416 0.891381 0.175521
0.758214 0.892438 0.176578
0.804012 0.893494 0.177634
0.849810 0.894551 0.178691
0.895608 0.895608 0.179748
0.106310 0.106310 0.151051
0.152108 0.107367 0.152108
0.197906 0.108424 0.153165
0.243704 0.109481 0.154222
0.289502 0.110537 0.155279
0.335301 0.111594 0.156336
0.381099 0.112651 0.157393
0.426897 0.113708 0.158449
0.472695 0.114765 0.159506
0.518493 0.115822 0.160563
0.564291 0.116879 0.161620
0.610089 0.117936 0.162677
0.655888 0.118993 0.163734
0.701686 0.120049 0.164791
0.747484 0.121106 0.165848
0.793282 0.122163 0.166904
0.839080 0.123220 0.167961
0.109865 0.154607 0.154607
0.155664 0.155664 0.155664
0.201462 0.156720 0.156720
0.247260 0.157777 0.157777
0.293058 0.158834 0.158834
0.338856 0.159891 0.159891
0.384654 0.160948 0.160948
0.430452 0.162005 0.162005
0.476250 0.163062 0.163062
0.522049 0.164119 0.164119
0.567847 0.165175 0.165175
0.613645 0.166232 0.166232
0.659443 0.167289 0.167289
0.705241 0.168346 0.168346
0.751039 0.169403 0.169403
0.796837 0.170460 0.170460
0.842636 0.171517 0.171517
0.113421 0.202903 0.158162
0.159219 0.203960 0.159219
0.205017 0.205017 0.160276
0.250815 0.206074 0.161333
0.296613 0.207131 0.162390
0.342411 0.208188 0.163446
0.388210 0.209245 0.164503
0.434008 0.210302 0.165560
0.479806 0.211358 0.166617
0.525604 0.212415 0.167674
0.571402 0.213472 0.168731
0.617200 0.214529 0.169788
0.662998 0.215586 0.170845
0.708797 0.216643 0.171902
0.754595 0.217700 0.172958
0.800393 0.218757 0.174015
0.846191 0.219814 0.175072
0.116976 0.251200 0.161717
0.162774 0.252257 0.162774
0.208573 0.253314 0.163831
0.254371 0.254371 0.164888
0.300169 0.255428 0.165945
0.345967 0.256484 0.167002
0.391765 0.257541 0.168059
0.437563 0.258598 0.169116
0.483361 0.259655 0.170173
0.529159 0.260712 0.171229
0.574958 0.261769 0.172286
0.620756 0.262826 0.173343
0.666554 0.263883 0.174400
0.712352 0.264940 0.175457
0.758150 0.265996 0.176514
0.803948 0.267053 0.177571
0.849746 0.268110 0.178628
0.120532 0.299497 0.165273
0.166330 0.300554 0.166330
0.212128 0.301610 0.167387
0.257926 0.302667 0.168444
0.303724 0.303724 0.169500
0.349522 0.304781 0.170557
0.395321 0.305838 0.171614
0.441119 0.306895 0.172671
0.486917 0.307952 0.173728
0.532715 0.309009 0.174785
0.578513 0.310066 0.175842
0.624311 0.311122 0.176899
0.670109 0.312179 0.177956
0.715907 0.313236 0.179012
0.761706 0.314293 0.180069
0.807504 0.315350 0.181126
0.853302 0.316407 0.182183
0.124087 0.347793 0.168828
0.169885 0.348850 0.169885
0.215683 0.349907 0.170942
0.261482 0.350964 0.171999
0.307280 0.352021 0.173056
0.353078 0.353078 0.174113
0.398876 0.354135 0.175170
0.444674 0.355192 0.176227
0.490472 0.356248 0.177283
0.536270 0.357305 0.178340
0.582069 0.358362 0.179397
0.627867 0.359419 0.180454
0.673665 0.360476 0.181511
0.719463 0.361533 0.182568
0.765261 0.362590 0.183625
0.811059 0.363647 0.184682
0.856857 0.364704 0.185739
0.127643 0.396090 0.172384
0.173441 0.397147 0.173441
0.219239 0.398204 0.174498
0.265037 0.399261 0.175554
0.310835 0.400318 0.176611
0.356633 0.401374 0.177668
0.402431 0.402431 0.178725
0.448230 0.403488 0.179782
0.494028 0.404545 0.180839
0.539826 0.405602 0.181896
0.585624 0.406659 0.182953
0.631422 0.407716 0.184010
0.677220 0.408773 0.185066
0.723018 0.409830 0.186123
0.768816 0.410886 0.187180
0.814615 0.411943 0.188237
0.860413 0.413000 0.189294
0.131198 0.444387 0.175939
0.176996 0.445444 0.176996
0.222794 0.446501 0.178053
0.268592 0.447557 0.179110
0.314391 0.448614 0.180167
0.360189 0.449671 0.181224
0.405987 0.450728 0.182281
0.451785 0.451785 0.183337
0.497583 0.452842 0.184394
0.543381 0.453899 0.185451
0.589179 0.454956 0.186508
0.634978 0.456013 0.187565
0.680776 0.457069 0.188622
0.726574 0.458126 0.189679
0.772372 0.459183 0.190736
0.818170 0.460240 0.191793
0.863968 0.461297 0.192849
0.134753 0.492683 0.179495
0.180552 0.493740 0.180552
0.226350 0.494797 0.181608
0.272148 0.495854 0.182665
0.317946 0.496911 0.183722
0.363744 0.497968 0.184779
0.409542 0.499025 0.185836
0.455340 0.500082 0.186893
0.501139 0.501139 0.187950
0.546937 0.502195 0.189007
0.592735 0.503252 0.190064
0.638533 0.504309 0.191120
0.684331 0.505366 0.192177
0.730129 0.506423 0.193234
0.775927 0.507480 0.194291
0.821725 0.508537 0.195348
0.867524 0.509594 0.196405
0.138309 0.540980 0.183050
0.184107 0.542037 0.184107
0.229905 0.543094 0.185164
0.275703 0.544151 0.186221
0.321501 0.545208 0.187278
0.367300 0.546265 0.188335
0.413098 0.547321 0.189391
0.458896 0.548378 0.190448
0.504694 0.549435 0.191505
0.550492 0.550492 0.192562
0.596290 0.551549 0.193619
0.642088 0.552606 0.194676
0.687887 0.553663 0.195733
0.733685 0.554720 0.196790
0.779483 0.555777 0.197847
0.825281 0.556833 0.198903
0.871079 0.557890 0.199960
0.141864 0.589277 0.186606
0.187662 0.590334 0.187662
0.233461 0.591391 0.188719
0.279259 0.592447 0.189776
0.325057 0.593504 0.190833
0.370855 0.594561 0.191890
0.416653 0.595618 0.192947
0.462451 0.596675 0.194004
0.508249 0.597732 0.195061
0.554048 0.598789 0.196118
0.599846 0.599846 0.197174
0.645644 0.600903 0.198231
0.691442 0.601959 0.199288
0.737240 0.603016 0.200345
0.783038 0.604073 0.201402
0.828836 0.605130 0.202459
0.874635 0.606187 0.203516
0.145420 0.637573 0.190161
0.191218 0.638630 0.191218
0.237016 0.639687 0.192275
0.282814 0.640744 0.193332
0.328612 0.641801 0.194389
0.374410 0.642858 0.195445
0.420209 0.643915 0.196502
0.466007 0.644972 0.197559
0.511805 0.646029 0.198616
0.557603 0.647085 0.199673
0.603401 0.648142 0.200730
0.649199 0.649199 0.201787
0.694997 0.650256 0.202844
0.740796 0.651313 0.203901
0.786594 0.652370 0.204957
0.832392 0.653427 0.206014
0.878190 0.654484 0.207071
0.148975 0.685870 0.193716
0.194773 0.686927 0.194773
0.240571 0.687984 0.195830
0.286370 0.689041 0.196887
0.332168 0.690098 0.197944
0.377966 0.691155 0.199001
0.423764 0.692212 0.200058
0.469562 0.693268 0.201115
0.515360 0.694325 0.202172
0.561158 0.695382 0.203228
0.606957 0.696439 0.204285
0.652755 0.697496 0.205342
0.698553 0.698553 0.206399
0.744351 0.699610 0.207456
0.790149 0.700667 0.208513
0.835947 0.701724 0.209570
0.881745 0.702780 0.210627
0.152531 0.734167 0.197272
0.198329 0.735224 0.198329
0.244127 0.736281 0.199386
0.289925 0.737338 0.200443
0.335723 0.738394 0.201499
0.381521 0.739451 0.202556
0.427319 0.740508 0.203613
0.473118 0.741565 0.204670
0.518916 0.742622 0.205727
0.564714 0.743679 0.206784
0.610512 0.744736 0.207841
0.656310 0.745793 0.208898
0.702108 0.746850 0.209955
0.747906 0.747906 0.211011
0.793705 0.748963 0.212068
0.839503 0.750020 0.213125
0.885301 0.751077 0.214182
0.156086 0.782464 0.200827
0.201884 0.783520 0.201884
0.247682 0.784577 0.202941
0.293480 0.785634 0.203998
0.339279 0.786691 0.205055
0.385077 0.787748 0.206112
0.430875 0.788805 0.207169
0.476673 0.789862 0.208226
0.522471 0.790919 0.209282
0.568269 0.791976 0.210339
0.614067 0.793032 0.211396
0.659866 0.794089 0.212453
0.705664 0.795146 0.213510
0.751462 0.796203 0.214567
0.797260 0.797260 0.215624
0.843058 0.798317 0.216681
0.888856 0.799374 0.217738
0.159641 0.830760 0.204383
0.205440 0.831817 0.205440
0.251238 0.832874 0.206497
0.297036 0.833931 0.207553
0.342834 0.834988 0.208610
0.388632 0.836045 0.209667
0.434430 0.837102 0.210724
0.480228 0.838158 0.211781
0.526027 0.839215 0.212838
0.571825 0.840272 0.213895
0.617623 0.841329 0.214952
0.663421 0.842386 0.216009
0.709219 0.843443 0.217065
0.755017 0.844500 0.218122
0.800815 0.845557 0.219179
0.846614 0.846614 0.220236
0.892412 0.847670 0.221293
0.163197 0.879057 0.207938
0.208995 0.880114 0.208995
0.254793 0.881171 0.210052
0.300591 0.882228 0.211109
0.346389 0.883285 0.212166
0.392188 0.884341 0.213223
0.437986 0.885398 0.214280
0.483784 0.886455 0.215336
0.529582 0.887512 0.216393
0.575380 0.888569 0.217450
0.621178 0.889626 0.218507
0.666976 0.890683 0.219564
0.712775 0.891740 0.220621
0.758573 0.892796 0.221678
0.804371 0.893853 0.222735
0.850169 0.894910 0.223791
0.895967 0.895967 0.224848
0.106669 0.106669 0.196151
0.152467 0.107726 0.197208
0.198265 0.108783 0.198265
0.244063 0.109840 0.199322
0.289861 0.110896 0.200379
0.335660 0.111953 0.201436
0.381458 0.113010 0.202493
0.427256 0.114067 0.203550
0.473054 0.115124 0.204606
0.518852 0.116181 0.205663
0.564650 0.117238 0.206720
0.610448 0.118295 0.207777
0.656246 0.119351 0.208834
0.702045 0.120408 0.209891
0.747843 0.121465 0.210948
0.793641 0.122522 0.212005
0.839439 0.123579 0.213062
0.110224 0.154966 0.199707
0.156022 0.156022 0.200764
0.201821 0.157079 0.201821
0.247619 0.158136 0.202877
0.293417 0.159193 0.203934
0.339215 0.160250 0.204991
0.385013 0.161307 0.206048
0.430811 0.162364 0.207105
0.476609 0.163421 0.208162
0.522408 0.164478 0.209219
0.568206 0.165534 0.210276
0.614004 0.166591 0.211333
0.659802 0.167648 0.212389
0.705600 0.168705 0.213446
0.751398 0.169762 0.214503
0.797196 0.170819 0.215560
0.842995 0.171876 0.216617
0.113780 0.203262 0.203262
0.159578 0.204319 0.204319
0.205376 0.205376 0.205376
0.251174 0.206433 0.206433
0.296972 0.207490 0.207490
0.342770 0.208547 0.208547
0.388569 0.209604 0.209604
0.434367 0.210660 0.210660
0.480165 0.211717 0.211717
0.525963 0.212774 0.212774
0.571761 0.213831 0.213831
0.617559 0.214888 0.214888
0.663357 0.215945 0.215945
0.709155 0.217002 0.217002
0.754954 0.218059 0.218059
0.800752 0.219116 0.219116
0.846550 0.220172 0.220172
0.117335 0.251559 0.206818
0.163133 0.252616 0.207875
0.208931 0.253673 0.208931
0.254730 0.254730 0.209988
0.300528 0.255786 0.211045
0.346326 0.256843 0.212102
0.392124 0.257900 0.213159
0.437922 0.258957 0.214216
0.483720 0.260014 0.215273
0.529518 0.261071 0.216330
0.575317 0.262128 0.217387
0.621115 0.263185 0.218443
0.666913 0.264242 0.219500
0.712711 0.265298 0.220557
0.758509 0.266355 0.221614
0.804307 0.267412 0.222671
0.850105 0.268469 0.223728
0.120891 0.299856 0.210373
0.166689 0.300912 0.211430
0.212487 0.301969 0.212487
0.258285 0.303026 0.213544
0.304083 0.304083 0.214601
0.349881 0.305140 0.215658
0.395679 0.306197 0.216714
0.441478 0.307254 0.217771
0.487276 0.308311 0.218828
0.533074 0.309368 0.219885
0.578872 0.310424 0.220942
0.624670 0.311481 0.221999
0.670468 0.312538 0.223056
0.716266 0.313595 0.224113
0.762065 0.314652 0.225170
0.807863 0.315709 0.226226
0.853661 0.316766 0.227283
0.124446 0.348152 0.213929
0.170244 0.349209 0.214985
0.216042 0.350266 0.216042
0.261840 0.351323 0.217099
0.307639 0.352380 0.218156
0.353437 0.353437 0.219213
0.399235 0.354494 0.220270
0.445033 0.355550 0.221327
0.490831 0.356607 0.222384
0.536629 0.357664 0.223441
0.582427 0.358721 0.224497
0.628226 0.359778 0.225554
0.674024 0.360835 0.226611
0.719822 0.361892 0.227668
0.765620 0.362949 0.228725
0.811418 0.364006 0.229782
0.857216 0.365063 0.230839
0.128001 0.396449 0.217484
0.173800 0.397506 0.218541
0.219598 0.398563 0.219598
0.265396 0.399620 0.220655
0.311194 0.400677 0.221712
0.356992 0.401733 0.222768
0.402790 0.402790 0.223825
0.448588 0.403847 0.224882
0.494387 0.404904 0.225939
0.540185 0.405961 0.226996
0.585983 0.407018 0.228053
0.631781 0.408075 0.229110
0.677579 0.409132 0.230167
0.723377 0.410189 0.231224
0.769175 0.411245 0.232280
0.814974 0.412302 0.233337
0.860772 0.413359 0.234394
0.131557 0.444746 0.221039
0.177355 0.445803 0.222096
0.223153 0.446859 0.223153
0.268951 0.447916 0.224210
0.314749 0.448973 0.225267
0.360548 0.450030 0.226324
0.406346 0.451087 0.227381
0.452144 0.452144 0.228438
0.497942 0.453201 0.229495
0.543740 0.454258 0.230551
0.589538 0.455315 0.231608
0.635336 0.456371 0.232665
0.681135 0.457428 0.233722
0.726933 0.458485 0.234779
0.772731 0.459542 0.235836
0.818529 0.460599 0.236893
0.864327 0.461656 0.237950
0.135112 0.493042 0.224595
0.180910 0.494099 0.225652
0.226709 0.495156 0.226709
0.272507 0.496213 0.227766
0.318305 0.497270 0.228822
0.364103 0.498327 0.229879
0.409901 0.499384 0.230936
0.455699 0.500441 0.231993
0.501497 0.501497 0.233050
0.547296 0.502554 0.234107
0.593094 0.503611 0.235164
0.638892 0.504668 0.236221
0.684690 0.505725 0.237278
0.730488 0.506782 0.238334
0.776286 0.507839 0.239391
0.822084 0.508896 0.240448
0.867883 0.509953 0.241505
0.138668 0.541339 0.228150
0.184466 0.542396 0.229207
0.230264 0.543453 0.230264
0.276062 0.544510 0.231321
0.321860 0.545567 0.232378
0.367658 0.546623 0.233435
0.413457 0.547680 0.234492
0.459255 0.548737 0.235549
0.505053 0.549794 0.236605
0.550851 0.550851 0.237662
0.596649 0.551908 0.238719
0.642447 0.552965 0.239776
0.688245 0.554022 0.240833
0.734044 0.555079 0.241890
0.779842 0.556135 0.242947
0.825640 0.557192 0.244004
0.871438 0.558249 0.245060
0.142223 0.589636 0.231706
0.188021 0.590693 0.232763
0.233819 0.591749 0.233819
0.279618 0.592806 0.234876
0.325416 0.593863 0.235933
0.371214 0.594920 0.236990
0.417012 0.595977 0.238047
0.462810 0.597034 0.239104
0.508608 0.598091 0.240161
0.554406 0.599148 0.241218
0.600205 0.600205 0.242275
0.646003 0.601261 0.243331
0.691801 0.602318 0.244388
0.737599 0.603375 0.245445
0.783397 0.604432 0.246502
0.829195 0.605489 0.247559
0.874993 0.606546 0.248616
0.145779 0.637932 0.235261
0.191577 0.638989 0.236318
0.237375 0.640046 0.237375
0.283173 0.641103 0.238432
0.328971 0.642160 0.239489
0.374769 0.643217 0.240546
0.420567 0.644274 0.241602
0.466366 0.645331 0.242659
0.512164 0.646388 0.243716
0.557962 0.647444 0.244773
0.603760 0.648501 0.245830
0.649558 0.649558 0.246887
0.695356 0.650615 0.247944
0.741154 0.651672 0.249001
0.786953 0.652729 0.250058
0.832751 0.653786 0.251114
0.878549 0.654843 0.252171
0.149334 0.686229 0.238817
0.195132 0.687286 0.239873
0.240930 0.688343 0.240930
0.286729 0.689400 0.241987
0.332527 0.690457 0.243044
0.378325 0.691514 0.244101
0.424123 0.692570 0.245158
0.469921 0.693627 0.246215
0.515719 0.694684 0.247272
0.561517 0.695741 0.248329
0.607315 0.696798 0.249385
0.653114 0.697855 0.250442
0.698912 0.698912 0.251499
0.744710 0.699969 0.252556
0.790508 0.701026 0.253613
0.836306 0.702082 0.254670
0.882104 0.703139 0.255727
0.152890 0.734526 0.242372
0.198688 0.735583 0.243429
0.244486 0.736640 0.244486
0.290284 0.737696 0.245543
0.336082 0.738753 0.246600
0.381880 0.739810 0.247656
0.427678 0.740867 0.248713
0.473476 0.741924 0.249770
0.519275 0.742981 0.250827
0.565073 0.744038 0.251884
0.610871 0.745095 0.252941
0.656669 0.746152 0.253998
0.702467 0.747208 0.255055
0.748265 0.748265 0.256112
0.794063 0.749322 0.257168
0.839862 0.750379 0.258225
0.885660 0.751436 0.259282
0.156445 0.782822 0.245927
0.202243 0.783879 0.246984
0.248041 0.784936 0.248041
0.293839 0.785993 0.249098
0.339638 0.787050 0.250155
0.385436 0.788107 0.251212
0.431234 0.789164 0.252269
0.477032 0.790221 0.253326
0.522830 0.791278 0.254383
0.568628 0.792334 0.255439
0.614426 0.793391 0.256496
0.660224 0.794448 0.257553
0.706023 0.795505 0.258610
0.751821 0.796562 0.259667
0.797619 0.797619 0.260724
0.843417 0.798676 0.261781
0.889215 0.799733 0.262838
0.160000 0.831119 0.249483
0.205799 0.832176 0.250540
0.251597 0.833233 0.251597
0.297395 0.834290 0.252654
0.343193 0.835347 0.253710
0.388991 0.836404 0.254767
0.434789 0.837461 0.255824
0.480587 0.838517 0.256881
0.526386 0.839574 0.257938
0.572184 0.840631 0.258995
0.617982 0.841688 0.260052
0.663780 0.842745 0.261109
0.709578 0.843802 0.262166
0.755376 0.844859 0.263222
0.801174 0.845916 0.264279
0.846972 0.846972 0.265336
0.892771 0.848029 0.266393
0.163556 0.879416 0.253038
0.209354 0.880473 0.254095
0.255152 0.881530 0.255152
0.300950 0.882587 0.256209
0.346748 0.883643 0.257266
0.392547 0.884700 0.258323
0.438345 0.885757 0.259380
0.484143 0.886814 0.260437
0.529941 0.887871 0.261493
0.575739 0.888928 0.262550
0.621537 0.889985 0.263607
0.667335 0.891042 0.264664
0.713134 0.892098 0.265721
0.758932 0.893155 0.266778
0.804730 0.894212 0.267835
0.850528 0.895269 0.268892
0.896326 0.896326 0.269949
0.107028 0.107028 0.241252
0.152826 0.108085 0.242308
0.198624 0.109142 0.243365
0.244422 0.110198 0.244422
0.290220 0.111255 0.245479
0.336018 0.112312 0.246536
0.381817 0.113369 0.247593
0.427615 0.114426 0.248650
0.473413 0.115483 0.249707
0.519211 0.116540 0.250764
0.565009 0.117597 0.251820
0.610807 0.118654 0.252877
0.656605 0.119710 0.253934
0.702404 0.120767 0.254991
0.748202 0.121824 0.256048
0.794000 0.122881 0.257105
0.839798 0.123938 0.258162
0.110583 0.155324 0.244807
0.156381 0.156381 0.245864
0.202179 0.157438 0.246921
