assets/presets/luts/faded-seventies/lut.cube
TITLE "Faded Seventies"
LUT_3D_SIZE 5
0.080128 0.066875 0.050043
0.264647 0.078483 0.061651
0.449166 0.090092 0.073260
0.633685 0.101701 0.084869
0.818204 0.113309 0.096477
0.118990 0.277804 0.088905
0.303509 0.289413 0.100513
0.488028 0.301022 0.112122
0.672547 0.312630 0.123730
0.857066 0.324239 0.135339
0.157852 0.488734 0.127766
0.342371 0.500343 0.139375
0.526890 0.511951 0.150984
0.711409 0.523560 0.162592
0.895928 0.535169 0.174201
0.196714 0.699664 0.166628
0.381233 0.711272 0.178237
0.565752 0.722881 0.189846
0.750271 0.734490 0.201454
0.934790 0.746098 0.213063
0.235576 0.910594 0.205490
0.420095 0.922202 0.217099
0.604614 0.933811 0.228708
0.789133 0.945420 0.240316
0.973652 0.957028 0.251925
0.084050 0.070796 0.225958
0.268569 0.082405 0.237567
0.453088 0.094013 0.249176
0.637607 0.105622 0.260784
0.822126 0.117231 0.272393
0.122912 0.281726 0.264820
0.307431 0.293334 0.276429
0.491950 0.304943 0.288037
0.676469 0.316552 0.299646
0.860988 0.328160 0.311255
0.161774 0.492656 0.303682
0.346293 0.504264 0.315291
0.530812 0.515873 0.326899
0.715331 0.527481 0.338508
0.899850 0.539090 0.350117
0.200636 0.703585 0.342544
0.385155 0.715194 0.354153
0.569674 0.726803 0.365761
0.754193 0.738411 0.377370
0.938712 0.750020 0.388979
0.239498 0.914515 0.381406
0.424017 0.926124 0.393015
0.608536 0.937732 0.404623
0.793055 0.949341 0.416232
0.977573 0.960950 0.427841
0.087971 0.074718 0.401874
0.272490 0.086326 0.413483
0.457009 0.097935 0.425091
0.641528 0.109543 0.436700
0.826047 0.121152 0.448308
0.126833 0.285647 0.440736
0.311352 0.297256 0.452344
0.495871 0.308865 0.463953
0.680390 0.320473 0.475562
0.864909 0.332082 0.487170
0.165695 0.496577 0.479598
0.350214 0.508186 0.491206
0.534733 0.519794 0.502815
0.719252 0.531403 0.514424
0.903771 0.543012 0.526032
0.204557 0.707507 0.518460
0.389076 0.719115 0.530068
0.573595 0.730724 0.541677
0.758114 0.742333 0.553286
0.942633 0.753941 0.564894
0.243419 0.918437 0.557322
0.427938 0.930045 0.568930
0.612457 0.941654 0.580539
0.796976 0.953263 0.592148
0.981495 0.964871 0.603756
0.091893 0.078639 0.577790
0.276412 0.090248 0.589398
0.460931 0.101856 0.601007
0.645450 0.113465 0.612615
0.829969 0.125074 0.624224
0.130755 0.289569 0.616651
0.315274 0.301177 0.628260
0.499793 0.312786 0.639869
0.684312 0.324395 0.651477
0.868831 0.336003 0.663086
0.169617 0.500498 0.655513
0.354136 0.512107 0.667122
0.538655 0.523716 0.678731
0.723173 0.535324 0.690339
0.907692 0.546933 0.701948
0.208479 0.711428 0.694375
0.392998 0.723037 0.705984
0.577516 0.734646 0.717593
0.762035 0.746254 0.729201
0.946554 0.757863 0.740810
0.247341 0.922358 0.733237
0.431859 0.933967 0.744846
0.616378 0.945575 0.756455
0.800897 0.957184 0.768063
0.985416 0.968793 0.779672
0.095814 0.082560 0.753705
0.280333 0.094169 0.765314
0.464852 0.105778 0.776922
0.649371 0.117386 0.788531
0.833890 0.128995 0.800140
0.134676 0.293490 0.792567
0.319195 0.305099 0.804176
0.503714 0.316707 0.815784
0.688233 0.328316 0.827393
0.872752 0.339925 0.839002
0.173538 0.504420 0.831429
0.358057 0.516029 0.843038
0.542576 0.527637 0.854646
0.727095 0.539246 0.866255
0.911614 0.550855 0.877864
0.212400 0.715350 0.870291
0.396919 0.726958 0.881900
0.581438 0.738567 0.893508
0.765957 0.750176 0.905117
0.950476 0.761784 0.916726
0.251262 0.926279 0.909153
0.435781 0.937888 0.920762
0.620300 0.949497 0.932370
0.804819 0.961105 0.943979
0.989338 0.972714 0.955588
