assets/presets/luts/faded-seventies/lut.cube
TITLE "Faded Seventies"
LUT_3D_SIZE 17
0.080128 0.066875 0.050043
0.126258 0.069777 0.052945
0.172388 0.072679 0.055847
0.218517 0.075581 0.058749
0.264647 0.078483 0.061651
0.310777 0.081385 0.064553
0.356907 0.084288 0.067456
0.403036 0.087190 0.070358
0.449166 0.090092 0.073260
0.495296 0.092994 0.076162
0.541426 0.095896 0.079064
0.587555 0.098798 0.081966
0.633685 0.101701 0.084869
0.679815 0.104603 0.087771
0.725945 0.107505 0.090673
0.772074 0.110407 0.093575
0.818204 0.113309 0.096477
0.089844 0.119607 0.059758
0.135973 0.122509 0.062660
0.182103 0.125411 0.065562
0.228233 0.128313 0.068465
0.274363 0.131216 0.071367
0.320492 0.134118 0.074269
0.366622 0.137020 0.077171
0.412752 0.139922 0.080073
0.458882 0.142824 0.082975
0.505011 0.145726 0.085878
0.551141 0.148629 0.088780
0.597271 0.151531 0.091682
0.643401 0.154433 0.094584
0.689530 0.157335 0.097486
0.735660 0.160237 0.100388
0.781790 0.163139 0.103290
0.827920 0.166042 0.106193
0.099559 0.172339 0.069474
0.145689 0.175242 0.072376
0.191819 0.178144 0.075278
0.237948 0.181046 0.078180
0.284078 0.183948 0.081082
0.330208 0.186850 0.083984
0.376338 0.189752 0.086887
0.422467 0.192655 0.089789
0.468597 0.195557 0.092691
0.514727 0.198459 0.095593
0.560857 0.201361 0.098495
0.606986 0.204263 0.101397
0.653116 0.207165 0.104300
0.699246 0.210068 0.107202
0.745376 0.212970 0.110104
0.791505 0.215872 0.113006
0.837635 0.218774 0.115908
0.109275 0.225072 0.079189
0.155404 0.227974 0.082091
0.201534 0.230876 0.084993
0.247664 0.233778 0.087896
0.293794 0.236681 0.090798
0.339923 0.239583 0.093700
0.386053 0.242485 0.096602
0.432183 0.245387 0.099504
0.478313 0.248289 0.102406
0.524442 0.251191 0.105308
0.570572 0.254094 0.108211
0.616702 0.256996 0.111113
0.662832 0.259898 0.114015
0.708961 0.262800 0.116917
0.755091 0.265702 0.119819
0.801221 0.268604 0.122721
0.847351 0.271506 0.125624
0.118990 0.277804 0.088905
0.165120 0.280706 0.091807
0.211250 0.283609 0.094709
0.257379 0.286511 0.097611
0.303509 0.289413 0.100513
0.349639 0.292315 0.103415
0.395769 0.295217 0.106317
0.441898 0.298119 0.109220
0.488028 0.301022 0.112122
0.534158 0.303924 0.115024
0.580288 0.306826 0.117926
0.626417 0.309728 0.120828
0.672547 0.312630 0.123730
0.718677 0.315532 0.126633
0.764807 0.318435 0.129535
0.810936 0.321337 0.132437
0.857066 0.324239 0.135339
0.128706 0.330537 0.098620
0.174835 0.333439 0.101522
0.220965 0.336341 0.104424
0.267095 0.339243 0.107327
0.313225 0.342145 0.110229
0.359354 0.345048 0.113131
0.405484 0.347950 0.116033
0.451614 0.350852 0.118935
0.497744 0.353754 0.121837
0.543873 0.356656 0.124739
0.590003 0.359558 0.127642
0.636133 0.362461 0.130544
0.682263 0.365363 0.133446
0.728392 0.368265 0.136348
0.774522 0.371167 0.139250
0.820652 0.374069 0.142152
0.866782 0.376971 0.145055
0.138421 0.383269 0.108336
0.184551 0.386171 0.111238
0.230681 0.389074 0.114140
0.276810 0.391976 0.117042
0.322940 0.394878 0.119944
0.369070 0.397780 0.122846
0.415200 0.400682 0.125748
0.461329 0.403584 0.128651
0.507459 0.406487 0.131553
0.553589 0.409389 0.134455
0.599719 0.412291 0.137357
0.645848 0.415193 0.140259
0.691978 0.418095 0.143161
0.738108 0.420997 0.146064
0.784238 0.423900 0.148966
0.830367 0.426802 0.151868
0.876497 0.429704 0.154770
0.148137 0.436002 0.118051
0.194266 0.438904 0.120953
0.240396 0.441806 0.123855
0.286526 0.444708 0.126757
0.332656 0.447610 0.129660
0.378785 0.450512 0.132562
0.424915 0.453415 0.135464
0.471045 0.456317 0.138366
0.517175 0.459219 0.141268
0.563304 0.462121 0.144170
0.609434 0.465023 0.147073
0.655564 0.467925 0.149975
0.701694 0.470828 0.152877
0.747823 0.473730 0.155779
0.793953 0.476632 0.158681
0.840083 0.479534 0.161583
0.886213 0.482436 0.164486
0.157852 0.488734 0.127766
0.203982 0.491636 0.130669
0.250112 0.494538 0.133571
0.296241 0.497441 0.136473
0.342371 0.500343 0.139375
0.388501 0.503245 0.142277
0.434631 0.506147 0.145179
0.480760 0.509049 0.148082
0.526890 0.511951 0.150984
0.573020 0.514854 0.153886
0.619150 0.517756 0.156788
0.665279 0.520658 0.159690
0.711409 0.523560 0.162592
0.757539 0.526462 0.165495
0.803669 0.529364 0.168397
0.849798 0.532267 0.171299
0.895928 0.535169 0.174201
0.167568 0.541467 0.137482
0.213697 0.544369 0.140384
0.259827 0.547271 0.143286
0.305957 0.550173 0.146188
0.352087 0.553075 0.149091
0.398216 0.555977 0.151993
0.444346 0.558879 0.154895
0.490476 0.561782 0.157797
0.536606 0.564684 0.160699
0.582735 0.567586 0.163601
0.628865 0.570488 0.166504
0.674995 0.573390 0.169406
0.721125 0.576292 0.172308
0.767254 0.579195 0.175210
0.813384 0.582097 0.178112
0.859514 0.584999 0.181014
0.905644 0.587901 0.183917
0.177283 0.594199 0.147197
0.223413 0.597101 0.150100
0.269543 0.600003 0.153002
0.315672 0.602905 0.155904
0.361802 0.605808 0.158806
0.407932 0.608710 0.161708
0.454062 0.611612 0.164610
0.500191 0.614514 0.167513
0.546321 0.617416 0.170415
0.592451 0.620318 0.173317
0.638581 0.623221 0.176219
0.684710 0.626123 0.179121
0.730840 0.629025 0.182023
0.776970 0.631927 0.184926
0.823100 0.634829 0.187828
0.869229 0.637731 0.190730
0.915359 0.640634 0.193632
0.186999 0.646931 0.156913
0.233128 0.649834 0.159815
0.279258 0.652736 0.162717
0.325388 0.655638 0.165619
0.371518 0.658540 0.168522
0.417647 0.661442 0.171424
0.463777 0.664344 0.174326
0.509907 0.667247 0.177228
0.556037 0.670149 0.180130
0.602166 0.673051 0.183032
0.648296 0.675953 0.185935
0.694426 0.678855 0.188837
0.740556 0.681757 0.191739
0.786685 0.684660 0.194641
0.832815 0.687562 0.197543
0.878945 0.690464 0.200445
0.925075 0.693366 0.203348
0.196714 0.699664 0.166628
0.242844 0.702566 0.169531
0.288974 0.705468 0.172433
0.335103 0.708370 0.175335
0.381233 0.711272 0.178237
0.427363 0.714175 0.181139
0.473493 0.717077 0.184041
0.519622 0.719979 0.186944
0.565752 0.722881 0.189846
0.611882 0.725783 0.192748
0.658012 0.728685 0.195650
0.704141 0.731588 0.198552
0.750271 0.734490 0.201454
0.796401 0.737392 0.204357
0.842531 0.740294 0.207259
0.888660 0.743196 0.210161
0.934790 0.746098 0.213063
0.206430 0.752396 0.176344
0.252559 0.755298 0.179246
0.298689 0.758201 0.182148
0.344819 0.761103 0.185050
0.390949 0.764005 0.187953
0.437078 0.766907 0.190855
0.483208 0.769809 0.193757
0.529338 0.772711 0.196659
0.575468 0.775614 0.199561
0.621597 0.778516 0.202463
0.667727 0.781418 0.205366
0.713857 0.784320 0.208268
0.759987 0.787222 0.211170
0.806116 0.790124 0.214072
0.852246 0.793027 0.216974
0.898376 0.795929 0.219876
0.944506 0.798831 0.222779
0.216145 0.805129 0.186059
0.262275 0.808031 0.188962
0.308405 0.810933 0.191864
0.354534 0.813835 0.194766
0.400664 0.816737 0.197668
0.446794 0.819640 0.200570
0.492924 0.822542 0.203472
0.539053 0.825444 0.206375
0.585183 0.828346 0.209277
0.631313 0.831248 0.212179
0.677443 0.834150 0.215081
0.723572 0.837053 0.217983
0.769702 0.839955 0.220885
0.815832 0.842857 0.223788
0.861962 0.845759 0.226690
0.908091 0.848661 0.229592
0.954221 0.851563 0.232494
0.225861 0.857861 0.195775
0.271990 0.860763 0.198677
0.318120 0.863665 0.201579
0.364250 0.866568 0.204481
0.410380 0.869470 0.207384
0.456509 0.872372 0.210286
0.502639 0.875274 0.213188
0.548769 0.878176 0.216090
0.594899 0.881078 0.218992
0.641028 0.883981 0.221894
0.687158 0.886883 0.224797
0.733288 0.889785 0.227699
0.779418 0.892687 0.230601
0.825547 0.895589 0.233503
0.871677 0.898491 0.236405
0.917807 0.901394 0.239307
0.963937 0.904296 0.242210
0.235576 0.910594 0.205490
0.281706 0.913496 0.208393
0.327836 0.916398 0.211295
0.373965 0.919300 0.214197
0.420095 0.922202 0.217099
0.466225 0.925104 0.220001
0.512355 0.928007 0.222903
0.558484 0.930909 0.225806
0.604614 0.933811 0.228708
0.650744 0.936713 0.231610
0.696874 0.939615 0.234512
0.743003 0.942517 0.237414
0.789133 0.945420 0.240316
0.835263 0.948322 0.243219
0.881393 0.951224 0.246121
0.927522 0.954126 0.249023
0.973652 0.957028 0.251925
0.081109 0.067855 0.094021
0.127238 0.070757 0.096924
0.173368 0.073659 0.099826
0.219498 0.076561 0.102728
0.265628 0.079464 0.105630
0.311757 0.082366 0.108532
0.357887 0.085268 0.111434
0.404017 0.088170 0.114337
0.450147 0.091072 0.117239
0.496276 0.093974 0.120141
0.542406 0.096877 0.123043
0.588536 0.099779 0.125945
0.634666 0.102681 0.128847
0.680795 0.105583 0.131750
0.726925 0.108485 0.134652
0.773055 0.111387 0.137554
0.819184 0.114290 0.140456
0.090824 0.120587 0.103737
0.136954 0.123490 0.106639
0.183084 0.126392 0.109541
0.229213 0.129294 0.112443
0.275343 0.132196 0.115346
0.321473 0.135098 0.118248
0.367603 0.138000 0.121150
0.413732 0.140903 0.124052
0.459862 0.143805 0.126954
0.505992 0.146707 0.129856
0.552122 0.149609 0.132759
0.598251 0.152511 0.135661
0.644381 0.155413 0.138563
0.690511 0.158315 0.141465
0.736641 0.161218 0.144367
0.782770 0.164120 0.147269
0.828900 0.167022 0.150172
0.100540 0.173320 0.113452
0.146669 0.176222 0.116355
0.192799 0.179124 0.119257
0.238929 0.182026 0.122159
0.285059 0.184928 0.125061
0.331188 0.187831 0.127963
0.377318 0.190733 0.130865
0.423448 0.193635 0.133768
0.469578 0.196537 0.136670
0.515707 0.199439 0.139572
0.561837 0.202341 0.142474
0.607967 0.205244 0.145376
0.654097 0.208146 0.148278
0.700226 0.211048 0.151181
0.746356 0.213950 0.154083
0.792486 0.216852 0.156985
0.838615 0.219754 0.159887
0.110255 0.226052 0.123168
0.156385 0.228954 0.126070
0.202515 0.231857 0.128972
0.248644 0.234759 0.131874
0.294774 0.237661 0.134777
0.340904 0.240563 0.137679
0.387034 0.243465 0.140581
0.433163 0.246367 0.143483
0.479293 0.249270 0.146385
0.525423 0.252172 0.149287
0.571553 0.255074 0.152190
0.617682 0.257976 0.155092
0.663812 0.260878 0.157994
0.709942 0.263780 0.160896
0.756072 0.266683 0.163798
0.802201 0.269585 0.166700
0.848331 0.272487 0.169603
0.119971 0.278785 0.132883
0.166100 0.281687 0.135786
0.212230 0.284589 0.138688
0.258360 0.287491 0.141590
0.304490 0.290393 0.144492
0.350619 0.293296 0.147394
0.396749 0.296198 0.150296
0.442879 0.299100 0.153199
0.489009 0.302002 0.156101
0.535138 0.304904 0.159003
0.581268 0.307806 0.161905
0.627398 0.310708 0.164807
0.673527 0.313611 0.167709
0.719657 0.316513 0.170612
0.765787 0.319415 0.173514
0.811917 0.322317 0.176416
0.858046 0.325219 0.179318
0.129686 0.331517 0.142599
0.175816 0.334419 0.145501
0.221946 0.337321 0.148403
0.268075 0.340224 0.151305
0.314205 0.343126 0.154208
0.360335 0.346028 0.157110
0.406465 0.348930 0.160012
0.452594 0.351832 0.162914
0.498724 0.354734 0.165816
0.544854 0.357637 0.168718
0.590984 0.360539 0.171621
0.637113 0.363441 0.174523
0.683243 0.366343 0.177425
0.729373 0.369245 0.180327
0.775503 0.372147 0.183229
0.821632 0.375050 0.186131
0.867762 0.377952 0.189034
0.139402 0.384250 0.152314
0.185531 0.387152 0.155217
0.231661 0.390054 0.158119
0.277791 0.392956 0.161021
0.323921 0.395858 0.163923
0.370050 0.398760 0.166825
0.416180 0.401663 0.169727
0.462310 0.404565 0.172630
0.508439 0.407467 0.175532
0.554569 0.410369 0.178434
0.600699 0.413271 0.181336
0.646829 0.416173 0.184238
0.692958 0.419076 0.187140
0.739088 0.421978 0.190043
0.785218 0.424880 0.192945
0.831348 0.427782 0.195847
0.877477 0.430684 0.198749
0.149117 0.436982 0.162030
0.195247 0.439884 0.164932
0.241377 0.442786 0.167834
0.287506 0.445688 0.170736
0.333636 0.448591 0.173639
0.379766 0.451493 0.176541
0.425896 0.454395 0.179443
0.472025 0.457297 0.182345
0.518155 0.460199 0.185247
0.564285 0.463101 0.188149
0.610415 0.466004 0.191052
0.656544 0.468906 0.193954
0.702674 0.471808 0.196856
0.748804 0.474710 0.199758
0.794933 0.477612 0.202660
0.841063 0.480514 0.205562
0.887193 0.483417 0.208465
0.158833 0.489714 0.171745
0.204962 0.492617 0.174648
0.251092 0.495519 0.177550
0.297222 0.498421 0.180452
0.343352 0.501323 0.183354
0.389481 0.504225 0.186256
0.435611 0.507127 0.189158
0.481741 0.510030 0.192061
0.527870 0.512932 0.194963
0.574000 0.515834 0.197865
0.620130 0.518736 0.200767
0.666260 0.521638 0.203669
0.712389 0.524540 0.206571
0.758519 0.527443 0.209474
0.804649 0.530345 0.212376
0.850779 0.533247 0.215278
0.896908 0.536149 0.218180
0.168548 0.542447 0.181461
0.214678 0.545349 0.184363
0.260808 0.548251 0.187265
0.306937 0.551153 0.190167
0.353067 0.554056 0.193070
0.399197 0.556958 0.195972
0.445326 0.559860 0.198874
0.491456 0.562762 0.201776
0.537586 0.565664 0.204678
0.583716 0.568566 0.207580
0.629845 0.571469 0.210483
0.675975 0.574371 0.213385
0.722105 0.577273 0.216287
0.768235 0.580175 0.219189
0.814364 0.583077 0.222091
0.860494 0.585979 0.224993
0.906624 0.588881 0.227895
0.178264 0.595179 0.191176
0.224393 0.598081 0.194079
0.270523 0.600984 0.196981
0.316653 0.603886 0.199883
0.362783 0.606788 0.202785
0.408912 0.609690 0.205687
0.455042 0.612592 0.208589
0.501172 0.615494 0.211492
0.547301 0.618397 0.214394
0.593431 0.621299 0.217296
0.639561 0.624201 0.220198
0.685691 0.627103 0.223100
0.731820 0.630005 0.226002
0.777950 0.632907 0.228905
0.824080 0.635810 0.231807
0.870210 0.638712 0.234709
0.916339 0.641614 0.237611
0.187979 0.647912 0.200892
0.234109 0.650814 0.203794
0.280239 0.653716 0.206696
0.326368 0.656618 0.209598
0.372498 0.659520 0.212501
0.418628 0.662423 0.215403
0.464757 0.665325 0.218305
0.510887 0.668227 0.221207
0.557017 0.671129 0.224109
0.603147 0.674031 0.227011
0.649276 0.676933 0.229914
0.695406 0.679836 0.232816
0.741536 0.682738 0.235718
0.787666 0.685640 0.238620
0.833795 0.688542 0.241522
0.879925 0.691444 0.244424
0.926055 0.694346 0.247326
0.197695 0.700644 0.210607
0.243824 0.703546 0.213510
0.289954 0.706449 0.216412
0.336084 0.709351 0.219314
0.382213 0.712253 0.222216
0.428343 0.715155 0.225118
0.474473 0.718057 0.228020
0.520603 0.720959 0.230923
0.566732 0.723862 0.233825
0.612862 0.726764 0.236727
0.658992 0.729666 0.239629
0.705122 0.732568 0.242531
0.751251 0.735470 0.245433
0.797381 0.738372 0.248335
0.843511 0.741274 0.251238
0.889641 0.744177 0.254140
0.935770 0.747079 0.257042
0.207410 0.753377 0.220323
0.253540 0.756279 0.223225
0.299669 0.759181 0.226127
0.345799 0.762083 0.229029
0.391929 0.764985 0.231932
0.438059 0.767887 0.234834
0.484188 0.770790 0.237736
0.530318 0.773692 0.240638
0.576448 0.776594 0.243540
0.622578 0.779496 0.246442
0.668707 0.782398 0.249344
0.714837 0.785300 0.252247
0.760967 0.788203 0.255149
0.807097 0.791105 0.258051
0.853226 0.794007 0.260953
0.899356 0.796909 0.263855
0.945486 0.799811 0.266757
0.217125 0.806109 0.230038
0.263255 0.809011 0.232941
0.309385 0.811913 0.235843
0.355515 0.814816 0.238745
0.401644 0.817718 0.241647
0.447774 0.820620 0.244549
0.493904 0.823522 0.247451
0.540034 0.826424 0.250353
0.586163 0.829326 0.253256
0.632293 0.832229 0.256158
0.678423 0.835131 0.259060
0.724553 0.838033 0.261962
0.770682 0.840935 0.264864
0.816812 0.843837 0.267766
0.862942 0.846739 0.270669
0.909072 0.849642 0.273571
0.955201 0.852544 0.276473
0.226841 0.858842 0.239754
0.272971 0.861744 0.242656
0.319100 0.864646 0.245558
0.365230 0.867548 0.248460
0.411360 0.870450 0.251363
0.457490 0.873352 0.254265
0.503619 0.876254 0.257167
0.549749 0.879157 0.260069
0.595879 0.882059 0.262971
0.642009 0.884961 0.265873
0.688138 0.887863 0.268775
0.734268 0.890765 0.271678
0.780398 0.893667 0.274580
0.826528 0.896570 0.277482
0.872657 0.899472 0.280384
0.918787 0.902374 0.283286
0.964917 0.905276 0.286188
0.236556 0.911574 0.249469
0.282686 0.914476 0.252371
0.328816 0.917378 0.255274
0.374946 0.920280 0.258176
0.421075 0.923183 0.261078
0.467205 0.926085 0.263980
0.513335 0.928987 0.266882
0.559465 0.931889 0.269784
0.605594 0.934791 0.272687
0.651724 0.937693 0.275589
0.697854 0.940596 0.278491
0.743984 0.943498 0.281393
0.790113 0.946400 0.284295
0.836243 0.949302 0.287197
0.882373 0.952204 0.290100
0.928503 0.955106 0.293002
0.974632 0.958009 0.295904
0.082089 0.068835 0.138000
0.128219 0.071737 0.140903
0.174348 0.074640 0.143805
0.220478 0.077542 0.146707
0.266608 0.080444 0.149609
0.312738 0.083346 0.152511
0.358867 0.086248 0.155413
0.404997 0.089150 0.158316
0.451127 0.092053 0.161218
0.497257 0.094955 0.164120
0.543386 0.097857 0.167022
0.589516 0.100759 0.169924
0.635646 0.103661 0.172826
0.681776 0.106563 0.175728
0.727905 0.109466 0.178631
0.774035 0.112368 0.181533
0.820165 0.115270 0.184435
0.091804 0.121568 0.147716
0.137934 0.124470 0.150618
0.184064 0.127372 0.153520
0.230194 0.130274 0.156422
0.276323 0.133176 0.159325
0.322453 0.136079 0.162227
0.368583 0.138981 0.165129
0.414713 0.141883 0.168031
0.460842 0.144785 0.170933
0.506972 0.147687 0.173835
0.553102 0.150589 0.176738
0.599232 0.153492 0.179640
0.645361 0.156394 0.182542
0.691491 0.159296 0.185444
0.737621 0.162198 0.188346
0.783751 0.165100 0.191248
0.829880 0.168002 0.194150
0.101520 0.174300 0.157431
0.147650 0.177202 0.160334
0.193779 0.180105 0.163236
0.239909 0.183007 0.166138
0.286039 0.185909 0.169040
0.332169 0.188811 0.171942
0.378298 0.191713 0.174844
0.424428 0.194615 0.177747
0.470558 0.197517 0.180649
0.516688 0.200420 0.183551
0.562817 0.203322 0.186453
0.608947 0.206224 0.189355
0.655077 0.209126 0.192257
0.701207 0.212028 0.195159
0.747336 0.214930 0.198062
0.793466 0.217833 0.200964
0.839596 0.220735 0.203866
0.111235 0.227033 0.167147
0.157365 0.229935 0.170049
0.203495 0.232837 0.172951
0.249625 0.235739 0.175853
0.295754 0.238641 0.178756
0.341884 0.241543 0.181658
0.388014 0.244446 0.184560
0.434144 0.247348 0.187462
0.480273 0.250250 0.190364
0.526403 0.253152 0.193266
0.572533 0.256054 0.196168
0.618663 0.258956 0.199071
0.664792 0.261859 0.201973
0.710922 0.264761 0.204875
0.757052 0.267663 0.207777
0.803182 0.270565 0.210679
0.849311 0.273467 0.213581
0.120951 0.279765 0.176862
0.167081 0.282667 0.179765
0.213210 0.285569 0.182667
0.259340 0.288472 0.185569
0.305470 0.291374 0.188471
0.351600 0.294276 0.191373
0.397729 0.297178 0.194275
0.443859 0.300080 0.197177
0.489989 0.302982 0.200080
0.536119 0.305885 0.202982
0.582248 0.308787 0.205884
0.628378 0.311689 0.208786
0.674508 0.314591 0.211688
0.720638 0.317493 0.214590
0.766767 0.320395 0.217493
0.812897 0.323298 0.220395
0.859027 0.326200 0.223297
0.130666 0.332498 0.186578
0.176796 0.335400 0.189480
0.222926 0.338302 0.192382
0.269056 0.341204 0.195284
0.315185 0.344106 0.198186
0.361315 0.347008 0.201089
0.407445 0.349910 0.203991
0.453575 0.352813 0.206893
0.499704 0.355715 0.209795
0.545834 0.358617 0.212697
0.591964 0.361519 0.215599
0.638094 0.364421 0.218502
0.684223 0.367323 0.221404
0.730353 0.370226 0.224306
0.776483 0.373128 0.227208
0.822613 0.376030 0.230110
0.868742 0.378932 0.233012
0.140382 0.385230 0.196293
0.186512 0.388132 0.199195
0.232641 0.391034 0.202098
0.278771 0.393936 0.205000
0.324901 0.396839 0.207902
0.371031 0.399741 0.210804
0.417160 0.402643 0.213706
0.463290 0.405545 0.216608
0.509420 0.408447 0.219511
0.555550 0.411349 0.222413
0.601679 0.414252 0.225315
0.647809 0.417154 0.228217
0.693939 0.420056 0.231119
0.740069 0.422958 0.234021
0.786198 0.425860 0.236924
0.832328 0.428762 0.239826
0.878458 0.431665 0.242728
0.150097 0.437962 0.206009
0.196227 0.440865 0.208911
0.242357 0.443767 0.211813
0.288487 0.446669 0.214715
0.334616 0.449571 0.217617
0.380746 0.452473 0.220520
0.426876 0.455375 0.223422
0.473006 0.458278 0.226324
0.519135 0.461180 0.229226
0.565265 0.464082 0.232128
0.611395 0.466984 0.235030
0.657525 0.469886 0.237933
0.703654 0.472788 0.240835
0.749784 0.475690 0.243737
0.795914 0.478593 0.246639
0.842044 0.481495 0.249541
0.888173 0.484397 0.252443
0.159813 0.490695 0.215724
0.205943 0.493597 0.218626
0.252072 0.496499 0.221529
0.298202 0.499401 0.224431
0.344332 0.502303 0.227333
0.390462 0.505206 0.230235
0.436591 0.508108 0.233137
0.482721 0.511010 0.236039
0.528851 0.513912 0.238942
0.574981 0.516814 0.241844
0.621110 0.519716 0.244746
0.667240 0.522619 0.247648
0.713370 0.525521 0.250550
0.759500 0.528423 0.253452
0.805629 0.531325 0.256355
0.851759 0.534227 0.259257
0.897889 0.537129 0.262159
0.169528 0.543427 0.225440
0.215658 0.546329 0.228342
0.261788 0.549232 0.231244
0.307918 0.552134 0.234146
0.354047 0.555036 0.237048
0.400177 0.557938 0.239951
0.446307 0.560840 0.242853
0.492437 0.563742 0.245755
0.538566 0.566645 0.248657
0.584696 0.569547 0.251559
0.630826 0.572449 0.254461
0.676956 0.575351 0.257364
0.723085 0.578253 0.260266
0.769215 0.581155 0.263168
0.815345 0.584058 0.266070
0.861475 0.586960 0.268972
0.907604 0.589862 0.271874
0.179244 0.596160 0.235155
0.225374 0.599062 0.238057
0.271503 0.601964 0.240960
0.317633 0.604866 0.243862
0.363763 0.607768 0.246764
0.409893 0.610671 0.249666
0.456022 0.613573 0.252568
0.502152 0.616475 0.255470
0.548282 0.619377 0.258373
0.594412 0.622279 0.261275
0.640541 0.625181 0.264177
0.686671 0.628083 0.267079
0.732801 0.630986 0.269981
0.778931 0.633888 0.272883
0.825060 0.636790 0.275786
0.871190 0.639692 0.278688
0.917320 0.642594 0.281590
0.188959 0.648892 0.244871
0.235089 0.651794 0.247773
0.281219 0.654696 0.250675
0.327349 0.657599 0.253577
0.373478 0.660501 0.256479
0.419608 0.663403 0.259382
0.465738 0.666305 0.262284
0.511868 0.669207 0.265186
0.557997 0.672109 0.268088
0.604127 0.675012 0.270990
0.650257 0.677914 0.273892
0.696387 0.680816 0.276795
0.742516 0.683718 0.279697
0.788646 0.686620 0.282599
0.834776 0.689522 0.285501
0.880906 0.692425 0.288403
0.927035 0.695327 0.291305
0.198675 0.701625 0.254586
0.244805 0.704527 0.257488
0.290934 0.707429 0.260391
0.337064 0.710331 0.263293
0.383194 0.713233 0.266195
0.429324 0.716135 0.269097
0.475453 0.719038 0.271999
0.521583 0.721940 0.274901
0.567713 0.724842 0.277804
0.613843 0.727744 0.280706
0.659972 0.730646 0.283608
0.706102 0.733548 0.286510
0.752232 0.736451 0.289412
0.798362 0.739353 0.292314
0.844491 0.742255 0.295217
0.890621 0.745157 0.298119
0.936751 0.748059 0.301021
0.208390 0.754357 0.264302
0.254520 0.757259 0.267204
0.300650 0.760161 0.270106
0.346780 0.763063 0.273008
0.392909 0.765966 0.275910
0.439039 0.768868 0.278813
0.485169 0.771770 0.281715
0.531299 0.774672 0.284617
0.577428 0.777574 0.287519
0.623558 0.780477 0.290421
0.669688 0.783379 0.293323
0.715818 0.786281 0.296226
0.761947 0.789183 0.299128
0.808077 0.792085 0.302030
0.854207 0.794987 0.304932
0.900337 0.797889 0.307834
0.946466 0.800792 0.310736
0.218106 0.807089 0.274017
0.264236 0.809992 0.276919
0.310365 0.812894 0.279822
0.356495 0.815796 0.282724
0.402625 0.818698 0.285626
0.448755 0.821600 0.288528
0.494884 0.824502 0.291430
0.541014 0.827405 0.294332
0.587144 0.830307 0.297235
0.633274 0.833209 0.300137
0.679403 0.836111 0.303039
0.725533 0.839013 0.305941
0.771663 0.841915 0.308843
0.817793 0.844818 0.311745
0.863922 0.847720 0.314648
0.910052 0.850622 0.317550
0.956182 0.853524 0.320452
0.227821 0.859822 0.283733
0.273951 0.862724 0.286635
0.320081 0.865626 0.289537
0.366211 0.868528 0.292439
0.412340 0.871431 0.295341
0.458470 0.874333 0.298244
0.504600 0.877235 0.301146
0.550730 0.880137 0.304048
0.596859 0.883039 0.306950
0.642989 0.885941 0.309852
0.689119 0.888844 0.312754
0.735249 0.891746 0.315657
0.781378 0.894648 0.318559
0.827508 0.897550 0.321461
0.873638 0.900452 0.324363
0.919767 0.903354 0.327265
0.965897 0.906256 0.330167
0.237537 0.912554 0.293448
0.283667 0.915456 0.296350
0.329796 0.918359 0.299253
0.375926 0.921261 0.302155
0.422056 0.924163 0.305057
0.468186 0.927065 0.307959
0.514315 0.929967 0.310861
0.560445 0.932869 0.313763
0.606575 0.935772 0.316666
0.652705 0.938674 0.319568
0.698834 0.941576 0.322470
0.744964 0.944478 0.325372
0.791094 0.947380 0.328274
0.837224 0.950282 0.331176
0.883353 0.953185 0.334079
0.929483 0.956087 0.336981
0.975613 0.958989 0.339883
0.083069 0.069816 0.181979
0.129199 0.072718 0.184881
0.175329 0.075620 0.187784
0.221459 0.078522 0.190686
0.267588 0.081424 0.193588
0.313718 0.084326 0.196490
0.359848 0.087229 0.199392
0.405978 0.090131 0.202294
0.452107 0.093033 0.205197
0.498237 0.095935 0.208099
0.544367 0.098837 0.211001
0.590497 0.101739 0.213903
0.636626 0.104642 0.216805
0.682756 0.107544 0.219707
0.728886 0.110446 0.222610
0.775015 0.113348 0.225512
0.821145 0.116250 0.228414
0.092785 0.122548 0.191695
0.138915 0.125450 0.194597
0.185044 0.128352 0.197499
