assets/presets/luts/faded-seventies/lut.cube
TITLE "Faded Seventies"
LUT_3D_SIZE 9
0.080128 0.066875 0.050043
0.172388 0.072679 0.055847
0.264647 0.078483 0.061651
0.356907 0.084288 0.067456
0.449166 0.090092 0.073260
0.541426 0.095896 0.079064
0.633685 0.101701 0.084869
0.725945 0.107505 0.090673
0.818204 0.113309 0.096477
0.099559 0.172339 0.069474
0.191819 0.178144 0.075278
0.284078 0.183948 0.081082
0.376338 0.189752 0.086887
0.468597 0.195557 0.092691
0.560857 0.201361 0.098495
0.653116 0.207165 0.104300
0.745376 0.212970 0.110104
0.837635 0.218774 0.115908
0.118990 0.277804 0.088905
0.211250 0.283609 0.094709
0.303509 0.289413 0.100513
0.395769 0.295217 0.106317
0.488028 0.301022 0.112122
0.580288 0.306826 0.117926
0.672547 0.312630 0.123730
0.764807 0.318435 0.129535
0.857066 0.324239 0.135339
0.138421 0.383269 0.108336
0.230681 0.389074 0.114140
0.322940 0.394878 0.119944
0.415200 0.400682 0.125748
0.507459 0.406487 0.131553
0.599719 0.412291 0.137357
0.691978 0.418095 0.143161
0.784238 0.423900 0.148966
0.876497 0.429704 0.154770
0.157852 0.488734 0.127766
0.250112 0.494538 0.133571
0.342371 0.500343 0.139375
0.434631 0.506147 0.145179
0.526890 0.511951 0.150984
0.619150 0.517756 0.156788
0.711409 0.523560 0.162592
0.803669 0.529364 0.168397
0.895928 0.535169 0.174201
0.177283 0.594199 0.147197
0.269543 0.600003 0.153002
0.361802 0.605808 0.158806
0.454062 0.611612 0.164610
0.546321 0.617416 0.170415
0.638581 0.623221 0.176219
0.730840 0.629025 0.182023
0.823100 0.634829 0.187828
0.915359 0.640634 0.193632
0.196714 0.699664 0.166628
0.288974 0.705468 0.172433
0.381233 0.711272 0.178237
0.473493 0.717077 0.184041
0.565752 0.722881 0.189846
0.658012 0.728685 0.195650
0.750271 0.734490 0.201454
0.842531 0.740294 0.207259
0.934790 0.746098 0.213063
0.216145 0.805129 0.186059
0.308405 0.810933 0.191864
0.400664 0.816737 0.197668
0.492924 0.822542 0.203472
0.585183 0.828346 0.209277
0.677443 0.834150 0.215081
0.769702 0.839955 0.220885
0.861962 0.845759 0.226690
0.954221 0.851563 0.232494
0.235576 0.910594 0.205490
0.327836 0.916398 0.211295
0.420095 0.922202 0.217099
0.512355 0.928007 0.222903
0.604614 0.933811 0.228708
0.696874 0.939615 0.234512
0.789133 0.945420 0.240316
0.881393 0.951224 0.246121
0.973652 0.957028 0.251925
0.082089 0.068835 0.138000
0.174348 0.074640 0.143805
0.266608 0.080444 0.149609
0.358867 0.086248 0.155413
0.451127 0.092053 0.161218
0.543386 0.097857 0.167022
0.635646 0.103661 0.172826
0.727905 0.109466 0.178631
0.820165 0.115270 0.184435
0.101520 0.174300 0.157431
0.193779 0.180105 0.163236
0.286039 0.185909 0.169040
0.378298 0.191713 0.174844
0.470558 0.197517 0.180649
0.562817 0.203322 0.186453
0.655077 0.209126 0.192257
0.747336 0.214930 0.198062
0.839596 0.220735 0.203866
0.120951 0.279765 0.176862
0.213210 0.285569 0.182667
0.305470 0.291374 0.188471
0.397729 0.297178 0.194275
0.489989 0.302982 0.200080
0.582248 0.308787 0.205884
0.674508 0.314591 0.211688
0.766767 0.320395 0.217493
0.859027 0.326200 0.223297
0.140382 0.385230 0.196293
0.232641 0.391034 0.202098
0.324901 0.396839 0.207902
0.417160 0.402643 0.213706
0.509420 0.408447 0.219511
0.601679 0.414252 0.225315
0.693939 0.420056 0.231119
0.786198 0.425860 0.236924
0.878458 0.431665 0.242728
0.159813 0.490695 0.215724
0.252072 0.496499 0.221529
0.344332 0.502303 0.227333
0.436591 0.508108 0.233137
0.528851 0.513912 0.238942
0.621110 0.519716 0.244746
0.713370 0.525521 0.250550
0.805629 0.531325 0.256355
0.897889 0.537129 0.262159
0.179244 0.596160 0.235155
0.271503 0.601964 0.240960
0.363763 0.607768 0.246764
0.456022 0.613573 0.252568
0.548282 0.619377 0.258373
0.640541 0.625181 0.264177
0.732801 0.630986 0.269981
0.825060 0.636790 0.275786
0.917320 0.642594 0.281590
0.198675 0.701625 0.254586
0.290934 0.707429 0.260391
0.383194 0.713233 0.266195
0.475453 0.719038 0.271999
0.567713 0.724842 0.277804
0.659972 0.730646 0.283608
0.752232 0.736451 0.289412
0.844491 0.742255 0.295217
0.936751 0.748059 0.301021
0.218106 0.807089 0.274017
0.310365 0.812894 0.279822
0.402625 0.818698 0.285626
0.494884 0.824502 0.291430
0.587144 0.830307 0.297235
0.679403 0.836111 0.303039
0.771663 0.841915 0.308843
0.863922 0.847720 0.314648
0.956182 0.853524 0.320452
0.237537 0.912554 0.293448
0.329796 0.918359 0.299253
0.422056 0.924163 0.305057
0.514315 0.929967 0.310861
0.606575 0.935772 0.316666
0.698834 0.941576 0.322470
0.791094 0.947380 0.328274
0.883353 0.953185 0.334079
0.975613 0.958989 0.339883
0.084050 0.070796 0.225958
0.176309 0.076600 0.231763
0.268569 0.082405 0.237567
0.360828 0.088209 0.243371
0.453088 0.094013 0.249176
0.545347 0.099818 0.254980
0.637607 0.105622 0.260784
0.729866 0.111426 0.266589
0.822126 0.117231 0.272393
0.103481 0.176261 0.245389
0.195740 0.182065 0.251194
0.288000 0.187870 0.256998
0.380259 0.193674 0.262802
0.472519 0.199478 0.268607
0.564778 0.205283 0.274411
0.657038 0.211087 0.280215
0.749297 0.216891 0.286019
0.841557 0.222696 0.291824
0.122912 0.281726 0.264820
0.215171 0.287530 0.270624
0.307431 0.293334 0.276429
0.399690 0.299139 0.282233
0.491950 0.304943 0.288037
0.584209 0.310747 0.293842
0.676469 0.316552 0.299646
0.768728 0.322356 0.305450
0.860988 0.328160 0.311255
0.142343 0.387191 0.284251
0.234602 0.392995 0.290055
0.326862 0.398799 0.295860
0.419121 0.404604 0.301664
0.511381 0.410408 0.307468
0.603640 0.416212 0.313273
0.695900 0.422017 0.319077
0.788159 0.427821 0.324881
0.880419 0.433625 0.330686
0.161774 0.492656 0.303682
0.254033 0.498460 0.309486
0.346293 0.504264 0.315291
0.438552 0.510069 0.321095
0.530812 0.515873 0.326899
0.623071 0.521677 0.332704
0.715331 0.527481 0.338508
0.807590 0.533286 0.344312
0.899850 0.539090 0.350117
0.181205 0.598120 0.323113
0.273464 0.603925 0.328917
0.365724 0.609729 0.334722
0.457983 0.615533 0.340526
0.550243 0.621338 0.346330
0.642502 0.627142 0.352135
0.734762 0.632946 0.357939
0.827021 0.638751 0.363743
0.919281 0.644555 0.369548
0.200636 0.703585 0.342544
0.292895 0.709390 0.348348
0.385155 0.715194 0.354153
0.477414 0.720998 0.359957
0.569674 0.726803 0.365761
0.661933 0.732607 0.371566
0.754193 0.738411 0.377370
0.846452 0.744216 0.383174
0.938712 0.750020 0.388979
0.220067 0.809050 0.361975
0.312326 0.814855 0.367779
0.404586 0.820659 0.373584
0.496845 0.826463 0.379388
0.589105 0.832267 0.385192
0.681364 0.838072 0.390997
0.773624 0.843876 0.396801
0.865883 0.849680 0.402605
0.958142 0.855485 0.408410
0.239498 0.914515 0.381406
0.331757 0.920319 0.387210
0.424017 0.926124 0.393015
0.516276 0.931928 0.398819
0.608536 0.937732 0.404623
0.700795 0.943537 0.410428
0.793055 0.949341 0.416232
0.885314 0.955145 0.422036
0.977573 0.960950 0.427841
0.086010 0.072757 0.313916
0.178270 0.078561 0.319720
0.270529 0.084365 0.325525
0.362789 0.090170 0.331329
0.455048 0.095974 0.337133
0.547308 0.101778 0.342938
0.639567 0.107583 0.348742
0.731827 0.113387 0.354546
0.824086 0.119191 0.360351
0.105441 0.178222 0.333347
0.197701 0.184026 0.339151
0.289960 0.189830 0.344956
0.382220 0.195635 0.350760
0.474479 0.201439 0.356564
0.566739 0.207243 0.362369
0.658998 0.213048 0.368173
0.751258 0.218852 0.373977
0.843517 0.224656 0.379782
0.124872 0.283687 0.352778
0.217132 0.289491 0.358582
0.309391 0.295295 0.364387
0.401651 0.301100 0.370191
0.493910 0.306904 0.375995
0.586170 0.312708 0.381800
0.678429 0.318512 0.387604
0.770689 0.324317 0.393408
0.862948 0.330121 0.399213
0.144303 0.389151 0.372209
0.236563 0.394956 0.378013
0.328822 0.400760 0.383818
0.421082 0.406564 0.389622
0.513341 0.412369 0.395426
0.605601 0.418173 0.401231
0.697860 0.423977 0.407035
0.790120 0.429782 0.412839
0.882379 0.435586 0.418644
0.163734 0.494616 0.391640
0.255994 0.500421 0.397444
0.348253 0.506225 0.403249
0.440513 0.512029 0.409053
0.532772 0.517834 0.414857
0.625032 0.523638 0.420662
0.717291 0.529442 0.426466
0.809551 0.535247 0.432270
0.901810 0.541051 0.438075
0.183165 0.600081 0.411071
0.275425 0.605886 0.416875
0.367684 0.611690 0.422680
0.459944 0.617494 0.428484
0.552203 0.623298 0.434288
0.644463 0.629103 0.440093
0.736722 0.634907 0.445897
0.828982 0.640711 0.451701
0.921241 0.646516 0.457506
0.202596 0.705546 0.430502
0.294856 0.711350 0.436306
0.387115 0.717155 0.442111
0.479375 0.722959 0.447915
0.571634 0.728763 0.453719
0.663894 0.734568 0.459524
0.756153 0.740372 0.465328
0.848413 0.746176 0.471132
0.940672 0.751981 0.476937
0.222027 0.811011 0.449933
0.314287 0.816815 0.455737
0.406546 0.822620 0.461542
0.498806 0.828424 0.467346
0.591065 0.834228 0.473150
0.683325 0.840033 0.478955
0.775584 0.845837 0.484759
0.867844 0.851641 0.490563
0.960103 0.857446 0.496368
0.241458 0.916476 0.469364
0.333718 0.922280 0.475168
0.425977 0.928084 0.480973
0.518237 0.933889 0.486777
0.610496 0.939693 0.492581
0.702756 0.945497 0.498386
0.795015 0.951302 0.504190
0.887275 0.957106 0.509994
0.979534 0.962910 0.515799
0.087971 0.074718 0.401874
0.180231 0.080522 0.407678
0.272490 0.086326 0.413483
0.364750 0.092130 0.419287
0.457009 0.097935 0.425091
0.549269 0.103739 0.430896
0.641528 0.109543 0.436700
0.733788 0.115348 0.442504
0.826047 0.121152 0.448308
0.107402 0.180182 0.421305
0.199662 0.185987 0.427109
0.291921 0.191791 0.432914
0.384181 0.197595 0.438718
0.476440 0.203400 0.444522
0.568700 0.209204 0.450326
0.660959 0.215008 0.456131
0.753219 0.220813 0.461935
0.845478 0.226617 0.467739
0.126833 0.285647 0.440736
0.219093 0.291452 0.446540
0.311352 0.297256 0.452344
0.403612 0.303060 0.458149
0.495871 0.308865 0.463953
0.588131 0.314669 0.469757
0.680390 0.320473 0.475562
0.772650 0.326278 0.481366
0.864909 0.332082 0.487170
0.146264 0.391112 0.460167
0.238524 0.396916 0.465971
0.330783 0.402721 0.471775
0.423043 0.408525 0.477580
0.515302 0.414329 0.483384
0.607562 0.420134 0.489188
0.699821 0.425938 0.494993
0.792081 0.431742 0.500797
0.884340 0.437547 0.506601
0.165695 0.496577 0.479598
0.257955 0.502381 0.485402
0.350214 0.508186 0.491206
0.442474 0.513990 0.497011
0.534733 0.519794 0.502815
0.626993 0.525599 0.508619
0.719252 0.531403 0.514424
0.811512 0.537207 0.520228
0.903771 0.543012 0.526032
0.185126 0.602042 0.499029
0.277386 0.607846 0.504833
0.369645 0.613651 0.510637
0.461905 0.619455 0.516442
0.554164 0.625259 0.522246
0.646424 0.631064 0.528050
0.738683 0.636868 0.533855
0.830943 0.642672 0.539659
0.923202 0.648476 0.545463
0.204557 0.707507 0.518460
0.296817 0.713311 0.524264
0.389076 0.719115 0.530068
0.481336 0.724920 0.535873
0.573595 0.730724 0.541677
0.665855 0.736528 0.547481
0.758114 0.742333 0.553286
0.850374 0.748137 0.559090
0.942633 0.753941 0.564894
0.223988 0.812972 0.537891
0.316248 0.818776 0.543695
0.408507 0.824580 0.549499
0.500767 0.830385 0.555304
0.593026 0.836189 0.561108
0.685286 0.841993 0.566912
0.777545 0.847798 0.572717
0.869804 0.853602 0.578521
0.962064 0.859406 0.584325
0.243419 0.918437 0.557322
0.335679 0.924241 0.563126
0.427938 0.930045 0.568930
0.520198 0.935849 0.574735
0.612457 0.941654 0.580539
0.704716 0.947458 0.586343
0.796976 0.953263 0.592148
0.889235 0.959067 0.597952
0.981495 0.964871 0.603756
0.089932 0.076678 0.489832
0.182191 0.082483 0.495636
0.274451 0.088287 0.501440
0.366710 0.094091 0.507245
0.458970 0.099896 0.513049
0.551229 0.105700 0.518853
0.643489 0.111504 0.524658
0.735748 0.117309 0.530462
0.828008 0.123113 0.536266
0.109363 0.182143 0.509263
0.201622 0.187947 0.515067
0.293882 0.193752 0.520871
0.386141 0.199556 0.526676
0.478401 0.205360 0.532480
0.570660 0.211165 0.538284
0.662920 0.216969 0.544089
0.755179 0.222773 0.549893
0.847439 0.228578 0.555697
0.128794 0.287608 0.528694
0.221053 0.293412 0.534498
0.313313 0.299217 0.540302
0.405572 0.305021 0.546107
0.497832 0.310825 0.551911
0.590091 0.316630 0.557715
0.682351 0.322434 0.563520
0.774610 0.328238 0.569324
0.866870 0.334043 0.575128
0.148225 0.393073 0.548125
0.240484 0.398877 0.553929
0.332744 0.404682 0.559733
0.425003 0.410486 0.565538
0.517263 0.416290 0.571342
0.609522 0.422094 0.577146
0.701782 0.427899 0.582951
0.794041 0.433703 0.588755
0.886301 0.439507 0.594559
0.167656 0.498538 0.567556
0.259915 0.504342 0.573360
0.352175 0.510146 0.579164
0.444434 0.515951 0.584969
0.536694 0.521755 0.590773
0.628953 0.527559 0.596577
0.721213 0.533364 0.602382
0.813472 0.539168 0.608186
0.905732 0.544972 0.613990
0.187087 0.604003 0.586987
0.279346 0.609807 0.592791
0.371606 0.615611 0.598595
0.463865 0.621416 0.604400
0.556125 0.627220 0.610204
0.648384 0.633024 0.616008
0.740644 0.638829 0.621813
0.832903 0.644633 0.627617
0.925163 0.650437 0.633421
0.206518 0.709468 0.606418
0.298777 0.715272 0.612222
0.391037 0.721076 0.618026
0.483296 0.726880 0.623831
0.575556 0.732685 0.629635
0.667815 0.738489 0.635439
0.760075 0.744293 0.641244
0.852334 0.750098 0.647048
0.944594 0.755902 0.652852
0.225949 0.814932 0.625849
0.318208 0.820737 0.631653
0.410468 0.826541 0.637457
0.502727 0.832345 0.643262
0.594987 0.838150 0.649066
0.687246 0.843954 0.654870
0.779506 0.849758 0.660675
0.871765 0.855563 0.666479
0.964025 0.861367 0.672283
0.245380 0.920397 0.645280
0.337639 0.926202 0.651084
0.429899 0.932006 0.656888
0.522158 0.937810 0.662693
0.614418 0.943615 0.668497
0.706677 0.949419 0.674301
0.798937 0.955223 0.680106
0.891196 0.961028 0.685910
0.983456 0.966832 0.691714
0.091893 0.078639 0.577790
0.184152 0.084443 0.583594
0.276412 0.090248 0.589398
0.368671 0.096052 0.595203
0.460931 0.101856 0.601007
0.553190 0.107661 0.606811
0.645450 0.113465 0.612615
0.737709 0.119269 0.618420
0.829969 0.125074 0.624224
0.111324 0.184104 0.597220
0.203583 0.189908 0.603025
0.295843 0.195713 0.608829
0.388102 0.201517 0.614634
0.480362 0.207321 0.620438
0.572621 0.213125 0.626242
0.664881 0.218930 0.632046
0.757140 0.224734 0.637851
0.849400 0.230538 0.643655
0.130755 0.289569 0.616651
0.223014 0.295373 0.622456
0.315274 0.301177 0.628260
0.407533 0.306982 0.634064
0.499793 0.312786 0.639869
0.592052 0.318590 0.645673
0.684312 0.324395 0.651477
0.776571 0.330199 0.657282
0.868831 0.336003 0.663086
0.150186 0.395034 0.636082
0.242445 0.400838 0.641887
0.334705 0.406642 0.647691
0.426964 0.412447 0.653495
0.519224 0.418251 0.659300
0.611483 0.424055 0.665104
0.703743 0.429860 0.670908
0.796002 0.435664 0.676713
0.888261 0.441468 0.682517
0.169617 0.500498 0.655513
0.261876 0.506303 0.661318
0.354136 0.512107 0.667122
0.446395 0.517911 0.672926
0.538655 0.523716 0.678731
0.630914 0.529520 0.684535
0.723173 0.535324 0.690339
0.815433 0.541129 0.696144
0.907692 0.546933 0.701948
0.189048 0.605963 0.674944
0.281307 0.611768 0.680749
0.373567 0.617572 0.686553
0.465826 0.623376 0.692357
0.558086 0.629181 0.698162
0.650345 0.634985 0.703966
0.742604 0.640789 0.709770
0.834864 0.646594 0.715575
0.927123 0.652398 0.721379
0.208479 0.711428 0.694375
0.300738 0.717233 0.700180
0.392998 0.723037 0.705984
0.485257 0.728841 0.711788
0.577516 0.734646 0.717593
0.669776 0.740450 0.723397
0.762035 0.746254 0.729201
0.854295 0.752059 0.735006
0.946554 0.757863 0.740810
0.227910 0.816893 0.713806
0.320169 0.822697 0.719611
0.412428 0.828502 0.725415
0.504688 0.834306 0.731219
0.596947 0.840110 0.737024
0.689207 0.845915 0.742828
0.781466 0.851719 0.748632
0.873726 0.857523 0.754437
0.965985 0.863328 0.760241
0.247341 0.922358 0.733237
0.339600 0.928162 0.739042
0.431859 0.933967 0.744846
0.524119 0.939771 0.750650
0.616378 0.945575 0.756455
0.708638 0.951380 0.762259
0.800897 0.957184 0.768063
0.893157 0.962988 0.773868
0.985416 0.968793 0.779672
0.093853 0.080600 0.665747
0.186113 0.086404 0.671552
0.278372 0.092208 0.677356
0.370632 0.098013 0.683160
0.462891 0.103817 0.688965
0.555151 0.109621 0.694769
0.647410 0.115426 0.700573
0.739670 0.121230 0.706378
0.831929 0.127034 0.712182
0.113284 0.186065 0.685178
0.205544 0.191869 0.690983
0.297803 0.197673 0.696787
0.390063 0.203478 0.702591
0.482322 0.209282 0.708396
0.574582 0.215086 0.714200
0.666841 0.220891 0.720004
0.759101 0.226695 0.725809
0.851360 0.232499 0.731613
0.132715 0.291529 0.704609
0.224975 0.297334 0.710414
0.317234 0.303138 0.716218
0.409494 0.308942 0.722022
0.501753 0.314747 0.727827
0.594013 0.320551 0.733631
0.686272 0.326355 0.739435
0.778532 0.332160 0.745240
0.870791 0.337964 0.751044
0.152146 0.396994 0.724040
0.244406 0.402799 0.729845
0.336665 0.408603 0.735649
0.428925 0.414407 0.741453
0.521184 0.420212 0.747258
0.613444 0.426016 0.753062
0.705703 0.431820 0.758866
0.797963 0.437625 0.764671
0.890222 0.443429 0.770475
0.171577 0.502459 0.743471
0.263837 0.508264 0.749276
0.356096 0.514068 0.755080
0.448356 0.519872 0.760884
0.540615 0.525677 0.766689
0.632875 0.531481 0.772493
0.725134 0.537285 0.778297
0.817394 0.543090 0.784102
0.909653 0.548894 0.789906
0.191008 0.607924 0.762902
0.283268 0.613728 0.768707
0.375527 0.619533 0.774511
0.467787 0.625337 0.780315
0.560046 0.631141 0.786120
0.652306 0.636946 0.791924
0.744565 0.642750 0.797728
0.836825 0.648554 0.803533
0.929084 0.654359 0.809337
0.210439 0.713389 0.782333
0.302699 0.719193 0.788138
0.394958 0.724998 0.793942
0.487218 0.730802 0.799746
0.579477 0.736606 0.805551
0.671737 0.742411 0.811355
0.763996 0.748215 0.817159
0.856256 0.754019 0.822964
0.948515 0.759824 0.828768
0.229870 0.818854 0.801764
0.322130 0.824658 0.807569
0.414389 0.830463 0.813373
0.506649 0.836267 0.819177
0.598908 0.842071 0.824982
0.691168 0.847875 0.830786
0.783427 0.853680 0.836590
0.875687 0.859484 0.842395
0.967946 0.865288 0.848199
0.249301 0.924319 0.821195
0.341561 0.930123 0.827000
0.433820 0.935927 0.832804
0.526080 0.941732 0.838608
0.618339 0.947536 0.844413
0.710599 0.953340 0.850217
0.802858 0.959145 0.856021
0.895118 0.964949 0.861825
0.987377 0.970753 0.867630
0.095814 0.082560 0.753705
0.188074 0.088365 0.759510
0.280333 0.094169 0.765314
0.372593 0.099973 0.771118
0.464852 0.105778 0.776922
0.557112 0.111582 0.782727
0.649371 0.117386 0.788531
0.741631 0.123191 0.794335
0.833890 0.128995 0.800140
0.115245 0.188025 0.773136
0.207505 0.193830 0.778940
0.299764 0.199634 0.784745
0.392024 0.205438 0.790549
0.484283 0.211243 0.796353
0.576543 0.217047 0.802158
0.668802 0.222851 0.807962
0.761061 0.228656 0.813766
0.853321 0.234460 0.819571
0.134676 0.293490 0.792567
0.226936 0.299295 0.798371
0.319195 0.305099 0.804176
0.411455 0.310903 0.809980
0.503714 0.316707 0.815784
0.595973 0.322512 0.821589
0.688233 0.328316 0.827393
0.780492 0.334120 0.833197
0.872752 0.339925 0.839002
0.154107 0.398955 0.811998
0.246367 0.404759 0.817802
0.338626 0.410564 0.823607
0.430886 0.416368 0.829411
0.523145 0.422172 0.835215
0.615404 0.427977 0.841020
0.707664 0.433781 0.846824
0.799923 0.439585 0.852628
0.892183 0.445390 0.858433
0.173538 0.504420 0.831429
0.265798 0.510224 0.837233
0.358057 0.516029 0.843038
0.450317 0.521833 0.848842
0.542576 0.527637 0.854646
0.634835 0.533442 0.860451
0.727095 0.539246 0.866255
0.819354 0.545050 0.872059
0.911614 0.550855 0.877864
0.192969 0.609885 0.850860
0.285229 0.615689 0.856664
0.377488 0.621493 0.862469
0.469747 0.627298 0.868273
0.562007 0.633102 0.874077
0.654266 0.638906 0.879882
0.746526 0.644711 0.885686
0.838785 0.650515 0.891490
0.931045 0.656319 0.897295
0.212400 0.715350 0.870291
0.304659 0.721154 0.876095
0.396919 0.726958 0.881900
0.489178 0.732763 0.887704
0.581438 0.738567 0.893508
0.673697 0.744371 0.899313
0.765957 0.750176 0.905117
0.858216 0.755980 0.910921
0.950476 0.761784 0.916726
0.231831 0.820815 0.889722
0.324090 0.826619 0.895526
0.416350 0.832423 0.901331
0.508609 0.838228 0.907135
0.600869 0.844032 0.912939
0.693128 0.849836 0.918744
0.785388 0.855641 0.924548
0.877647 0.861445 0.930352
0.969907 0.867249 0.936157
0.251262 0.926279 0.909153
0.343521 0.932084 0.914957
0.435781 0.937888 0.920762
0.528040 0.943692 0.926566
0.620300 0.949497 0.932370
0.712559 0.955301 0.938175
0.804819 0.961105 0.943979
0.897078 0.966910 0.949783
0.989338 0.972714 0.955588
