assets/presets/luts/mono-infrared/lut.cube
TITLE "Mono Infrared"
LUT_3D_SIZE 5
0.000000 0.000000 0.000000
0.008935 0.008935 0.008935
0.047540 0.047540 0.047540
0.134257 0.134257 0.134257
0.281460 0.281460 0.281460
0.077662 0.077662 0.077662
0.215434 0.215434 0.215434
0.343498 0.343498 0.343498
0.527029 0.527029 0.527029
0.716475 0.716475 0.716475
0.447654 0.447654 0.447654
0.740540 0.740540 0.740540
0.873420 0.873420 0.873420
0.941467 0.941467 0.941467
0.991218 0.991218 0.991218
0.882977 0.882977 0.882977
0.997357 0.997357 0.997357
1.000000 1.000000 1.000000
1.000000 1.000000 1.000000
1.000000 1.000000 1.000000
1.000000 1.000000 1.000000
1.000000 1.000000 1.000000
1.000000 1.000000 1.000000
1.000000 1.000000 1.000000
1.000000 1.000000 1.000000
0.000032 0.000032 0.000032
0.008504 0.008504 0.008504
0.041584 0.041584 0.041584
0.119361 0.119361 0.119361
0.256389 0.256389 0.256389
0.049782 0.049782 0.049782
0.090520 0.090520 0.090520
0.256789 0.256789 0.256789
0.448264 0.448264 0.448264
0.654718 0.654718 0.654718
0.384894 0.384894 0.384894
0.745006 0.745006 0.745006
0.886694 0.886694 0.886694
0.919344 0.919344 0.919344
0.976099 0.976099 0.976099
0.849559 0.849559 0.849559
0.995222 0.995222 0.995222
1.000000 1.000000 1.000000
1.000000 1.000000 1.000000
1.000000 1.000000 1.000000
1.000000 1.000000 1.000000
1.000000 1.000000 1.000000
1.000000 1.000000 1.000000
1.000000 1.000000 1.000000
1.000000 1.000000 1.000000
0.000143 0.000143 0.000143
0.010152 0.010152 0.010152
0.045075 0.045075 0.045075
0.118555 0.118555 0.118555
0.245825 0.245825 0.245825
0.039959 0.039959 0.039959
0.097690 0.097690 0.097690
0.208472 0.208472 0.208472
0.374130 0.374130 0.374130
0.587045 0.587045 0.587045
0.294683 0.294683 0.294683
0.513881 0.513881 0.513881
0.510000 0.510000 0.510000
0.806136 0.806136 0.806136
0.928169 0.928169 0.928169
0.787618 0.787618 0.787618
0.961050 0.961050 0.961050
1.000000 1.000000 1.000000
1.000000 1.000000 1.000000
1.000000 1.000000 1.000000
1.000000 1.000000 1.000000
1.000000 1.000000 1.000000
1.000000 1.000000 1.000000
1.000000 1.000000 1.000000
1.000000 1.000000 1.000000
0.000344 0.000344 0.000344
0.011982 0.011982 0.011982
0.049670 0.049670 0.049670
0.127049 0.127049 0.127049
0.253667 0.253667 0.253667
0.040992 0.040992 0.040992
0.105214 0.105214 0.105214
0.220325 0.220325 0.220325
0.382395 0.382395 0.382395
0.569257 0.569257 0.569257
0.247236 0.247236 0.247236
0.397446 0.397446 0.397446
0.526214 0.526214 0.526214
0.707148 0.707148 0.707148
0.859247 0.859247 0.859247
0.703380 0.703380 0.703380
0.874183 0.874183 0.874183
0.972456 0.972456 0.972456
0.929480 0.929480 0.929480
1.000000 1.000000 1.000000
0.989675 0.989675 0.989675
1.000000 1.000000 1.000000
1.000000 1.000000 1.000000
1.000000 1.000000 1.000000
1.000000 1.000000 1.000000
0.000642 0.000642 0.000642
0.014001 0.014001 0.014001
0.054559 0.054559 0.054559
0.135913 0.135913 0.135913
0.266798 0.266798 0.266798
0.044047 0.044047 0.044047
0.113097 0.113097 0.113097
0.232536 0.232536 0.232536
0.397913 0.397913 0.397913
0.585255 0.585255 0.585255
0.235986 0.235986 0.235986
0.383474 0.383474 0.383474
0.542402 0.542402 0.542402
0.721316 0.721316 0.721316
0.861946 0.861946 0.861946
0.640278 0.640278 0.640278
0.797285 0.797285 0.797285
0.891221 0.891221 0.891221
0.936302 0.936302 0.936302
0.992748 0.992748 0.992748
0.962507 0.962507 0.962507
1.000000 1.000000 1.000000
1.000000 1.000000 1.000000
1.000000 1.000000 1.000000
1.000000 1.000000 1.000000
