assets/presets/luts/mono-infrared/lut.cube
TITLE "Mono Infrared"
LUT_3D_SIZE 17
0.000000 0.000000 0.000000
0.000394 0.000394 0.000394
0.001853 0.001853 0.001853
0.004610 0.004610 0.004610
0.008935 0.008935 0.008935
0.015100 0.015100 0.015100
0.023389 0.023389 0.023389
0.034101 0.034101 0.034101
0.047540 0.047540 0.047540
0.064007 0.064007 0.064007
0.083788 0.083788 0.083788
0.107137 0.107137 0.107137
0.134257 0.134257 0.134257
0.165277 0.165277 0.165277
0.200230 0.200230 0.200230
0.239031 0.239031 0.239031
0.281460 0.281460 0.281460
0.002594 0.002594 0.002594
0.006413 0.006413 0.006413
0.010786 0.010786 0.010786
0.016836 0.016836 0.016836
0.025151 0.025151 0.025151
0.035953 0.035953 0.035953
0.049519 0.049519 0.049519
0.066136 0.066136 0.066136
0.086084 0.086084 0.086084
0.109608 0.109608 0.109608
0.136907 0.136907 0.136907
0.168102 0.168102 0.168102
0.203219 0.203219 0.203219
0.242167 0.242167 0.242167
0.284717 0.284717 0.284717
0.330496 0.330496 0.330496
0.378987 0.378987 0.378987
0.014076 0.014076 0.014076
0.026501 0.026501 0.026501
0.036584 0.036584 0.036584
0.045588 0.045588 0.045588
0.058248 0.058248 0.058248
0.074451 0.074451 0.074451
0.094241 0.094241 0.094241
0.117748 0.117748 0.117748
0.145101 0.145101 0.145101
0.176380 0.176380 0.176380
0.211578 0.211578 0.211578
0.250579 0.250579 0.250579
0.293133 0.293133 0.293133
0.338854 0.338854 0.338854
0.387210 0.387210 0.387210
0.437547 0.437547 0.437547
0.489104 0.489104 0.489104
0.037593 0.037593 0.037593
0.060892 0.060892 0.060892
0.084253 0.084253 0.084253
0.102237 0.102237 0.102237
0.118572 0.118572 0.118572
0.139723 0.139723 0.139723
0.165522 0.165522 0.165522
0.195720 0.195720 0.195720
0.230100 0.230100 0.230100
0.268410 0.268410 0.268410
0.310314 0.310314 0.310314
0.355366 0.355366 0.355366
0.402999 0.402999 0.402999
0.452535 0.452535 0.452535
0.503210 0.503210 0.503210
0.554203 0.554203 0.554203
0.604683 0.604683 0.604683
0.077662 0.077662 0.077662
0.114493 0.114493 0.114493
0.153422 0.153422 0.153422
0.188418 0.188418 0.188418
0.215434 0.215434 0.215434
0.240037 0.240037 0.240037
0.269860 0.269860 0.269860
0.304564 0.304564 0.304564
0.343498 0.343498 0.343498
0.385967 0.385967 0.385967
0.431238 0.431238 0.431238
0.478534 0.478534 0.478534
0.527029 0.527029 0.527029
0.575879 0.575879 0.575879
0.624250 0.624250 0.624250
0.671351 0.671351 0.671351
0.716475 0.716475 0.716475
0.138230 0.138230 0.138230
0.190420 0.190420 0.190420
0.245629 0.245629 0.245629
0.297502 0.297502 0.297502
0.341716 0.341716 0.341716
0.375815 0.375815 0.375815
0.406545 0.406545 0.406545
0.441667 0.441667 0.441667
0.480598 0.480598 0.480598
0.522354 0.522354 0.522354
0.565912 0.565912 0.565912
0.610285 0.610285 0.610285
0.654549 0.654549 0.654549
0.697868 0.697868 0.697868
0.739511 0.739511 0.739511
0.778868 0.778868 0.778868
0.815465 0.815465 0.815465
0.221596 0.221596 0.221596
0.288926 0.288926 0.288926
0.358354 0.358354 0.358354
0.423517 0.423517 0.423517
0.480295 0.480295 0.480295
0.526655 0.526655 0.526655
0.562080 0.562080 0.562080
0.593414 0.593414 0.593414
0.627344 0.627344 0.627344
0.663197 0.663197 0.663197
0.699976 0.699976 0.699976
0.736713 0.736713 0.736713
0.772559 0.772559 0.772559
0.806813 0.806813 0.806813
0.838929 0.838929 0.838929
0.868511 0.868511 0.868511
0.895300 0.895300 0.895300
0.326666 0.326666 0.326666
0.405834 0.405834 0.405834
0.484147 0.484147 0.484147
0.555866 0.555866 0.555866
0.617540 0.617540 0.617540
0.668142 0.668142 0.668142
0.707939 0.707939 0.707939
0.737942 0.737942 0.737942
0.763905 0.763905 0.763905
0.790701 0.790701 0.790701
0.817793 0.817793 0.817793
0.844464 0.844464 0.844464
0.870064 0.870064 0.870064
0.894076 0.894076 0.894076
0.916129 0.916129 0.916129
0.935984 0.935984 0.935984
0.953518 0.953518 0.953518
0.447654 0.447654 0.447654
0.532263 0.532263 0.532263
0.611825 0.611825 0.611825
0.681981 0.681981 0.681981
0.740540 0.740540 0.740540
0.787662 0.787662 0.787662
0.824496 0.824496 0.824496
0.852565 0.852565 0.852565
0.873420 0.873420 0.873420
0.891068 0.891068 0.891068
0.908514 0.908514 0.908514
0.925445 0.925445 0.925445
0.941467 0.941467 0.941467
0.956245 0.956245 0.956245
0.969544 0.969544 0.969544
0.981220 0.981220 0.981220
0.991218 0.991218 0.991218
0.574467 0.574467 0.574467
0.656524 0.656524 0.656524
0.729590 0.729590 0.729590
0.791216 0.791216 0.791216
0.840776 0.840776 0.840776
0.879419 0.879419 0.879419
0.908909 0.908909 0.908909
0.931036 0.931036 0.931036
0.947402 0.947402 0.947402
0.959337 0.959337 0.959337
0.969169 0.969169 0.969169
0.978459 0.978459 0.978459
0.987059 0.987059 0.987059
0.994797 0.994797 0.994797
1.000000 1.000000 1.000000
1.000000 1.000000 1.000000
1.000000 1.000000 1.000000
0.695260 0.695260 0.695260
0.767588 0.767588 0.767588
0.828549 0.828549 0.828549
0.877588 0.877588 0.877588
0.915424 0.915424 0.915424
0.943766 0.943766 0.943766
0.964587 0.964587 0.964587
0.979650 0.979650 0.979650
0.990411 0.990411 0.990411
0.998017 0.998017 0.998017
1.000000 1.000000 1.000000
1.000000 1.000000 1.000000
1.000000 1.000000 1.000000
1.000000 1.000000 1.000000
1.000000 1.000000 1.000000
1.000000 1.000000 1.000000
1.000000 1.000000 1.000000
0.799998 0.799998 0.799998
0.858166 0.858166 0.858166
0.904599 0.904599 0.904599
0.940118 0.940118 0.940118
0.966224 0.966224 0.966224
0.984765 0.984765 0.984765
0.997589 0.997589 0.997589
1.000000 1.000000 1.000000
1.000000 1.000000 1.000000
1.000000 1.000000 1.000000
1.000000 1.000000 1.000000
1.000000 1.000000 1.000000
1.000000 1.000000 1.000000
1.000000 1.000000 1.000000
1.000000 1.000000 1.000000
1.000000 1.000000 1.000000
1.000000 1.000000 1.000000
0.882977 0.882977 0.882977
0.925789 0.925789 0.925789
0.958076 0.958076 0.958076
0.981355 0.981355 0.981355
0.997357 0.997357 0.997357
1.000000 1.000000 1.000000
1.000000 1.000000 1.000000
1.000000 1.000000 1.000000
1.000000 1.000000 1.000000
1.000000 1.000000 1.000000
1.000000 1.000000 1.000000
1.000000 1.000000 1.000000
1.000000 1.000000 1.000000
1.000000 1.000000 1.000000
1.000000 1.000000 1.000000
1.000000 1.000000 1.000000
1.000000 1.000000 1.000000
0.943174 0.943174 0.943174
0.971901 0.971901 0.971901
0.992122 0.992122 0.992122
1.000000 1.000000 1.000000
1.000000 1.000000 1.000000
1.000000 1.000000 1.000000
1.000000 1.000000 1.000000
1.000000 1.000000 1.000000
1.000000 1.000000 1.000000
1.000000 1.000000 1.000000
1.000000 1.000000 1.000000
1.000000 1.000000 1.000000
1.000000 1.000000 1.000000
1.000000 1.000000 1.000000
1.000000 1.000000 1.000000
1.000000 1.000000 1.000000
1.000000 1.000000 1.000000
0.982929 0.982929 0.982929
1.000000 1.000000 1.000000
1.000000 1.000000 1.000000
1.000000 1.000000 1.000000
1.000000 1.000000 1.000000
1.000000 1.000000 1.000000
1.000000 1.000000 1.000000
1.000000 1.000000 1.000000
1.000000 1.000000 1.000000
1.000000 1.000000 1.000000
1.000000 1.000000 1.000000
1.000000 1.000000 1.000000
1.000000 1.000000 1.000000
1.000000 1.000000 1.000000
1.000000 1.000000 1.000000
1.000000 1.000000 1.000000
1.000000 1.000000 1.000000
1.000000 1.000000 1.000000
1.000000 1.000000 1.000000
1.000000 1.000000 1.000000
1.000000 1.000000 1.000000
1.000000 1.000000 1.000000
1.000000 1.000000 1.000000
1.000000 1.000000 1.000000
1.000000 1.000000 1.000000
1.000000 1.000000 1.000000
1.000000 1.000000 1.000000
1.000000 1.000000 1.000000
1.000000 1.000000 1.000000
1.000000 1.000000 1.000000
1.000000 1.000000 1.000000
1.000000 1.000000 1.000000
1.000000 1.000000 1.000000
1.000000 1.000000 1.000000
1.000000 1.000000 1.000000
1.000000 1.000000 1.000000
1.000000 1.000000 1.000000
1.000000 1.000000 1.000000
1.000000 1.000000 1.000000
1.000000 1.000000 1.000000
1.000000 1.000000 1.000000
1.000000 1.000000 1.000000
1.000000 1.000000 1.000000
1.000000 1.000000 1.000000
1.000000 1.000000 1.000000
1.000000 1.000000 1.000000
1.000000 1.000000 1.000000
1.000000 1.000000 1.000000
1.000000 1.000000 1.000000
1.000000 1.000000 1.000000
1.000000 1.000000 1.000000
0.000002 0.000002 0.000002
0.000386 0.000386 0.000386
0.001645 0.001645 0.001645
0.004159 0.004159 0.004159
0.008199 0.008199 0.008199
0.014033 0.014033 0.014033
0.021942 0.021942 0.021942
0.032222 0.032222 0.032222
0.045176 0.045176 0.045176
0.061106 0.061106 0.061106
0.080302 0.080302 0.080302
0.103025 0.103025 0.103025
0.129487 0.129487 0.129487
0.159832 0.159832 0.159832
0.194110 0.194110 0.194110
0.232258 0.232258 0.232258
0.274081 0.274081 0.274081
0.001837 0.001837 0.001837
0.003265 0.003265 0.003265
0.007983 0.007983 0.007983
0.014096 0.014096 0.014096
0.022064 0.022064 0.022064
0.032411 0.032411 0.032411
0.045442 0.045442 0.045442
0.061458 0.061458 0.061458
0.080749 0.080749 0.080749
0.103575 0.103575 0.103575
0.130146 0.130146 0.130146
0.160604 0.160604 0.160604
0.194997 0.194997 0.194997
0.233259 0.233259 0.233259
0.275189 0.275189 0.275189
0.320443 0.320443 0.320443
0.368528 0.368528 0.368528
0.012060 0.012060 0.012060
0.024114 0.024114 0.024114
0.034569 0.034569 0.034569
0.042100 0.042100 0.042100
0.053225 0.053225 0.053225
0.068491 0.068491 0.068491
0.087474 0.087474 0.087474
0.110198 0.110198 0.110198
0.136772 0.136772 0.136772
0.167283 0.167283 0.167283
0.201743 0.201743 0.201743
0.240060 0.240060 0.240060
0.282014 0.282014 0.282014
0.327245 0.327245 0.327245
0.375250 0.375250 0.375250
0.425395 0.425395 0.425395
0.476934 0.476934 0.476934
0.034296 0.034296 0.034296
0.059917 0.059917 0.059917
0.090155 0.090155 0.090155
0.104984 0.104984 0.104984
0.114942 0.114942 0.114942
0.132991 0.132991 0.132991
0.156942 0.156942 0.156942
0.185822 0.185822 0.185822
0.219164 0.219164 0.219164
0.256627 0.256627 0.256627
0.297852 0.297852 0.297852
0.342393 0.342393 0.342393
0.389693 0.389693 0.389693
0.439088 0.439088 0.439088
0.489818 0.489818 0.489818
0.541062 0.541062 0.541062
0.591979 0.591979 0.591979
0.072819 0.072819 0.072819
0.112150 0.112150 0.112150
0.159340 0.159340 0.159340
0.197885 0.197885 0.197885
0.219740 0.219740 0.219740
0.236924 0.236924 0.236924
0.262422 0.262422 0.262422
0.294490 0.294490 0.294490
0.331726 0.331726 0.331726
0.373087 0.373087 0.373087
0.417679 0.417679 0.417679
0.464637 0.464637 0.464637
0.513091 0.513091 0.513091
0.562161 0.562161 0.562161
0.610977 0.610977 0.610977
0.658718 0.658718 0.658718
0.704636 0.704636 0.704636
0.131641 0.131641 0.131641
0.186596 0.186596 0.186596
0.250290 0.250290 0.250290
0.308748 0.308748 0.308748
0.353401 0.353401 0.353401
0.381354 0.381354 0.381354
0.404532 0.404532 0.404532
0.434890 0.434890 0.434890
0.470910 0.470910 0.470910
0.510946 0.510946 0.510946
0.553586 0.553586 0.553586
0.597615 0.597615 0.597615
0.641961 0.641961 0.641961
0.685682 0.685682 0.685682
0.727967 0.727967 0.727967
0.768137 0.768137 0.768137
0.805660 0.805660 0.805660
0.213265 0.213265 0.213265
0.283679 0.283679 0.283679
0.361307 0.361307 0.361307
0.433903 0.433903 0.433903
0.493782 0.493782 0.493782
0.538413 0.538413 0.538413
0.567870 0.567870 0.567870
0.592659 0.592659 0.592659
0.622338 0.622338 0.622338
0.655627 0.655627 0.655627
0.691003 0.691003 0.691003
0.727133 0.727133 0.727133
0.762923 0.762923 0.762923
0.797500 0.797500 0.797500
0.830192 0.830192 0.830192
0.860509 0.860509 0.860509
0.888123 0.888123 0.888123
0.316924 0.316924 0.316924
0.399500 0.399500 0.399500
0.485397 0.485397 0.485397
0.564037 0.564037 0.564037
0.629512 0.629512 0.629512
0.680401 0.680401 0.680401
0.717605 0.717605 0.717605
0.742842 0.742842 0.742842
0.764044 0.764044 0.764044
0.787726 0.787726 0.787726
0.812970 0.812970 0.812970
0.838692 0.838692 0.838692
0.863958 0.863958 0.863958
0.888048 0.888048 0.888048
0.910445 0.910445 0.910445
0.930806 0.930806 0.930806
0.948935 0.948935 0.948935
0.437194 0.437194 0.437194
0.525445 0.525445 0.525445
0.611690 0.611690 0.611690
0.687568 0.687568 0.687568
0.749579 0.749579 0.749579
0.797572 0.797572 0.797572
0.833367 0.833367 0.833367
0.859112 0.859112 0.859112
0.876811 0.876811 0.876811
0.891544 0.891544 0.891544
0.907093 0.907093 0.907093
0.922921 0.922921 0.922921
0.938409 0.938409 0.938409
0.953043 0.953043 0.953043
0.966451 0.966451 0.966451
0.978395 0.978395 0.978395
0.988749 0.988749 0.988749
0.564212 0.564212 0.564212
0.649934 0.649934 0.649934
0.728573 0.728573 0.728573
0.794561 0.794561 0.794561
0.846791 0.846791 0.846791
0.886263 0.886263 0.886263
0.915318 0.915318 0.915318
0.936270 0.936270 0.936270
0.951073 0.951073 0.951073
0.961262 0.961262 0.961262
0.969595 0.969595 0.969595
0.977929 0.977929 0.977929
0.985998 0.985998 0.985998
0.993509 0.993509 0.993509
1.000000 1.000000 1.000000
1.000000 1.000000 1.000000
1.000000 1.000000 1.000000
0.686093 0.686093 0.686093
0.761833 0.761833 0.761833
0.827169 0.827169 0.827169
0.879332 0.879332 0.879332
0.919000 0.919000 0.919000
0.947932 0.947932 0.947932
0.968521 0.968521 0.968521
0.982929 0.982929 0.982929
0.992870 0.992870 0.992870
0.999639 0.999639 0.999639
1.000000 1.000000 1.000000
1.000000 1.000000 1.000000
1.000000 1.000000 1.000000
1.000000 1.000000 1.000000
1.000000 1.000000 1.000000
1.000000 1.000000 1.000000
1.000000 1.000000 1.000000
0.792509 0.792509 0.792509
0.853596 0.853596 0.853596
0.903252 0.903252 0.903252
0.940877 0.940877 0.940877
0.968116 0.968116 0.968116
0.986995 0.986995 0.986995
0.999636 0.999636 0.999636
1.000000 1.000000 1.000000
1.000000 1.000000 1.000000
1.000000 1.000000 1.000000
1.000000 1.000000 1.000000
1.000000 1.000000 1.000000
1.000000 1.000000 1.000000
1.000000 1.000000 1.000000
1.000000 1.000000 1.000000
1.000000 1.000000 1.000000
1.000000 1.000000 1.000000
0.877369 0.877369 0.877369
0.922479 0.922479 0.922479
0.956991 0.956991 0.956991
0.981597 0.981597 0.981597
0.998224 0.998224 0.998224
1.000000 1.000000 1.000000
1.000000 1.000000 1.000000
1.000000 1.000000 1.000000
1.000000 1.000000 1.000000
1.000000 1.000000 1.000000
1.000000 1.000000 1.000000
1.000000 1.000000 1.000000
1.000000 1.000000 1.000000
1.000000 1.000000 1.000000
1.000000 1.000000 1.000000
1.000000 1.000000 1.000000
1.000000 1.000000 1.000000
0.939326 0.939326 0.939326
0.969729 0.969729 0.969729
0.991382 0.991382 0.991382
1.000000 1.000000 1.000000
1.000000 1.000000 1.000000
1.000000 1.000000 1.000000
1.000000 1.000000 1.000000
1.000000 1.000000 1.000000
1.000000 1.000000 1.000000
1.000000 1.000000 1.000000
1.000000 1.000000 1.000000
1.000000 1.000000 1.000000
1.000000 1.000000 1.000000
1.000000 1.000000 1.000000
1.000000 1.000000 1.000000
1.000000 1.000000 1.000000
1.000000 1.000000 1.000000
0.980543 0.980543 0.980543
0.998873 0.998873 0.998873
1.000000 1.000000 1.000000
1.000000 1.000000 1.000000
1.000000 1.000000 1.000000
1.000000 1.000000 1.000000
1.000000 1.000000 1.000000
1.000000 1.000000 1.000000
1.000000 1.000000 1.000000
1.000000 1.000000 1.000000
1.000000 1.000000 1.000000
1.000000 1.000000 1.000000
1.000000 1.000000 1.000000
1.000000 1.000000 1.000000
1.000000 1.000000 1.000000
1.000000 1.000000 1.000000
1.000000 1.000000 1.000000
1.000000 1.000000 1.000000
1.000000 1.000000 1.000000
1.000000 1.000000 1.000000
1.000000 1.000000 1.000000
1.000000 1.000000 1.000000
1.000000 1.000000 1.000000
1.000000 1.000000 1.000000
1.000000 1.000000 1.000000
1.000000 1.000000 1.000000
1.000000 1.000000 1.000000
1.000000 1.000000 1.000000
1.000000 1.000000 1.000000
1.000000 1.000000 1.000000
1.000000 1.000000 1.000000
1.000000 1.000000 1.000000
1.000000 1.000000 1.000000
1.000000 1.000000 1.000000
1.000000 1.000000 1.000000
1.000000 1.000000 1.000000
1.000000 1.000000 1.000000
1.000000 1.000000 1.000000
1.000000 1.000000 1.000000
1.000000 1.000000 1.000000
1.000000 1.000000 1.000000
1.000000 1.000000 1.000000
1.000000 1.000000 1.000000
1.000000 1.000000 1.000000
1.000000 1.000000 1.000000
1.000000 1.000000 1.000000
1.000000 1.000000 1.000000
1.000000 1.000000 1.000000
1.000000 1.000000 1.000000
1.000000 1.000000 1.000000
1.000000 1.000000 1.000000
0.000007 0.000007 0.000007
0.000456 0.000456 0.000456
0.001767 0.001767 0.001767
0.004134 0.004134 0.004134
0.007891 0.007891 0.007891
0.013410 0.013410 0.013410
0.020962 0.020962 0.020962
0.030838 0.030838 0.030838
0.043338 0.043338 0.043338
0.058764 0.058764 0.058764
0.077408 0.077408 0.077408
0.099535 0.099535 0.099535
0.125367 0.125367 0.125367
0.155059 0.155059 0.155059
0.188678 0.188678 0.188678
0.226182 0.226182 0.226182
0.267396 0.267396 0.267396
0.001587 0.001587 0.001587
0.003490 0.003490 0.003490
0.006801 0.006801 0.006801
0.011725 0.011725 0.011725
0.019142 0.019142 0.019142
0.028966 0.028966 0.028966
0.041430 0.041430 0.041430
0.056825 0.056825 0.056825
0.075445 0.075445 0.075445
0.097558 0.097558 0.097558
0.123388 0.123388 0.123388
0.153094 0.153094 0.153094
0.186745 0.186745 0.186745
0.224300 0.224300 0.224300
0.265586 0.265586 0.265586
0.310287 0.310287 0.310287
0.357939 0.357939 0.357939
0.009325 0.009325 0.009325
0.015521 0.015521 0.015521
0.016219 0.016219 0.016219
0.029873 0.029873 0.029873
0.043405 0.043405 0.043405
0.058976 0.058976 0.058976
0.077783 0.077783 0.077783
0.100089 0.100089 0.100089
0.126115 0.126115 0.126115
0.156012 0.156012 0.156012
0.189844 0.189844 0.189844
0.227562 0.227562 0.227562
0.268986 0.268986 0.268986
0.313791 0.313791 0.313791
0.361508 0.361508 0.361508
0.411526 0.411526 0.411526
0.463120 0.463120 0.463120
0.029464 0.029464 0.029464
0.049454 0.049454 0.049454
0.080106 0.080106 0.080106
0.097633 0.097633 0.097633
0.104765 0.104765 0.104765
0.120256 0.120256 0.120256
0.143243 0.143243 0.143243
0.171491 0.171491 0.171491
0.204300 0.204300 0.204300
0.241298 0.241298 0.241298
0.282143 0.282143 0.282143
0.326421 0.326421 0.326421
0.373606 0.373606 0.373606
0.423056 0.423056 0.423056
0.474027 0.474027 0.474027
0.525703 0.525703 0.525703
0.577235 0.577235 0.577235
0.065710 0.065710 0.065710
0.100431 0.100431 0.100431
0.155035 0.155035 0.155035
0.210004 0.210004 0.210004
0.224091 0.224091 0.224091
0.228511 0.228511 0.228511
0.248936 0.248936 0.248936
0.278697 0.278697 0.278697
0.314758 0.314758 0.314758
0.355527 0.355527 0.355527
0.399901 0.399901 0.399901
0.446937 0.446937 0.446937
0.495722 0.495722 0.495722
0.545352 0.545352 0.545352
0.594931 0.594931 0.594931
0.643607 0.643607 0.643607
0.690597 0.690597 0.690597
0.122112 0.122112 0.122112
0.173271 0.173271 0.173271
0.243553 0.243553 0.243553
0.318298 0.318298 0.318298
0.368222 0.368222 0.368222
0.386918 0.386918 0.386918
0.398476 0.398476 0.398476
0.422904 0.422904 0.422904
0.455963 0.455963 0.455963
0.494609 0.494609 0.494609
0.536778 0.536778 0.536778
0.580929 0.580929 0.580929
0.625807 0.625807 0.625807
0.670355 0.670355 0.670355
0.713673 0.713673 0.713673
0.755015 0.755015 0.755015
0.793792 0.793792 0.793792
0.201425 0.201425 0.201425
0.268988 0.268988 0.268988
0.352898 0.352898 0.352898
0.439610 0.439610 0.439610
0.508307 0.508307 0.508307
0.552520 0.552520 0.552520
0.573648 0.573648 0.573648
0.589172 0.589172 0.589172
0.613558 0.613558 0.613558
0.644085 0.644085 0.644085
0.678234 0.678234 0.678234
0.714090 0.714090 0.714090
0.750207 0.750207 0.750207
0.785493 0.785493 0.785493
0.819129 0.819129 0.819129
0.850522 0.850522 0.850522
0.879269 0.879269 0.879269
0.303300 0.303300 0.303300
0.384200 0.384200 0.384200
0.476200 0.476200 0.476200
0.566482 0.566482 0.566482
0.640472 0.640472 0.640472
0.693921 0.693921 0.693921
0.728660 0.728660 0.728660
0.747700 0.747700 0.747700
0.762590 0.762590 0.762590
0.782464 0.782464 0.782464
0.805678 0.805678 0.805678
0.830530 0.830530 0.830530
0.855667 0.855667 0.855667
0.880090 0.880090 0.880090
0.903096 0.903096 0.903096
0.924217 0.924217 0.924217
0.943173 0.943173 0.943173
0.422769 0.422769 0.422769
0.510632 0.510632 0.510632
0.602681 0.602681 0.602681
0.687803 0.687803 0.687803
0.756626 0.756626 0.756626
0.807541 0.807541 0.807541
0.843029 0.843029 0.843029
0.866325 0.866325 0.866325
0.880154 0.880154 0.880154
0.891222 0.891222 0.891222
0.904506 0.904506 0.904506
0.919118 0.919118 0.919118
0.934106 0.934106 0.934106
0.948704 0.948704 0.948704
0.962364 0.962364 0.962364
0.974725 0.974725 0.974725
0.985581 0.985581 0.985581
0.550235 0.550235 0.550235
0.636716 0.636716 0.636716
0.720596 0.720596 0.720596
0.793608 0.793608 0.793608
0.850730 0.850730 0.850730
0.892570 0.892570 0.892570
0.921886 0.921886 0.921886
0.941854 0.941854 0.941854
0.954995 0.954995 0.954995
0.963146 0.963146 0.963146
0.969680 0.969680 0.969680
0.976906 0.976906 0.976906
0.984396 0.984396 0.984396
0.991697 0.991697 0.991697
0.998450 0.998450 0.998450
1.000000 1.000000 1.000000
1.000000 1.000000 1.000000
0.673723 0.673723 0.673723
0.750987 0.750987 0.750987
0.820742 0.820742 0.820742
0.877975 0.877975 0.877975
0.920912 0.920912 0.920912
0.951459 0.951459 0.951459
0.972317 0.972317 0.972317
0.986263 0.986263 0.986263
0.995424 0.995424 0.995424
1.000000 1.000000 1.000000
1.000000 1.000000 1.000000
1.000000 1.000000 1.000000
1.000000 1.000000 1.000000
1.000000 1.000000 1.000000
1.000000 1.000000 1.000000
1.000000 1.000000 1.000000
1.000000 1.000000 1.000000
0.782491 0.782491 0.782491
0.845402 0.845402 0.845402
0.898519 0.898519 0.898519
0.939604 0.939604 0.939604
0.968894 0.968894 0.968894
0.988721 0.988721 0.988721
1.000000 1.000000 1.000000
1.000000 1.000000 1.000000
1.000000 1.000000 1.000000
1.000000 1.000000 1.000000
1.000000 1.000000 1.000000
1.000000 1.000000 1.000000
1.000000 1.000000 1.000000
1.000000 1.000000 1.000000
1.000000 1.000000 1.000000
1.000000 1.000000 1.000000
1.000000 1.000000 1.000000
0.869923 0.869923 0.869923
0.916778 0.916778 0.916778
0.953810 0.953810 0.953810
0.980638 0.980638 0.980638
0.998458 0.998458 0.998458
1.000000 1.000000 1.000000
1.000000 1.000000 1.000000
1.000000 1.000000 1.000000
1.000000 1.000000 1.000000
1.000000 1.000000 1.000000
1.000000 1.000000 1.000000
1.000000 1.000000 1.000000
1.000000 1.000000 1.000000
1.000000 1.000000 1.000000
1.000000 1.000000 1.000000
1.000000 1.000000 1.000000
1.000000 1.000000 1.000000
0.934248 0.934248 0.934248
0.966106 0.966106 0.966106
0.989471 0.989471 0.989471
1.000000 1.000000 1.000000
1.000000 1.000000 1.000000
1.000000 1.000000 1.000000
1.000000 1.000000 1.000000
1.000000 1.000000 1.000000
1.000000 1.000000 1.000000
1.000000 1.000000 1.000000
1.000000 1.000000 1.000000
1.000000 1.000000 1.000000
1.000000 1.000000 1.000000
1.000000 1.000000 1.000000
1.000000 1.000000 1.000000
1.000000 1.000000 1.000000
1.000000 1.000000 1.000000
0.977405 0.977405 0.977405
0.996833 0.996833 0.996833
1.000000 1.000000 1.000000
1.000000 1.000000 1.000000
1.000000 1.000000 1.000000
1.000000 1.000000 1.000000
1.000000 1.000000 1.000000
1.000000 1.000000 1.000000
1.000000 1.000000 1.000000
1.000000 1.000000 1.000000
1.000000 1.000000 1.000000
1.000000 1.000000 1.000000
1.000000 1.000000 1.000000
1.000000 1.000000 1.000000
1.000000 1.000000 1.000000
1.000000 1.000000 1.000000
1.000000 1.000000 1.000000
1.000000 1.000000 1.000000
1.000000 1.000000 1.000000
1.000000 1.000000 1.000000
1.000000 1.000000 1.000000
1.000000 1.000000 1.000000
1.000000 1.000000 1.000000
1.000000 1.000000 1.000000
1.000000 1.000000 1.000000
1.000000 1.000000 1.000000
1.000000 1.000000 1.000000
1.000000 1.000000 1.000000
1.000000 1.000000 1.000000
1.000000 1.000000 1.000000
1.000000 1.000000 1.000000
1.000000 1.000000 1.000000
1.000000 1.000000 1.000000
1.000000 1.000000 1.000000
1.000000 1.000000 1.000000
1.000000 1.000000 1.000000
1.000000 1.000000 1.000000
1.000000 1.000000 1.000000
1.000000 1.000000 1.000000
1.000000 1.000000 1.000000
1.000000 1.000000 1.000000
1.000000 1.000000 1.000000
1.000000 1.000000 1.000000
1.000000 1.000000 1.000000
1.000000 1.000000 1.000000
1.000000 1.000000 1.000000
1.000000 1.000000 1.000000
1.000000 1.000000 1.000000
1.000000 1.000000 1.000000
1.000000 1.000000 1.000000
1.000000 1.000000 1.000000
0.000018 0.000018 0.000018
0.000531 0.000531 0.000531
0.001926 0.001926 0.001926
0.004392 0.004392 0.004392
0.008120 0.008120 0.008120
0.013348 0.013348 0.013348
0.020550 0.020550 0.020550
0.030040 0.030040 0.030040
0.042110 0.042110 0.042110
0.057060 0.057060 0.057060
0.075181 0.075181 0.075181
0.096741 0.096741 0.096741
0.121968 0.121968 0.121968
0.151029 0.151029 0.151029
0.184005 0.184005 0.184005
0.220871 0.220871 0.220871
0.261475 0.261475 0.261475
0.001624 0.001624 0.001624
0.003724 0.003724 0.003724
0.007147 0.007147 0.007147
