assets/presets/luts/mono-infrared/lut.cube
TITLE "Mono Infrared"
LUT_3D_SIZE 9
0.000000 0.000000 0.000000
0.001853 0.001853 0.001853
0.008935 0.008935 0.008935
0.023389 0.023389 0.023389
0.047540 0.047540 0.047540
0.083788 0.083788 0.083788
0.134257 0.134257 0.134257
0.200230 0.200230 0.200230
0.281460 0.281460 0.281460
0.014076 0.014076 0.014076
0.036584 0.036584 0.036584
0.058248 0.058248 0.058248
0.094241 0.094241 0.094241
0.145101 0.145101 0.145101
0.211578 0.211578 0.211578
0.293133 0.293133 0.293133
0.387210 0.387210 0.387210
0.489104 0.489104 0.489104
0.077662 0.077662 0.077662
0.153422 0.153422 0.153422
0.215434 0.215434 0.215434
0.269860 0.269860 0.269860
0.343498 0.343498 0.343498
0.431238 0.431238 0.431238
0.527029 0.527029 0.527029
0.624250 0.624250 0.624250
0.716475 0.716475 0.716475
0.221596 0.221596 0.221596
0.358354 0.358354 0.358354
0.480295 0.480295 0.480295
0.562080 0.562080 0.562080
0.627344 0.627344 0.627344
0.699976 0.699976 0.699976
0.772559 0.772559 0.772559
0.838929 0.838929 0.838929
0.895300 0.895300 0.895300
0.447654 0.447654 0.447654
0.611825 0.611825 0.611825
0.740540 0.740540 0.740540
0.824496 0.824496 0.824496
0.873420 0.873420 0.873420
0.908514 0.908514 0.908514
0.941467 0.941467 0.941467
0.969544 0.969544 0.969544
0.991218 0.991218 0.991218
0.695260 0.695260 0.695260
0.828549 0.828549 0.828549
0.915424 0.915424 0.915424
0.964587 0.964587 0.964587
0.990411 0.990411 0.990411
1.000000 1.000000 1.000000
1.000000 1.000000 1.000000
1.000000 1.000000 1.000000
1.000000 1.000000 1.000000
0.882977 0.882977 0.882977
0.958076 0.958076 0.958076
0.997357 0.997357 0.997357
1.000000 1.000000 1.000000
1.000000 1.000000 1.000000
1.000000 1.000000 1.000000
1.000000 1.000000 1.000000
1.000000 1.000000 1.000000
1.000000 1.000000 1.000000
0.982929 0.982929 0.982929
1.000000 1.000000 1.000000
1.000000 1.000000 1.000000
1.000000 1.000000 1.000000
1.000000 1.000000 1.000000
1.000000 1.000000 1.000000
1.000000 1.000000 1.000000
1.000000 1.000000 1.000000
1.000000 1.000000 1.000000
1.000000 1.000000 1.000000
1.000000 1.000000 1.000000
1.000000 1.000000 1.000000
1.000000 1.000000 1.000000
1.000000 1.000000 1.000000
1.000000 1.000000 1.000000
1.000000 1.000000 1.000000
1.000000 1.000000 1.000000
1.000000 1.000000 1.000000
0.000007 0.000007 0.000007
0.001767 0.001767 0.001767
0.007891 0.007891 0.007891
0.020962 0.020962 0.020962
0.043338 0.043338 0.043338
0.077408 0.077408 0.077408
0.125367 0.125367 0.125367
0.188678 0.188678 0.188678
0.267396 0.267396 0.267396
0.009325 0.009325 0.009325
0.016219 0.016219 0.016219
0.043405 0.043405 0.043405
0.077783 0.077783 0.077783
0.126115 0.126115 0.126115
0.189844 0.189844 0.189844
0.268986 0.268986 0.268986
0.361508 0.361508 0.361508
0.463120 0.463120 0.463120
0.065710 0.065710 0.065710
0.155035 0.155035 0.155035
0.224091 0.224091 0.224091
0.248936 0.248936 0.248936
0.314758 0.314758 0.314758
0.399901 0.399901 0.399901
0.495722 0.495722 0.495722
0.594931 0.594931 0.594931
0.690597 0.690597 0.690597
0.201425 0.201425 0.201425
0.352898 0.352898 0.352898
0.508307 0.508307 0.508307
0.573648 0.573648 0.573648
0.613558 0.613558 0.613558
0.678234 0.678234 0.678234
0.750207 0.750207 0.750207
0.819129 0.819129 0.819129
0.879269 0.879269 0.879269
0.422769 0.422769 0.422769
0.602681 0.602681 0.602681
0.756626 0.756626 0.756626
0.843029 0.843029 0.843029
0.880154 0.880154 0.880154
0.904506 0.904506 0.904506
0.934106 0.934106 0.934106
0.962364 0.962364 0.962364
0.985581 0.985581 0.985581
0.673723 0.673723 0.673723
0.820742 0.820742 0.820742
0.920912 0.920912 0.920912
0.972317 0.972317 0.972317
0.995424 0.995424 0.995424
1.000000 1.000000 1.000000
1.000000 1.000000 1.000000
1.000000 1.000000 1.000000
1.000000 1.000000 1.000000
0.869923 0.869923 0.869923
0.953810 0.953810 0.953810
0.998458 0.998458 0.998458
1.000000 1.000000 1.000000
1.000000 1.000000 1.000000
1.000000 1.000000 1.000000
1.000000 1.000000 1.000000
1.000000 1.000000 1.000000
1.000000 1.000000 1.000000
0.977405 0.977405 0.977405
1.000000 1.000000 1.000000
1.000000 1.000000 1.000000
1.000000 1.000000 1.000000
1.000000 1.000000 1.000000
1.000000 1.000000 1.000000
1.000000 1.000000 1.000000
1.000000 1.000000 1.000000
1.000000 1.000000 1.000000
1.000000 1.000000 1.000000
1.000000 1.000000 1.000000
1.000000 1.000000 1.000000
1.000000 1.000000 1.000000
1.000000 1.000000 1.000000
1.000000 1.000000 1.000000
1.000000 1.000000 1.000000
1.000000 1.000000 1.000000
1.000000 1.000000 1.000000
0.000032 0.000032 0.000032
0.002093 0.002093 0.002093
0.008504 0.008504 0.008504
0.020830 0.020830 0.020830
0.041584 0.041584 0.041584
0.073697 0.073697 0.073697
0.119361 0.119361 0.119361
0.180160 0.180160 0.180160
0.256389 0.256389 0.256389
0.007603 0.007603 0.007603
0.017406 0.017406 0.017406
0.035446 0.035446 0.035446
0.063741 0.063741 0.063741
0.108241 0.108241 0.108241
0.168624 0.168624 0.168624
0.244891 0.244891 0.244891
0.335427 0.335427 0.335427
0.436357 0.436357 0.436357
0.049782 0.049782 0.049782
0.091359 0.091359 0.091359
0.090520 0.090520 0.090520
0.179777 0.179777 0.179777
0.256789 0.256789 0.256789
0.347611 0.347611 0.347611
0.448264 0.448264 0.448264
0.552870 0.552870 0.552870
0.654718 0.654718 0.654718
0.171692 0.171692 0.171692
0.292752 0.292752 0.292752
0.504912 0.504912 0.504912
0.585164 0.585164 0.585164
0.572732 0.572732 0.572732
0.633602 0.633602 0.633602
0.710859 0.710859 0.710859
0.787140 0.787140 0.787140
0.854708 0.854708 0.854708
0.384894 0.384894 0.384894
0.554345 0.554345 0.554345
0.745006 0.745006 0.745006
0.864533 0.864533 0.864533
0.886694 0.886694 0.886694
0.893072 0.893072 0.893072
0.919344 0.919344 0.919344
0.949551 0.949551 0.949551
0.976099 0.976099 0.976099
0.640402 0.640402 0.640402
0.791341 0.791341 0.791341
0.912901 0.912901 0.912901
0.978219 0.978219 0.978219
1.000000 1.000000 1.000000
1.000000 1.000000 1.000000
1.000000 1.000000 1.000000
1.000000 1.000000 1.000000
1.000000 1.000000 1.000000
0.849559 0.849559 0.849559
0.940631 0.940631 0.940631
0.995222 0.995222 0.995222
1.000000 1.000000 1.000000
1.000000 1.000000 1.000000
1.000000 1.000000 1.000000
1.000000 1.000000 1.000000
1.000000 1.000000 1.000000
1.000000 1.000000 1.000000
0.968682 0.968682 0.968682
1.000000 1.000000 1.000000
1.000000 1.000000 1.000000
1.000000 1.000000 1.000000
1.000000 1.000000 1.000000
1.000000 1.000000 1.000000
1.000000 1.000000 1.000000
1.000000 1.000000 1.000000
1.000000 1.000000 1.000000
1.000000 1.000000 1.000000
1.000000 1.000000 1.000000
1.000000 1.000000 1.000000
1.000000 1.000000 1.000000
1.000000 1.000000 1.000000
1.000000 1.000000 1.000000
1.000000 1.000000 1.000000
1.000000 1.000000 1.000000
1.000000 1.000000 1.000000
0.000077 0.000077 0.000077
0.002450 0.002450 0.002450
0.009306 0.009306 0.009306
0.022216 0.022216 0.022216
0.042885 0.042885 0.042885
0.073330 0.073330 0.073330
0.116840 0.116840 0.116840
0.175243 0.175243 0.175243
0.249000 0.249000 0.249000
0.007786 0.007786 0.007786
0.018645 0.018645 0.018645
0.037384 0.037384 0.037384
0.065251 0.065251 0.065251
0.103935 0.103935 0.103935
0.158009 0.158009 0.158009
0.229644 0.229644 0.229644
0.316744 0.316744 0.316744
0.415592 0.415592 0.415592
0.041818 0.041818 0.041818
0.068033 0.068033 0.068033
0.094061 0.094061 0.094061
0.142030 0.142030 0.142030
0.206898 0.206898 0.206898
0.297245 0.297245 0.297245
0.400252 0.400252 0.400252
0.508977 0.508977 0.508977
0.616408 0.616408 0.616408
0.140812 0.140812 0.140812
0.215914 0.215914 0.215914
0.308963 0.308963 0.308963
0.258007 0.258007 0.258007
0.433491 0.433491 0.433491
0.537938 0.537938 0.537938
0.640584 0.640584 0.640584
0.735136 0.735136 0.735136
0.816921 0.816921 0.816921
0.340122 0.340122 0.340122
0.481345 0.481345 0.481345
0.653983 0.653983 0.653983
0.858734 0.858734 0.858734
0.893041 0.893041 0.893041
0.859952 0.859952 0.859952
0.887221 0.887221 0.887221
0.925168 0.925168 0.925168
0.959329 0.959329 0.959329
0.597683 0.597683 0.597683
0.744123 0.744123 0.744123
0.875686 0.875686 0.875686
0.972111 0.972111 0.972111
1.000000 1.000000 1.000000
1.000000 1.000000 1.000000
1.000000 1.000000 1.000000
1.000000 1.000000 1.000000
1.000000 1.000000 1.000000
0.821990 0.821990 0.821990
0.918851 0.918851 0.918851
0.983459 0.983459 0.983459
1.000000 1.000000 1.000000
1.000000 1.000000 1.000000
1.000000 1.000000 1.000000
1.000000 1.000000 1.000000
1.000000 1.000000 1.000000
1.000000 1.000000 1.000000
0.956321 0.956321 0.956321
0.999070 0.999070 0.999070
1.000000 1.000000 1.000000
1.000000 1.000000 1.000000
1.000000 1.000000 1.000000
1.000000 1.000000 1.000000
1.000000 1.000000 1.000000
1.000000 1.000000 1.000000
1.000000 1.000000 1.000000
1.000000 1.000000 1.000000
1.000000 1.000000 1.000000
1.000000 1.000000 1.000000
1.000000 1.000000 1.000000
1.000000 1.000000 1.000000
1.000000 1.000000 1.000000
1.000000 1.000000 1.000000
1.000000 1.000000 1.000000
1.000000 1.000000 1.000000
0.000143 0.000143 0.000143
0.002841 0.002841 0.002841
0.010152 0.010152 0.010152
0.023659 0.023659 0.023659
0.045075 0.045075 0.045075
0.076170 0.076170 0.076170
0.118555 0.118555 0.118555
0.174575 0.174575 0.174575
0.245825 0.245825 0.245825
0.008324 0.008324 0.008324
0.019938 0.019938 0.019938
0.039390 0.039390 0.039390
0.068120 0.068120 0.068120
0.107801 0.107801 0.107801
0.159714 0.159714 0.159714
0.225116 0.225116 0.225116
0.307050 0.307050 0.307050
0.402258 0.402258 0.402258
0.039959 0.039959 0.039959
0.065449 0.065449 0.065449
0.097690 0.097690 0.097690
0.146728 0.146728 0.146728
0.208472 0.208472 0.208472
0.282529 0.282529 0.282529
0.374130 0.374130 0.374130
0.479175 0.479175 0.479175
0.587045 0.587045 0.587045
0.122078 0.122078 0.122078
0.175840 0.175840 0.175840
0.227210 0.227210 0.227210
0.264586 0.264586 0.264586
0.346973 0.346973 0.346973
0.445374 0.445374 0.445374
0.565056 0.565056 0.565056
0.676833 0.676833 0.676833
0.773500 0.773500 0.773500
0.294683 0.294683 0.294683
0.400150 0.400150 0.400150
0.513881 0.513881 0.513881
0.627312 0.627312 0.627312
0.510000 0.510000 0.510000
0.722324 0.722324 0.722324
0.806136 0.806136 0.806136
0.874949 0.874949 0.874949
0.928169 0.928169 0.928169
0.548714 0.548714 0.548714
0.682122 0.682122 0.682122
0.809074 0.809074 0.809074
0.921550 0.921550 0.921550
1.000000 1.000000 1.000000
1.000000 1.000000 1.000000
0.993964 0.993964 0.993964
0.999503 0.999503 0.999503
1.000000 1.000000 1.000000
0.787618 0.787618 0.787618
0.887576 0.887576 0.887576
0.961050 0.961050 0.961050
1.000000 1.000000 1.000000
1.000000 1.000000 1.000000
1.000000 1.000000 1.000000
1.000000 1.000000 1.000000
1.000000 1.000000 1.000000
1.000000 1.000000 1.000000
0.939862 0.939862 0.939862
0.988484 0.988484 0.988484
1.000000 1.000000 1.000000
1.000000 1.000000 1.000000
1.000000 1.000000 1.000000
1.000000 1.000000 1.000000
1.000000 1.000000 1.000000
1.000000 1.000000 1.000000
1.000000 1.000000 1.000000
1.000000 1.000000 1.000000
1.000000 1.000000 1.000000
1.000000 1.000000 1.000000
1.000000 1.000000 1.000000
1.000000 1.000000 1.000000
1.000000 1.000000 1.000000
1.000000 1.000000 1.000000
1.000000 1.000000 1.000000
1.000000 1.000000 1.000000
0.000232 0.000232 0.000232
0.003265 0.003265 0.003265
0.011044 0.011044 0.011044
0.025159 0.025159 0.025159
0.047337 0.047337 0.047337
0.079340 0.079340 0.079340
0.122756 0.122756 0.122756
0.178664 0.178664 0.178664
0.247555 0.247555 0.247555
0.009002 0.009002 0.009002
0.021286 0.021286 0.021286
0.041464 0.041464 0.041464
0.071071 0.071071 0.071071
0.111758 0.111758 0.111758
0.164757 0.164757 0.164757
0.230476 0.230476 0.230476
0.308097 0.308097 0.308097
0.397795 0.397795 0.397795
0.040053 0.040053 0.040053
0.066256 0.066256 0.066256
0.101407 0.101407 0.101407
0.151519 0.151519 0.151519
0.214353 0.214353 0.214353
0.289401 0.289401 0.289401
0.374707 0.374707 0.374707
0.468196 0.468196 0.468196
0.570218 0.570218 0.570218
0.114677 0.114677 0.114677
0.163616 0.163616 0.163616
0.214860 0.214860 0.214860
0.271248 0.271248 0.271248
0.354462 0.354462 0.354462
0.445399 0.445399 0.445399
0.539707 0.539707 0.539707
0.641649 0.641649 0.641649
0.741051 0.741051 0.741051
0.263157 0.263157 0.263157
0.346761 0.346761 0.346761
0.427609 0.427609 0.427609
0.488112 0.488112 0.488112
0.518108 0.518108 0.518108
0.611646 0.611646 0.611646
0.709035 0.709035 0.709035
0.810509 0.810509 0.810509
0.887334 0.887334 0.887334
0.497442 0.497442 0.497442
0.611462 0.611462 0.611462
0.717817 0.717817 0.717817
0.809740 0.809740 0.809740
0.883573 0.883573 0.883573
0.761993 0.761993 0.761993
0.921494 0.921494 0.921494
0.962147 0.962147 0.962147
0.989961 0.989961 0.989961
0.747466 0.747466 0.747466
0.846668 0.846668 0.846668
0.924881 0.924881 0.924881
0.980675 0.980675 0.980675
1.000000 1.000000 1.000000
1.000000 1.000000 1.000000
1.000000 1.000000 1.000000
1.000000 1.000000 1.000000
1.000000 1.000000 1.000000
0.918980 0.918980 0.918980
0.972990 0.972990 0.972990
1.000000 1.000000 1.000000
1.000000 1.000000 1.000000
1.000000 1.000000 1.000000
1.000000 1.000000 1.000000
1.000000 1.000000 1.000000
1.000000 1.000000 1.000000
1.000000 1.000000 1.000000
0.999063 0.999063 0.999063
1.000000 1.000000 1.000000
1.000000 1.000000 1.000000
1.000000 1.000000 1.000000
1.000000 1.000000 1.000000
1.000000 1.000000 1.000000
1.000000 1.000000 1.000000
1.000000 1.000000 1.000000
1.000000 1.000000 1.000000
0.000344 0.000344 0.000344
0.003724 0.003724 0.003724
0.011982 0.011982 0.011982
0.026719 0.026719 0.026719
0.049670 0.049670 0.049670
0.082594 0.082594 0.082594
0.127049 0.127049 0.127049
0.184052 0.184052 0.184052
0.253667 0.253667 0.253667
0.009763 0.009763 0.009763
0.022691 0.022691 0.022691
0.043608 0.043608 0.043608
0.074103 0.074103 0.074103
0.115806 0.115806 0.115806
0.169894 0.169894 0.169894
0.236685 0.236685 0.236685
0.315241 0.315241 0.315241
0.403124 0.403124 0.403124
0.040992 0.040992 0.040992
0.068143 0.068143 0.068143
0.105214 0.105214 0.105214
0.156405 0.156405 0.156405
0.220325 0.220325 0.220325
0.296351 0.296351 0.296351
0.382395 0.382395 0.382395
0.474904 0.474904 0.474904
0.569257 0.569257 0.569257
0.112089 0.112089 0.112089
0.160155 0.160155 0.160155
0.213996 0.213996 0.213996
0.277990 0.277990 0.277990
0.362008 0.362008 0.362008
0.453419 0.453419 0.453419
0.547788 0.547788 0.547788
0.640173 0.640173 0.640173
0.727456 0.727456 0.727456
0.247236 0.247236 0.247236
0.322962 0.322962 0.322962
0.397446 0.397446 0.397446
0.462274 0.462274 0.462274
0.526214 0.526214 0.526214
0.619484 0.619484 0.619484
0.707148 0.707148 0.707148
0.785394 0.785394 0.785394
0.859247 0.859247 0.859247
0.457691 0.457691 0.457691
0.556698 0.556698 0.556698
0.646082 0.646082 0.646082
0.717128 0.717128 0.717128
0.758478 0.758478 0.758478
0.768489 0.768489 0.768489
0.837754 0.837754 0.837754
0.900882 0.900882 0.900882
0.957102 0.957102 0.957102
0.703380 0.703380 0.703380
0.797666 0.797666 0.797666
0.874183 0.874183 0.874183
0.931969 0.931969 0.931969
0.972456 0.972456 0.972456
0.998394 0.998394 0.998394
0.929480 0.929480 0.929480
1.000000 1.000000 1.000000
1.000000 1.000000 1.000000
0.893667 0.893667 0.893667
0.951807 0.951807 0.951807
0.990377 0.990377 0.990377
1.000000 1.000000 1.000000
1.000000 1.000000 1.000000
1.000000 1.000000 1.000000
1.000000 1.000000 1.000000
1.000000 1.000000 1.000000
1.000000 1.000000 1.000000
0.989675 0.989675 0.989675
1.000000 1.000000 1.000000
1.000000 1.000000 1.000000
1.000000 1.000000 1.000000
1.000000 1.000000 1.000000
1.000000 1.000000 1.000000
1.000000 1.000000 1.000000
1.000000 1.000000 1.000000
1.000000 1.000000 1.000000
0.000480 0.000480 0.000480
0.004219 0.004219 0.004219
0.012967 0.012967 0.012967
0.028339 0.028339 0.028339
0.052077 0.052077 0.052077
0.085933 0.085933 0.085933
0.131434 0.131434 0.131434
0.189533 0.189533 0.189533
0.260191 0.260191 0.260191
0.010590 0.010590 0.010590
0.024152 0.024152 0.024152
0.045821 0.045821 0.045821
0.077217 0.077217 0.077217
0.119945 0.119945 0.119945
0.175125 0.175125 0.175125
0.242982 0.242982 0.242982
0.322454 0.322454 0.322454
0.410976 0.410976 0.410976
0.042380 0.042380 0.042380
0.070517 0.070517 0.070517
0.109110 0.109110 0.109110
0.161385 0.161385 0.161385
0.226386 0.226386 0.226386
0.303374 0.303374 0.303374
0.390131 0.390131 0.390131
0.482990 0.482990 0.482990
0.577269 0.577269 0.577269
0.111907 0.111907 0.111907
0.160336 0.160336 0.160336
0.216663 0.216663 0.216663
0.284811 0.284811 0.284811
0.369610 0.369610 0.369610
0.461460 0.461460 0.461460
0.555855 0.555855 0.555855
0.647844 0.647844 0.647844
0.732898 0.732898 0.732898
0.239348 0.239348 0.239348
0.312238 0.312238 0.312238
0.386411 0.386411 0.386411
0.457646 0.457646 0.457646
0.534313 0.534313 0.534313
0.627280 0.627280 0.627280
0.714268 0.714268 0.714268
0.791574 0.791574 0.791574
0.856934 0.856934 0.856934
0.434042 0.434042 0.434042
0.525965 0.525965 0.525965
0.609680 0.609680 0.609680
0.678765 0.678765 0.678765
0.729099 0.729099 0.729099
0.774900 0.774900 0.774900
0.843111 0.843111 0.843111
0.898655 0.898655 0.898655
0.941726 0.941726 0.941726
0.665725 0.665725 0.665725
0.754596 0.754596 0.754596
0.827277 0.827277 0.827277
0.882122 0.882122 0.882122
0.918740 0.918740 0.918740
0.935063 0.935063 0.935063
0.932934 0.932934 0.932934
0.967104 0.967104 0.967104
0.994014 0.994014 0.994014
0.864408 0.864408 0.864408
0.924825 0.924825 0.924825
0.967635 0.967635 0.967635
0.995460 0.995460 0.995460
1.000000 1.000000 1.000000
1.000000 1.000000 1.000000
1.000000 1.000000 1.000000
1.000000 1.000000 1.000000
1.000000 1.000000 1.000000
0.977517 0.977517 0.977517
1.000000 1.000000 1.000000
1.000000 1.000000 1.000000
1.000000 1.000000 1.000000
1.000000 1.000000 1.000000
1.000000 1.000000 1.000000
1.000000 1.000000 1.000000
1.000000 1.000000 1.000000
1.000000 1.000000 1.000000
0.000642 0.000642 0.000642
0.004751 0.004751 0.004751
0.014001 0.014001 0.014001
0.030021 0.030021 0.030021
0.054559 0.054559 0.054559
0.089359 0.089359 0.089359
0.135913 0.135913 0.135913
0.195107 0.195107 0.195107
0.266798 0.266798 0.266798
0.011473 0.011473 0.011473
0.025673 0.025673 0.025673
0.048107 0.048107 0.048107
0.080415 0.080415 0.080415
0.124176 0.124176 0.124176
0.180450 0.180450 0.180450
0.249365 0.249365 0.249365
0.329735 0.329735 0.329735
0.418865 0.418865 0.418865
0.044047 0.044047 0.044047
0.073170 0.073170 0.073170
0.113097 0.113097 0.113097
0.166459 0.166459 0.166459
0.232536 0.232536 0.232536
0.310471 0.310471 0.310471
0.397913 0.397913 0.397913
0.491086 0.491086 0.491086
0.585255 0.585255 0.585255
0.113085 0.113085 0.113085
0.162336 0.162336 0.162336
0.220816 0.220816 0.220816
0.291709 0.291709 0.291709
0.377265 0.377265 0.377265
0.469521 0.469521 0.469521
0.563903 0.563903 0.563903
0.655464 0.655464 0.655464
0.739745 0.739745 0.739745
0.235986 0.235986 0.235986
0.308089 0.308089 0.308089
0.383474 0.383474 0.383474
0.459606 0.459606 0.459606
0.542402 0.542402 0.542402
0.635031 0.635031 0.635031
0.721316 0.721316 0.721316
0.797665 0.797665 0.797665
0.861946 0.861946 0.861946
0.420129 0.420129 0.420129
0.508795 0.508795 0.508795
0.591189 0.591189 0.591189
0.662663 0.662663 0.662663
0.722103 0.722103 0.722103
0.781226 0.781226 0.781226
0.848373 0.848373 0.848373
0.902825 0.902825 0.902825
0.944869 0.944869 0.944869
0.640278 0.640278 0.640278
0.726072 0.726072 0.726072
0.797285 0.797285 0.797285
0.852326 0.852326 0.852326
0.891221 0.891221 0.891221
0.915294 0.915294 0.915294
0.936302 0.936302 0.936302
0.969535 0.969535 0.969535
0.992748 0.992748 0.992748
0.837219 0.837219 0.837219
0.898497 0.898497 0.898497
0.943480 0.943480 0.943480
0.974358 0.974358 0.974358
0.993858 0.993858 0.993858
1.000000 1.000000 1.000000
1.000000 1.000000 1.000000
1.000000 1.000000 1.000000
1.000000 1.000000 1.000000
0.962507 0.962507 0.962507
0.992285 0.992285 0.992285
1.000000 1.000000 1.000000
1.000000 1.000000 1.000000
1.000000 1.000000 1.000000
1.000000 1.000000 1.000000
1.000000 1.000000 1.000000
1.000000 1.000000 1.000000
1.000000 1.000000 1.000000
