assets/presets/luts/contrast-plus/lut.cube
TITLE "Contrast +"
LUT_3D_SIZE 9
0.000000 0.000000 0.000000
0.029237 0.000000 0.000000
0.121585 0.000000 0.000000
0.285063 0.000000 0.000000
0.500000 0.000000 0.000000
0.714937 0.000000 0.000000
0.878415 0.000000 0.000000
0.970763 0.000000 0.000000
1.000000 0.000000 0.000000
0.000000 0.029237 0.000000
0.029237 0.029237 0.000000
0.121585 0.029237 0.000000
0.285063 0.029237 0.000000
0.500000 0.029237 0.000000
0.714937 0.029237 0.000000
0.878415 0.029237 0.000000
0.970763 0.029237 0.000000
1.000000 0.029237 0.000000
0.000000 0.121585 0.000000
0.029237 0.121585 0.000000
0.121585 0.121585 0.000000
0.285063 0.121585 0.000000
0.500000 0.121585 0.000000
0.714937 0.121585 0.000000
0.878415 0.121585 0.000000
0.970763 0.121585 0.000000
1.000000 0.121585 0.000000
0.000000 0.285063 0.000000
0.029237 0.285063 0.000000
0.121585 0.285063 0.000000
0.285063 0.285063 0.000000
0.500000 0.285063 0.000000
0.714937 0.285063 0.000000
0.878415 0.285063 0.000000
0.970763 0.285063 0.000000
1.000000 0.285063 0.000000
0.000000 0.500000 0.000000
0.029237 0.500000 0.000000
0.121585 0.500000 0.000000
0.285063 0.500000 0.000000
0.500000 0.500000 0.000000
0.714937 0.500000 0.000000
0.878415 0.500000 0.000000
0.970763 0.500000 0.000000
1.000000 0.500000 0.000000
0.000000 0.714937 0.000000
0.029237 0.714937 0.000000
0.121585 0.714937 0.000000
0.285063 0.714937 0.000000
0.500000 0.714937 0.000000
0.714937 0.714937 0.000000
0.878415 0.714937 0.000000
0.970763 0.714937 0.000000
1.000000 0.714937 0.000000
0.000000 0.878415 0.000000
0.029237 0.878415 0.000000
0.121585 0.878415 0.000000
0.285063 0.878415 0.000000
0.500000 0.878415 0.000000
0.714937 0.878415 0.000000
0.878415 0.878415 0.000000
0.970763 0.878415 0.000000
1.000000 0.878415 0.000000
0.000000 0.970763 0.000000
0.029237 0.970763 0.000000
0.121585 0.970763 0.000000
0.285063 0.970763 0.000000
0.500000 0.970763 0.000000
0.714937 0.970763 0.000000
0.878415 0.970763 0.000000
0.970763 0.970763 0.000000
1.000000 0.970763 0.000000
0.000000 1.000000 0.000000
0.029237 1.000000 0.000000
0.121585 1.000000 0.000000
0.285063 1.000000 0.000000
0.500000 1.000000 0.000000
0.714937 1.000000 0.000000
0.878415 1.000000 0.000000
0.970763 1.000000 0.000000
1.000000 1.000000 0.000000
0.000000 0.000000 0.029237
0.029237 0.000000 0.029237
0.121585 0.000000 0.029237
0.285063 0.000000 0.029237
0.500000 0.000000 0.029237
0.714937 0.000000 0.029237
0.878415 0.000000 0.029237
0.970763 0.000000 0.029237
1.000000 0.000000 0.029237
0.000000 0.029237 0.029237
0.029237 0.029237 0.029237
0.121585 0.029237 0.029237
0.285063 0.029237 0.029237
0.500000 0.029237 0.029237
0.714937 0.029237 0.029237
0.878415 0.029237 0.029237
0.970763 0.029237 0.029237
1.000000 0.029237 0.029237
0.000000 0.121585 0.029237
0.029237 0.121585 0.029237
0.121585 0.121585 0.029237
0.285063 0.121585 0.029237
0.500000 0.121585 0.029237
0.714937 0.121585 0.029237
0.878415 0.121585 0.029237
0.970763 0.121585 0.029237
1.000000 0.121585 0.029237
0.000000 0.285063 0.029237
0.029237 0.285063 0.029237
0.121585 0.285063 0.029237
0.285063 0.285063 0.029237
0.500000 0.285063 0.029237
0.714937 0.285063 0.029237
0.878415 0.285063 0.029237
0.970763 0.285063 0.029237
1.000000 0.285063 0.029237
0.000000 0.500000 0.029237
0.029237 0.500000 0.029237
0.121585 0.500000 0.029237
0.285063 0.500000 0.029237
0.500000 0.500000 0.029237
0.714937 0.500000 0.029237
0.878415 0.500000 0.029237
0.970763 0.500000 0.029237
1.000000 0.500000 0.029237
0.000000 0.714937 0.029237
0.029237 0.714937 0.029237
0.121585 0.714937 0.029237
0.285063 0.714937 0.029237
0.500000 0.714937 0.029237
0.714937 0.714937 0.029237
0.878415 0.714937 0.029237
0.970763 0.714937 0.029237
1.000000 0.714937 0.029237
0.000000 0.878415 0.029237
0.029237 0.878415 0.029237
0.121585 0.878415 0.029237
0.285063 0.878415 0.029237
0.500000 0.878415 0.029237
0.714937 0.878415 0.029237
0.878415 0.878415 0.029237
0.970763 0.878415 0.029237
1.000000 0.878415 0.029237
0.000000 0.970763 0.029237
0.029237 0.970763 0.029237
0.121585 0.970763 0.029237
0.285063 0.970763 0.029237
0.500000 0.970763 0.029237
0.714937 0.970763 0.029237
0.878415 0.970763 0.029237
0.970763 0.970763 0.029237
1.000000 0.970763 0.029237
0.000000 1.000000 0.029237
0.029237 1.000000 0.029237
0.121585 1.000000 0.029237
0.285063 1.000000 0.029237
0.500000 1.000000 0.029237
0.714937 1.000000 0.029237
0.878415 1.000000 0.029237
0.970763 1.000000 0.029237
1.000000 1.000000 0.029237
0.000000 0.000000 0.121585
0.029237 0.000000 0.121585
0.121585 0.000000 0.121585
0.285063 0.000000 0.121585
0.500000 0.000000 0.121585
0.714937 0.000000 0.121585
0.878415 0.000000 0.121585
0.970763 0.000000 0.121585
1.000000 0.000000 0.121585
0.000000 0.029237 0.121585
0.029237 0.029237 0.121585
0.121585 0.029237 0.121585
0.285063 0.029237 0.121585
0.500000 0.029237 0.121585
0.714937 0.029237 0.121585
0.878415 0.029237 0.121585
0.970763 0.029237 0.121585
1.000000 0.029237 0.121585
0.000000 0.121585 0.121585
0.029237 0.121585 0.121585
0.121585 0.121585 0.121585
0.285063 0.121585 0.121585
0.500000 0.121585 0.121585
0.714937 0.121585 0.121585
0.878415 0.121585 0.121585
0.970763 0.121585 0.121585
1.000000 0.121585 0.121585
0.000000 0.285063 0.121585
0.029237 0.285063 0.121585
0.121585 0.285063 0.121585
0.285063 0.285063 0.121585
0.500000 0.285063 0.121585
0.714937 0.285063 0.121585
0.878415 0.285063 0.121585
0.970763 0.285063 0.121585
1.000000 0.285063 0.121585
0.000000 0.500000 0.121585
0.029237 0.500000 0.121585
0.121585 0.500000 0.121585
0.285063 0.500000 0.121585
0.500000 0.500000 0.121585
0.714937 0.500000 0.121585
0.878415 0.500000 0.121585
0.970763 0.500000 0.121585
1.000000 0.500000 0.121585
0.000000 0.714937 0.121585
0.029237 0.714937 0.121585
0.121585 0.714937 0.121585
0.285063 0.714937 0.121585
0.500000 0.714937 0.121585
0.714937 0.714937 0.121585
0.878415 0.714937 0.121585
0.970763 0.714937 0.121585
1.000000 0.714937 0.121585
0.000000 0.878415 0.121585
0.029237 0.878415 0.121585
0.121585 0.878415 0.121585
0.285063 0.878415 0.121585
0.500000 0.878415 0.121585
0.714937 0.878415 0.121585
0.878415 0.878415 0.121585
0.970763 0.878415 0.121585
1.000000 0.878415 0.121585
0.000000 0.970763 0.121585
0.029237 0.970763 0.121585
0.121585 0.970763 0.121585
0.285063 0.970763 0.121585
0.500000 0.970763 0.121585
0.714937 0.970763 0.121585
0.878415 0.970763 0.121585
0.970763 0.970763 0.121585
1.000000 0.970763 0.121585
0.000000 1.000000 0.121585
0.029237 1.000000 0.121585
0.121585 1.000000 0.121585
0.285063 1.000000 0.121585
0.500000 1.000000 0.121585
0.714937 1.000000 0.121585
0.878415 1.000000 0.121585
0.970763 1.000000 0.121585
1.000000 1.000000 0.121585
0.000000 0.000000 0.285063
0.029237 0.000000 0.285063
0.121585 0.000000 0.285063
0.285063 0.000000 0.285063
0.500000 0.000000 0.285063
0.714937 0.000000 0.285063
0.878415 0.000000 0.285063
0.970763 0.000000 0.285063
1.000000 0.000000 0.285063
0.000000 0.029237 0.285063
0.029237 0.029237 0.285063
0.121585 0.029237 0.285063
0.285063 0.029237 0.285063
0.500000 0.029237 0.285063
0.714937 0.029237 0.285063
0.878415 0.029237 0.285063
0.970763 0.029237 0.285063
1.000000 0.029237 0.285063
0.000000 0.121585 0.285063
0.029237 0.121585 0.285063
0.121585 0.121585 0.285063
0.285063 0.121585 0.285063
0.500000 0.121585 0.285063
0.714937 0.121585 0.285063
0.878415 0.121585 0.285063
0.970763 0.121585 0.285063
1.000000 0.121585 0.285063
0.000000 0.285063 0.285063
0.029237 0.285063 0.285063
0.121585 0.285063 0.285063
0.285063 0.285063 0.285063
0.500000 0.285063 0.285063
0.714937 0.285063 0.285063
0.878415 0.285063 0.285063
0.970763 0.285063 0.285063
1.000000 0.285063 0.285063
0.000000 0.500000 0.285063
0.029237 0.500000 0.285063
0.121585 0.500000 0.285063
0.285063 0.500000 0.285063
0.500000 0.500000 0.285063
0.714937 0.500000 0.285063
0.878415 0.500000 0.285063
0.970763 0.500000 0.285063
1.000000 0.500000 0.285063
0.000000 0.714937 0.285063
0.029237 0.714937 0.285063
0.121585 0.714937 0.285063
0.285063 0.714937 0.285063
0.500000 0.714937 0.285063
0.714937 0.714937 0.285063
0.878415 0.714937 0.285063
0.970763 0.714937 0.285063
1.000000 0.714937 0.285063
0.000000 0.878415 0.285063
0.029237 0.878415 0.285063
0.121585 0.878415 0.285063
0.285063 0.878415 0.285063
0.500000 0.878415 0.285063
0.714937 0.878415 0.285063
0.878415 0.878415 0.285063
0.970763 0.878415 0.285063
1.000000 0.878415 0.285063
0.000000 0.970763 0.285063
0.029237 0.970763 0.285063
0.121585 0.970763 0.285063
0.285063 0.970763 0.285063
0.500000 0.970763 0.285063
0.714937 0.970763 0.285063
0.878415 0.970763 0.285063
0.970763 0.970763 0.285063
1.000000 0.970763 0.285063
0.000000 1.000000 0.285063
0.029237 1.000000 0.285063
0.121585 1.000000 0.285063
0.285063 1.000000 0.285063
0.500000 1.000000 0.285063
0.714937 1.000000 0.285063
0.878415 1.000000 0.285063
0.970763 1.000000 0.285063
1.000000 1.000000 0.285063
0.000000 0.000000 0.500000
0.029237 0.000000 0.500000
0.121585 0.000000 0.500000
0.285063 0.000000 0.500000
0.500000 0.000000 0.500000
0.714937 0.000000 0.500000
0.878415 0.000000 0.500000
0.970763 0.000000 0.500000
1.000000 0.000000 0.500000
0.000000 0.029237 0.500000
0.029237 0.029237 0.500000
0.121585 0.029237 0.500000
0.285063 0.029237 0.500000
0.500000 0.029237 0.500000
0.714937 0.029237 0.500000
0.878415 0.029237 0.500000
0.970763 0.029237 0.500000
1.000000 0.029237 0.500000
0.000000 0.121585 0.500000
0.029237 0.121585 0.500000
0.121585 0.121585 0.500000
0.285063 0.121585 0.500000
0.500000 0.121585 0.500000
0.714937 0.121585 0.500000
0.878415 0.121585 0.500000
0.970763 0.121585 0.500000
1.000000 0.121585 0.500000
0.000000 0.285063 0.500000
0.029237 0.285063 0.500000
0.121585 0.285063 0.500000
0.285063 0.285063 0.500000
0.500000 0.285063 0.500000
0.714937 0.285063 0.500000
0.878415 0.285063 0.500000
0.970763 0.285063 0.500000
1.000000 0.285063 0.500000
0.000000 0.500000 0.500000
0.029237 0.500000 0.500000
0.121585 0.500000 0.500000
0.285063 0.500000 0.500000
0.500000 0.500000 0.500000
0.714937 0.500000 0.500000
0.878415 0.500000 0.500000
0.970763 0.500000 0.500000
1.000000 0.500000 0.500000
0.000000 0.714937 0.500000
0.029237 0.714937 0.500000
0.121585 0.714937 0.500000
0.285063 0.714937 0.500000
0.500000 0.714937 0.500000
0.714937 0.714937 0.500000
0.878415 0.714937 0.500000
0.970763 0.714937 0.500000
1.000000 0.714937 0.500000
0.000000 0.878415 0.500000
0.029237 0.878415 0.500000
0.121585 0.878415 0.500000
0.285063 0.878415 0.500000
0.500000 0.878415 0.500000
0.714937 0.878415 0.500000
0.878415 0.878415 0.500000
0.970763 0.878415 0.500000
1.000000 0.878415 0.500000
0.000000 0.970763 0.500000
0.029237 0.970763 0.500000
0.121585 0.970763 0.500000
0.285063 0.970763 0.500000
0.500000 0.970763 0.500000
0.714937 0.970763 0.500000
0.878415 0.970763 0.500000
0.970763 0.970763 0.500000
1.000000 0.970763 0.500000
0.000000 1.000000 0.500000
0.029237 1.000000 0.500000
0.121585 1.000000 0.500000
0.285063 1.000000 0.500000
0.500000 1.000000 0.500000
0.714937 1.000000 0.500000
0.878415 1.000000 0.500000
0.970763 1.000000 0.500000
1.000000 1.000000 0.500000
0.000000 0.000000 0.714937
0.029237 0.000000 0.714937
0.121585 0.000000 0.714937
0.285063 0.000000 0.714937
0.500000 0.000000 0.714937
0.714937 0.000000 0.714937
0.878415 0.000000 0.714937
0.970763 0.000000 0.714937
1.000000 0.000000 0.714937
0.000000 0.029237 0.714937
0.029237 0.029237 0.714937
0.121585 0.029237 0.714937
0.285063 0.029237 0.714937
0.500000 0.029237 0.714937
0.714937 0.029237 0.714937
0.878415 0.029237 0.714937
0.970763 0.029237 0.714937
1.000000 0.029237 0.714937
0.000000 0.121585 0.714937
0.029237 0.121585 0.714937
0.121585 0.121585 0.714937
0.285063 0.121585 0.714937
0.500000 0.121585 0.714937
0.714937 0.121585 0.714937
0.878415 0.121585 0.714937
0.970763 0.121585 0.714937
1.000000 0.121585 0.714937
0.000000 0.285063 0.714937
0.029237 0.285063 0.714937
0.121585 0.285063 0.714937
0.285063 0.285063 0.714937
0.500000 0.285063 0.714937
0.714937 0.285063 0.714937
0.878415 0.285063 0.714937
0.970763 0.285063 0.714937
1.000000 0.285063 0.714937
0.000000 0.500000 0.714937
0.029237 0.500000 0.714937
0.121585 0.500000 0.714937
0.285063 0.500000 0.714937
0.500000 0.500000 0.714937
0.714937 0.500000 0.714937
0.878415 0.500000 0.714937
0.970763 0.500000 0.714937
1.000000 0.500000 0.714937
0.000000 0.714937 0.714937
0.029237 0.714937 0.714937
0.121585 0.714937 0.714937
0.285063 0.714937 0.714937
0.500000 0.714937 0.714937
0.714937 0.714937 0.714937
0.878415 0.714937 0.714937
0.970763 0.714937 0.714937
1.000000 0.714937 0.714937
0.000000 0.878415 0.714937
0.029237 0.878415 0.714937
0.121585 0.878415 0.714937
0.285063 0.878415 0.714937
0.500000 0.878415 0.714937
0.714937 0.878415 0.714937
0.878415 0.878415 0.714937
0.970763 0.878415 0.714937
1.000000 0.878415 0.714937
0.000000 0.970763 0.714937
0.029237 0.970763 0.714937
0.121585 0.970763 0.714937
0.285063 0.970763 0.714937
0.500000 0.970763 0.714937
0.714937 0.970763 0.714937
0.878415 0.970763 0.714937
0.970763 0.970763 0.714937
1.000000 0.970763 0.714937
0.000000 1.000000 0.714937
0.029237 1.000000 0.714937
0.121585 1.000000 0.714937
0.285063 1.000000 0.714937
0.500000 1.000000 0.714937
0.714937 1.000000 0.714937
0.878415 1.000000 0.714937
0.970763 1.000000 0.714937
1.000000 1.000000 0.714937
0.000000 0.000000 0.878415
0.029237 0.000000 0.878415
0.121585 0.000000 0.878415
0.285063 0.000000 0.878415
0.500000 0.000000 0.878415
0.714937 0.000000 0.878415
0.878415 0.000000 0.878415
0.970763 0.000000 0.878415
1.000000 0.000000 0.878415
0.000000 0.029237 0.878415
0.029237 0.029237 0.878415
0.121585 0.029237 0.878415
0.285063 0.029237 0.878415
0.500000 0.029237 0.878415
0.714937 0.029237 0.878415
0.878415 0.029237 0.878415
0.970763 0.029237 0.878415
1.000000 0.029237 0.878415
0.000000 0.121585 0.878415
0.029237 0.121585 0.878415
0.121585 0.121585 0.878415
0.285063 0.121585 0.878415
0.500000 0.121585 0.878415
0.714937 0.121585 0.878415
0.878415 0.121585 0.878415
0.970763 0.121585 0.878415
1.000000 0.121585 0.878415
0.000000 0.285063 0.878415
0.029237 0.285063 0.878415
0.121585 0.285063 0.878415
0.285063 0.285063 0.878415
0.500000 0.285063 0.878415
0.714937 0.285063 0.878415
0.878415 0.285063 0.878415
0.970763 0.285063 0.878415
1.000000 0.285063 0.878415
0.000000 0.500000 0.878415
0.029237 0.500000 0.878415
0.121585 0.500000 0.878415
0.285063 0.500000 0.878415
0.500000 0.500000 0.878415
0.714937 0.500000 0.878415
0.878415 0.500000 0.878415
0.970763 0.500000 0.878415
1.000000 0.500000 0.878415
0.000000 0.714937 0.878415
0.029237 0.714937 0.878415
0.121585 0.714937 0.878415
0.285063 0.714937 0.878415
0.500000 0.714937 0.878415
0.714937 0.714937 0.878415
0.878415 0.714937 0.878415
0.970763 0.714937 0.878415
1.000000 0.714937 0.878415
0.000000 0.878415 0.878415
0.029237 0.878415 0.878415
0.121585 0.878415 0.878415
0.285063 0.878415 0.878415
0.500000 0.878415 0.878415
0.714937 0.878415 0.878415
0.878415 0.878415 0.878415
0.970763 0.878415 0.878415
1.000000 0.878415 0.878415
0.000000 0.970763 0.878415
0.029237 0.970763 0.878415
0.121585 0.970763 0.878415
0.285063 0.970763 0.878415
0.500000 0.970763 0.878415
0.714937 0.970763 0.878415
0.878415 0.970763 0.878415
0.970763 0.970763 0.878415
1.000000 0.970763 0.878415
0.000000 1.000000 0.878415
0.029237 1.000000 0.878415
0.121585 1.000000 0.878415
0.285063 1.000000 0.878415
0.500000 1.000000 0.878415
0.714937 1.000000 0.878415
0.878415 1.000000 0.878415
0.970763 1.000000 0.878415
1.000000 1.000000 0.878415
0.000000 0.000000 0.970763
0.029237 0.000000 0.970763
0.121585 0.000000 0.970763
0.285063 0.000000 0.970763
0.500000 0.000000 0.970763
0.714937 0.000000 0.970763
0.878415 0.000000 0.970763
0.970763 0.000000 0.970763
1.000000 0.000000 0.970763
0.000000 0.029237 0.970763
0.029237 0.029237 0.970763
0.121585 0.029237 0.970763
0.285063 0.029237 0.970763
0.500000 0.029237 0.970763
0.714937 0.029237 0.970763
0.878415 0.029237 0.970763
0.970763 0.029237 0.970763
1.000000 0.029237 0.970763
0.000000 0.121585 0.970763
0.029237 0.121585 0.970763
0.121585 0.121585 0.970763
0.285063 0.121585 0.970763
0.500000 0.121585 0.970763
0.714937 0.121585 0.970763
0.878415 0.121585 0.970763
0.970763 0.121585 0.970763
1.000000 0.121585 0.970763
0.000000 0.285063 0.970763
0.029237 0.285063 0.970763
0.121585 0.285063 0.970763
0.285063 0.285063 0.970763
0.500000 0.285063 0.970763
0.714937 0.285063 0.970763
0.878415 0.285063 0.970763
0.970763 0.285063 0.970763
1.000000 0.285063 0.970763
0.000000 0.500000 0.970763
0.029237 0.500000 0.970763
0.121585 0.500000 0.970763
0.285063 0.500000 0.970763
0.500000 0.500000 0.970763
0.714937 0.500000 0.970763
0.878415 0.500000 0.970763
0.970763 0.500000 0.970763
1.000000 0.500000 0.970763
0.000000 0.714937 0.970763
0.029237 0.714937 0.970763
0.121585 0.714937 0.970763
0.285063 0.714937 0.970763
0.500000 0.714937 0.970763
0.714937 0.714937 0.970763
0.878415 0.714937 0.970763
0.970763 0.714937 0.970763
1.000000 0.714937 0.970763
0.000000 0.878415 0.970763
0.029237 0.878415 0.970763
0.121585 0.878415 0.970763
0.285063 0.878415 0.970763
0.500000 0.878415 0.970763
0.714937 0.878415 0.970763
0.878415 0.878415 0.970763
0.970763 0.878415 0.970763
1.000000 0.878415 0.970763
0.000000 0.970763 0.970763
0.029237 0.970763 0.970763
0.121585 0.970763 0.970763
0.285063 0.970763 0.970763
0.500000 0.970763 0.970763
0.714937 0.970763 0.970763
0.878415 0.970763 0.970763
0.970763 0.970763 0.970763
1.000000 0.970763 0.970763
0.000000 1.000000 0.970763
0.029237 1.000000 0.970763
0.121585 1.000000 0.970763
0.285063 1.000000 0.970763
0.500000 1.000000 0.970763
0.714937 1.000000 0.970763
0.878415 1.000000 0.970763
0.970763 1.000000 0.970763
1.000000 1.000000 0.970763
0.000000 0.000000 1.000000
0.029237 0.000000 1.000000
0.121585 0.000000 1.000000
0.285063 0.000000 1.000000
0.500000 0.000000 1.000000
0.714937 0.000000 1.000000
0.878415 0.000000 1.000000
0.970763 0.000000 1.000000
1.000000 0.000000 1.000000
0.000000 0.029237 1.000000
0.029237 0.029237 1.000000
0.121585 0.029237 1.000000
0.285063 0.029237 1.000000
0.500000 0.029237 1.000000
0.714937 0.029237 1.000000
0.878415 0.029237 1.000000
0.970763 0.029237 1.000000
1.000000 0.029237 1.000000
0.000000 0.121585 1.000000
0.029237 0.121585 1.000000
0.121585 0.121585 1.000000
0.285063 0.121585 1.000000
0.500000 0.121585 1.000000
0.714937 0.121585 1.000000
0.878415 0.121585 1.000000
0.970763 0.121585 1.000000
1.000000 0.121585 1.000000
0.000000 0.285063 1.000000
0.029237 0.285063 1.000000
0.121585 0.285063 1.000000
0.285063 0.285063 1.000000
0.500000 0.285063 1.000000
0.714937 0.285063 1.000000
0.878415 0.285063 1.000000
0.970763 0.285063 1.000000
1.000000 0.285063 1.000000
0.000000 0.500000 1.000000
0.029237 0.500000 1.000000
0.121585 0.500000 1.000000
0.285063 0.500000 1.000000
0.500000 0.500000 1.000000
0.714937 0.500000 1.000000
0.878415 0.500000 1.000000
0.970763 0.500000 1.000000
1.000000 0.500000 1.000000
0.000000 0.714937 1.000000
0.029237 0.714937 1.000000
0.121585 0.714937 1.000000
0.285063 0.714937 1.000000
0.500000 0.714937 1.000000
0.714937 0.714937 1.000000
0.878415 0.714937 1.000000
0.970763 0.714937 1.000000
1.000000 0.714937 1.000000
0.000000 0.878415 1.000000
0.029237 0.878415 1.000000
0.121585 0.878415 1.000000
0.285063 0.878415 1.000000
0.500000 0.878415 1.000000
0.714937 0.878415 1.000000
0.878415 0.878415 1.000000
0.970763 0.878415 1.000000
1.000000 0.878415 1.000000
0.000000 0.970763 1.000000
0.029237 0.970763 1.000000
0.121585 0.970763 1.000000
0.285063 0.970763 1.000000
0.500000 0.970763 1.000000
0.714937 0.970763 1.000000
0.878415 0.970763 1.000000
0.970763 0.970763 1.000000
1.000000 0.970763 1.000000
0.000000 1.000000 1.000000
0.029237 1.000000 1.000000
0.121585 1.000000 1.000000
0.285063 1.000000 1.000000
0.500000 1.000000 1.000000
0.714937 1.000000 1.000000
0.878415 1.000000 1.000000
0.970763 1.000000 1.000000
1.000000 1.000000 1.000000
