assets/presets/luts/contrast-plus/lut.cube
TITLE "Contrast +"
LUT_3D_SIZE 17
0.000000 0.000000 0.000000
0.007581 0.000000 0.000000
0.029237 0.000000 0.000000
0.066645 0.000000 0.000000
0.121585 0.000000 0.000000
0.194783 0.000000 0.000000
0.285063 0.000000 0.000000
0.388798 0.000000 0.000000
0.500000 0.000000 0.000000
0.611202 0.000000 0.000000
0.714937 0.000000 0.000000
0.805217 0.000000 0.000000
0.878415 0.000000 0.000000
0.933355 0.000000 0.000000
0.970763 0.000000 0.000000
0.992419 0.000000 0.000000
1.000000 0.000000 0.000000
0.000000 0.007581 0.000000
0.007581 0.007581 0.000000
0.029237 0.007581 0.000000
0.066645 0.007581 0.000000
0.121585 0.007581 0.000000
0.194783 0.007581 0.000000
0.285063 0.007581 0.000000
0.388798 0.007581 0.000000
0.500000 0.007581 0.000000
0.611202 0.007581 0.000000
0.714937 0.007581 0.000000
0.805217 0.007581 0.000000
0.878415 0.007581 0.000000
0.933355 0.007581 0.000000
0.970763 0.007581 0.000000
0.992419 0.007581 0.000000
1.000000 0.007581 0.000000
0.000000 0.029237 0.000000
0.007581 0.029237 0.000000
0.029237 0.029237 0.000000
0.066645 0.029237 0.000000
0.121585 0.029237 0.000000
0.194783 0.029237 0.000000
0.285063 0.029237 0.000000
0.388798 0.029237 0.000000
0.500000 0.029237 0.000000
0.611202 0.029237 0.000000
0.714937 0.029237 0.000000
0.805217 0.029237 0.000000
0.878415 0.029237 0.000000
0.933355 0.029237 0.000000
0.970763 0.029237 0.000000
0.992419 0.029237 0.000000
1.000000 0.029237 0.000000
0.000000 0.066645 0.000000
0.007581 0.066645 0.000000
0.029237 0.066645 0.000000
0.066645 0.066645 0.000000
0.121585 0.066645 0.000000
0.194783 0.066645 0.000000
0.285063 0.066645 0.000000
0.388798 0.066645 0.000000
0.500000 0.066645 0.000000
0.611202 0.066645 0.000000
0.714937 0.066645 0.000000
0.805217 0.066645 0.000000
0.878415 0.066645 0.000000
0.933355 0.066645 0.000000
0.970763 0.066645 0.000000
0.992419 0.066645 0.000000
1.000000 0.066645 0.000000
0.000000 0.121585 0.000000
0.007581 0.121585 0.000000
0.029237 0.121585 0.000000
0.066645 0.121585 0.000000
0.121585 0.121585 0.000000
0.194783 0.121585 0.000000
0.285063 0.121585 0.000000
0.388798 0.121585 0.000000
0.500000 0.121585 0.000000
0.611202 0.121585 0.000000
0.714937 0.121585 0.000000
0.805217 0.121585 0.000000
0.878415 0.121585 0.000000
0.933355 0.121585 0.000000
0.970763 0.121585 0.000000
0.992419 0.121585 0.000000
1.000000 0.121585 0.000000
0.000000 0.194783 0.000000
0.007581 0.194783 0.000000
0.029237 0.194783 0.000000
0.066645 0.194783 0.000000
0.121585 0.194783 0.000000
0.194783 0.194783 0.000000
0.285063 0.194783 0.000000
0.388798 0.194783 0.000000
0.500000 0.194783 0.000000
0.611202 0.194783 0.000000
0.714937 0.194783 0.000000
0.805217 0.194783 0.000000
0.878415 0.194783 0.000000
0.933355 0.194783 0.000000
0.970763 0.194783 0.000000
0.992419 0.194783 0.000000
1.000000 0.194783 0.000000
0.000000 0.285063 0.000000
0.007581 0.285063 0.000000
0.029237 0.285063 0.000000
0.066645 0.285063 0.000000
0.121585 0.285063 0.000000
0.194783 0.285063 0.000000
0.285063 0.285063 0.000000
0.388798 0.285063 0.000000
0.500000 0.285063 0.000000
0.611202 0.285063 0.000000
0.714937 0.285063 0.000000
0.805217 0.285063 0.000000
0.878415 0.285063 0.000000
0.933355 0.285063 0.000000
0.970763 0.285063 0.000000
0.992419 0.285063 0.000000
1.000000 0.285063 0.000000
0.000000 0.388798 0.000000
0.007581 0.388798 0.000000
0.029237 0.388798 0.000000
0.066645 0.388798 0.000000
0.121585 0.388798 0.000000
0.194783 0.388798 0.000000
0.285063 0.388798 0.000000
0.388798 0.388798 0.000000
0.500000 0.388798 0.000000
0.611202 0.388798 0.000000
0.714937 0.388798 0.000000
0.805217 0.388798 0.000000
0.878415 0.388798 0.000000
0.933355 0.388798 0.000000
0.970763 0.388798 0.000000
0.992419 0.388798 0.000000
1.000000 0.388798 0.000000
0.000000 0.500000 0.000000
0.007581 0.500000 0.000000
0.029237 0.500000 0.000000
0.066645 0.500000 0.000000
0.121585 0.500000 0.000000
0.194783 0.500000 0.000000
0.285063 0.500000 0.000000
0.388798 0.500000 0.000000
0.500000 0.500000 0.000000
0.611202 0.500000 0.000000
0.714937 0.500000 0.000000
0.805217 0.500000 0.000000
0.878415 0.500000 0.000000
0.933355 0.500000 0.000000
0.970763 0.500000 0.000000
0.992419 0.500000 0.000000
1.000000 0.500000 0.000000
0.000000 0.611202 0.000000
0.007581 0.611202 0.000000
0.029237 0.611202 0.000000
0.066645 0.611202 0.000000
0.121585 0.611202 0.000000
0.194783 0.611202 0.000000
0.285063 0.611202 0.000000
0.388798 0.611202 0.000000
0.500000 0.611202 0.000000
0.611202 0.611202 0.000000
0.714937 0.611202 0.000000
0.805217 0.611202 0.000000
0.878415 0.611202 0.000000
0.933355 0.611202 0.000000
0.970763 0.611202 0.000000
0.992419 0.611202 0.000000
1.000000 0.611202 0.000000
0.000000 0.714937 0.000000
0.007581 0.714937 0.000000
0.029237 0.714937 0.000000
0.066645 0.714937 0.000000
0.121585 0.714937 0.000000
0.194783 0.714937 0.000000
0.285063 0.714937 0.000000
0.388798 0.714937 0.000000
0.500000 0.714937 0.000000
0.611202 0.714937 0.000000
0.714937 0.714937 0.000000
0.805217 0.714937 0.000000
0.878415 0.714937 0.000000
0.933355 0.714937 0.000000
0.970763 0.714937 0.000000
0.992419 0.714937 0.000000
1.000000 0.714937 0.000000
0.000000 0.805217 0.000000
0.007581 0.805217 0.000000
0.029237 0.805217 0.000000
0.066645 0.805217 0.000000
0.121585 0.805217 0.000000
0.194783 0.805217 0.000000
0.285063 0.805217 0.000000
0.388798 0.805217 0.000000
0.500000 0.805217 0.000000
0.611202 0.805217 0.000000
0.714937 0.805217 0.000000
0.805217 0.805217 0.000000
0.878415 0.805217 0.000000
0.933355 0.805217 0.000000
0.970763 0.805217 0.000000
0.992419 0.805217 0.000000
1.000000 0.805217 0.000000
0.000000 0.878415 0.000000
0.007581 0.878415 0.000000
0.029237 0.878415 0.000000
0.066645 0.878415 0.000000
0.121585 0.878415 0.000000
0.194783 0.878415 0.000000
0.285063 0.878415 0.000000
0.388798 0.878415 0.000000
0.500000 0.878415 0.000000
0.611202 0.878415 0.000000
0.714937 0.878415 0.000000
0.805217 0.878415 0.000000
0.878415 0.878415 0.000000
0.933355 0.878415 0.000000
0.970763 0.878415 0.000000
0.992419 0.878415 0.000000
1.000000 0.878415 0.000000
0.000000 0.933355 0.000000
0.007581 0.933355 0.000000
0.029237 0.933355 0.000000
0.066645 0.933355 0.000000
0.121585 0.933355 0.000000
0.194783 0.933355 0.000000
0.285063 0.933355 0.000000
0.388798 0.933355 0.000000
0.500000 0.933355 0.000000
0.611202 0.933355 0.000000
0.714937 0.933355 0.000000
0.805217 0.933355 0.000000
0.878415 0.933355 0.000000
0.933355 0.933355 0.000000
0.970763 0.933355 0.000000
0.992419 0.933355 0.000000
1.000000 0.933355 0.000000
0.000000 0.970763 0.000000
0.007581 0.970763 0.000000
0.029237 0.970763 0.000000
0.066645 0.970763 0.000000
0.121585 0.970763 0.000000
0.194783 0.970763 0.000000
0.285063 0.970763 0.000000
0.388798 0.970763 0.000000
0.500000 0.970763 0.000000
0.611202 0.970763 0.000000
0.714937 0.970763 0.000000
0.805217 0.970763 0.000000
0.878415 0.970763 0.000000
0.933355 0.970763 0.000000
0.970763 0.970763 0.000000
0.992419 0.970763 0.000000
1.000000 0.970763 0.000000
0.000000 0.992419 0.000000
0.007581 0.992419 0.000000
0.029237 0.992419 0.000000
0.066645 0.992419 0.000000
0.121585 0.992419 0.000000
0.194783 0.992419 0.000000
0.285063 0.992419 0.000000
0.388798 0.992419 0.000000
0.500000 0.992419 0.000000
0.611202 0.992419 0.000000
0.714937 0.992419 0.000000
0.805217 0.992419 0.000000
0.878415 0.992419 0.000000
0.933355 0.992419 0.000000
0.970763 0.992419 0.000000
0.992419 0.992419 0.000000
1.000000 0.992419 0.000000
0.000000 1.000000 0.000000
0.007581 1.000000 0.000000
0.029237 1.000000 0.000000
0.066645 1.000000 0.000000
0.121585 1.000000 0.000000
0.194783 1.000000 0.000000
0.285063 1.000000 0.000000
0.388798 1.000000 0.000000
0.500000 1.000000 0.000000
0.611202 1.000000 0.000000
0.714937 1.000000 0.000000
0.805217 1.000000 0.000000
0.878415 1.000000 0.000000
0.933355 1.000000 0.000000
0.970763 1.000000 0.000000
0.992419 1.000000 0.000000
1.000000 1.000000 0.000000
0.000000 0.000000 0.007581
0.007581 0.000000 0.007581
0.029237 0.000000 0.007581
0.066645 0.000000 0.007581
0.121585 0.000000 0.007581
0.194783 0.000000 0.007581
0.285063 0.000000 0.007581
0.388798 0.000000 0.007581
0.500000 0.000000 0.007581
0.611202 0.000000 0.007581
0.714937 0.000000 0.007581
0.805217 0.000000 0.007581
0.878415 0.000000 0.007581
0.933355 0.000000 0.007581
0.970763 0.000000 0.007581
0.992419 0.000000 0.007581
1.000000 0.000000 0.007581
0.000000 0.007581 0.007581
0.007581 0.007581 0.007581
0.029237 0.007581 0.007581
0.066645 0.007581 0.007581
0.121585 0.007581 0.007581
0.194783 0.007581 0.007581
0.285063 0.007581 0.007581
0.388798 0.007581 0.007581
0.500000 0.007581 0.007581
0.611202 0.007581 0.007581
0.714937 0.007581 0.007581
0.805217 0.007581 0.007581
0.878415 0.007581 0.007581
0.933355 0.007581 0.007581
0.970763 0.007581 0.007581
0.992419 0.007581 0.007581
1.000000 0.007581 0.007581
0.000000 0.029237 0.007581
0.007581 0.029237 0.007581
0.029237 0.029237 0.007581
0.066645 0.029237 0.007581
0.121585 0.029237 0.007581
0.194783 0.029237 0.007581
0.285063 0.029237 0.007581
0.388798 0.029237 0.007581
0.500000 0.029237 0.007581
0.611202 0.029237 0.007581
0.714937 0.029237 0.007581
0.805217 0.029237 0.007581
0.878415 0.029237 0.007581
0.933355 0.029237 0.007581
0.970763 0.029237 0.007581
0.992419 0.029237 0.007581
1.000000 0.029237 0.007581
0.000000 0.066645 0.007581
0.007581 0.066645 0.007581
0.029237 0.066645 0.007581
0.066645 0.066645 0.007581
0.121585 0.066645 0.007581
0.194783 0.066645 0.007581
0.285063 0.066645 0.007581
0.388798 0.066645 0.007581
0.500000 0.066645 0.007581
0.611202 0.066645 0.007581
0.714937 0.066645 0.007581
0.805217 0.066645 0.007581
0.878415 0.066645 0.007581
0.933355 0.066645 0.007581
0.970763 0.066645 0.007581
0.992419 0.066645 0.007581
1.000000 0.066645 0.007581
0.000000 0.121585 0.007581
0.007581 0.121585 0.007581
0.029237 0.121585 0.007581
0.066645 0.121585 0.007581
0.121585 0.121585 0.007581
0.194783 0.121585 0.007581
0.285063 0.121585 0.007581
0.388798 0.121585 0.007581
0.500000 0.121585 0.007581
0.611202 0.121585 0.007581
0.714937 0.121585 0.007581
0.805217 0.121585 0.007581
0.878415 0.121585 0.007581
0.933355 0.121585 0.007581
0.970763 0.121585 0.007581
0.992419 0.121585 0.007581
1.000000 0.121585 0.007581
0.000000 0.194783 0.007581
0.007581 0.194783 0.007581
0.029237 0.194783 0.007581
0.066645 0.194783 0.007581
0.121585 0.194783 0.007581
0.194783 0.194783 0.007581
0.285063 0.194783 0.007581
0.388798 0.194783 0.007581
0.500000 0.194783 0.007581
0.611202 0.194783 0.007581
0.714937 0.194783 0.007581
0.805217 0.194783 0.007581
0.878415 0.194783 0.007581
0.933355 0.194783 0.007581
0.970763 0.194783 0.007581
0.992419 0.194783 0.007581
1.000000 0.194783 0.007581
0.000000 0.285063 0.007581
0.007581 0.285063 0.007581
0.029237 0.285063 0.007581
0.066645 0.285063 0.007581
0.121585 0.285063 0.007581
0.194783 0.285063 0.007581
0.285063 0.285063 0.007581
0.388798 0.285063 0.007581
0.500000 0.285063 0.007581
0.611202 0.285063 0.007581
0.714937 0.285063 0.007581
0.805217 0.285063 0.007581
0.878415 0.285063 0.007581
0.933355 0.285063 0.007581
0.970763 0.285063 0.007581
0.992419 0.285063 0.007581
1.000000 0.285063 0.007581
0.000000 0.388798 0.007581
0.007581 0.388798 0.007581
0.029237 0.388798 0.007581
0.066645 0.388798 0.007581
0.121585 0.388798 0.007581
0.194783 0.388798 0.007581
0.285063 0.388798 0.007581
0.388798 0.388798 0.007581
0.500000 0.388798 0.007581
0.611202 0.388798 0.007581
0.714937 0.388798 0.007581
0.805217 0.388798 0.007581
0.878415 0.388798 0.007581
0.933355 0.388798 0.007581
0.970763 0.388798 0.007581
0.992419 0.388798 0.007581
1.000000 0.388798 0.007581
0.000000 0.500000 0.007581
0.007581 0.500000 0.007581
0.029237 0.500000 0.007581
0.066645 0.500000 0.007581
0.121585 0.500000 0.007581
0.194783 0.500000 0.007581
0.285063 0.500000 0.007581
0.388798 0.500000 0.007581
0.500000 0.500000 0.007581
0.611202 0.500000 0.007581
0.714937 0.500000 0.007581
0.805217 0.500000 0.007581
0.878415 0.500000 0.007581
0.933355 0.500000 0.007581
0.970763 0.500000 0.007581
0.992419 0.500000 0.007581
1.000000 0.500000 0.007581
0.000000 0.611202 0.007581
0.007581 0.611202 0.007581
0.029237 0.611202 0.007581
0.066645 0.611202 0.007581
0.121585 0.611202 0.007581
0.194783 0.611202 0.007581
0.285063 0.611202 0.007581
0.388798 0.611202 0.007581
0.500000 0.611202 0.007581
0.611202 0.611202 0.007581
0.714937 0.611202 0.007581
0.805217 0.611202 0.007581
0.878415 0.611202 0.007581
0.933355 0.611202 0.007581
0.970763 0.611202 0.007581
0.992419 0.611202 0.007581
1.000000 0.611202 0.007581
0.000000 0.714937 0.007581
0.007581 0.714937 0.007581
0.029237 0.714937 0.007581
0.066645 0.714937 0.007581
0.121585 0.714937 0.007581
0.194783 0.714937 0.007581
0.285063 0.714937 0.007581
0.388798 0.714937 0.007581
0.500000 0.714937 0.007581
0.611202 0.714937 0.007581
0.714937 0.714937 0.007581
0.805217 0.714937 0.007581
0.878415 0.714937 0.007581
0.933355 0.714937 0.007581
0.970763 0.714937 0.007581
0.992419 0.714937 0.007581
1.000000 0.714937 0.007581
0.000000 0.805217 0.007581
0.007581 0.805217 0.007581
0.029237 0.805217 0.007581
0.066645 0.805217 0.007581
0.121585 0.805217 0.007581
0.194783 0.805217 0.007581
0.285063 0.805217 0.007581
0.388798 0.805217 0.007581
0.500000 0.805217 0.007581
0.611202 0.805217 0.007581
0.714937 0.805217 0.007581
0.805217 0.805217 0.007581
0.878415 0.805217 0.007581
0.933355 0.805217 0.007581
0.970763 0.805217 0.007581
0.992419 0.805217 0.007581
1.000000 0.805217 0.007581
0.000000 0.878415 0.007581
0.007581 0.878415 0.007581
0.029237 0.878415 0.007581
0.066645 0.878415 0.007581
0.121585 0.878415 0.007581
0.194783 0.878415 0.007581
0.285063 0.878415 0.007581
0.388798 0.878415 0.007581
0.500000 0.878415 0.007581
0.611202 0.878415 0.007581
0.714937 0.878415 0.007581
0.805217 0.878415 0.007581
0.878415 0.878415 0.007581
0.933355 0.878415 0.007581
0.970763 0.878415 0.007581
0.992419 0.878415 0.007581
1.000000 0.878415 0.007581
0.000000 0.933355 0.007581
0.007581 0.933355 0.007581
0.029237 0.933355 0.007581
0.066645 0.933355 0.007581
0.121585 0.933355 0.007581
0.194783 0.933355 0.007581
0.285063 0.933355 0.007581
0.388798 0.933355 0.007581
0.500000 0.933355 0.007581
0.611202 0.933355 0.007581
0.714937 0.933355 0.007581
0.805217 0.933355 0.007581
0.878415 0.933355 0.007581
0.933355 0.933355 0.007581
0.970763 0.933355 0.007581
0.992419 0.933355 0.007581
1.000000 0.933355 0.007581
0.000000 0.970763 0.007581
0.007581 0.970763 0.007581
0.029237 0.970763 0.007581
0.066645 0.970763 0.007581
0.121585 0.970763 0.007581
0.194783 0.970763 0.007581
0.285063 0.970763 0.007581
0.388798 0.970763 0.007581
0.500000 0.970763 0.007581
0.611202 0.970763 0.007581
0.714937 0.970763 0.007581
0.805217 0.970763 0.007581
0.878415 0.970763 0.007581
0.933355 0.970763 0.007581
0.970763 0.970763 0.007581
0.992419 0.970763 0.007581
1.000000 0.970763 0.007581
0.000000 0.992419 0.007581
0.007581 0.992419 0.007581
0.029237 0.992419 0.007581
0.066645 0.992419 0.007581
0.121585 0.992419 0.007581
0.194783 0.992419 0.007581
0.285063 0.992419 0.007581
0.388798 0.992419 0.007581
0.500000 0.992419 0.007581
0.611202 0.992419 0.007581
0.714937 0.992419 0.007581
0.805217 0.992419 0.007581
0.878415 0.992419 0.007581
0.933355 0.992419 0.007581
0.970763 0.992419 0.007581
0.992419 0.992419 0.007581
1.000000 0.992419 0.007581
0.000000 1.000000 0.007581
0.007581 1.000000 0.007581
0.029237 1.000000 0.007581
0.066645 1.000000 0.007581
0.121585 1.000000 0.007581
0.194783 1.000000 0.007581
0.285063 1.000000 0.007581
0.388798 1.000000 0.007581
0.500000 1.000000 0.007581
0.611202 1.000000 0.007581
0.714937 1.000000 0.007581
0.805217 1.000000 0.007581
0.878415 1.000000 0.007581
0.933355 1.000000 0.007581
0.970763 1.000000 0.007581
0.992419 1.000000 0.007581
1.000000 1.000000 0.007581
0.000000 0.000000 0.029237
0.007581 0.000000 0.029237
0.029237 0.000000 0.029237
0.066645 0.000000 0.029237
0.121585 0.000000 0.029237
0.194783 0.000000 0.029237
0.285063 0.000000 0.029237
0.388798 0.000000 0.029237
0.500000 0.000000 0.029237
0.611202 0.000000 0.029237
0.714937 0.000000 0.029237
0.805217 0.000000 0.029237
0.878415 0.000000 0.029237
0.933355 0.000000 0.029237
0.970763 0.000000 0.029237
0.992419 0.000000 0.029237
1.000000 0.000000 0.029237
0.000000 0.007581 0.029237
0.007581 0.007581 0.029237
0.029237 0.007581 0.029237
0.066645 0.007581 0.029237
0.121585 0.007581 0.029237
0.194783 0.007581 0.029237
0.285063 0.007581 0.029237
0.388798 0.007581 0.029237
0.500000 0.007581 0.029237
0.611202 0.007581 0.029237
0.714937 0.007581 0.029237
0.805217 0.007581 0.029237
0.878415 0.007581 0.029237
0.933355 0.007581 0.029237
0.970763 0.007581 0.029237
0.992419 0.007581 0.029237
1.000000 0.007581 0.029237
0.000000 0.029237 0.029237
0.007581 0.029237 0.029237
0.029237 0.029237 0.029237
0.066645 0.029237 0.029237
0.121585 0.029237 0.029237
0.194783 0.029237 0.029237
0.285063 0.029237 0.029237
0.388798 0.029237 0.029237
0.500000 0.029237 0.029237
0.611202 0.029237 0.029237
0.714937 0.029237 0.029237
0.805217 0.029237 0.029237
0.878415 0.029237 0.029237
0.933355 0.029237 0.029237
0.970763 0.029237 0.029237
0.992419 0.029237 0.029237
1.000000 0.029237 0.029237
0.000000 0.066645 0.029237
0.007581 0.066645 0.029237
0.029237 0.066645 0.029237
0.066645 0.066645 0.029237
0.121585 0.066645 0.029237
0.194783 0.066645 0.029237
0.285063 0.066645 0.029237
0.388798 0.066645 0.029237
0.500000 0.066645 0.029237
0.611202 0.066645 0.029237
0.714937 0.066645 0.029237
0.805217 0.066645 0.029237
0.878415 0.066645 0.029237
0.933355 0.066645 0.029237
0.970763 0.066645 0.029237
0.992419 0.066645 0.029237
1.000000 0.066645 0.029237
0.000000 0.121585 0.029237
0.007581 0.121585 0.029237
0.029237 0.121585 0.029237
0.066645 0.121585 0.029237
0.121585 0.121585 0.029237
0.194783 0.121585 0.029237
0.285063 0.121585 0.029237
0.388798 0.121585 0.029237
0.500000 0.121585 0.029237
0.611202 0.121585 0.029237
0.714937 0.121585 0.029237
0.805217 0.121585 0.029237
0.878415 0.121585 0.029237
0.933355 0.121585 0.029237
0.970763 0.121585 0.029237
0.992419 0.121585 0.029237
1.000000 0.121585 0.029237
0.000000 0.194783 0.029237
0.007581 0.194783 0.029237
0.029237 0.194783 0.029237
0.066645 0.194783 0.029237
0.121585 0.194783 0.029237
0.194783 0.194783 0.029237
0.285063 0.194783 0.029237
0.388798 0.194783 0.029237
0.500000 0.194783 0.029237
0.611202 0.194783 0.029237
0.714937 0.194783 0.029237
0.805217 0.194783 0.029237
0.878415 0.194783 0.029237
0.933355 0.194783 0.029237
0.970763 0.194783 0.029237
0.992419 0.194783 0.029237
1.000000 0.194783 0.029237
0.000000 0.285063 0.029237
0.007581 0.285063 0.029237
0.029237 0.285063 0.029237
0.066645 0.285063 0.029237
0.121585 0.285063 0.029237
0.194783 0.285063 0.029237
0.285063 0.285063 0.029237
0.388798 0.285063 0.029237
0.500000 0.285063 0.029237
0.611202 0.285063 0.029237
0.714937 0.285063 0.029237
0.805217 0.285063 0.029237
0.878415 0.285063 0.029237
0.933355 0.285063 0.029237
0.970763 0.285063 0.029237
0.992419 0.285063 0.029237
1.000000 0.285063 0.029237
0.000000 0.388798 0.029237
0.007581 0.388798 0.029237
0.029237 0.388798 0.029237
0.066645 0.388798 0.029237
0.121585 0.388798 0.029237
0.194783 0.388798 0.029237
0.285063 0.388798 0.029237
0.388798 0.388798 0.029237
0.500000 0.388798 0.029237
0.611202 0.388798 0.029237
0.714937 0.388798 0.029237
0.805217 0.388798 0.029237
0.878415 0.388798 0.029237
0.933355 0.388798 0.029237
0.970763 0.388798 0.029237
0.992419 0.388798 0.029237
1.000000 0.388798 0.029237
0.000000 0.500000 0.029237
0.007581 0.500000 0.029237
0.029237 0.500000 0.029237
0.066645 0.500000 0.029237
0.121585 0.500000 0.029237
0.194783 0.500000 0.029237
0.285063 0.500000 0.029237
0.388798 0.500000 0.029237
0.500000 0.500000 0.029237
0.611202 0.500000 0.029237
0.714937 0.500000 0.029237
0.805217 0.500000 0.029237
0.878415 0.500000 0.029237
0.933355 0.500000 0.029237
0.970763 0.500000 0.029237
0.992419 0.500000 0.029237
1.000000 0.500000 0.029237
0.000000 0.611202 0.029237
0.007581 0.611202 0.029237
0.029237 0.611202 0.029237
0.066645 0.611202 0.029237
0.121585 0.611202 0.029237
0.194783 0.611202 0.029237
0.285063 0.611202 0.029237
0.388798 0.611202 0.029237
0.500000 0.611202 0.029237
0.611202 0.611202 0.029237
0.714937 0.611202 0.029237
0.805217 0.611202 0.029237
0.878415 0.611202 0.029237
0.933355 0.611202 0.029237
0.970763 0.611202 0.029237
0.992419 0.611202 0.029237
1.000000 0.611202 0.029237
0.000000 0.714937 0.029237
0.007581 0.714937 0.029237
0.029237 0.714937 0.029237
0.066645 0.714937 0.029237
0.121585 0.714937 0.029237
0.194783 0.714937 0.029237
0.285063 0.714937 0.029237
0.388798 0.714937 0.029237
0.500000 0.714937 0.029237
0.611202 0.714937 0.029237
0.714937 0.714937 0.029237
0.805217 0.714937 0.029237
0.878415 0.714937 0.029237
0.933355 0.714937 0.029237
0.970763 0.714937 0.029237
0.992419 0.714937 0.029237
1.000000 0.714937 0.029237
0.000000 0.805217 0.029237
0.007581 0.805217 0.029237
0.029237 0.805217 0.029237
0.066645 0.805217 0.029237
0.121585 0.805217 0.029237
0.194783 0.805217 0.029237
0.285063 0.805217 0.029237
0.388798 0.805217 0.029237
0.500000 0.805217 0.029237
0.611202 0.805217 0.029237
0.714937 0.805217 0.029237
0.805217 0.805217 0.029237
0.878415 0.805217 0.029237
0.933355 0.805217 0.029237
0.970763 0.805217 0.029237
0.992419 0.805217 0.029237
1.000000 0.805217 0.029237
0.000000 0.878415 0.029237
0.007581 0.878415 0.029237
0.029237 0.878415 0.029237
0.066645 0.878415 0.029237
0.121585 0.878415 0.029237
0.194783 0.878415 0.029237
0.285063 0.878415 0.029237
0.388798 0.878415 0.029237
0.500000 0.878415 0.029237
0.611202 0.878415 0.029237
0.714937 0.878415 0.029237
0.805217 0.878415 0.029237
0.878415 0.878415 0.029237
0.933355 0.878415 0.029237
0.970763 0.878415 0.029237
0.992419 0.878415 0.029237
1.000000 0.878415 0.029237
0.000000 0.933355 0.029237
0.007581 0.933355 0.029237
0.029237 0.933355 0.029237
0.066645 0.933355 0.029237
0.121585 0.933355 0.029237
0.194783 0.933355 0.029237
0.285063 0.933355 0.029237
0.388798 0.933355 0.029237
0.500000 0.933355 0.029237
0.611202 0.933355 0.029237
0.714937 0.933355 0.029237
0.805217 0.933355 0.029237
0.878415 0.933355 0.029237
0.933355 0.933355 0.029237
0.970763 0.933355 0.029237
0.992419 0.933355 0.029237
1.000000 0.933355 0.029237
0.000000 0.970763 0.029237
0.007581 0.970763 0.029237
0.029237 0.970763 0.029237
0.066645 0.970763 0.029237
0.121585 0.970763 0.029237
0.194783 0.970763 0.029237
0.285063 0.970763 0.029237
0.388798 0.970763 0.029237
0.500000 0.970763 0.029237
0.611202 0.970763 0.029237
0.714937 0.970763 0.029237
0.805217 0.970763 0.029237
0.878415 0.970763 0.029237
0.933355 0.970763 0.029237
0.970763 0.970763 0.029237
0.992419 0.970763 0.029237
1.000000 0.970763 0.029237
0.000000 0.992419 0.029237
0.007581 0.992419 0.029237
0.029237 0.992419 0.029237
0.066645 0.992419 0.029237
0.121585 0.992419 0.029237
0.194783 0.992419 0.029237
0.285063 0.992419 0.029237
0.388798 0.992419 0.029237
0.500000 0.992419 0.029237
0.611202 0.992419 0.029237
0.714937 0.992419 0.029237
0.805217 0.992419 0.029237
0.878415 0.992419 0.029237
0.933355 0.992419 0.029237
0.970763 0.992419 0.029237
0.992419 0.992419 0.029237
1.000000 0.992419 0.029237
0.000000 1.000000 0.029237
0.007581 1.000000 0.029237
0.029237 1.000000 0.029237
0.066645 1.000000 0.029237
0.121585 1.000000 0.029237
0.194783 1.000000 0.029237
0.285063 1.000000 0.029237
0.388798 1.000000 0.029237
0.500000 1.000000 0.029237
0.611202 1.000000 0.029237
0.714937 1.000000 0.029237
0.805217 1.000000 0.029237
0.878415 1.000000 0.029237
0.933355 1.000000 0.029237
0.970763 1.000000 0.029237
0.992419 1.000000 0.029237
1.000000 1.000000 0.029237
0.000000 0.000000 0.066645
0.007581 0.000000 0.066645
0.029237 0.000000 0.066645
0.066645 0.000000 0.066645
0.121585 0.000000 0.066645
0.194783 0.000000 0.066645
0.285063 0.000000 0.066645
0.388798 0.000000 0.066645
0.500000 0.000000 0.066645
0.611202 0.000000 0.066645
0.714937 0.000000 0.066645
0.805217 0.000000 0.066645
0.878415 0.000000 0.066645
0.933355 0.000000 0.066645
0.970763 0.000000 0.066645
0.992419 0.000000 0.066645
1.000000 0.000000 0.066645
0.000000 0.007581 0.066645
0.007581 0.007581 0.066645
0.029237 0.007581 0.066645
