assets/presets/luts/contrast-plus/lut.cube
TITLE "Contrast +"
LUT_3D_SIZE 5
0.000000 0.000000 0.000000
0.121585 0.000000 0.000000
0.500000 0.000000 0.000000
0.878415 0.000000 0.000000
1.000000 0.000000 0.000000
0.000000 0.121585 0.000000
0.121585 0.121585 0.000000
0.500000 0.121585 0.000000
0.878415 0.121585 0.000000
1.000000 0.121585 0.000000
0.000000 0.500000 0.000000
0.121585 0.500000 0.000000
0.500000 0.500000 0.000000
0.878415 0.500000 0.000000
1.000000 0.500000 0.000000
0.000000 0.878415 0.000000
0.121585 0.878415 0.000000
0.500000 0.878415 0.000000
0.878415 0.878415 0.000000
1.000000 0.878415 0.000000
0.000000 1.000000 0.000000
0.121585 1.000000 0.000000
0.500000 1.000000 0.000000
0.878415 1.000000 0.000000
1.000000 1.000000 0.000000
0.000000 0.000000 0.121585
0.121585 0.000000 0.121585
0.500000 0.000000 0.121585
0.878415 0.000000 0.121585
1.000000 0.000000 0.121585
0.000000 0.121585 0.121585
0.121585 0.121585 0.121585
0.500000 0.121585 0.121585
0.878415 0.121585 0.121585
1.000000 0.121585 0.121585
0.000000 0.500000 0.121585
0.121585 0.500000 0.121585
0.500000 0.500000 0.121585
0.878415 0.500000 0.121585
1.000000 0.500000 0.121585
0.000000 0.878415 0.121585
0.121585 0.878415 0.121585
0.500000 0.878415 0.121585
0.878415 0.878415 0.121585
1.000000 0.878415 0.121585
0.000000 1.000000 0.121585
0.121585 1.000000 0.121585
0.500000 1.000000 0.121585
0.878415 1.000000 0.121585
1.000000 1.000000 0.121585
0.000000 0.000000 0.500000
0.121585 0.000000 0.500000
0.500000 0.000000 0.500000
0.878415 0.000000 0.500000
1.000000 0.000000 0.500000
0.000000 0.121585 0.500000
0.121585 0.121585 0.500000
0.500000 0.121585 0.500000
0.878415 0.121585 0.500000
1.000000 0.121585 0.500000
0.000000 0.500000 0.500000
0.121585 0.500000 0.500000
0.500000 0.500000 0.500000
0.878415 0.500000 0.500000
1.000000 0.500000 0.500000
0.000000 0.878415 0.500000
0.121585 0.878415 0.500000
0.500000 0.878415 0.500000
0.878415 0.878415 0.500000
1.000000 0.878415 0.500000
0.000000 1.000000 0.500000
0.121585 1.000000 0.500000
0.500000 1.000000 0.500000
0.878415 1.000000 0.500000
1.000000 1.000000 0.500000
0.000000 0.000000 0.878415
0.121585 0.000000 0.878415
0.500000 0.000000 0.878415
0.878415 0.000000 0.878415
1.000000 0.000000 0.878415
0.000000 0.121585 0.878415
0.121585 0.121585 0.878415
0.500000 0.121585 0.878415
0.878415 0.121585 0.878415
1.000000 0.121585 0.878415
0.000000 0.500000 0.878415
0.121585 0.500000 0.878415
0.500000 0.500000 0.878415
0.878415 0.500000 0.878415
1.000000 0.500000 0.878415
0.000000 0.878415 0.878415
0.121585 0.878415 0.878415
0.500000 0.878415 0.878415
0.878415 0.878415 0.878415
1.000000 0.878415 0.878415
0.000000 1.000000 0.878415
0.121585 1.000000 0.878415
0.500000 1.000000 0.878415
0.878415 1.000000 0.878415
1.000000 1.000000 0.878415
0.000000 0.000000 1.000000
0.121585 0.000000 1.000000
0.500000 0.000000 1.000000
0.878415 0.000000 1.000000
1.000000 0.000000 1.000000
0.000000 0.121585 1.000000
0.121585 0.121585 1.000000
0.500000 0.121585 1.000000
0.878415 0.121585 1.000000
1.000000 0.121585 1.000000
0.000000 0.500000 1.000000
0.121585 0.500000 1.000000
0.500000 0.500000 1.000000
0.878415 0.500000 1.000000
1.000000 0.500000 1.000000
0.000000 0.878415 1.000000
0.121585 0.878415 1.000000
0.500000 0.878415 1.000000
0.878415 0.878415 1.000000
1.000000 0.878415 1.000000
0.000000 1.000000 1.000000
0.121585 1.000000 1.000000
0.500000 1.000000 1.000000
0.878415 1.000000 1.000000
1.000000 1.000000 1.000000
