assets/presets/luts/daylight-neg/lut.cube
TITLE "Daylight Neg"
LUT_3D_SIZE 5
0.000000 0.000000 0.004300
0.159310 0.000000 0.003587
0.505237 0.000000 0.001866
0.851306 0.000000 0.000000
1.000000 0.000000 0.000000
0.000000 0.159882 0.001665
0.157380 0.159239 0.000770
0.503509 0.157886 0.000000
0.849707 0.156549 0.000000
1.000000 0.155925 0.000000
0.000000 0.502552 0.000000
0.154010 0.501942 0.000000
0.500329 0.500697 0.000000
0.846659 0.499497 0.000000
1.000000 0.498940 0.000000
0.000000 0.845627 0.000000
0.150966 0.845065 0.000000
0.497068 0.843851 0.000000
0.843150 0.842627 0.000000
1.000000 0.842042 0.000000
0.000000 1.000000 0.000000
0.149237 1.000000 0.000000
0.495294 1.000000 0.000000
0.841281 1.000000 0.000000
1.000000 1.000000 0.000000
0.000000 0.000000 0.166872
0.159097 0.000000 0.166137
0.505050 0.000000 0.164377
0.851137 0.000000 0.162414
1.000000 0.000000 0.161443
0.000000 0.159663 0.164173
0.157204 0.159022 0.163263
0.503347 0.157672 0.161215
0.849551 0.156337 0.159074
1.000000 0.155713 0.158059
0.000000 0.502343 0.157135
0.153867 0.501740 0.156108
0.500193 0.500504 0.153920
0.846518 0.499308 0.151814
1.000000 0.498751 0.150881
0.000000 0.845437 0.150076
0.150795 0.844872 0.149245
0.496893 0.843658 0.147555
0.842970 0.842429 0.145881
1.000000 0.841842 0.145107
0.000000 1.000000 0.147372
0.149059 1.000000 0.146585
0.495108 1.000000 0.144930
0.841079 1.000000 0.143327
1.000000 1.000000 0.142601
0.000000 0.000000 0.513540
0.158657 0.000000 0.512760
0.504661 0.000000 0.510923
0.850783 0.000000 0.508906
1.000000 0.000000 0.507919
0.000000 0.159198 0.510712
0.156837 0.158561 0.509776
0.503007 0.157218 0.507688
0.849221 0.155885 0.505533
1.000000 0.155263 0.504517
0.000000 0.501904 0.503586
0.153567 0.501313 0.502555
0.499902 0.500095 0.500385
0.846208 0.498905 0.498328
1.000000 0.498347 0.497429
0.000000 0.845029 0.496661
0.150423 0.844460 0.495864
0.496518 0.843243 0.494177
0.842579 0.842005 0.492513
1.000000 0.841410 0.491747
0.000000 1.000000 0.493995
0.148677 1.000000 0.493212
0.494703 1.000000 0.491572
0.840641 1.000000 0.489993
1.000000 1.000000 0.489280
0.000000 0.000000 0.860174
0.158237 0.000000 0.859354
0.504286 0.000000 0.857448
0.850438 0.000000 0.855387
1.000000 0.000000 0.854387
0.000000 0.158736 0.857231
0.156482 0.158103 0.856272
0.502672 0.156764 0.854154
0.848890 0.155433 0.851991
1.000000 0.154821 0.850969
0.000000 0.501475 0.850033
0.153274 0.500894 0.849005
0.499608 0.499689 0.846862
0.845885 0.498501 0.844866
1.000000 0.497939 0.844007
0.000000 0.844617 0.843276
0.150052 0.844048 0.842484
0.496139 0.842826 0.840802
0.842181 0.841575 0.839151
1.000000 0.840971 0.838394
0.000000 1.000000 0.840621
0.148288 1.000000 0.839843
0.494288 1.000000 0.838221
0.840188 1.000000 0.836668
1.000000 1.000000 0.835970
0.000000 0.000000 1.000000
0.158046 0.000000 1.000000
0.504115 0.000000 1.000000
0.850279 0.000000 1.000000
1.000000 0.000000 1.000000
0.000000 0.158520 1.000000
0.156318 0.157889 1.000000
0.502515 0.156552 1.000000
0.848737 0.155223 1.000000
1.000000 0.154618 1.000000
0.000000 0.501276 1.000000
0.153137 0.500700 1.000000
0.499468 0.499500 1.000000
0.845728 0.498311 1.000000
1.000000 0.497747 1.000000
0.000000 0.844424 1.000000
0.149877 0.843854 1.000000
0.495959 0.842630 1.000000
0.841991 0.841371 1.000000
1.000000 0.840763 1.000000
0.000000 1.000000 1.000000
0.148103 1.000000 1.000000
0.494090 1.000000 1.000000
0.839971 1.000000 0.999235
1.000000 1.000000 0.998545
