assets/presets/luts/daylight-neg/lut.cube
TITLE "Daylight Neg"
LUT_3D_SIZE 9
0.000000 0.000000 0.004300
0.048057 0.000000 0.004083
0.159310 0.000000 0.003587
0.318187 0.000000 0.002828
0.505237 0.000000 0.001866
0.692328 0.000000 0.000842
0.851306 0.000000 0.000000
0.962665 0.000000 0.000000
1.000000 0.000000 0.000000
0.000000 0.049699 0.003545
0.047379 0.049490 0.003307
0.158662 0.049037 0.002766
0.317577 0.048396 0.001950
0.504665 0.047652 0.000930
0.691788 0.046917 0.000000
0.850787 0.046298 0.000000
0.962159 0.045866 0.000000
1.000000 0.045669 0.000000
0.000000 0.159882 0.001665
0.046045 0.159679 0.001389
0.157380 0.159239 0.000770
0.316359 0.158614 0.000000
0.503509 0.157886 0.000000
0.690679 0.157162 0.000000
0.849707 0.156549 0.000000
0.961092 0.156121 0.000000
1.000000 0.155925 0.000000
0.000000 0.317263 0.000000
0.044390 0.317066 0.000000
0.155767 0.316636 0.000000
0.314795 0.316023 0.000000
0.501982 0.315303 0.000000
0.689174 0.314588 0.000000
0.848234 0.313998 0.000000
0.959650 0.313595 0.000000
1.000000 0.313412 0.000000
0.000000 0.502552 0.000000
0.042609 0.502358 0.000000
0.154010 0.501942 0.000000
0.313082 0.501363 0.000000
0.500329 0.500697 0.000000
0.687580 0.500045 0.000000
0.846659 0.499497 0.000000
0.958069 0.499115 0.000000
1.000000 0.498940 0.000000
0.000000 0.687988 0.000000
0.041011 0.687811 0.000000
0.152431 0.687427 0.000000
0.311503 0.686881 0.000000
0.498710 0.686238 0.000000
0.685878 0.685590 0.000000
0.844859 0.685033 0.000000
0.956205 0.684643 0.000000
1.000000 0.684464 0.000000
0.000000 0.845627 0.000000
0.039598 0.845451 0.000000
0.150966 0.845065 0.000000
0.309946 0.844508 0.000000
0.497068 0.843851 0.000000
0.684185 0.843192 0.000000
0.843150 0.842627 0.000000
0.954482 0.842227 0.000000
1.000000 0.842042 0.000000
0.000000 0.956020 0.000000
0.038438 0.955841 0.000000
0.149784 0.955450 0.000000
0.308757 0.954890 0.000000
0.495864 0.954223 0.000000
0.682955 0.953547 0.000000
0.841889 0.952961 0.000000
0.953195 0.952544 0.000000
1.000000 0.952351 0.000000
0.000000 1.000000 0.000000
0.037894 1.000000 0.000000
0.149237 1.000000 0.000000
0.308201 1.000000 0.000000
0.495294 1.000000 0.000000
0.682366 1.000000 0.000000
0.841281 1.000000 0.000000
0.952570 1.000000 0.000000
1.000000 1.000000 0.000000
0.000000 0.000000 0.055335
0.047986 0.000000 0.055116
0.159243 0.000000 0.054615
0.318124 0.000000 0.053850
0.505178 0.000000 0.052882
0.692272 0.000000 0.051852
0.851253 0.000000 0.050937
0.962613 0.000000 0.050278
1.000000 0.000000 0.049972
0.000000 0.049628 0.054573
0.047314 0.049419 0.054333
0.158599 0.048967 0.053788
0.317518 0.048327 0.052966
0.504609 0.047584 0.051941
0.691735 0.046849 0.050864
0.850736 0.046230 0.049918
0.962108 0.045799 0.049241
1.000000 0.045602 0.048928
0.000000 0.159813 0.052680
0.045988 0.159611 0.052402
0.157324 0.159170 0.051780
0.316306 0.158547 0.050862
0.503458 0.157819 0.049746
0.690629 0.157095 0.048600
0.849658 0.156483 0.047612
0.961043 0.156054 0.046916
1.000000 0.155859 0.046597
0.000000 0.317196 0.049585
0.044340 0.316999 0.049275
0.155718 0.316569 0.048590
0.314746 0.315956 0.047602
0.501933 0.315237 0.046432
0.689128 0.314523 0.045259
0.848190 0.313935 0.044251
0.959606 0.313533 0.043545
1.000000 0.313351 0.043222
0.000000 0.502486 0.045674
0.042562 0.502293 0.045354
0.153965 0.501878 0.044649
0.313038 0.501300 0.043640
0.500286 0.500636 0.042458
0.687537 0.499985 0.041297
0.846615 0.499438 0.040339
0.958024 0.499056 0.039687
1.000000 0.498881 0.039396
0.000000 0.687927 0.041704
0.040968 0.687751 0.041390
0.152388 0.687367 0.040713
0.311458 0.686821 0.039774
0.498662 0.686178 0.038723
0.685825 0.685530 0.037742
0.844804 0.684973 0.036962
0.956150 0.684582 0.036418
1.000000 0.684404 0.036170
0.000000 0.845567 0.038579
0.039548 0.845391 0.038308
0.150913 0.845004 0.037734
0.309892 0.844447 0.036954
0.497013 0.843791 0.036041
0.684129 0.843131 0.035131
0.843094 0.842565 0.034364
0.954425 0.842164 0.033830
1.000000 0.841979 0.033588
0.000000 0.955959 0.036694
0.038384 0.955780 0.036445
0.149729 0.955389 0.035902
0.308701 0.954828 0.035129
0.495807 0.954161 0.034227
0.682896 0.953484 0.033335
0.841829 0.952897 0.032590
0.953133 0.952478 0.032075
1.000000 0.952285 0.031842
0.000000 1.000000 0.035858
0.037839 1.000000 0.035610
0.149181 1.000000 0.035069
0.308145 1.000000 0.034302
0.495236 1.000000 0.033410
0.682306 1.000000 0.032532
0.841218 1.000000 0.031800
0.952505 1.000000 0.031297
1.000000 1.000000 0.031070
0.000000 0.000000 0.166872
0.047834 0.000000 0.166648
0.159097 0.000000 0.166137
0.317987 0.000000 0.165358
0.505050 0.000000 0.164377
0.692151 0.000000 0.163336
0.851137 0.000000 0.162414
0.962500 0.000000 0.161750
1.000000 0.000000 0.161443
0.000000 0.049473 0.166094
0.047171 0.049265 0.165849
0.158463 0.048814 0.165295
0.317389 0.048176 0.164462
0.504488 0.047435 0.163426
0.691619 0.046702 0.162340
0.850624 0.046084 0.161388
0.961999 0.045653 0.160708
1.000000 0.045456 0.160394
0.000000 0.159663 0.164173
0.045863 0.159461 0.163892
0.157204 0.159022 0.163263
0.316191 0.158399 0.162338
0.503347 0.157672 0.161215
0.690521 0.156949 0.160064
0.849551 0.156337 0.159074
0.960937 0.155909 0.158378
1.000000 0.155713 0.158059
0.000000 0.317050 0.161054
0.044230 0.316853 0.160742
0.155610 0.316423 0.160054
0.314640 0.315811 0.159064
0.501827 0.315091 0.157894
0.689026 0.314381 0.156718
0.848093 0.313798 0.155710
0.959511 0.313397 0.155004
1.000000 0.313216 0.154681
0.000000 0.502343 0.157135
0.042461 0.502151 0.156814
0.153867 0.501740 0.156108
0.312943 0.501165 0.155099
0.500193 0.500504 0.153920
0.687442 0.499855 0.152765
0.846518 0.499308 0.151814
0.957923 0.498926 0.151169
1.000000 0.498751 0.150881
0.000000 0.687796 0.153169
0.040874 0.687620 0.152857
0.152292 0.687237 0.152185
0.311357 0.686692 0.151255
0.498554 0.686048 0.150217
0.685707 0.685398 0.149253
0.844684 0.684840 0.148476
0.956031 0.684450 0.147932
1.000000 0.684271 0.147684
0.000000 0.845437 0.150076
0.039436 0.845260 0.149808
0.150795 0.844872 0.149245
0.309772 0.844315 0.148468
0.496893 0.843658 0.147555
0.684008 0.842997 0.146646
0.842970 0.842429 0.145881
0.954299 0.842027 0.145349
1.000000 0.841842 0.145107
0.000000 0.955826 0.148208
0.038264 0.955648 0.147959
0.149609 0.955256 0.147417
0.308579 0.954694 0.146645
0.495682 0.954025 0.145744
0.682768 0.953345 0.144856
0.841696 0.952756 0.144113
0.952997 0.952335 0.143600
1.000000 0.952140 0.143368
0.000000 1.000000 0.147372
0.037719 1.000000 0.147125
0.149059 1.000000 0.146585
0.308020 1.000000 0.145820
0.495108 1.000000 0.144930
0.682172 1.000000 0.144055
0.841079 1.000000 0.143327
0.952363 1.000000 0.142827
1.000000 1.000000 0.142601
0.000000 0.000000 0.326114
0.047620 0.000000 0.325884
0.158893 0.000000 0.325359
0.317795 0.000000 0.324562
0.504869 0.000000 0.323562
0.691981 0.000000 0.322506
0.850973 0.000000 0.321573
0.962341 0.000000 0.320904
1.000000 0.000000 0.320594
0.000000 0.049253 0.325315
0.046972 0.049046 0.325064
0.158271 0.048596 0.324498
0.317208 0.047962 0.323649
0.504317 0.047223 0.322597
0.691456 0.046491 0.321499
0.850466 0.045875 0.320539
0.961844 0.045444 0.319855
1.000000 0.045248 0.319540
0.000000 0.159449 0.323355
0.045688 0.159248 0.323069
0.157034 0.158810 0.322433
0.316028 0.158189 0.321497
0.503190 0.157463 0.320365
0.690368 0.156741 0.319209
0.849399 0.156130 0.318216
0.960785 0.155701 0.317520
1.000000 0.155505 0.317202
0.000000 0.316841 0.320203
0.044075 0.316644 0.319889
0.155456 0.316215 0.319199
0.314488 0.315603 0.318207
0.501675 0.314884 0.317036
0.688884 0.314181 0.315856
0.847957 0.313603 0.314847
0.959377 0.313205 0.314142
1.000000 0.313026 0.313821
0.000000 0.502140 0.316274
0.042318 0.501951 0.315952
0.153728 0.501543 0.315245
0.312809 0.500973 0.314237
0.500059 0.500316 0.313064
0.687306 0.499669 0.311918
0.846377 0.499123 0.310979
0.957777 0.498741 0.310344
1.000000 0.498566 0.310061
0.000000 0.687610 0.312318
0.040738 0.687434 0.312009
0.152153 0.687052 0.311345
0.311212 0.686506 0.310429
0.498398 0.685861 0.309410
0.685537 0.685208 0.308469
0.844514 0.684651 0.307692
0.955859 0.684260 0.307149
1.000000 0.684081 0.306901
0.000000 0.845250 0.309272
0.039274 0.845073 0.309011
0.150624 0.844683 0.308461
0.309601 0.844125 0.307684
0.496721 0.843468 0.306772
0.683833 0.842805 0.305866
0.842791 0.842235 0.305102
0.954117 0.841831 0.304573
1.000000 0.841644 0.304332
0.000000 0.955637 0.307424
0.038093 0.955458 0.307176
0.149437 0.955066 0.306634
0.308404 0.954502 0.305864
0.495503 0.953830 0.304966
0.682582 0.953146 0.304082
0.841505 0.952552 0.303343
0.952800 0.952128 0.302835
1.000000 0.951932 0.302604
0.000000 1.000000 0.306590
0.037545 1.000000 0.306342
0.148884 1.000000 0.305804
0.307842 1.000000 0.305041
0.494923 1.000000 0.304156
0.681980 1.000000 0.303286
0.840880 1.000000 0.302563
0.952157 1.000000 0.302067
1.000000 1.000000 0.301843
0.000000 0.000000 0.513540
0.047375 0.000000 0.513301
0.158657 0.000000 0.512760
0.317573 0.000000 0.511943
0.504661 0.000000 0.510923
0.691784 0.000000 0.509851
0.850783 0.000000 0.508906
0.962155 0.000000 0.508231
1.000000 0.000000 0.507919
0.000000 0.048995 0.512715
0.046742 0.048789 0.512457
0.158050 0.048342 0.511877
0.316999 0.047710 0.511011
0.504119 0.046974 0.509943
0.691267 0.046244 0.508832
0.850282 0.045629 0.507863
0.961662 0.045199 0.507175
1.000000 0.045003 0.506859
0.000000 0.159198 0.510712
0.045485 0.158997 0.510422
0.156837 0.158561 0.509776
0.315838 0.157942 0.508830
0.503007 0.157218 0.507688
0.690188 0.156497 0.506526
0.849221 0.155885 0.505533
0.960606 0.155457 0.504836
1.000000 0.155263 0.504517
0.000000 0.316596 0.507525
0.043893 0.316399 0.507209
0.155277 0.315970 0.506517
0.314309 0.315359 0.505523
0.501500 0.314642 0.504351
0.688719 0.313948 0.503167
0.847797 0.313375 0.502158
0.959220 0.312981 0.501455
1.000000 0.312803 0.501136
0.000000 0.501904 0.503586
0.042152 0.501717 0.503262
0.153567 0.501313 0.502555
0.312651 0.500748 0.501550
0.499902 0.500095 0.500385
0.687144 0.499450 0.499252
0.846208 0.498905 0.498328
0.957601 0.498522 0.497706
1.000000 0.498347 0.497429
0.000000 0.687391 0.499647
0.040577 0.687216 0.499342
0.151987 0.686834 0.498688
0.311037 0.686288 0.497789
0.498208 0.685641 0.496795
0.685336 0.684986 0.495872
0.844312 0.684428 0.495096
0.955657 0.684036 0.494553
1.000000 0.683857 0.494306
0.000000 0.845029 0.496661
0.039077 0.844850 0.496408
0.150423 0.844460 0.495864
0.309400 0.843902 0.495088
0.496518 0.843243 0.494177
0.683626 0.842578 0.493273
0.842579 0.842005 0.492513
0.953901 0.841598 0.491987
1.000000 0.841410 0.491747
0.000000 0.955414 0.494828
0.037890 0.955234 0.494580
0.149233 0.954841 0.494039
0.308197 0.954275 0.493272
0.495290 0.953600 0.492378
0.682362 0.952910 0.491499
0.841276 0.952311 0.490766
0.952565 0.951883 0.490261
1.000000 0.951684 0.490033
0.000000 1.000000 0.493995
0.037341 1.000000 0.493749
0.148677 1.000000 0.493212
0.307629 1.000000 0.492453
0.494703 1.000000 0.491572
0.681751 1.000000 0.490709
0.840641 1.000000 0.489993
0.951911 1.000000 0.489502
1.000000 1.000000 0.489280
0.000000 0.000000 0.700955
0.047135 0.000000 0.700709
0.158428 0.000000 0.700153
0.317356 0.000000 0.699317
0.504457 0.000000 0.698278
0.691590 0.000000 0.697190
0.850596 0.000000 0.696236
0.961971 0.000000 0.695555
1.000000 0.000000 0.695241
0.000000 0.048738 0.700107
0.046517 0.048533 0.699843
0.157835 0.048088 0.699250
0.316793 0.047459 0.698367
0.503924 0.046725 0.697283
0.691080 0.045998 0.696161
0.850100 0.045384 0.695185
0.961482 0.044955 0.694494
1.000000 0.044759 0.694176
0.000000 0.158948 0.698063
0.045286 0.158748 0.697769
0.156644 0.158313 0.697114
0.315651 0.157695 0.696159
0.502825 0.156972 0.695009
0.690009 0.156252 0.693843
0.849042 0.155641 0.692849
0.960430 0.155215 0.692152
1.000000 0.155023 0.691831
0.000000 0.316351 0.694845
0.043713 0.316154 0.694528
0.155098 0.315726 0.693833
0.314130 0.315115 0.692839
0.501329 0.314404 0.691664
0.688557 0.313718 0.690477
0.847639 0.313150 0.689470
0.959063 0.312759 0.688771
1.000000 0.312581 0.688454
0.000000 0.501671 0.690896
0.041990 0.501486 0.690572
0.153408 0.501086 0.689866
0.312494 0.500525 0.688865
0.499744 0.499875 0.687709
0.686980 0.499232 0.686592
0.846035 0.498687 0.685684
0.957420 0.498303 0.685076
1.000000 0.498127 0.684806
0.000000 0.687172 0.686981
0.040414 0.686998 0.686680
0.151818 0.686616 0.686037
0.310858 0.686069 0.685156
0.498012 0.685419 0.684190
0.685135 0.684763 0.683275
0.844111 0.684205 0.682500
0.955454 0.683812 0.681958
1.000000 0.683632 0.681711
0.000000 0.844806 0.684060
0.038876 0.844627 0.683811
0.150222 0.844237 0.683267
0.309199 0.843679 0.682492
0.496313 0.843018 0.681583
0.683417 0.842350 0.680682
0.842365 0.841773 0.679926
0.953682 0.841363 0.679402
1.000000 0.841174 0.679165
0.000000 0.955190 0.682232
0.037687 0.955010 0.681985
0.149028 0.954616 0.681445
0.307988 0.954047 0.680680
0.495075 0.953367 0.679791
0.682138 0.952673 0.678918
0.841044 0.952068 0.678191
0.952326 0.951635 0.677691
1.000000 0.951434 0.677465
0.000000 1.000000 0.681401
0.037134 1.000000 0.681156
0.148467 1.000000 0.680621
0.307414 1.000000 0.679865
0.494480 1.000000 0.678990
0.681518 1.000000 0.678134
0.840398 1.000000 0.677425
0.951660 1.000000 0.676939
1.000000 1.000000 0.676720
0.000000 0.000000 0.860174
0.046936 0.000000 0.859923
0.158237 0.000000 0.859354
0.317176 0.000000 0.858503
0.504286 0.000000 0.857448
0.691427 0.000000 0.856349
0.850438 0.000000 0.855387
0.961816 0.000000 0.854702
1.000000 0.000000 0.854387
0.000000 0.048521 0.859307
0.046331 0.048317 0.859038
0.157655 0.047874 0.858434
0.316622 0.047246 0.857539
0.503761 0.046515 0.856443
0.690922 0.045789 0.855311
0.849946 0.045176 0.854330
0.961329 0.044747 0.853637
1.000000 0.044551 0.853319
0.000000 0.158736 0.857231
0.045120 0.158537 0.856933
0.156482 0.158103 0.856272
0.315494 0.157486 0.855309
0.502672 0.156764 0.854154
0.689857 0.156045 0.852985
0.848890 0.155433 0.851991
0.960284 0.155011 0.851291
1.000000 0.154821 0.850969
0.000000 0.316143 0.853989
0.043561 0.315947 0.853671
0.154946 0.315518 0.852975
0.313978 0.314907 0.851981
0.501186 0.314204 0.850802
0.688421 0.313523 0.849614
0.847506 0.312960 0.848610
0.958929 0.312570 0.847915
1.000000 0.312394 0.847600
0.000000 0.501475 0.850033
0.041853 0.501291 0.849710
0.153274 0.500894 0.849005
0.312361 0.500337 0.848009
0.499608 0.499689 0.846862
0.686838 0.499047 0.845758
0.845885 0.498501 0.844866
0.957263 0.498116 0.844270
1.000000 0.497939 0.844007
0.000000 0.686987 0.846142
0.040272 0.686812 0.845845
0.151672 0.686430 0.845212
0.310702 0.685882 0.844349
0.497842 0.685230 0.843405
0.684964 0.684573 0.842492
0.843939 0.684015 0.841717
0.955281 0.683621 0.841176
1.000000 0.683440 0.840930
0.000000 0.844617 0.843276
0.038705 0.844438 0.843027
0.150052 0.844048 0.842484
0.309027 0.843489 0.841709
0.496139 0.842826 0.840802
0.683238 0.842155 0.839904
0.842181 0.841575 0.839151
0.953494 0.841162 0.838630
1.000000 0.840971 0.838394
0.000000 0.954999 0.841450
0.037514 0.954819 0.841203
0.148853 0.954423 0.840665
0.307809 0.953852 0.839902
0.494890 0.953169 0.839017
0.681946 0.952469 0.838149
0.840844 0.951859 0.837427
0.952120 0.951422 0.836932
1.000000 0.951219 0.836708
0.000000 1.000000 0.840621
0.036958 1.000000 0.840376
0.148288 1.000000 0.839843
0.307230 1.000000 0.839091
0.494288 1.000000 0.838221
0.681317 1.000000 0.837371
0.840188 1.000000 0.836668
0.951444 1.000000 0.836187
1.000000 1.000000 0.835970
0.000000 0.000000 0.971687
0.046799 0.000000 0.971431
0.158106 0.000000 0.970855
0.317051 0.000000 0.969993
0.504168 0.000000 0.968928
0.691314 0.000000 0.967821
0.850329 0.000000 0.966854
0.961708 0.000000 0.966167
1.000000 0.000000 0.965851
0.000000 0.048370 0.970806
0.046202 0.048166 0.970534
0.157530 0.047724 0.969924
0.316504 0.047098 0.969019
0.503647 0.046368 0.967915
0.690813 0.045643 0.966778
0.849839 0.045030 0.965794
0.961223 0.044601 0.965100
1.000000 0.044406 0.964781
0.000000 0.158588 0.968709
0.045004 0.158389 0.968409
0.156369 0.157956 0.967744
0.315385 0.157340 0.966776
0.502564 0.156619 0.965617
0.689751 0.155899 0.964447
0.848785 0.155289 0.963453
0.960183 0.154870 0.962751
1.000000 0.154682 0.962428
0.000000 0.315997 0.965452
0.043454 0.315801 0.965134
0.154839 0.315373 0.964438
0.313873 0.314763 0.963443
0.501088 0.314064 0.962260
0.688326 0.313388 0.961073
0.847412 0.312827 0.960072
0.958836 0.312439 0.959380
1.000000 0.312263 0.959067
0.000000 0.501338 0.961492
0.041758 0.501156 0.961169
0.153180 0.500761 0.960465
0.312267 0.500205 0.959473
0.499512 0.499559 0.958334
0.686737 0.498917 0.957241
0.845778 0.498371 0.956359
0.957151 0.497985 0.955773
1.000000 0.497808 0.955514
0.000000 0.686857 0.957620
0.040172 0.686683 0.957327
0.151567 0.686300 0.956701
0.310590 0.685751 0.955850
0.497722 0.685097 0.954919
0.684844 0.684441 0.954006
0.843818 0.683881 0.953231
0.955159 0.683487 0.952692
1.000000 0.683306 0.952446
0.000000 0.844484 0.954790
0.038586 0.844306 0.954541
0.149932 0.843915 0.953998
0.308906 0.843355 0.953224
0.496016 0.842691 0.952318
0.683111 0.842018 0.951423
0.842051 0.841435 0.950672
0.953361 0.841021 0.950154
1.000000 0.840829 0.949919
0.000000 0.954866 0.952965
0.037392 0.954685 0.952718
0.148729 0.954288 0.952181
0.307683 0.953715 0.951421
0.494759 0.953029 0.950539
0.681809 0.952325 0.949674
0.840702 0.951711 0.948956
0.951974 0.951272 0.948464
1.000000 0.951067 0.948242
0.000000 1.000000 0.952137
0.036833 1.000000 0.951893
0.148161 1.000000 0.951362
0.307100 1.000000 0.950613
0.494152 1.000000 0.949746
0.681175 1.000000 0.948901
0.840039 1.000000 0.948202
0.951290 1.000000 0.947725
1.000000 1.000000 0.947510
0.000000 0.000000 1.000000
0.046737 0.000000 1.000000
0.158046 0.000000 1.000000
0.316994 0.000000 1.000000
0.504115 0.000000 1.000000
0.691263 0.000000 1.000000
0.850279 0.000000 1.000000
0.961659 0.000000 1.000000
1.000000 0.000000 1.000000
0.000000 0.048300 1.000000
0.046143 0.048097 1.000000
0.157474 0.047656 1.000000
0.316450 0.047030 1.000000
0.503596 0.046301 1.000000
0.690763 0.045576 1.000000
0.849790 0.044963 1.000000
0.961174 0.044535 1.000000
1.000000 0.044339 1.000000
0.000000 0.158520 1.000000
0.044952 0.158322 1.000000
0.156318 0.157889 1.000000
0.315335 0.157273 1.000000
0.502515 0.156552 1.000000
0.689702 0.155833 1.000000
0.848737 0.155223 1.000000
0.960137 0.154806 1.000000
1.000000 0.154618 1.000000
0.000000 0.315931 1.000000
0.043405 0.315735 1.000000
0.154791 0.315306 1.000000
0.313826 0.314697 1.000000
0.501043 0.314001 1.000000
0.688283 0.313327 1.000000
0.847370 0.312766 1.000000
0.958793 0.312379 1.000000
1.000000 0.312203 1.000000
0.000000 0.501276 1.000000
0.041715 0.501094 1.000000
0.153137 0.500700 1.000000
0.312224 0.500145 1.000000
0.499468 0.499500 1.000000
0.686691 0.498858 1.000000
0.845728 0.498311 1.000000
0.957098 0.497925 1.000000
1.000000 0.497747 1.000000
0.000000 0.686798 1.000000
0.040126 0.686623 1.000000
0.151519 0.686241 1.000000
0.310538 0.685691 1.000000
0.497668 0.685036 1.000000
0.684789 0.684380 1.000000
0.843763 0.683820 1.000000
0.955103 0.683425 1.000000
1.000000 0.683244 1.000000
0.000000 0.844424 1.000000
0.038531 0.844245 1.000000
0.149877 0.843854 1.000000
0.308850 0.843294 1.000000
0.495959 0.842630 1.000000
0.683053 0.841955 1.000000
0.841991 0.841371 1.000000
0.953299 0.840956 1.000000
1.000000 0.840763 1.000000
0.000000 0.954804 1.000000
0.037336 0.954624 1.000000
0.148673 0.954226 1.000000
0.307625 0.953652 1.000000
0.494699 0.952964 1.000000
0.681746 0.952259 1.000000
0.840636 0.951644 0.999987
0.951906 0.951203 0.999496
1.000000 0.950998 0.999275
0.000000 1.000000 1.000000
0.036776 1.000000 1.000000
0.148103 1.000000 1.000000
0.307040 1.000000 1.000000
0.494090 1.000000 1.000000
0.681109 1.000000 0.999932
0.839971 1.000000 0.999235
0.951219 1.000000 0.998759
1.000000 1.000000 0.998545
