assets/presets/luts/daylight-neg/lut.cube
TITLE "Daylight Neg"
LUT_3D_SIZE 17
0.000000 0.000000 0.004300
0.013808 0.000000 0.004230
0.048057 0.000000 0.004083
0.096941 0.000000 0.003869
0.159310 0.000000 0.003587
0.233749 0.000000 0.003239
0.318187 0.000000 0.002828
0.409823 0.000000 0.002366
0.505237 0.000000 0.001866
0.600662 0.000000 0.001351
0.692328 0.000000 0.000842
0.776812 0.000000 0.000362
0.851306 0.000000 0.000000
0.913731 0.000000 0.000000
0.962665 0.000000 0.000000
0.996953 0.000000 0.000000
1.000000 0.000000 0.000000
0.000000 0.015786 0.004061
0.013578 0.015716 0.003989
0.047830 0.015574 0.003837
0.096718 0.015372 0.003616
0.159093 0.015116 0.003326
0.233539 0.014812 0.002968
0.317984 0.014470 0.002547
0.409626 0.014101 0.002074
0.505046 0.013720 0.001566
0.600477 0.013341 0.001041
0.692148 0.012979 0.000524
0.776637 0.012648 0.000038
0.851134 0.012356 0.000000
0.913562 0.012113 0.000000
0.962498 0.011923 0.000000
0.996786 0.011790 0.000000
1.000000 0.011725 0.000000
0.000000 0.049699 0.003545
0.013121 0.049631 0.003468
0.047379 0.049490 0.003307
0.096276 0.049290 0.003073
0.158662 0.049037 0.002766
0.233120 0.048736 0.002390
0.317577 0.048396 0.001950
0.409232 0.048031 0.001458
0.504665 0.047652 0.000930
0.600107 0.047276 0.000389
0.691788 0.046917 0.000000
0.776284 0.046587 0.000000
0.850787 0.046298 0.000000
0.913220 0.046055 0.000000
0.962159 0.045866 0.000000
0.996449 0.045733 0.000000
1.000000 0.045669 0.000000
0.000000 0.098109 0.002755
0.012504 0.098042 0.002672
0.046771 0.097903 0.002499
0.095679 0.097706 0.002247
0.158078 0.097456 0.001920
0.232551 0.097159 0.001521
0.317025 0.096824 0.001056
0.408696 0.096462 0.000540
0.504144 0.096087 0.000000
0.599599 0.095714 0.000000
0.691291 0.095358 0.000000
0.775796 0.095030 0.000000
0.850306 0.094742 0.000000
0.912743 0.094501 0.000000
0.961685 0.094312 0.000000
0.995978 0.094180 0.000000
1.000000 0.094116 0.000000
0.000000 0.159882 0.001665
0.011770 0.159816 0.001575
0.046045 0.159679 0.001389
0.094966 0.159485 0.001119
0.157380 0.159239 0.000770
0.231869 0.158945 0.000346
0.316359 0.158614 0.000000
0.408046 0.158257 0.000000
0.503509 0.157886 0.000000
0.598977 0.157516 0.000000
0.690679 0.157162 0.000000
0.775192 0.156836 0.000000
0.849707 0.156549 0.000000
0.912148 0.156309 0.000000
0.961092 0.156121 0.000000
0.995386 0.155989 0.000000
1.000000 0.155925 0.000000
0.000000 0.233617 0.000267
0.010958 0.233552 0.000170
0.045242 0.233418 0.000000
0.094173 0.233226 0.000000
0.156600 0.232983 0.000000
0.231104 0.232693 0.000000
0.315609 0.232366 0.000000
0.407310 0.232011 0.000000
0.502784 0.231643 0.000000
0.598261 0.231276 0.000000
0.689969 0.230923 0.000000
0.774485 0.230598 0.000000
0.849001 0.230312 0.000000
0.911443 0.230072 0.000000
0.960391 0.229887 0.000000
0.994688 0.229758 0.000000
1.000000 0.229695 0.000000
0.000000 0.317263 0.000000
0.010100 0.317199 0.000000
0.044390 0.317066 0.000000
0.093330 0.316877 0.000000
0.155767 0.316636 0.000000
0.230281 0.316348 0.000000
0.314795 0.316023 0.000000
0.406503 0.315670 0.000000
0.501982 0.315303 0.000000
0.597461 0.314936 0.000000
0.689174 0.314588 0.000000
0.773702 0.314272 0.000000
0.848234 0.313998 0.000000
0.910691 0.313771 0.000000
0.959650 0.313595 0.000000
0.993954 0.313472 0.000000
1.000000 0.313412 0.000000
0.000000 0.408039 0.000000
0.009216 0.407975 0.000000
0.043509 0.407843 0.000000
0.092453 0.407655 0.000000
0.154894 0.407415 0.000000
0.229411 0.407128 0.000000
0.313928 0.406804 0.000000
0.405643 0.406457 0.000000
0.501139 0.406103 0.000000
0.596640 0.405754 0.000000
0.688375 0.405424 0.000000
0.772919 0.405124 0.000000
0.847461 0.404862 0.000000
0.909923 0.404644 0.000000
0.958884 0.404473 0.000000
0.993189 0.404355 0.000000
1.000000 0.404297 0.000000
0.000000 0.502552 0.000000
0.008313 0.502488 0.000000
0.042609 0.502358 0.000000
0.091559 0.502174 0.000000
0.154010 0.501942 0.000000
0.228543 0.501669 0.000000
0.313082 0.501363 0.000000
0.404818 0.501034 0.000000
0.500329 0.500697 0.000000
0.595841 0.500363 0.000000
0.687580 0.500045 0.000000
0.772122 0.499753 0.000000
0.846659 0.499497 0.000000
0.909115 0.499283 0.000000
0.958069 0.499115 0.000000
0.992369 0.498998 0.000000
1.000000 0.498940 0.000000
0.000000 0.597111 0.000000
0.007471 0.597051 0.000000
0.041776 0.596928 0.000000
0.090735 0.596753 0.000000
0.153197 0.596533 0.000000
0.227739 0.596271 0.000000
0.312284 0.595977 0.000000
0.404022 0.595659 0.000000
0.499530 0.595331 0.000000
0.595032 0.595003 0.000000
0.686756 0.594689 0.000000
0.771280 0.594398 0.000000
0.845798 0.594142 0.000000
0.908234 0.593926 0.000000
0.957171 0.593757 0.000000
0.991458 0.593637 0.000000
1.000000 0.593579 0.000000
0.000000 0.687988 0.000000
0.006706 0.687930 0.000000
0.041011 0.687811 0.000000
0.089971 0.687642 0.000000
0.152431 0.687427 0.000000
0.226968 0.687170 0.000000
0.311503 0.686881 0.000000
0.403225 0.686566 0.000000
0.498710 0.686238 0.000000
0.594185 0.685909 0.000000
0.685878 0.685590 0.000000
0.770368 0.685295 0.000000
0.844859 0.685033 0.000000
0.907278 0.684815 0.000000
0.956205 0.684643 0.000000
0.990487 0.684523 0.000000
1.000000 0.684464 0.000000
0.000000 0.771761 0.000000
0.005988 0.771704 0.000000
0.040288 0.771587 0.000000
0.089240 0.771419 0.000000
0.151688 0.771205 0.000000
0.226208 0.770948 0.000000
0.310719 0.770657 0.000000
0.402411 0.770338 0.000000
0.497861 0.770004 0.000000
0.593306 0.769670 0.000000
0.684983 0.769348 0.000000
0.769469 0.769051 0.000000
0.843958 0.768789 0.000000
0.906375 0.768569 0.000000
0.955300 0.768396 0.000000
0.989580 0.768274 0.000000
1.000000 0.768215 0.000000
0.000000 0.845627 0.000000
0.005306 0.845569 0.000000
0.039598 0.845451 0.000000
0.088537 0.845282 0.000000
0.150966 0.845065 0.000000
0.225460 0.844804 0.000000
0.309946 0.844508 0.000000
0.401623 0.844186 0.000000
0.497068 0.843851 0.000000
0.592512 0.843516 0.000000
0.684185 0.843192 0.000000
0.768666 0.842892 0.000000
0.843150 0.842627 0.000000
0.905562 0.842403 0.000000
0.954482 0.842227 0.000000
0.988758 0.842103 0.000000
1.000000 0.842042 0.000000
0.000000 0.907515 0.000000
0.004677 0.907456 0.000000
0.038959 0.907336 0.000000
0.087886 0.907165 0.000000
0.150305 0.906946 0.000000
0.224796 0.906684 0.000000
0.309282 0.906388 0.000000
0.400956 0.906065 0.000000
0.496398 0.905728 0.000000
0.591837 0.905389 0.000000
0.683503 0.905061 0.000000
0.767977 0.904756 0.000000
0.842454 0.904486 0.000000
0.904858 0.904257 0.000000
0.953773 0.904077 0.000000
0.988044 0.903950 0.000000
1.000000 0.903888 0.000000
0.000000 0.956020 0.000000
0.004156 0.955961 0.000000
0.038438 0.955841 0.000000
0.087365 0.955669 0.000000
0.149784 0.955450 0.000000
0.224273 0.955188 0.000000
0.308757 0.954890 0.000000
0.400427 0.954564 0.000000
0.495864 0.954223 0.000000
0.591296 0.953880 0.000000
0.682955 0.953547 0.000000
0.767421 0.953237 0.000000
0.841889 0.952961 0.000000
0.904287 0.952728 0.000000
0.953195 0.952544 0.000000
0.987462 0.952414 0.000000
1.000000 0.952351 0.000000
0.000000 0.990005 0.000000
0.003791 0.989947 0.000000
0.038073 0.989826 0.000000
0.086999 0.989654 0.000000
0.149417 0.989434 0.000000
0.223904 0.989171 0.000000
0.308384 0.988870 0.000000
0.400051 0.988542 0.000000
0.495482 0.988198 0.000000
0.590908 0.987851 0.000000
0.682561 0.987513 0.000000
0.767020 0.987199 0.000000
0.841482 0.986919 0.000000
0.903874 0.986682 0.000000
0.952777 0.986495 0.000000
0.987041 0.986362 0.000000
1.000000 0.986298 0.000000
0.000000 1.000000 0.000000
0.003613 1.000000 0.000000
0.037894 1.000000 0.000000
0.086820 1.000000 0.000000
0.149237 1.000000 0.000000
0.223723 1.000000 0.000000
0.308201 1.000000 0.000000
0.399866 1.000000 0.000000
0.495294 1.000000 0.000000
0.590717 1.000000 0.000000
0.682366 1.000000 0.000000
0.766822 1.000000 0.000000
0.841281 1.000000 0.000000
0.903669 1.000000 0.000000
0.952570 1.000000 0.000000
0.986832 1.000000 0.000000
1.000000 1.000000 0.000000
0.000000 0.000000 0.020994
0.013785 0.000000 0.020923
0.048034 0.000000 0.020776
0.096918 0.000000 0.020562
0.159288 0.000000 0.020279
0.233728 0.000000 0.019929
0.318167 0.000000 0.019518
0.409802 0.000000 0.019054
0.505217 0.000000 0.018554
0.600643 0.000000 0.018038
0.692310 0.000000 0.017528
0.776794 0.000000 0.017047
0.851288 0.000000 0.016615
0.913714 0.000000 0.016248
0.962648 0.000000 0.015957
0.996936 0.000000 0.015752
1.000000 0.000000 0.015652
0.000000 0.015762 0.020754
0.013555 0.015693 0.020682
0.047807 0.015551 0.020530
0.096696 0.015349 0.020308
0.159072 0.015093 0.020017
0.233518 0.014789 0.019658
0.317963 0.014447 0.019236
0.409606 0.014078 0.018762
0.505027 0.013697 0.018253
0.600459 0.013318 0.017727
0.692130 0.012957 0.017210
0.776619 0.012625 0.016723
0.851117 0.012334 0.016286
0.913545 0.012091 0.015915
0.962481 0.011901 0.015622
0.996770 0.011768 0.015415
1.000000 0.011703 0.015314
0.000000 0.049676 0.020237
0.013099 0.049607 0.020159
0.047358 0.049467 0.019998
0.096255 0.049267 0.019763
0.158641 0.049014 0.019456
0.233099 0.048713 0.019079
0.317558 0.048374 0.018638
0.409213 0.048008 0.018144
0.504647 0.047630 0.017616
0.600089 0.047254 0.017074
0.691770 0.046895 0.016542
0.776267 0.046565 0.016044
0.850770 0.046276 0.015598
0.913203 0.046033 0.015220
0.962142 0.045844 0.014922
0.996433 0.045711 0.014712
1.000000 0.045647 0.014610
0.000000 0.098086 0.019444
0.012484 0.098019 0.019361
0.046750 0.097880 0.019187
0.095659 0.097684 0.018936
0.158059 0.097433 0.018608
0.232532 0.097136 0.018207
0.317006 0.096801 0.017742
0.408678 0.096439 0.017225
0.504126 0.096065 0.016674
0.599582 0.095692 0.016112
0.691274 0.095336 0.015564
0.775779 0.095008 0.015052
0.850289 0.094720 0.014596
0.912727 0.094479 0.014211
0.961669 0.094291 0.013908
0.995962 0.094159 0.013695
1.000000 0.094094 0.013591
0.000000 0.159860 0.018353
0.011751 0.159793 0.018262
0.046027 0.159657 0.018076
0.094947 0.159463 0.017806
0.157361 0.159216 0.017456
0.231851 0.158923 0.017031
0.316342 0.158592 0.016540
0.408029 0.158235 0.015999
0.503493 0.157864 0.015426
0.598961 0.157494 0.014845
0.690663 0.157140 0.014281
0.775176 0.156814 0.013758
0.849691 0.156527 0.013294
0.912132 0.156287 0.012904
0.961076 0.156099 0.012598
0.995370 0.155967 0.012384
1.000000 0.155903 0.012280
0.000000 0.233595 0.016951
0.010940 0.233530 0.016855
0.045224 0.233396 0.016656
0.094156 0.233204 0.016369
0.156583 0.232961 0.015999
0.231087 0.232671 0.015553
0.315593 0.232344 0.015040
0.407293 0.231989 0.014478
0.502768 0.231621 0.013888
0.598245 0.231254 0.013294
0.689953 0.230901 0.012722
0.774469 0.230576 0.012193
0.848986 0.230290 0.011727
0.911427 0.230051 0.011337
0.960375 0.229865 0.011029
0.994673 0.229736 0.010813
1.000000 0.229674 0.010708
0.000000 0.317241 0.015266
0.010084 0.317177 0.015164
0.044374 0.317044 0.014956
0.093314 0.316855 0.014656
0.155751 0.316614 0.014271
0.230265 0.316327 0.013810
0.314779 0.316001 0.013284
0.406487 0.315649 0.012711
0.501966 0.315282 0.012114
0.597445 0.314915 0.011518
0.689159 0.314567 0.010942
0.773688 0.314251 0.010408
0.848220 0.313977 0.009935
0.910677 0.313751 0.009539
0.959635 0.313574 0.009228
0.993940 0.313451 0.009011
1.000000 0.313392 0.008905
0.000000 0.408017 0.013364
0.009200 0.407953 0.013260
0.043493 0.407821 0.013046
0.092437 0.407633 0.012741
0.154879 0.407393 0.012350
0.229395 0.407106 0.011884
0.313912 0.406782 0.011356
0.405628 0.406436 0.010779
0.501124 0.406082 0.010174
0.596626 0.405734 0.009568
0.688361 0.405404 0.008987
0.772905 0.405104 0.008453
0.847447 0.404842 0.007984
0.909909 0.404624 0.007595
0.958870 0.404454 0.007291
0.993175 0.404335 0.007080
1.000000 0.404277 0.006977
0.000000 0.502530 0.011357
0.008298 0.502467 0.011252
0.042594 0.502337 0.011037
0.091544 0.502153 0.010728
0.153996 0.501921 0.010333
0.228529 0.501648 0.009860
0.313067 0.501342 0.009324
0.404804 0.501014 0.008743
0.500315 0.500677 0.008141
0.595827 0.500343 0.007545
0.687566 0.500025 0.006978
0.772108 0.499734 0.006464
0.846645 0.499478 0.006017
0.909101 0.499264 0.005649
0.958054 0.499096 0.005364
0.992354 0.498978 0.005167
1.000000 0.498921 0.005072
0.000000 0.597090 0.009325
0.007457 0.597030 0.009219
0.041761 0.596908 0.009002
0.090721 0.596733 0.008692
0.153183 0.596513 0.008298
0.227725 0.596251 0.007831
0.312270 0.595957 0.007306
0.404008 0.595640 0.006743
0.499515 0.595311 0.006167
0.595017 0.594984 0.005602
0.686741 0.594669 0.005073
0.771264 0.594379 0.004598
0.845781 0.594122 0.004191
0.908218 0.593907 0.003859
0.957154 0.593737 0.003605
0.991441 0.593618 0.003430
1.000000 0.593560 0.003346
0.000000 0.687968 0.007386
0.006692 0.687910 0.007282
0.040997 0.687791 0.007071
0.089957 0.687622 0.006771
0.152417 0.687407 0.006393
0.226954 0.687151 0.005948
0.311488 0.686861 0.005452
0.403210 0.686547 0.004927
0.498695 0.686219 0.004396
0.594168 0.685889 0.003883
0.685860 0.685571 0.003410
0.770350 0.685275 0.002992
0.844841 0.685014 0.002629
0.907260 0.684795 0.002324
0.956187 0.684623 0.002085
0.990469 0.684503 0.001918
1.000000 0.684444 0.001836
0.000000 0.771742 0.005668
0.005973 0.771685 0.005570
0.040273 0.771567 0.005371
0.089225 0.771399 0.005090
0.151673 0.771185 0.004738
0.226192 0.770929 0.004327
0.310703 0.770637 0.003875
0.402394 0.770319 0.003402
0.497843 0.769984 0.002931
0.593289 0.769650 0.002465
0.684965 0.769328 0.002017
0.769451 0.769032 0.001605
0.843940 0.768769 0.001242
0.906357 0.768549 0.000939
0.955282 0.768376 0.000702
0.989562 0.768254 0.000536
1.000000 0.768195 0.000455
0.000000 0.845607 0.004252
0.005290 0.845550 0.004162
0.039581 0.845432 0.003979
0.088520 0.845262 0.003722
0.150948 0.845045 0.003402
0.225442 0.844784 0.003033
0.309929 0.844488 0.002621
0.401605 0.844167 0.002173
0.497050 0.843832 0.001707
0.592494 0.843496 0.001242
0.684167 0.843172 0.000797
0.768648 0.842872 0.000388
0.843132 0.842606 0.000029
0.905544 0.842383 0.000000
0.954464 0.842206 0.000000
0.988740 0.842082 0.000000
1.000000 0.842022 0.000000
0.000000 0.907495 0.003165
0.004659 0.907437 0.003083
0.038941 0.907316 0.002915
0.087868 0.907145 0.002677
0.150287 0.906926 0.002372
0.224778 0.906665 0.002008
0.309264 0.906368 0.001596
0.400938 0.906045 0.001150
0.496380 0.905708 0.000686
0.591818 0.905368 0.000225
0.683485 0.905040 0.000000
0.767958 0.904736 0.000000
0.842435 0.904465 0.000000
0.904839 0.904236 0.000000
0.953753 0.904056 0.000000
0.988025 0.903929 0.000000
1.000000 0.903867 0.000000
0.000000 0.956000 0.002361
0.004139 0.955941 0.002279
0.038420 0.955821 0.002112
0.087347 0.955649 0.001873
0.149766 0.955430 0.001569
0.224255 0.955168 0.001206
0.308738 0.954870 0.000796
0.400409 0.954544 0.000352
0.495845 0.954203 0.000000
0.591277 0.953859 0.000000
0.682936 0.953526 0.000000
0.767401 0.953216 0.000000
0.841870 0.952940 0.000000
0.904267 0.952707 0.000000
0.953175 0.952523 0.000000
0.987442 0.952393 0.000000
1.000000 0.952329 0.000000
0.000000 0.989985 0.001798
0.003773 0.989927 0.001716
0.038055 0.989806 0.001549
0.086981 0.989634 0.001311
0.149399 0.989414 0.001007
0.223885 0.989150 0.000646
0.308366 0.988850 0.000238
0.400032 0.988522 0.000000
0.495463 0.988178 0.000000
0.590889 0.987830 0.000000
0.682541 0.987493 0.000000
0.767000 0.987178 0.000000
0.841462 0.986898 0.000000
0.903854 0.986660 0.000000
0.952757 0.986473 0.000000
0.987020 0.986341 0.000000
1.000000 0.986276 0.000000
0.000000 1.000000 0.001524
0.003595 1.000000 0.001443
0.037876 1.000000 0.001276
0.086802 1.000000 0.001038
0.149219 1.000000 0.000735
0.223704 1.000000 0.000375
0.308183 1.000000 0.000000
0.399847 1.000000 0.000000
0.495275 1.000000 0.000000
0.590698 1.000000 0.000000
0.682346 1.000000 0.000000
0.766802 1.000000 0.000000
0.841260 1.000000 0.000000
0.903648 1.000000 0.000000
0.952549 1.000000 0.000000
0.986811 1.000000 0.000000
1.000000 1.000000 0.000000
0.000000 0.000000 0.055335
0.013736 0.000000 0.055264
0.047986 0.000000 0.055116
0.096871 0.000000 0.054900
0.159243 0.000000 0.054615
0.233684 0.000000 0.054264
0.318124 0.000000 0.053850
0.409761 0.000000 0.053384
0.505178 0.000000 0.052882
0.600605 0.000000 0.052364
0.692272 0.000000 0.051852
0.776758 0.000000 0.051370
0.851253 0.000000 0.050937
0.913679 0.000000 0.050569
0.962613 0.000000 0.050278
0.996901 0.000000 0.050073
1.000000 0.000000 0.049972
0.000000 0.015714 0.055094
0.013508 0.015645 0.055021
0.047761 0.015503 0.054868
0.096651 0.015301 0.054645
0.159027 0.015045 0.054352
0.233475 0.014742 0.053991
0.317922 0.014400 0.053567
0.409566 0.014032 0.053091
0.504988 0.013651 0.052579
0.600421 0.013272 0.052052
0.692093 0.012911 0.051533
0.776583 0.012580 0.051045
0.851081 0.012289 0.050607
0.913510 0.012046 0.050236
0.962446 0.011856 0.049942
0.996735 0.011723 0.049734
1.000000 0.011658 0.049633
0.000000 0.049628 0.054573
0.013054 0.049560 0.054495
0.047314 0.049419 0.054333
0.096212 0.049220 0.054097
0.158599 0.048967 0.053788
0.233058 0.048666 0.053409
0.317518 0.048327 0.052966
0.409174 0.047962 0.052471
0.504609 0.047584 0.051941
0.600053 0.047208 0.051398
0.691735 0.046849 0.050864
0.776232 0.046520 0.050364
0.850736 0.046230 0.049918
0.913169 0.045988 0.049539
0.962108 0.045799 0.049241
0.996399 0.045666 0.049031
1.000000 0.045602 0.048928
0.000000 0.098039 0.053776
0.012441 0.097972 0.053692
0.046709 0.097834 0.053518
0.095618 0.097637 0.053265
0.158019 0.097387 0.052936
0.232493 0.097090 0.052534
0.316969 0.096755 0.052067
0.408641 0.096394 0.051549
0.504090 0.096019 0.050996
0.599547 0.095647 0.050433
0.691239 0.095290 0.049884
0.775745 0.094963 0.049371
0.850256 0.094675 0.048914
0.912693 0.094434 0.048529
0.961636 0.094246 0.048226
0.995929 0.094114 0.048013
1.000000 0.094050 0.047909
0.000000 0.159813 0.052680
0.011712 0.159747 0.052589
0.045988 0.159611 0.052402
0.094909 0.159417 0.052131
0.157324 0.159170 0.051780
0.231814 0.158878 0.051354
0.316306 0.158547 0.050862
0.407994 0.158189 0.050320
0.503458 0.157819 0.049746
0.598927 0.157449 0.049164
0.690629 0.157095 0.048600
0.775143 0.156769 0.048076
0.849658 0.156483 0.047612
0.912099 0.156243 0.047222
0.961043 0.156054 0.046916
0.995337 0.155923 0.046701
1.000000 0.155859 0.046597
0.000000 0.233550 0.051274
0.010904 0.233484 0.051178
0.045188 0.233350 0.050978
0.094120 0.233159 0.050691
0.156548 0.232916 0.050320
0.231053 0.232626 0.049873
0.315559 0.232299 0.049360
0.407260 0.231945 0.048797
0.502735 0.231577 0.048206
0.598212 0.231209 0.047612
0.689920 0.230856 0.047039
0.774436 0.230532 0.046511
0.848953 0.230245 0.046045
0.911395 0.230006 0.045654
0.960344 0.229821 0.045346
0.994642 0.229693 0.045130
1.000000 0.229631 0.045024
0.000000 0.317196 0.049585
0.010049 0.317131 0.049484
0.044340 0.316999 0.049275
0.093280 0.316810 0.048975
0.155718 0.316569 0.048590
0.230232 0.316282 0.048128
0.314746 0.315956 0.047602
0.406454 0.315604 0.047029
0.501933 0.315237 0.046432
0.597412 0.314870 0.045835
0.689128 0.314523 0.045259
0.773657 0.314208 0.044724
0.848190 0.313935 0.044251
0.910647 0.313709 0.043855
0.959606 0.313533 0.043545
0.993910 0.313410 0.043327
1.000000 0.313351 0.043222
0.000000 0.407972 0.047682
0.009167 0.407908 0.047578
0.043460 0.407776 0.047364
0.092405 0.407588 0.047058
0.154846 0.407348 0.046667
0.229362 0.407062 0.046202
0.313880 0.406738 0.045673
0.405597 0.406392 0.045095
0.501094 0.406039 0.044491
0.596597 0.405692 0.043885
0.688332 0.405363 0.043303
0.772876 0.405063 0.042769
0.847418 0.404801 0.042302
0.909881 0.404583 0.041912
0.958841 0.404413 0.041609
0.993146 0.404295 0.041398
1.000000 0.404237 0.041296
0.000000 0.502486 0.045674
0.008266 0.502423 0.045569
0.042562 0.502293 0.045354
0.091513 0.502110 0.045045
0.153965 0.501878 0.044649
0.228499 0.501606 0.044177
0.313038 0.501300 0.043640
0.404775 0.500973 0.043060
0.500286 0.500636 0.042458
0.595798 0.500303 0.041863
0.687537 0.499985 0.041297
0.772078 0.499694 0.040784
0.846615 0.499438 0.040339
0.909070 0.499224 0.039971
0.958024 0.499056 0.039687
0.992323 0.498938 0.039491
1.000000 0.498881 0.039396
0.000000 0.597048 0.043641
0.007428 0.596989 0.043536
0.041732 0.596866 0.043318
0.090692 0.596692 0.043009
0.153154 0.596472 0.042615
0.227697 0.596211 0.042149
0.312241 0.595917 0.041624
0.403979 0.595600 0.041062
0.499485 0.595271 0.040487
0.594986 0.594944 0.039924
0.686710 0.594629 0.039397
0.771232 0.594339 0.038924
0.845748 0.594082 0.038519
0.908183 0.593866 0.038188
0.957119 0.593696 0.037935
0.991405 0.593577 0.037761
1.000000 0.593519 0.037678
0.000000 0.687927 0.041704
0.006663 0.687870 0.041601
0.040968 0.687751 0.041390
0.089928 0.687582 0.041091
0.152388 0.687367 0.040713
0.226924 0.687111 0.040269
0.311458 0.686821 0.039774
0.403179 0.686507 0.039251
0.498662 0.686178 0.038723
0.594134 0.685849 0.038213
0.685825 0.685530 0.037742
0.770313 0.685234 0.037326
0.844804 0.684973 0.036962
0.907223 0.684754 0.036657
0.956150 0.684582 0.036418
0.990432 0.684462 0.036251
1.000000 0.684404 0.036170
0.000000 0.771702 0.039990
0.005942 0.771645 0.039893
0.040242 0.771527 0.039694
0.089194 0.771360 0.039414
0.151641 0.771145 0.039063
0.226159 0.770889 0.038654
0.310668 0.770597 0.038204
0.402358 0.770278 0.037734
0.497806 0.769944 0.037264
0.593252 0.769609 0.036798
0.684928 0.769287 0.036350
0.769414 0.768991 0.035938
0.843903 0.768728 0.035576
0.906320 0.768508 0.035273
0.955244 0.768335 0.035035
0.989524 0.768213 0.034870
1.000000 0.768154 0.034789
0.000000 0.845567 0.038579
0.005257 0.845510 0.038490
0.039548 0.845391 0.038308
0.088485 0.845222 0.038052
0.150913 0.845004 0.037734
0.225405 0.844743 0.037367
0.309892 0.844447 0.036954
0.401568 0.844126 0.036507
0.497013 0.843791 0.036041
0.592457 0.843455 0.035576
0.684129 0.843131 0.035131
0.768610 0.842831 0.034722
0.843094 0.842565 0.034364
0.905505 0.842341 0.034064
0.954425 0.842164 0.033830
0.988701 0.842040 0.033667
1.000000 0.841979 0.033588
0.000000 0.907454 0.037498
0.004622 0.907396 0.037416
0.038904 0.907275 0.037249
0.087831 0.907104 0.037010
0.150251 0.906885 0.036705
0.224741 0.906624 0.036341
0.309227 0.906327 0.035929
0.400901 0.906004 0.035483
0.496342 0.905666 0.035020
0.591780 0.905327 0.034559
0.683446 0.904998 0.034119
0.767919 0.904693 0.033715
0.842395 0.904422 0.033362
0.904799 0.904193 0.033068
0.953713 0.904013 0.032838
0.987984 0.903886 0.032678
1.000000 0.903824 0.032600
0.000000 0.955959 0.036694
0.004102 0.955900 0.036613
0.038384 0.955780 0.036445
0.087310 0.955608 0.036206
0.149729 0.955389 0.035902
0.224218 0.955127 0.035539
0.308701 0.954828 0.035129
0.400371 0.954503 0.034686
0.495807 0.954161 0.034227
0.591238 0.953817 0.033770
0.682896 0.953484 0.033335
0.767361 0.953173 0.032938
0.841829 0.952897 0.032590
0.904226 0.952663 0.032300
0.953133 0.952478 0.032075
0.987400 0.952348 0.031918
1.000000 0.952285 0.031842
0.000000 0.989944 0.036131
0.003736 0.989886 0.036050
0.038018 0.989765 0.035883
0.086944 0.989593 0.035644
0.149361 0.989373 0.035341
0.223848 0.989109 0.034980
0.308328 0.988809 0.034572
0.399994 0.988480 0.034132
0.495424 0.988135 0.033676
0.590850 0.987787 0.033224
0.682501 0.987449 0.032793
0.766959 0.987134 0.032400
0.841420 0.986854 0.032057
0.903811 0.986616 0.031771
0.952714 0.986428 0.031550
0.986977 0.986295 0.031395
1.000000 0.986231 0.031320
0.000000 1.000000 0.035858
0.003558 1.000000 0.035777
0.037839 1.000000 0.035610
0.086765 1.000000 0.035372
0.149181 1.000000 0.035069
0.223667 1.000000 0.034709
0.308145 1.000000 0.034302
0.399808 1.000000 0.033863
0.495236 1.000000 0.033410
0.590658 1.000000 0.032960
0.682306 1.000000 0.032532
0.766760 1.000000 0.032141
0.841218 1.000000 0.031800
0.903605 1.000000 0.031517
0.952505 1.000000 0.031297
0.986767 1.000000 0.031144
1.000000 1.000000 0.031070
0.000000 0.000000 0.104346
0.013668 0.000000 0.104275
0.047919 0.000000 0.104125
0.096805 0.000000 0.103907
0.159178 0.000000 0.103620
0.233621 0.000000 0.103265
0.318064 0.000000 0.102849
0.409703 0.000000 0.102380
0.505121 0.000000 0.101875
0.600550 0.000000 0.101354
0.692219 0.000000 0.100840
0.776706 0.000000 0.100356
0.851202 0.000000 0.099922
0.913629 0.000000 0.099553
0.962564 0.000000 0.099261
0.996852 0.000000 0.099055
1.000000 0.000000 0.098954
0.000000 0.015645 0.104103
0.013441 0.015576 0.104029
0.047695 0.015434 0.103875
