assets/presets/luts/food-fresh/lut.cube
TITLE "Food Fresh"
LUT_3D_SIZE 17
0.000000 0.000000 0.000000
0.094340 0.000000 0.000000
0.186093 0.000000 0.000000
0.273582 0.000000 0.000000
0.358446 0.000000 0.000000
0.440686 0.000000 0.000000
0.520302 0.000000 0.000000
0.597293 0.000000 0.000000
0.671659 0.000000 0.000000
0.743401 0.000000 0.000000
0.812519 0.000000 0.000000
0.879012 0.000000 0.000000
0.942897 0.000000 0.000000
1.000000 0.000000 0.000000
1.000000 0.000000 0.000000
1.000000 0.000000 0.000000
1.000000 0.000000 0.000000
0.000000 0.071158 0.000000
0.070863 0.068941 0.000000
0.166882 0.061223 0.000000
0.258985 0.053834 0.000000
0.348360 0.047199 0.000000
0.434438 0.041442 0.000000
0.516990 0.036627 0.000000
0.596396 0.032661 0.000000
0.672855 0.029461 0.000000
0.746472 0.026887 0.000000
0.817310 0.025069 0.000000
0.885412 0.023995 0.000000
0.950806 0.023656 0.000000
1.000000 0.021651 0.000000
1.000000 0.017991 0.000000
1.000000 0.014341 0.000000
1.000000 0.010650 0.000000
0.000000 0.139602 0.000000
0.055478 0.138579 0.000000
0.138889 0.135943 0.000000
0.233814 0.128744 0.000000
0.325328 0.121414 0.000000
0.413586 0.114904 0.000000
0.499125 0.109140 0.000000
0.581916 0.104123 0.000000
0.661877 0.099868 0.000000
0.738831 0.096419 0.000000
0.812576 0.093827 0.000000
0.883258 0.092060 0.000000
0.950985 0.091090 0.000000
1.000000 0.089618 0.000000
1.000000 0.085914 0.000000
1.000000 0.082248 0.000000
1.000000 0.078548 0.000000
0.000000 0.207448 0.000000
0.047802 0.205863 0.000000
0.120726 0.206130 0.000000
0.206490 0.202588 0.000000
0.299794 0.196032 0.000000
0.390849 0.188904 0.000000
0.478287 0.182497 0.000000
0.562729 0.176872 0.000000
0.644423 0.171992 0.000000
0.723389 0.167852 0.000000
0.799586 0.164460 0.000000
0.872974 0.161824 0.000000
0.943524 0.159952 0.000000
1.000000 0.158588 0.000000
1.000000 0.154563 0.000000
1.000000 0.150610 0.000000
1.000000 0.146671 0.000000
0.000000 0.274698 0.000000
0.041596 0.272848 0.000000
0.110919 0.273653 0.000000
0.187754 0.272819 0.000000
0.273826 0.269002 0.000000
0.365372 0.263003 0.000000
0.455520 0.256237 0.000000
0.542243 0.249985 0.000000
0.625758 0.244488 0.000000
0.706382 0.239751 0.000000
0.784250 0.235755 0.000000
0.859386 0.232497 0.000000
0.931769 0.229982 0.000000
1.000000 0.228214 0.000000
1.000000 0.224458 0.000000
1.000000 0.220196 0.000000
1.000000 0.216021 0.000000
0.000000 0.341351 0.000000
0.036278 0.339565 0.000000
0.104890 0.340092 0.000000
0.176087 0.340780 0.000000
0.255277 0.338996 0.000000
0.340902 0.335191 0.000000
0.430705 0.329666 0.000000
0.519601 0.323334 0.000000
0.605461 0.317319 0.000000
0.688102 0.311980 0.000000
0.767740 0.307387 0.000000
0.844545 0.303539 0.000000
0.918594 0.300428 0.000000
0.989905 0.298054 0.000000
1.000000 0.294566 0.000000
1.000000 0.289970 0.000000
1.000000 0.285511 0.000000
0.000000 0.407406 0.000000
0.031969 0.405909 0.000000
0.100752 0.406007 0.000000
0.169014 0.407241 0.000000
0.242637 0.407216 0.000000
0.322870 0.404819 0.000000
0.407721 0.401156 0.000000
0.495825 0.396044 0.000000
0.583274 0.390160 0.000000
0.668077 0.384447 0.000000
0.749782 0.379314 0.000000
0.828455 0.374886 0.000000
0.904234 0.371193 0.000000
0.977216 0.368236 0.000000
1.000000 0.364832 0.000000
1.000000 0.359935 0.000000
1.000000 0.355183 0.000000
0.000000 0.472865 0.000000
0.028930 0.471757 0.000000
0.097932 0.471518 0.000000
0.164741 0.472858 0.000000
0.234578 0.473805 0.000000
0.309899 0.473115 0.000000
0.390356 0.470402 0.000000
0.474280 0.466895 0.000000
0.560731 0.462156 0.000000
0.646636 0.456709 0.000000
0.730218 0.451339 0.000000
0.810880 0.446454 0.000000
0.888552 0.442222 0.000000
0.963310 0.438702 0.000000
1.000000 0.435037 0.000000
1.000000 0.430155 0.000000
1.000000 0.425159 0.000000
0.000000 0.537727 0.000000
0.027386 0.537008 0.000000
0.096291 0.536625 0.000000
0.162375 0.537895 0.000000
0.229764 0.539343 0.000000
0.301185 0.539791 0.000000
0.377498 0.538585 0.000000
0.457686 0.535758 0.000000
0.540580 0.532410 0.000000
0.625417 0.528013 0.000000
0.709733 0.522985 0.000000
0.791974 0.517976 0.000000
0.871485 0.513374 0.000000
0.948090 0.509370 0.000000
1.000000 0.505346 0.000000
1.000000 0.500634 0.000000
1.000000 0.495499 0.000000
0.000000 0.601991 0.000000
0.027341 0.601663 0.000000
0.095830 0.601299 0.000000
0.161514 0.602448 0.000000
0.227315 0.604135 0.000000
0.295860 0.605307 0.000000
0.368473 0.605273 0.000000
0.445210 0.603697 0.000000
0.524836 0.600882 0.000000
0.606622 0.597700 0.000000
0.689876 0.593623 0.000000
0.772586 0.588993 0.000000
0.853405 0.584352 0.000000
0.931670 0.580057 0.000000
1.000000 0.575792 0.000000
1.000000 0.571287 0.000000
1.000000 0.566166 0.000000
0.000000 0.665659 0.000000
0.028794 0.665721 0.000000
0.096590 0.665506 0.000000
0.161990 0.666543 0.000000
0.226716 0.668332 0.000000
0.293169 0.669958 0.000000
0.362788 0.670763 0.000000
0.436166 0.670321 0.000000
0.512909 0.668495 0.000000
0.591784 0.665774 0.000000
0.672405 0.662765 0.000000
0.754100 0.658992 0.000000
0.835204 0.654740 0.000000
0.914697 0.650469 0.000000
0.997206 0.646267 0.000000
1.000000 0.641953 0.000000
1.000000 0.637031 0.000000
0.000000 0.728730 0.000000
0.031745 0.729183 0.000000
0.098622 0.729219 0.000000
0.163745 0.730177 0.000000
0.227690 0.732007 0.000000
0.292580 0.733920 0.000000
0.359854 0.735313 0.000000
0.430320 0.735747 0.000000
0.504072 0.734988 0.000000
0.580517 0.733008 0.000000
0.658517 0.730436 0.000000
0.737929 0.727605 0.000000
0.818086 0.724123 0.000000
0.898495 0.720357 0.000000
0.981097 0.716539 0.000000
1.000000 0.712402 0.000000
1.000000 0.707890 0.000000
0.000000 0.791204 0.000000
0.036195 0.792047 0.000000
0.101973 0.792413 0.000000
0.166769 0.793338 0.000000
0.230088 0.795186 0.000000
0.293778 0.797288 0.000000
0.359206 0.799096 0.000000
0.427239 0.800197 0.000000
0.498253 0.800308 0.000000
0.572060 0.799314 0.000000
0.647980 0.797262 0.000000
0.725025 0.794867 0.000000
0.803194 0.792220 0.000000
0.883032 0.789445 0.000000
0.964947 0.786308 0.000000
1.000000 0.782586 0.000000
1.000000 0.778509 0.000000
0.000000 0.853080 0.000000
0.042144 0.854314 0.000000
0.106722 0.855054 0.000000
0.171078 0.856009 0.000000
0.233840 0.857879 0.000000
0.296564 0.860113 0.000000
0.360516 0.862219 0.000000
0.426531 0.863830 0.000000
0.495150 0.864638 0.000000
0.566434 0.864485 0.000000
0.640042 0.863330 0.000000
0.715263 0.861290 0.000000
0.791301 0.859069 0.000000
0.869250 0.857514 0.000000
0.949617 0.855295 0.000000
1.000000 0.852243 0.000000
1.000000 0.848654 0.000000
0.000000 0.914360 0.000000
0.049592 0.915985 0.000000
0.112966 0.917098 0.000000
0.176695 0.918173 0.000000
0.238916 0.920082 0.000000
0.300818 0.922421 0.000000
0.363543 0.924756 0.000000
0.427892 0.926754 0.000000
0.494448 0.928121 0.000000
0.563438 0.928669 0.000000
0.634746 0.928310 0.000000
0.707955 0.927055 0.000000
0.782209 0.925537 0.000000
0.857803 0.924658 0.000000
0.935907 0.923326 0.000000
1.000000 0.921140 0.000000
1.000000 0.918134 0.000000
0.000000 0.975043 0.000000
0.058539 0.977058 0.000000
0.120708 0.978547 0.000000
0.183645 0.979816 0.000000
0.245311 0.981788 0.000000
0.306474 0.984222 0.000000
0.368147 0.986743 0.000000
0.431095 0.989043 0.000000
0.495878 0.990861 0.000000
0.562828 0.991991 0.000000
0.631978 0.992319 0.000000
0.702673 0.992231 0.000000
0.774608 0.992171 0.000000
0.848554 0.991391 0.000000
0.924374 0.990489 0.000000
1.000000 0.989137 0.000000
1.000000 0.986818 0.000000
0.000000 1.000000 0.000000
0.068011 1.000000 0.000000
0.129948 1.000000 0.000000
0.191952 1.000000 0.000000
0.253020 1.000000 0.000000
0.313477 1.000000 0.000000
0.374215 1.000000 0.000000
0.435952 1.000000 0.000000
0.499195 1.000000 0.000000
0.564344 1.000000 0.000000
0.630394 1.000000 0.000000
0.698092 1.000000 0.000000
0.768270 1.000000 0.000000
0.840712 1.000000 0.000000
0.914927 1.000000 0.000000
0.990966 1.000000 0.000000
1.000000 1.000000 0.000000
0.000000 0.000000 0.079600
0.079404 0.000000 0.076206
0.159339 0.000000 0.073730
0.246790 0.000000 0.071117
0.333353 0.000000 0.066784
0.417553 0.000000 0.061985
0.499136 0.000000 0.057296
0.578052 0.000000 0.052977
0.654298 0.000000 0.049160
0.727879 0.000000 0.045915
0.798803 0.000000 0.043283
0.867076 0.000000 0.041291
0.932705 0.000000 0.039965
0.995686 0.000000 0.039206
1.000000 0.000000 0.035775
1.000000 0.000000 0.032295
1.000000 0.000000 0.028857
0.000000 0.070059 0.068448
0.068289 0.066680 0.065047
0.160356 0.059519 0.057545
0.251933 0.052460 0.050488
0.339425 0.046500 0.044564
0.424300 0.041247 0.039345
0.506562 0.036700 0.034832
0.586210 0.032859 0.031024
0.663243 0.029733 0.027912
0.737654 0.027213 0.025357
0.809441 0.025324 0.023503
0.878604 0.024144 0.022358
0.945142 0.023673 0.021922
1.000000 0.023910 0.022194
1.000000 0.021295 0.019587
1.000000 0.017714 0.016006
1.000000 0.014131 0.012423
0.000000 0.138720 0.058034
0.057444 0.135741 0.054245
0.136624 0.133661 0.034370
0.234430 0.125596 0.018899
0.327000 0.118020 0.013856
0.415365 0.111581 0.009948
0.500492 0.106045 0.006635
0.582794 0.101292 0.003871
0.662207 0.097328 0.001798
0.738657 0.094167 0.000490
0.812258 0.091780 0.000000
0.883080 0.090146 0.000061
0.951167 0.089253 0.000918
1.000000 0.089093 0.002486
1.000000 0.087234 0.001331
1.000000 0.083744 0.000000
1.000000 0.080214 0.000000
0.000000 0.206796 0.048954
0.048098 0.204206 0.044941
0.120893 0.203372 0.031518
0.204613 0.200637 0.004531
0.300718 0.193328 0.000000
0.394374 0.185551 0.000000
0.483533 0.178761 0.000000
0.568838 0.172979 0.000000
0.650775 0.168115 0.000000
0.729611 0.164102 0.000000
0.805425 0.160916 0.000000
0.878453 0.158495 0.000000
0.948832 0.156801 0.000000
1.000000 0.155845 0.000000
1.000000 0.154319 0.000000
1.000000 0.150611 0.000000
1.000000 0.146878 0.000000
0.000000 0.274274 0.041337
0.040251 0.272073 0.037136
0.113145 0.270664 0.029119
0.186251 0.270884 0.004358
0.272204 0.267291 0.000000
0.366207 0.260720 0.000000
0.459279 0.253280 0.000000
0.548561 0.246452 0.000000
0.633860 0.240556 0.000000
0.715070 0.235695 0.000000
0.793180 0.231688 0.000000
0.868377 0.228488 0.000000
0.940746 0.226066 0.000000
1.000000 0.224408 0.000000
1.000000 0.223012 0.000000
1.000000 0.219001 0.000000
1.000000 0.215028 0.000000
0.000000 0.341155 0.035206
0.033903 0.339344 0.030830
0.106969 0.337626 0.025364
0.176301 0.338453 0.005689
0.253329 0.337558 0.000000
0.339532 0.333717 0.000000
0.431512 0.327732 0.000000
0.523227 0.320794 0.000000
0.611917 0.314170 0.000000
0.696259 0.308417 0.000000
0.776980 0.303568 0.000000
0.854511 0.299573 0.000000
0.929059 0.296390 0.000000
1.000000 0.293997 0.000000
1.000000 0.292256 0.000000
1.000000 0.287974 0.000000
1.000000 0.283647 0.000000
0.000000 0.407439 0.030569
0.029055 0.406018 0.026024
0.101698 0.404320 0.021604
0.170214 0.404905 0.006731
0.241529 0.405565 0.000000
0.320883 0.403730 0.000000
0.406598 0.399913 0.000000
0.496680 0.394411 0.000000
0.586740 0.387998 0.000000
0.674240 0.381716 0.000000
0.757772 0.376138 0.000000
0.837826 0.371383 0.000000
0.914651 0.367459 0.000000
0.988436 0.364346 0.000000
1.000000 0.361979 0.000000
1.000000 0.357567 0.000000
1.000000 0.352851 0.000000
0.000000 0.473125 0.027428
0.025705 0.472094 0.022716
0.097431 0.470646 0.018529
0.166064 0.470818 0.007397
0.234361 0.472053 0.000000
0.308134 0.471990 0.000000
0.388490 0.469553 0.000000
0.473400 0.465880 0.000000
0.561688 0.460794 0.000000
0.650019 0.454877 0.000000
0.736096 0.448988 0.000000
0.818671 0.443653 0.000000
0.897888 0.439059 0.000000
0.973891 0.435258 0.000000
1.000000 0.432251 0.000000
1.000000 0.427717 0.000000
1.000000 0.422660 0.000000
0.000000 0.538214 0.025785
0.023855 0.537574 0.020908
0.094387 0.536495 0.016577
0.163251 0.536322 0.008186
0.230043 0.537682 0.000000
0.299972 0.538610 0.000000
0.375443 0.537877 0.000000
0.455981 0.535138 0.000000
0.539940 0.531619 0.000000
0.626521 0.526904 0.000000
0.713095 0.521455 0.000000
0.797660 0.515971 0.000000
0.879102 0.510927 0.000000
0.957342 0.506545 0.000000
1.000000 0.502909 0.000000
1.000000 0.498324 0.000000
1.000000 0.493043 0.000000
0.000000 0.602707 0.025639
0.023504 0.602457 0.020599
0.092827 0.601753 0.016110
0.161625 0.601420 0.009502
0.227656 0.602723 0.000000
0.295088 0.604168 0.000000
0.366640 0.604583 0.000000
0.443071 0.603335 0.000000
0.523311 0.600490 0.000000
0.606220 0.597131 0.000000
0.691151 0.592758 0.000000
0.775980 0.587745 0.000000
0.858979 0.582664 0.000000
0.939160 0.577942 0.000000
1.000000 0.573811 0.000000
1.000000 0.569226 0.000000
1.000000 0.563893 0.000000
0.000000 0.666602 0.026991
0.024652 0.666743 0.021789
0.092766 0.666414 0.017142
0.161180 0.666084 0.011632
0.226790 0.667274 0.000000
0.292588 0.668974 0.000000
0.361233 0.670124 0.000000
0.433978 0.670048 0.000000
0.510803 0.668434 0.000000
0.590454 0.665607 0.000000
0.672242 0.662419 0.000000
0.755563 0.658365 0.000000
0.838671 0.653759 0.000000
0.920076 0.649075 0.000000
0.998903 0.644692 0.000000
1.000000 0.640191 0.000000
1.000000 0.635021 0.000000
0.000000 0.729900 0.029843
0.027299 0.730432 0.024478
0.094203 0.730479 0.019675
0.161955 0.730284 0.014771
0.227268 0.731365 0.004416
0.291965 0.733177 0.000000
0.358471 0.734796 0.000000
0.428221 0.735562 0.000000
0.501709 0.735077 0.000000
0.578512 0.733217 0.000000
0.657389 0.730497 0.000000
0.738006 0.727482 0.000000
0.819749 0.723730 0.000000
0.901163 0.719508 0.000000
0.981576 0.715221 0.000000
1.000000 0.710915 0.000000
1.000000 0.706168 0.000000
0.000000 0.792601 0.034192
0.031445 0.793523 0.028666
0.097138 0.793946 0.023707
0.163999 0.793991 0.019057
0.229028 0.794994 0.010304
0.292928 0.796852 0.000000
0.357837 0.798772 0.000000
0.425219 0.800134 0.000000
0.495805 0.800525 0.000000
0.569643 0.799724 0.000000
0.646113 0.797721 0.000000
0.724108 0.795156 0.000000
0.803510 0.792320 0.000000
0.883700 0.788858 0.000000
0.964597 0.785155 0.000000
1.000000 0.781310 0.000000
1.000000 0.777050 0.000000
0.000000 0.854706 0.040041
0.037091 0.856018 0.034353
0.101573 0.856817 0.029239
0.167357 0.857182 0.024586
0.232060 0.858150 0.017139
0.295323 0.860030 0.004901
0.359001 0.862149 0.000000
0.424509 0.863938 0.000000
0.492664 0.864996 0.000000
0.563780 0.865060 0.000000
0.637641 0.864034 0.000000
0.713564 0.861973 0.000000
0.790601 0.859584 0.000000
0.868756 0.856933 0.000000
0.948721 0.854210 0.000000
1.000000 0.851108 0.000000
1.000000 0.847400 0.000000
0.000000 0.916213 0.047389
0.044235 0.917916 0.041540
0.107506 0.919091 0.036270
0.172097 0.919826 0.031462
0.236375 0.920817 0.025041
0.299075 0.922721 0.014227
0.361762 0.924981 0.000000
0.425760 0.927081 0.000000
0.491897 0.928649 0.000000
0.560629 0.929409 0.000000
0.631994 0.929210 0.000000
0.705617 0.928043 0.000000
0.780833 0.925999 0.000000
0.856861 0.923783 0.000000
0.934849 0.922265 0.000000
1.000000 0.920060 0.000000
1.000000 0.917005 0.000000
0.000000 0.977123 0.056235
0.052879 0.979217 0.050225
0.114938 0.980767 0.044800
0.178325 0.981877 0.039829
0.241997 0.982978 0.034103
0.304154 0.984921 0.024504
0.366010 0.987288 0.011578
0.428749 0.989630 0.000000
0.493202 0.991593 0.000000
0.559875 0.992912 0.000000
0.628962 0.993409 0.000000
0.700306 0.993028 0.000000
0.773521 0.991762 0.000000
0.847751 0.990300 0.000000
0.923375 0.989420 0.000000
1.000000 0.988077 0.000000
1.000000 0.985740 0.000000
0.000000 1.000000 0.065419
0.063022 1.000000 0.060410
0.123869 1.000000 0.054830
0.186051 1.000000 0.049697
0.248947 1.000000 0.044391
0.310539 1.000000 0.035808
0.371642 1.000000 0.024093
0.433299 1.000000 0.009693
0.496320 1.000000 0.000000
0.561220 1.000000 0.000000
0.628281 1.000000 0.000000
0.697497 1.000000 0.000000
0.768140 1.000000 0.000000
0.840119 1.000000 0.000000
0.914093 1.000000 0.000000
0.989957 1.000000 0.000000
1.000000 1.000000 0.000000
0.000000 0.000000 0.155614
0.077823 0.000000 0.152924
0.154227 0.000000 0.149393
0.229316 0.000000 0.145564
0.309423 0.000000 0.143957
0.392384 0.000000 0.141931
0.474544 0.000000 0.138877
0.554766 0.000000 0.135272
0.632630 0.000000 0.131516
0.707968 0.000000 0.127879
0.780705 0.000000 0.124532
0.850810 0.000000 0.121589
0.918268 0.000000 0.119129
0.983076 0.000000 0.117204
1.000000 0.000000 0.115405
1.000000 0.000000 0.112448
1.000000 0.000000 0.109500
0.000000 0.068868 0.145542
0.067187 0.065598 0.143057
0.144666 0.062349 0.139765
0.224931 0.058183 0.137357
0.312504 0.051875 0.134644
0.399081 0.046032 0.130258
0.483282 0.040939 0.125444
0.564867 0.036610 0.120764
0.643791 0.033032 0.116469
0.720054 0.030195 0.112685
0.793659 0.028075 0.109484
0.864608 0.026528 0.106911
0.932907 0.025699 0.104981
0.998560 0.025589 0.103707
1.000000 0.026198 0.103103
1.000000 0.022642 0.099844
1.000000 0.019107 0.096581
0.000000 0.137579 0.135143
0.056334 0.134668 0.132198
0.133869 0.131403 0.128900
0.226456 0.124120 0.121082
0.317855 0.117107 0.114083
0.405307 0.111157 0.108188
0.490141 0.105913 0.102998
0.572360 0.101376 0.098513
0.651964 0.097544 0.094733
0.728954 0.094419 0.091659
0.803331 0.091999 0.089290
0.875093 0.090285 0.087627
0.944242 0.089277 0.086670
1.000000 0.088974 0.086418
1.000000 0.089377 0.086873
1.000000 0.086893 0.084399
1.000000 0.083479 0.080986
0.000000 0.205843 0.125291
0.046648 0.203347 0.121766
0.123014 0.200466 0.118113
0.202399 0.198389 0.097601
0.300193 0.190289 0.082547
0.392735 0.182716 0.077725
0.481079 0.176279 0.074019
0.566182 0.170746 0.070911
0.648457 0.165997 0.068356
0.727862 0.162033 0.066477
0.804303 0.158873 0.065356
0.877895 0.156487 0.064961
0.948710 0.154855 0.065279
1.000000 0.153965 0.066302
1.000000 0.153806 0.068029
1.000000 0.151921 0.066997
1.000000 0.148377 0.063546
0.000000 0.273539 0.116600
0.038482 0.271439 0.112683
0.113658 0.268932 0.108822
0.186389 0.268159 0.094989
0.270354 0.265348 0.068261
0.366473 0.258007 0.050614
0.460103 0.250232 0.044596
0.549246 0.243444 0.042019
0.634540 0.237665 0.040781
0.716470 0.232802 0.040366
0.795300 0.228791 0.040644
0.871190 0.225588 0.041581
0.944263 0.223157 0.043159
1.000000 0.221479 0.045381
1.000000 0.220539 0.048253
1.000000 0.219019 0.049282
1.000000 0.215249 0.045740
0.000000 0.340644 0.109276
0.031826 0.338933 0.105068
0.105802 0.336801 0.101030
0.178581 0.335453 0.092744
0.251844 0.335638 0.067852
0.337921 0.331997 0.043135
0.431955 0.325394 0.024314
0.525023 0.317949 0.016686
0.614303 0.311120 0.014108
0.699695 0.305208 0.013901
0.781510 0.300223 0.015037
0.860020 0.296126 0.017114
0.935413 0.292876 0.019969
1.000000 0.290446 0.023412
1.000000 0.288716 0.027256
1.000000 0.287029 0.029915
1.000000 0.282885 0.025763
0.000000 0.407153 0.103392
0.026674 0.405831 0.098942
0.099445 0.404073 0.094737
0.172427 0.402396 0.089119
0.241786 0.403237 0.069226
0.318945 0.402291 0.044062
0.405230 0.398420 0.021001
0.497256 0.392406 0.002267
0.588990 0.385458 0.000000
0.677685 0.378834 0.000000
0.762760 0.372962 0.000000
0.844264 0.367958 0.000000
0.922373 0.363832 0.000000
0.997256 0.360563 0.000340
1.000000 0.358066 0.005322
1.000000 0.355715 0.008729
1.000000 0.351044 0.003445
0.000000 0.473064 0.098976
0.023023 0.472130 0.094310
0.094587 0.470748 0.089943
0.167191 0.469069 0.085456
0.235654 0.469693 0.070351
0.307059 0.470330 0.046456
0.386497 0.468454 0.023794
0.472281 0.464619 0.001856
0.562419 0.459092 0.000000
0.652496 0.452672 0.000000
0.740126 0.446379 0.000000
0.824493 0.440682 0.000000
0.905432 0.435761 0.000000
0.982997 0.431675 0.000000
1.000000 0.428433 0.000000
1.000000 0.425377 0.000000
1.000000 0.420225 0.000000
0.000000 0.538378 0.096040
0.020874 0.537833 0.091175
0.091228 0.536827 0.086649
0.162956 0.535379 0.082454
0.231494 0.535601 0.071101
0.299840 0.536832 0.050326
0.373675 0.536743 0.026463
0.454094 0.534278 0.006748
0.539074 0.530592 0.000000
0.627412 0.525487 0.000000
0.715738 0.519568 0.000000
0.802023 0.513665 0.000000
0.885381 0.508230 0.000000
0.965506 0.503478 0.000000
1.000000 0.499504 0.000000
1.000000 0.495855 0.000000
1.000000 0.490437 0.000000
0.000000 0.603095 0.094592
0.020224 0.602939 0.089537
0.089368 0.602308 0.084853
0.159915 0.601224 0.080531
0.228687 0.601096 0.071962
0.295487 0.602465 0.054365
0.365460 0.603381 0.031926
0.440983 0.602627 0.009677
0.521574 0.599871 0.000000
0.605605 0.596340 0.000000
0.692217 0.591608 0.000000
0.778770 0.586157 0.000000
0.863553 0.580664 0.000000
0.945691 0.575544 0.000000
1.000000 0.571024 0.000000
1.000000 0.566974 0.000000
1.000000 0.561423 0.000000
0.000000 0.667214 0.094636
0.021074 0.667447 0.089397
0.089008 0.667192 0.084557
0.158346 0.666483 0.080076
0.227072 0.666184 0.073343
0.293085 0.667504 0.058550
0.360544 0.668947 0.038291
0.432125 0.669352 0.016165
0.508604 0.668090 0.000000
0.588897 0.665234 0.000000
0.671873 0.661858 0.000000
0.756815 0.657469 0.000000
0.841608 0.652453 0.000000
0.924804 0.647371 0.000000
1.000000 0.642592 0.000000
1.000000 0.638299 0.000000
1.000000 0.632861 0.000000
0.000000 0.730736 0.096173
0.023423 0.731359 0.090756
0.090146 0.731479 0.085760
0.158275 0.731146 0.081121
0.226639 0.730839 0.075527
0.292214 0.732051 0.063099
0.358030 0.733752 0.045113
0.426681 0.734905 0.024220
0.499455 0.734823 0.003406
0.576326 0.733198 0.000000
0.656039 0.730358 0.000000
0.737879 0.727148 0.000000
0.821192 0.723078 0.000000
0.904249 0.718470 0.000000
0.985861 0.713790 0.000000
1.000000 0.709356 0.000000
1.000000 0.704345 0.000000
0.000000 0.793661 0.099206
0.027272 0.794674 0.093614
0.092784 0.795170 0.088462
0.159703 0.795212 0.083666
0.227426 0.795031 0.078713
0.292693 0.796137 0.068245
0.357395 0.797955 0.052382
0.423898 0.799580 0.033124
0.493656 0.800349 0.012764
0.567174 0.799864 0.000000
0.644037 0.797986 0.000000
0.722974 0.795247 0.000000
0.803621 0.792209 0.000000
0.885338 0.788441 0.000000
0.966722 0.784220 0.000000
1.000000 0.779944 0.000000
1.000000 0.775509 0.000000
0.000000 0.855989 0.103734
0.032621 0.857391 0.097970
0.096921 0.858263 0.092663
0.162629 0.858681 0.087711
0.229480 0.858731 0.083039
0.294456 0.859760 0.074180
0.358350 0.861627 0.060214
0.423255 0.863555 0.042673
0.490627 0.864928 0.023351
0.561223 0.865326 0.004209
0.635104 0.864519 0.000000
0.711647 0.862487 0.000000
0.789688 0.859901 0.000000
0.869100 0.857041 0.000000
0.949266 0.853569 0.000000
1.000000 0.849879 0.000000
1.000000 0.846061 0.000000
0.000000 0.917720 0.109760
0.039468 0.919512 0.103825
0.102557 0.920760 0.098363
0.167054 0.921553 0.093255
0.232846 0.921915 0.088604
0.297493 0.922911 0.081058
0.360740 0.924802 0.068748
0.424418 0.926927 0.052863
0.489901 0.928733 0.034823
0.558049 0.929805 0.016208
0.629181 0.929880 0.000000
0.703118 0.928827 0.000000
0.779104 0.926731 0.000000
0.856171 0.924320 0.000000
0.934320 0.921648 0.000000
1.000000 0.918941 0.000000
1.000000 0.915804 0.000000
0.000000 0.978853 0.117283
0.047815 0.981035 0.111179
0.109692 0.982659 0.105562
0.172978 0.983828 0.100299
0.237583 0.984558 0.095501
0.301813 0.985572 0.089000
0.364491 0.987489 0.078116
0.427183 0.989753 0.063761
0.491147 0.991874 0.047072
0.557261 0.993462 0.029331
0.625989 0.994240 0.011914
0.697405 0.994032 0.000000
0.771114 0.992821 0.000000
0.846374 0.990746 0.000000
0.922416 0.988505 0.000000
1.000000 0.987005 0.000000
1.000000 0.984635 0.000000
0.000000 1.000000 0.126303
0.057661 1.000000 0.120032
0.118326 1.000000 0.114261
0.180401 1.000000 0.108843
0.243802 1.000000 0.103880
0.307433 1.000000 0.098088
0.369554 1.000000 0.088406
0.431400 1.000000 0.075413
0.494105 1.000000 0.060026
0.558520 1.000000 0.043302
0.625176 1.000000 0.026387
0.694291 1.000000 0.010133
0.765731 1.000000 0.000000
0.839022 1.000000 0.000000
0.913280 1.000000 0.000000
0.988944 1.000000 0.000000
1.000000 1.000000 0.000000
0.000000 0.000000 0.229724
0.076224 0.000000 0.227778
0.152311 0.000000 0.224834
0.227533 0.000000 0.221106
0.301340 0.000000 0.217055
0.375369 0.000000 0.213849
0.453594 0.000000 0.212284
0.532584 0.000000 0.210331
0.610562 0.000000 0.207762
0.686732 0.000000 0.204787
0.760701 0.000000 0.201649
0.832270 0.000000 0.198548
0.901329 0.000000 0.195636
0.967816 0.000000 0.193029
1.000000 0.000000 0.190809
1.000000 0.000000 0.188664
1.000000 0.000000 0.186267
0.000000 0.067768 0.220869
0.066233 0.064665 0.219164
0.143096 0.061531 0.216547
