assets/presets/luts/food-fresh/lut.cube
TITLE "Food Fresh"
LUT_3D_SIZE 9
0.000000 0.000000 0.000000
0.186093 0.000000 0.000000
0.358446 0.000000 0.000000
0.520302 0.000000 0.000000
0.671659 0.000000 0.000000
0.812519 0.000000 0.000000
0.942897 0.000000 0.000000
1.000000 0.000000 0.000000
1.000000 0.000000 0.000000
0.000000 0.139602 0.000000
0.138889 0.135943 0.000000
0.325328 0.121414 0.000000
0.499125 0.109140 0.000000
0.661877 0.099868 0.000000
0.812576 0.093827 0.000000
0.950985 0.091090 0.000000
1.000000 0.085914 0.000000
1.000000 0.078548 0.000000
0.000000 0.274698 0.000000
0.110919 0.273653 0.000000
0.273826 0.269002 0.000000
0.455520 0.256237 0.000000
0.625758 0.244488 0.000000
0.784250 0.235755 0.000000
0.931769 0.229982 0.000000
1.000000 0.224458 0.000000
1.000000 0.216021 0.000000
0.000000 0.407406 0.000000
0.100752 0.406007 0.000000
0.242637 0.407216 0.000000
0.407721 0.401156 0.000000
0.583274 0.390160 0.000000
0.749782 0.379314 0.000000
0.904234 0.371193 0.000000
1.000000 0.364832 0.000000
1.000000 0.355183 0.000000
0.000000 0.537727 0.000000
0.096291 0.536625 0.000000
0.229764 0.539343 0.000000
0.377498 0.538585 0.000000
0.540580 0.532410 0.000000
0.709733 0.522985 0.000000
0.871485 0.513374 0.000000
1.000000 0.505346 0.000000
1.000000 0.495499 0.000000
0.000000 0.665659 0.000000
0.096590 0.665506 0.000000
0.226716 0.668332 0.000000
0.362788 0.670763 0.000000
0.512909 0.668495 0.000000
0.672405 0.662765 0.000000
0.835204 0.654740 0.000000
0.997206 0.646267 0.000000
1.000000 0.637031 0.000000
0.000000 0.791204 0.000000
0.101973 0.792413 0.000000
0.230088 0.795186 0.000000
0.359206 0.799096 0.000000
0.498253 0.800308 0.000000
0.647980 0.797262 0.000000
0.803194 0.792220 0.000000
0.964947 0.786308 0.000000
1.000000 0.778509 0.000000
0.000000 0.914360 0.000000
0.112966 0.917098 0.000000
0.238916 0.920082 0.000000
0.363543 0.924756 0.000000
0.494448 0.928121 0.000000
0.634746 0.928310 0.000000
0.782209 0.925537 0.000000
0.935907 0.923326 0.000000
1.000000 0.918134 0.000000
0.000000 1.000000 0.000000
0.129948 1.000000 0.000000
0.253020 1.000000 0.000000
0.374215 1.000000 0.000000
0.499195 1.000000 0.000000
0.630394 1.000000 0.000000
0.768270 1.000000 0.000000
0.914927 1.000000 0.000000
1.000000 1.000000 0.000000
0.000000 0.000000 0.155614
0.154227 0.000000 0.149393
0.309423 0.000000 0.143957
0.474544 0.000000 0.138877
0.632630 0.000000 0.131516
0.780705 0.000000 0.124532
0.918268 0.000000 0.119129
1.000000 0.000000 0.115405
1.000000 0.000000 0.109500
0.000000 0.137579 0.135143
0.133869 0.131403 0.128900
0.317855 0.117107 0.114083
0.490141 0.105913 0.102998
0.651964 0.097544 0.094733
0.803331 0.091999 0.089290
0.944242 0.089277 0.086670
1.000000 0.089377 0.086873
1.000000 0.083479 0.080986
0.000000 0.273539 0.116600
0.113658 0.268932 0.108822
0.270354 0.265348 0.068261
0.460103 0.250232 0.044596
0.634540 0.237665 0.040781
0.795300 0.228791 0.040644
0.944263 0.223157 0.043159
1.000000 0.220539 0.048253
1.000000 0.215249 0.045740
0.000000 0.407153 0.103392
0.099445 0.404073 0.094737
0.241786 0.403237 0.069226
0.405230 0.398420 0.021001
0.588990 0.385458 0.000000
0.762760 0.372962 0.000000
0.922373 0.363832 0.000000
1.000000 0.358066 0.005322
1.000000 0.351044 0.003445
0.000000 0.538378 0.096040
0.091228 0.536827 0.086649
0.231494 0.535601 0.071101
0.373675 0.536743 0.026463
0.539074 0.530592 0.000000
0.715738 0.519568 0.000000
0.885381 0.508230 0.000000
1.000000 0.499504 0.000000
1.000000 0.490437 0.000000
0.000000 0.667214 0.094636
0.089008 0.667192 0.084557
0.227072 0.666184 0.073343
0.360544 0.668947 0.038291
0.508604 0.668090 0.000000
0.671873 0.661858 0.000000
0.841608 0.652453 0.000000
1.000000 0.642592 0.000000
1.000000 0.632861 0.000000
0.000000 0.793661 0.099206
0.092784 0.795170 0.088462
0.227426 0.795031 0.078713
0.357395 0.797955 0.052382
0.493656 0.800349 0.012764
0.644037 0.797986 0.000000
0.803621 0.792209 0.000000
0.966722 0.784220 0.000000
1.000000 0.775509 0.000000
0.000000 0.917720 0.109760
0.102557 0.920760 0.098363
0.232846 0.921915 0.088604
0.360740 0.924802 0.068748
0.489901 0.928733 0.034823
0.629181 0.929880 0.000000
0.779104 0.926731 0.000000
0.934320 0.921648 0.000000
1.000000 0.915804 0.000000
0.000000 1.000000 0.126303
0.118326 1.000000 0.114261
0.243802 1.000000 0.103880
0.369554 1.000000 0.088406
0.494105 1.000000 0.060026
0.625176 1.000000 0.026387
0.765731 1.000000 0.000000
0.913280 1.000000 0.000000
1.000000 1.000000 0.000000
0.000000 0.000000 0.301932
0.150239 0.000000 0.298481
0.299320 0.000000 0.291346
0.442989 0.000000 0.282905
0.591853 0.000000 0.278711
0.741078 0.000000 0.274293
0.883353 0.000000 0.268847
1.000000 0.000000 0.263501
1.000000 0.000000 0.259473
0.000000 0.135132 0.285729
0.131791 0.129389 0.283074
0.285085 0.123346 0.276890
0.440854 0.116476 0.271598
0.606148 0.106769 0.266373
0.764212 0.099429 0.258980
0.912252 0.095023 0.252051
1.000000 0.093570 0.246761
1.000000 0.093953 0.243219
0.000000 0.271285 0.267267
0.111553 0.266944 0.262813
0.265037 0.260848 0.256596
0.449681 0.246408 0.241273
0.621812 0.235248 0.230304
0.783466 0.226918 0.222153
0.934659 0.221413 0.216823
1.000000 0.218731 0.214315
1.000000 0.218869 0.214626
0.000000 0.405651 0.250969
0.095977 0.402944 0.244234
0.244780 0.398384 0.236585
0.401845 0.394773 0.195206
0.591508 0.379639 0.171971
0.765801 0.367105 0.168255
0.926423 0.358261 0.168228
1.000000 0.352647 0.170831
1.000000 0.349912 0.175742
0.000000 0.537750 0.239313
0.086481 0.536594 0.231040
0.230529 0.533531 0.222552
0.372763 0.532801 0.196299
0.536644 0.527848 0.148143
0.720332 0.514866 0.121193
0.893957 0.502399 0.118773
1.000000 0.493295 0.124631
1.000000 0.486416 0.130055
0.000000 0.667482 0.233133
0.083026 0.667855 0.223715
0.222274 0.666291 0.214515
0.362355 0.665168 0.198499
0.504821 0.666241 0.153699
0.670415 0.660021 0.113049
0.847068 0.648969 0.087697
1.000000 0.637644 0.085872
1.000000 0.628032 0.088281
0.000000 0.794829 0.232711
0.085587 0.796726 0.222342
0.220016 0.796662 0.212474
0.357962 0.795714 0.201016
0.491492 0.798494 0.165618
0.639792 0.797550 0.123632
0.803153 0.791293 0.089915
0.972937 0.781867 0.068678
1.000000 0.771841 0.064151
0.000000 0.919788 0.238162
0.094156 0.923209 0.226947
0.223754 0.924646 0.216431
0.358363 0.924526 0.206590
0.488257 0.927509 0.179892
0.624690 0.929857 0.140240
0.775200 0.927435 0.106377
0.934856 0.921666 0.078740
1.000000 0.913654 0.063148
0.000000 1.000000 0.249536
0.108726 1.000000 0.237537
0.233489 1.000000 0.226383
0.363818 1.000000 0.216633
0.491551 1.000000 0.196396
0.620790 1.000000 0.162304
0.760223 1.000000 0.126237
0.910208 1.000000 0.101229
1.000000 1.000000 0.082355
0.000000 0.000000 0.440637
0.146200 0.000000 0.440104
0.293980 0.000000 0.435333
0.438338 0.000000 0.427403
0.577052 0.000000 0.418166
0.712380 0.000000 0.410413
0.850633 0.000000 0.405863
0.984988 0.000000 0.401144
1.000000 0.000000 0.395943
0.000000 0.133056 0.429235
0.130306 0.127967 0.429635
0.281118 0.122389 0.426154
0.430230 0.117688 0.418984
0.573964 0.114708 0.410599
0.723261 0.109640 0.406520
0.872604 0.104596 0.402079
1.000000 0.101741 0.396649
1.000000 0.101917 0.391312
0.000000 0.268625 0.413889
0.112065 0.264504 0.413586
0.262909 0.258836 0.410892
0.416202 0.252799 0.404648
0.572489 0.245763 0.399488
0.737864 0.236046 0.394115
0.895795 0.228752 0.386669
1.000000 0.224396 0.379757
1.000000 0.223169 0.374569
0.000000 0.403212 0.397701
0.095798 0.400707 0.395036
0.242624 0.396411 0.390584
0.396219 0.390291 0.384274
0.581484 0.375716 0.368461
0.753469 0.364587 0.357610
0.914958 0.356295 0.349574
1.000000 0.350829 0.344357
1.000000 0.348181 0.341955
0.000000 0.535961 0.383812
0.084818 0.535116 0.378682
0.227015 0.532420 0.372012
0.375903 0.527835 0.364350
0.533340 0.524195 0.322164
0.722909 0.509047 0.299350
0.897059 0.496545 0.295732
1.000000 0.487732 0.295815
1.000000 0.481736 0.297582
0.000000 0.666507 0.374102
0.079896 0.667251 0.367011
0.217486 0.666075 0.358855
0.361614 0.662989 0.350367
0.503749 0.662364 0.323368
0.668059 0.657275 0.275295
0.851672 0.644274 0.248750
1.000000 0.631846 0.246468
1.000000 0.621643 0.246752
0.000000 0.794725 0.369470
0.081071 0.797020 0.360837
0.213996 0.797342 0.351575
0.353321 0.795754 0.342382
0.493215 0.794735 0.325888
0.635972 0.795737 0.280941
0.801757 0.789449 0.240404
0.978337 0.778382 0.215413
1.000000 0.766707 0.208206
0.000000 0.920576 0.370336
0.088311 0.924403 0.360434
0.216521 0.926219 0.350250
0.351025 0.926132 0.340393
0.488848 0.925246 0.328679
0.622444 0.928041 0.292945
0.770981 0.927009 0.251127
0.934423 0.920722 0.217476
1.000000 0.911291 0.196248
0.000000 1.000000 0.376905
0.101592 1.000000 0.365909
0.225053 1.000000 0.354904
0.354725 1.000000 0.344400
0.489288 1.000000 0.334449
0.619087 1.000000 0.307329
0.755691 1.000000 0.267591
0.906366 1.000000 0.233998
1.000000 1.000000 0.209624
0.000000 0.000000 0.571729
0.142590 0.000000 0.574112
0.288035 0.000000 0.572128
0.431761 0.000000 0.566214
0.571284 0.000000 0.557567
0.705113 0.000000 0.547631
0.832696 0.000000 0.537612
0.960091 0.000000 0.530783
1.000000 0.000000 0.525069
0.000000 0.131519 0.565226
0.129414 0.127138 0.568583
0.277083 0.122204 0.567964
0.424922 0.117645 0.563141
0.569302 0.114431 0.555183
0.708010 0.113030 0.545954
0.843583 0.112399 0.538343
0.982041 0.110595 0.533850
1.000000 0.110404 0.528873
0.000000 0.266132 0.554032
0.113724 0.262438 0.557270
0.261382 0.257416 0.557565
0.412236 0.251832 0.554009
0.561308 0.247148 0.546792
0.705054 0.244160 0.538462
0.854688 0.238983 0.534473
1.000000 0.233941 0.529985
1.000000 0.231496 0.524395
0.000000 0.400381 0.540214
0.098376 0.398052 0.541846
0.243093 0.393972 0.541467
0.394028 0.388284 0.538708
0.547317 0.382254 0.532406
0.704139 0.375046 0.527373
0.869581 0.365324 0.521850
1.000000 0.358075 0.514356
1.000000 0.354004 0.507501
0.000000 0.533360 0.526445
0.086603 0.532689 0.525569
0.226778 0.530193 0.522871
0.373696 0.525877 0.518353
0.527420 0.519730 0.511925
0.713264 0.505030 0.495649
0.885114 0.493930 0.484918
1.000000 0.485674 0.476996
1.000000 0.480237 0.471882
0.000000 0.664481 0.515026
0.080243 0.665482 0.511617
0.215764 0.664613 0.506510
0.358055 0.661895 0.499790
0.507026 0.657287 0.492115
0.664839 0.653615 0.449136
0.854309 0.638455 0.426731
1.000000 0.625986 0.423212
1.000000 0.616495 0.421423
0.000000 0.793449 0.507472
0.079882 0.796068 0.501874
0.210811 0.796756 0.494858
0.348492 0.795556 0.486670
0.492700 0.792446 0.478184
0.634743 0.791924 0.450435
0.799475 0.786700 0.402455
0.983009 0.773682 0.376310
1.000000 0.760571 0.368458
0.000000 0.920130 0.504658
0.085625 0.924324 0.497231
0.211954 0.926531 0.488717
0.344967 0.926829 0.479435
0.484369 0.925218 0.470250
0.624076 0.924303 0.453267
0.767128 0.925231 0.408188
0.933098 0.918876 0.367766
1.000000 0.907790 0.341926
0.000000 1.000000 0.507071
0.097467 1.000000 0.498100
0.219160 1.000000 0.488354
0.347456 1.000000 0.478159
0.482035 1.000000 0.468312
0.619713 1.000000 0.456307
0.753358 1.000000 0.420160
0.902156 1.000000 0.378491
1.000000 1.000000 0.348436
0.000000 0.000000 0.695208
0.139512 0.000000 0.700499
0.282151 0.000000 0.701385
0.424244 0.000000 0.698053
0.563506 0.000000 0.691166
0.698156 0.000000 0.681835
0.827088 0.000000 0.671224
0.949724 0.000000 0.660278
1.000000 0.000000 0.650385
0.000000 0.130553 0.693635
0.129114 0.126901 0.699918
0.273474 0.122663 0.702158
0.418989 0.118513 0.700120
0.562761 0.115278 0.694158
0.702301 0.113574 0.685487
0.836125 0.113696 0.675555
0.963748 0.115665 0.665595
1.000000 0.117602 0.658533
0.000000 0.264050 0.686960
0.116117 0.260913 0.693434
0.260447 0.256588 0.696625
0.408172 0.251646 0.695932
0.556013 0.247093 0.691039
0.700341 0.243898 0.683042
0.838968 0.242521 0.673812
0.974720 0.241824 0.666328
1.000000 0.240404 0.661466
0.000000 0.397591 0.676665
0.102588 0.395566 0.682175
0.244714 0.391906 0.685265
0.392458 0.386865 0.685494
0.543354 0.381276 0.681863
0.692385 0.376609 0.674600
0.836164 0.373604 0.666334
0.986121 0.368323 0.662424
1.000000 0.363738 0.657622
0.000000 0.530372 0.664792
0.091151 0.529864 0.668268
0.229312 0.527541 0.669786
0.374124 0.523439 0.669345
0.525148 0.517731 0.666523
0.678432 0.511709 0.660163
0.835802 0.504325 0.655252
1.000000 0.494603 0.649579
1.000000 0.487717 0.642037
0.000000 0.661727 0.653499
0.083968 0.662892 0.654412
0.217493 0.662196 0.653468
0.357760 0.659680 0.650705
0.504769 0.655343 0.646121
0.658646 0.649166 0.639544
0.845022 0.634351 0.622837
1.000000 0.623276 0.612227
1.000000 0.615038 0.604401
0.000000 0.791217 0.644579
0.082242 0.794059 0.642926
0.211098 0.795001 0.639502
0.346712 0.794111 0.634336
0.489096 0.791369 0.627566
0.638151 0.786738 0.619882
0.796341 0.783032 0.576121
0.985706 0.767863 0.554117
1.000000 0.754583 0.547421
0.000000 0.918589 0.639301
0.086456 0.923068 0.635328
0.210704 0.925595 0.629767
0.341727 0.926261 0.622704
0.479500 0.925037 0.614485
0.623787 0.921903 0.606002
0.765745 0.921482 0.577500
0.930892 0.916124 0.529624
1.000000 0.902995 0.501380
0.000000 1.000000 0.638487
0.096755 1.000000 0.632490
0.216417 1.000000 0.625147
0.342838 1.000000 0.616597
0.475940 1.000000 0.607296
0.615418 1.000000 0.598119
0.754905 1.000000 0.580576
0.898258 1.000000 0.535289
1.000000 1.000000 0.498792
0.000000 0.000000 0.811074
0.136997 0.000000 0.819269
0.276597 0.000000 0.823036
0.416451 0.000000 0.822489
0.554579 0.000000 0.817962
0.689196 0.000000 0.810208
0.818954 0.000000 0.800209
0.942984 0.000000 0.788934
1.000000 0.000000 0.777194
0.000000 0.130171 0.814444
0.129406 0.127256 0.823640
0.270396 0.123732 0.828733
0.413110 0.120126 0.829563
0.555263 0.117111 0.826178
0.694562 0.115303 0.819250
0.829226 0.115117 0.809897
0.958156 0.116763 0.799287
1.000000 0.120315 0.788364
0.000000 0.262473 0.812444
0.119155 0.259962 0.822014
0.260104 0.256352 0.828073
0.404526 0.252103 0.830239
0.550066 0.247954 0.828125
0.693818 0.244731 0.822102
0.833301 0.243047 0.813397
0.967047 0.243193 0.803459
1.000000 0.245228 0.793453
0.000000 0.395092 0.806237
0.107861 0.393493 0.815283
0.247067 0.390381 0.821543
0.391480 0.386038 0.824666
0.539262 0.381087 0.823897
0.687104 0.376541 0.818935
0.831379 0.373365 0.810900
0.969926 0.372013 0.801670
1.000000 0.371539 0.793945
0.000000 0.527346 0.797367
0.097615 0.527081 0.804908
0.233485 0.525055 0.810230
0.375705 0.521373 0.813258
0.523536 0.516313 0.813420
0.674473 0.510720 0.809714
0.823460 0.506070 0.802407
0.967292 0.503042 0.794215
1.000000 0.498139 0.789937
0.000000 0.658590 0.787654
0.090455 0.659911 0.792944
0.221995 0.659374 0.796270
0.360249 0.657030 0.797725
0.505155 0.652907 0.797222
0.656269 0.647178 0.794335
0.809545 0.641164 0.787919
0.967479 0.633601 0.783124
1.000000 0.624323 0.777176
0.000000 0.788316 0.778863
0.087893 0.791316 0.781565
0.214768 0.792420 0.782376
0.348384 0.791703 0.781366
0.488743 0.789166 0.778537
0.635844 0.784809 0.773887
0.789901 0.778597 0.767123
0.976760 0.763677 0.750027
1.000000 0.752594 0.739500
0.000000 0.916170 0.772458
0.090809 0.920851 0.772575
0.213006 0.923599 0.770872
0.341954 0.924520 0.767386
0.477661 0.923608 0.762161
0.620139 0.920844 0.755343
0.769276 0.916188 0.747650
0.927847 0.912447 0.703119
1.000000 0.896847 0.678137
0.000000 1.000000 0.769529
0.099615 1.000000 0.767247
0.217187 1.000000 0.763275
0.341529 1.000000 0.757660
0.472645 1.000000 0.750550
0.610510 1.000000 0.742300
0.754874 1.000000 0.733821
0.896711 1.000000 0.704428
1.000000 1.000000 0.660691
0.000000 0.000000 0.919327
0.135059 0.000000 0.930422
0.271491 0.000000 0.937067
0.408739 0.000000 0.939376
0.545110 0.000000 0.937494
0.678943 0.000000 0.931901
0.808820 0.000000 0.923345
0.933680 0.000000 0.912688
1.000000 0.000000 0.900757
0.000000 0.130377 0.927648
0.130291 0.128204 0.939749
0.267881 0.125403 0.947689
0.407558 0.122409 0.951400
0.547479 0.119777 0.950799
0.685659 0.118064 0.946222
0.820307 0.117726 0.938431
0.950078 0.119062 0.928412
1.000000 0.122232 0.917136
0.000000 0.261440 0.930399
0.122811 0.259595 0.942994
0.260354 0.256709 0.951907
0.401409 0.253173 0.956926
0.544161 0.249563 0.957680
0.686317 0.246555 0.954224
0.825583 0.244762 0.947241
0.960187 0.244597 0.937857
1.000000 0.246267 0.927238
0.000000 0.393011 0.928573
0.113960 0.391927 0.940944
0.250065 0.389431 0.950236
0.391095 0.385804 0.956226
0.535579 0.381544 0.958317
0.681144 0.377395 0.956128
0.824875 0.374184 0.950044
0.964300 0.372521 0.941305
1.000000 0.372691 0.931363
0.000000 0.524512 0.923361
0.105438 0.524588 0.934666
0.238720 0.522982 0.943453
0.378018 0.519849 0.949649
0.522516 0.515488 0.952705
0.670352 0.510528 0.951861
0.818194 0.505989 0.946829
0.962416 0.502833 0.938757
1.000000 0.501505 0.929528
0.000000 0.655360 0.916246
0.099033 0.656891 0.925709
0.228419 0.656592 0.933022
0.364383 0.654544 0.938282
0.506698 0.650841 0.941250
0.654614 0.645762 0.941345
0.805591 0.640165 0.937564
0.954535 0.635532 0.930213
1.000000 0.632632 0.921880
0.000000 0.785033 0.908812
0.096305 0.788186 0.915904
0.221208 0.789442 0.921009
0.352841 0.788884 0.924270
0.491188 0.786519 0.925662
0.636188 0.782374 0.925097
0.787392 0.776626 0.922145
0.940657 0.770620 0.915674
1.000000 0.763426 0.910547
0.000000 0.913124 0.902537
0.098379 0.917960 0.907027
0.218603 0.920864 0.909593
0.345569 0.921947 0.910338
0.479278 0.921210 0.909263
0.619728 0.918652 0.906367
0.766921 0.914274 0.901651
0.921189 0.908023 0.894658
1.000000 0.892947 0.877132
0.000000 1.000000 0.898656
0.105941 1.000000 0.900551
0.221482 1.000000 0.900583
0.343771 1.000000 0.898817
0.472812 1.000000 0.895269
0.608612 1.000000 0.889985
0.751183 1.000000 0.883119
0.900402 1.000000 0.875420
1.000000 1.000000 0.834133
0.000000 0.000000 1.000000
0.133703 0.000000 1.000000
0.266890 0.000000 1.000000
0.401303 0.000000 1.000000
0.535487 0.000000 1.000000
0.667944 0.000000 1.000000
0.797291 0.000000 1.000000
0.922377 0.000000 1.000000
1.000000 0.000000 1.000000
0.000000 0.131171 1.000000
0.131768 0.129745 1.000000
0.265943 0.127672 1.000000
0.402453 0.125328 1.000000
0.539773 0.123181 1.000000
0.676204 0.121721 1.000000
0.810081 0.121395 1.000000
0.939986 0.122547 1.000000
1.000000 0.125406 1.000000
0.000000 0.260971 1.000000
0.127074 0.259815 1.000000
0.261196 0.257659 1.000000
0.398854 0.254845 1.000000
0.538576 0.251844 1.000000
0.678516 0.249214 1.000000
0.816683 0.247512 1.000000
0.951290 0.247191 1.000000
1.000000 0.248548 1.000000
0.000000 0.391415 1.000000
0.120781 0.390906 1.000000
0.253679 0.389064 1.000000
0.391303 0.386162 1.000000
0.532423 0.382614 1.000000
0.675212 0.379000 1.000000
0.817371 0.375999 1.000000
0.956604 0.374221 1.000000
1.000000 0.374078 1.000000
0.000000 0.522013 1.000000
0.114308 0.522516 1.000000
0.244780 0.521416 1.000000
0.380975 0.518900 1.000000
0.522088 0.515255 1.000000
0.666633 0.510984 1.000000
0.812222 0.506836 1.000000
0.955931 0.503637 1.000000
1.000000 0.501995 1.000000
0.000000 0.652245 1.000000
0.109198 0.654063 1.000000
0.236204 0.654099 1.000000
0.369580 0.652471 1.000000
0.508971 0.649317 1.000000
0.653552 0.644938 1.000000
0.801443 0.639969 1.000000
0.949284 0.635437 1.000000
1.000000 0.632301 1.000000
0.000000 0.781617 1.000000
0.106925 0.784961 1.000000
0.229744 0.786423 1.000000
0.359225 0.786102 1.000000
0.495283 0.784033 1.000000
0.637692 0.780308 1.000000
0.785695 0.775210 1.000000
0.936710 0.769609 1.000000
1.000000 0.764994 1.000000
0.000000 0.909699 1.000000
0.108708 0.914685 1.000000
0.226967 0.917738 1.000000
0.351962 0.918973 1.000000
0.483688 0.918394 1.000000
0.622128 0.916008 1.000000
0.767223 0.911841 1.000000
0.918516 0.906072 1.000000
1.000000 0.900076 1.000000
0.000000 1.000000 1.000000
0.115425 1.000000 1.000000
0.228999 1.000000 1.000000
0.349314 1.000000 1.000000
0.476372 1.000000 1.000000
0.610172 1.000000 1.000000
0.750715 1.000000 1.000000
0.897999 1.000000 1.000000
1.000000 1.000000 1.000000
