assets/presets/luts/food-fresh/lut.cube
TITLE "Food Fresh"
LUT_3D_SIZE 5
0.000000 0.000000 0.000000
0.358446 0.000000 0.000000
0.671659 0.000000 0.000000
0.942897 0.000000 0.000000
1.000000 0.000000 0.000000
0.000000 0.274698 0.000000
0.273826 0.269002 0.000000
0.625758 0.244488 0.000000
0.931769 0.229982 0.000000
1.000000 0.216021 0.000000
0.000000 0.537727 0.000000
0.229764 0.539343 0.000000
0.540580 0.532410 0.000000
0.871485 0.513374 0.000000
1.000000 0.495499 0.000000
0.000000 0.791204 0.000000
0.230088 0.795186 0.000000
0.498253 0.800308 0.000000
0.803194 0.792220 0.000000
1.000000 0.778509 0.000000
0.000000 1.000000 0.000000
0.253020 1.000000 0.000000
0.499195 1.000000 0.000000
0.768270 1.000000 0.000000
1.000000 1.000000 0.000000
0.000000 0.000000 0.301932
0.299320 0.000000 0.291346
0.591853 0.000000 0.278711
0.883353 0.000000 0.268847
1.000000 0.000000 0.259473
0.000000 0.271285 0.267267
0.265037 0.260848 0.256596
0.621812 0.235248 0.230304
0.934659 0.221413 0.216823
1.000000 0.218869 0.214626
0.000000 0.537750 0.239313
0.230529 0.533531 0.222552
0.536644 0.527848 0.148143
0.893957 0.502399 0.118773
1.000000 0.486416 0.130055
0.000000 0.794829 0.232711
0.220016 0.796662 0.212474
0.491492 0.798494 0.165618
0.803153 0.791293 0.089915
1.000000 0.771841 0.064151
0.000000 1.000000 0.249536
0.233489 1.000000 0.226383
0.491551 1.000000 0.196396
0.760223 1.000000 0.126237
1.000000 1.000000 0.082355
0.000000 0.000000 0.571729
0.288035 0.000000 0.572128
0.571284 0.000000 0.557567
0.832696 0.000000 0.537612
1.000000 0.000000 0.525069
0.000000 0.266132 0.554032
0.261382 0.257416 0.557565
0.561308 0.247148 0.546792
0.854688 0.238983 0.534473
1.000000 0.231496 0.524395
0.000000 0.533360 0.526445
0.226778 0.530193 0.522871
0.527420 0.519730 0.511925
0.885114 0.493930 0.484918
1.000000 0.480237 0.471882
0.000000 0.793449 0.507472
0.210811 0.796756 0.494858
0.492700 0.792446 0.478184
0.799475 0.786700 0.402455
1.000000 0.760571 0.368458
0.000000 1.000000 0.507071
0.219160 1.000000 0.488354
0.482035 1.000000 0.468312
0.753358 1.000000 0.420160
1.000000 1.000000 0.348436
0.000000 0.000000 0.811074
0.276597 0.000000 0.823036
0.554579 0.000000 0.817962
0.818954 0.000000 0.800209
1.000000 0.000000 0.777194
0.000000 0.262473 0.812444
0.260104 0.256352 0.828073
0.550066 0.247954 0.828125
0.833301 0.243047 0.813397
1.000000 0.245228 0.793453
0.000000 0.527346 0.797367
0.233485 0.525055 0.810230
0.523536 0.516313 0.813420
0.823460 0.506070 0.802407
1.000000 0.498139 0.789937
0.000000 0.788316 0.778863
0.214768 0.792420 0.782376
0.488743 0.789166 0.778537
0.789901 0.778597 0.767123
1.000000 0.752594 0.739500
0.000000 1.000000 0.769529
0.217187 1.000000 0.763275
0.472645 1.000000 0.750550
0.754874 1.000000 0.733821
1.000000 1.000000 0.660691
0.000000 0.000000 1.000000
0.266890 0.000000 1.000000
0.535487 0.000000 1.000000
0.797291 0.000000 1.000000
1.000000 0.000000 1.000000
0.000000 0.260971 1.000000
0.261196 0.257659 1.000000
0.538576 0.251844 1.000000
0.816683 0.247512 1.000000
1.000000 0.248548 1.000000
0.000000 0.522013 1.000000
0.244780 0.521416 1.000000
0.522088 0.515255 1.000000
0.812222 0.506836 1.000000
1.000000 0.501995 1.000000
0.000000 0.781617 1.000000
0.229744 0.786423 1.000000
0.495283 0.784033 1.000000
0.785695 0.775210 1.000000
1.000000 0.764994 1.000000
0.000000 1.000000 1.000000
0.228999 1.000000 1.000000
0.476372 1.000000 1.000000
0.750715 1.000000 1.000000
1.000000 1.000000 1.000000
