assets/presets/luts/sepia-print/lut.cube
TITLE "Sepia Print"
LUT_3D_SIZE 5
0.000000 0.000000 0.000000
0.035277 0.023747 0.013186
0.116293 0.077001 0.041780
0.237404 0.156580 0.083804
0.389281 0.259687 0.138659
0.064774 0.043237 0.023747
0.163658 0.107996 0.058182
0.299550 0.198139 0.105782
0.459834 0.309814 0.165898
0.625244 0.436125 0.237404
0.217918 0.143680 0.077001
0.366267 0.243693 0.130064
0.531351 0.362664 0.195239
0.692431 0.492439 0.271106
0.830000 0.622824 0.355484
0.436125 0.292770 0.156580
0.602115 0.417525 0.226554
0.755210 0.548867 0.306380
0.878251 0.676285 0.393554
0.961514 0.790047 0.484906
0.670457 0.473613 0.259687
0.812367 0.604563 0.343012
0.919118 0.727204 0.432396
0.983891 0.832715 0.524455
1.000000 0.915176 0.615542
0.008716 0.005951 0.003361
0.064774 0.043237 0.023747
0.163658 0.107996 0.058182
0.299550 0.198139 0.105782
0.459834 0.309814 0.165898
0.102138 0.067740 0.036857
0.217918 0.143680 0.077001
0.366267 0.243693 0.130064
0.531351 0.362664 0.195239
0.692431 0.492439 0.271106
0.278263 0.183822 0.098197
0.436125 0.292770 0.156580
0.602115 0.417525 0.226554
0.755210 0.548867 0.306380
0.878251 0.676285 0.393554
0.507511 0.344787 0.185233
0.670457 0.473613 0.259687
0.812367 0.604563 0.343012
0.919118 0.727204 0.432396
0.983891 0.832715 0.524455
0.734854 0.530097 0.294460
0.862964 0.658712 0.380765
0.952239 0.774939 0.471733
0.997518 0.871111 0.563825
1.000000 0.942632 0.653389
0.027237 0.018394 0.010254
0.102138 0.067740 0.036857
0.217918 0.143680 0.077001
0.366267 0.243693 0.130064
0.531351 0.362664 0.195239
0.147072 0.097134 0.052444
0.278263 0.183822 0.098197
0.436125 0.292770 0.156580
0.602115 0.417525 0.226554
0.755210 0.548867 0.306380
0.343603 0.228091 0.121718
0.507511 0.344787 0.185233
0.670457 0.473613 0.259687
0.812367 0.604563 0.343012
0.919118 0.727204 0.432396
0.578716 0.399061 0.215905
0.734854 0.530097 0.294460
0.862964 0.658712 0.380765
0.952239 0.774939 0.471733
0.997518 0.871111 0.563825
0.794003 0.586130 0.330665
0.906342 0.710555 0.419379
0.977355 0.818950 0.511278
1.000000 0.904947 0.602727
1.000000 0.965151 0.690140
0.054056 0.036176 0.019938
0.147072 0.097134 0.052444
0.278263 0.183822 0.098197
0.436125 0.292770 0.156580
0.602115 0.417525 0.226554
0.199109 0.131277 0.070462
0.343603 0.228091 0.121718
0.507511 0.344787 0.185233
0.670457 0.473613 0.259687
0.812367 0.604563 0.343012
0.412587 0.276054 0.147498
0.578716 0.399061 0.215905
0.734854 0.530097 0.294460
0.862964 0.658712 0.380765
0.952239 0.774939 0.471733
0.648044 0.454832 0.248451
0.794003 0.586130 0.330665
0.906342 0.710555 0.419379
0.977355 0.818950 0.511278
1.000000 0.904947 0.602727
0.846874 0.640883 0.368072
0.942075 0.759417 0.458583
0.994041 0.858807 0.550740
1.000000 0.934023 0.640883
1.000000 0.982594 0.725555
0.088825 0.059023 0.032209
0.199109 0.131277 0.070462
0.343603 0.228091 0.121718
0.507511 0.344787 0.185233
0.670457 0.473613 0.259687
0.257533 0.169964 0.090870
0.412587 0.276054 0.147498
0.578716 0.399061 0.215905
0.734854 0.530097 0.294460
0.862964 0.658712 0.380765
0.483650 0.327161 0.175451
0.648044 0.454832 0.248451
0.794003 0.586130 0.330665
0.906342 0.710555 0.419379
0.977355 0.818950 0.511278
0.713912 0.511278 0.282699
0.846874 0.640883 0.368072
0.942075 0.759417 0.458583
0.994041 0.858807 0.550740
1.000000 0.934023 0.640883
0.892715 0.693574 0.406429
0.969890 0.804722 0.498091
1.000000 0.894189 0.589829
1.000000 0.958201 0.678027
1.000000 0.994666 0.759417
