assets/presets/luts/sepia-print/lut.cube
TITLE "Sepia Print"
LUT_3D_SIZE 17
0.000000 0.000000 0.000000
0.003664 0.002514 0.001428
0.011198 0.007630 0.004300
0.021807 0.014764 0.008257
0.035277 0.023747 0.013186
0.051514 0.034499 0.019031
0.070462 0.046976 0.025757
0.092073 0.061151 0.033345
0.116293 0.077001 0.041780
0.143048 0.094501 0.051052
0.172241 0.113623 0.061151
0.203746 0.134331 0.072072
0.237404 0.156580 0.083804
0.273026 0.180314 0.096341
0.310388 0.205465 0.109670
0.349233 0.231954 0.123781
0.389281 0.259687 0.138659
0.006492 0.004441 0.002514
0.015385 0.010454 0.005871
0.027237 0.018394 0.010254
0.041901 0.028141 0.015581
0.059305 0.039637 0.021807
0.079401 0.052845 0.028905
0.102138 0.067740 0.036857
0.127454 0.084300 0.045652
0.155268 0.102499 0.055279
0.185468 0.122306 0.065732
0.217918 0.143680 0.077001
0.252443 0.166573 0.089079
0.288839 0.190924 0.101957
0.326870 0.216659 0.115623
0.366267 0.243693 0.130064
0.406736 0.271928 0.145266
0.447962 0.301253 0.161210
0.020113 0.013630 0.007630
0.033182 0.022354 0.012425
0.049027 0.032856 0.018141
0.067591 0.045089 0.024743
0.088825 0.059023 0.032209
0.112676 0.074635 0.040524
0.139074 0.091901 0.049676
0.167926 0.110793 0.059658
0.199109 0.131277 0.070462
0.232471 0.153309 0.082079
0.267825 0.176834 0.094501
0.304953 0.201788 0.107718
0.343603 0.228091 0.121718
0.383497 0.255653 0.136487
0.424331 0.284369 0.152009
0.465780 0.314123 0.168265
0.507511 0.344787 0.185233
0.039637 0.026641 0.014764
0.056653 0.037889 0.020864
0.076367 0.050854 0.027838
0.098730 0.065510 0.035669
0.123682 0.081834 0.044344
0.151145 0.099800 0.053853
0.181013 0.119379 0.064188
0.213150 0.140532 0.075341
0.247391 0.163212 0.087305
0.283534 0.187358 0.100069
0.321347 0.212901 0.113623
0.360566 0.239755 0.127954
0.400901 0.267825 0.143048
0.442039 0.297001 0.158887
0.483650 0.327161 0.175451
0.525396 0.358172 0.192717
0.566933 0.389890 0.210659
0.064774 0.043237 0.023747
0.085630 0.056930 0.031090
0.109111 0.072303 0.039284
0.135150 0.089334 0.048318
0.163658 0.107996 0.058182
0.194517 0.128255 0.068868
0.227578 0.150069 0.080370
0.262661 0.173385 0.092678
0.299550 0.198139 0.105782
0.337999 0.224255 0.119671
0.377733 0.251643 0.134331
0.418452 0.280201 0.149746
0.459834 0.309814 0.165898
0.501545 0.340356 0.182766
0.543243 0.371688 0.200325
0.584587 0.403663 0.218548
0.625244 0.436125 0.237404
0.095375 0.063314 0.034499
0.119962 0.079401 0.043054
0.147072 0.097134 0.052444
0.176604 0.116485 0.062661
0.208426 0.137416 0.073698
0.242378 0.159881 0.085546
0.278263 0.183822 0.098197
0.315852 0.209169 0.111639
0.354888 0.235842 0.125860
0.395082 0.263745 0.140846
0.436125 0.292770 0.156580
0.477690 0.322797 0.173041
0.519437 0.353695 0.190208
0.561025 0.385322 0.208055
0.602115 0.417525 0.226554
0.642378 0.450147 0.245672
0.681502 0.483023 0.265374
0.131277 0.086801 0.046976
0.159439 0.105231 0.056722
0.189970 0.125264 0.067292
0.222727 0.146859 0.078677
0.257533 0.169964 0.090870
0.294178 0.194517 0.103861
0.332421 0.220444 0.117639
0.371990 0.247656 0.132190
0.412587 0.276054 0.147498
0.453894 0.305524 0.163547
0.495579 0.335941 0.180314
0.537300 0.367169 0.197775
0.578716 0.399061 0.215905
0.619490 0.431464 0.234673
0.659302 0.464215 0.254046
0.697849 0.497149 0.273988
0.734854 0.530097 0.294460
0.172241 0.113623 0.061151
0.203746 0.134331 0.072072
0.237404 0.156580 0.083804
0.273026 0.180314 0.096341
0.310388 0.205465 0.109670
0.349233 0.231954 0.123781
0.389281 0.259687 0.138659
0.430222 0.288559 0.154287
0.471733 0.318451 0.170646
0.513475 0.349233 0.187714
0.555107 0.380765 0.205465
0.596288 0.412895 0.223872
0.636689 0.445467 0.242904
0.675994 0.478317 0.262525
0.713912 0.511278 0.282699
0.750178 0.544181 0.303386
0.784557 0.576858 0.324541
0.217918 0.143680 0.077001
0.252443 0.166573 0.089079
0.288839 0.190924 0.101957
0.326870 0.216659 0.115623
0.366267 0.243693 0.130064
0.406736 0.271928 0.145266
0.447962 0.301253 0.161210
0.489614 0.331543 0.177875
0.531351 0.362664 0.195239
0.572830 0.394470 0.213275
0.613717 0.426810 0.231954
0.653685 0.459521 0.251243
0.692431 0.492439 0.271106
0.729672 0.525396 0.291505
0.765156 0.558223 0.312397
0.798661 0.590753 0.333740
0.830000 0.622824 0.355484
0.267825 0.176834 0.094501
0.304953 0.201788 0.107718
0.343603 0.228091 0.121718
0.383497 0.255653 0.136487
0.424331 0.284369 0.152009
0.465780 0.314123 0.168265
0.507511 0.344787 0.185233
0.549179 0.376220 0.202888
0.590445 0.408274 0.221204
0.630977 0.440793 0.240148
0.670457 0.473613 0.259687
0.708591 0.506569 0.279785
0.745108 0.539490 0.300401
0.779769 0.572210 0.321492
0.812367 0.604563 0.343012
0.842728 0.636388 0.364915
0.870709 0.667532 0.387148
0.321347 0.212901 0.113623
0.360566 0.239755 0.127954
0.400901 0.267825 0.143048
0.442039 0.297001 0.158887
0.483650 0.327161 0.175451
0.525396 0.358172 0.192717
0.566933 0.389890 0.210659
0.607925 0.422163 0.229248
0.648044 0.454832 0.248451
0.686982 0.487730 0.268235
0.724454 0.520692 0.288559
0.760203 0.553548 0.309384
0.794003 0.586130 0.330665
0.825662 0.618276 0.352355
0.855018 0.649828 0.374406
0.881944 0.680635 0.396765
0.906342 0.710555 0.419379
0.377733 0.251643 0.134331
0.418452 0.280201 0.149746
0.459834 0.309814 0.165898
0.501545 0.340356 0.182766
0.543243 0.371688 0.200325
0.584587 0.403663 0.218548
0.625244 0.436125 0.237404
0.664893 0.468913 0.256861
0.703236 0.501859 0.276881
0.740000 0.534796 0.297426
0.774939 0.567555 0.318451
0.807843 0.599970 0.339913
0.838533 0.631880 0.361764
0.866862 0.663130 0.383953
0.892715 0.693574 0.406429
0.916004 0.723075 0.429136
0.936663 0.751506 0.452020
0.436125 0.292770 0.156580
0.477690 0.322797 0.173041
0.519437 0.353695 0.190208
0.561025 0.385322 0.208055
0.602115 0.417525 0.226554
0.642378 0.450147 0.245672
0.681502 0.483023 0.265374
0.719200 0.515986 0.285624
0.755210 0.548867 0.306380
0.789302 0.581499 0.327599
0.821276 0.613717 0.349233
0.850970 0.645363 0.371235
0.878251 0.676285 0.393554
0.903014 0.706340 0.416135
0.925183 0.735397 0.438925
0.944699 0.763336 0.461868
0.961514 0.790047 0.484906
0.495579 0.335941 0.180314
0.537300 0.367169 0.197775
0.578716 0.399061 0.215905
0.619490 0.431464 0.234673
0.659302 0.464215 0.254046
0.697849 0.497149 0.273988
0.734854 0.530097 0.294460
0.770068 0.562892 0.315420
0.803275 0.595366 0.336823
0.834290 0.627358 0.358621
0.862964 0.658712 0.380765
0.889177 0.689280 0.403202
0.912837 0.718923 0.425880
0.933875 0.747514 0.448742
0.952239 0.774939 0.471733
0.967881 0.801095 0.494794
0.980741 0.825891 0.517868
0.555107 0.380765 0.205465
0.596288 0.412895 0.223872
0.636689 0.445467 0.242904
0.675994 0.478317 0.262525
0.713912 0.511278 0.282699
0.750178 0.544181 0.303386
0.784557 0.576858 0.324541
0.816845 0.609146 0.346119
0.846874 0.640883 0.368072
0.874506 0.671917 0.390348
0.899634 0.702105 0.412895
0.922177 0.731312 0.435659
0.942075 0.759417 0.458583
0.959279 0.786310 0.481611
0.973738 0.811893 0.504685
0.985377 0.836083 0.527747
0.994041 0.858807 0.550740
0.613717 0.426810 0.231954
0.653685 0.459521 0.251243
0.692431 0.492439 0.271106
0.729672 0.525396 0.291505
0.765156 0.558223 0.312397
0.798661 0.590753 0.333740
0.830000 0.622824 0.355484
0.859016 0.654278 0.377582
0.885587 0.684966 0.399981
0.909616 0.714750 0.422628
0.931032 0.743499 0.445467
0.949781 0.771097 0.468443
0.965815 0.797440 0.491497
0.979077 0.822435 0.514573
0.989469 0.846005 0.537613
0.996759 0.868082 0.560558
1.000000 0.888613 0.583352
0.670457 0.473613 0.259687
0.708591 0.506569 0.279785
0.745108 0.539490 0.300401
0.779769 0.572210 0.321492
0.812367 0.604563 0.343012
0.842728 0.636388 0.364915
0.870709 0.667532 0.387148
0.896201 0.697849 0.409660
0.919118 0.727204 0.432396
0.939397 0.755474 0.455300
0.956988 0.782546 0.478317
0.971843 0.808322 0.501388
0.983891 0.832715 0.524455
0.992996 0.855653 0.547462
0.998790 0.877074 0.570349
1.000000 0.896928 0.593061
1.000000 0.915176 0.615542
0.000956 0.000659 0.000376
0.006492 0.004441 0.002514
0.015385 0.010454 0.005871
0.027237 0.018394 0.010254
0.041901 0.028141 0.015581
0.059305 0.039637 0.021807
0.079401 0.052845 0.028905
0.102138 0.067740 0.036857
0.127454 0.084300 0.045652
0.155268 0.102499 0.055279
0.185468 0.122306 0.065732
0.217918 0.143680 0.077001
0.252443 0.166573 0.089079
0.288839 0.190924 0.101957
0.326870 0.216659 0.115623
0.366267 0.243693 0.130064
0.406736 0.271928 0.145266
0.009926 0.006770 0.003819
0.020113 0.013630 0.007630
0.033182 0.022354 0.012425
0.049027 0.032856 0.018141
0.067591 0.045089 0.024743
0.088825 0.059023 0.032209
0.112676 0.074635 0.040524
0.139074 0.091901 0.049676
0.167926 0.110793 0.059658
0.199109 0.131277 0.070462
0.232471 0.153309 0.082079
0.267825 0.176834 0.094501
0.304953 0.201788 0.107718
0.343603 0.228091 0.121718
0.383497 0.255653 0.136487
0.424331 0.284369 0.152009
0.465780 0.314123 0.168265
0.025369 0.017147 0.009569
0.039637 0.026641 0.014764
0.056653 0.037889 0.020864
0.076367 0.050854 0.027838
0.098730 0.065510 0.035669
0.123682 0.081834 0.044344
0.151145 0.099800 0.053853
0.181013 0.119379 0.064188
0.213150 0.140532 0.075341
0.247391 0.163212 0.087305
0.283534 0.187358 0.100069
0.321347 0.212901 0.113623
0.360566 0.239755 0.127954
0.400901 0.267825 0.143048
0.442039 0.297001 0.158887
0.483650 0.327161 0.175451
0.525396 0.358172 0.192717
0.046596 0.031249 0.017270
0.064774 0.043237 0.023747
0.085630 0.056930 0.031090
0.109111 0.072303 0.039284
0.135150 0.089334 0.048318
0.163658 0.107996 0.058182
0.194517 0.128255 0.068868
0.227578 0.150069 0.080370
0.262661 0.173385 0.092678
0.299550 0.198139 0.105782
0.337999 0.224255 0.119671
0.377733 0.251643 0.134331
0.418452 0.280201 0.149746
0.459834 0.309814 0.165898
0.501545 0.340356 0.182766
0.543243 0.371688 0.200325
0.584587 0.403663 0.218548
0.073387 0.048898 0.026789
0.095375 0.063314 0.034499
0.119962 0.079401 0.043054
0.147072 0.097134 0.052444
0.176604 0.116485 0.062661
0.208426 0.137416 0.073698
0.242378 0.159881 0.085546
0.278263 0.183822 0.098197
0.315852 0.209169 0.111639
0.354888 0.235842 0.125860
0.395082 0.263745 0.140846
0.436125 0.292770 0.156580
0.477690 0.322797 0.173041
0.519437 0.353695 0.190208
0.561025 0.385322 0.208055
0.602115 0.417525 0.226554
0.642378 0.450147 0.245672
0.105598 0.070005 0.038062
0.131277 0.086801 0.046976
0.159439 0.105231 0.056722
0.189970 0.125264 0.067292
0.222727 0.146859 0.078677
0.257533 0.169964 0.090870
0.294178 0.194517 0.103861
0.332421 0.220444 0.117639
0.371990 0.247656 0.132190
0.412587 0.276054 0.147498
0.453894 0.305524 0.163547
0.495579 0.335941 0.180314
0.537300 0.367169 0.197775
0.578716 0.399061 0.215905
0.619490 0.431464 0.234673
0.659302 0.464215 0.254046
0.697849 0.497149 0.273988
0.143048 0.094501 0.051052
0.172241 0.113623 0.061151
0.203746 0.134331 0.072072
0.237404 0.156580 0.083804
0.273026 0.180314 0.096341
0.310388 0.205465 0.109670
0.349233 0.231954 0.123781
0.389281 0.259687 0.138659
0.430222 0.288559 0.154287
0.471733 0.318451 0.170646
0.513475 0.349233 0.187714
0.555107 0.380765 0.205465
0.596288 0.412895 0.223872
0.636689 0.445467 0.242904
0.675994 0.478317 0.262525
0.713912 0.511278 0.282699
0.750178 0.544181 0.303386
0.185468 0.122306 0.065732
0.217918 0.143680 0.077001
0.252443 0.166573 0.089079
0.288839 0.190924 0.101957
0.326870 0.216659 0.115623
0.366267 0.243693 0.130064
0.406736 0.271928 0.145266
0.447962 0.301253 0.161210
0.489614 0.331543 0.177875
0.531351 0.362664 0.195239
0.572830 0.394470 0.213275
0.613717 0.426810 0.231954
0.653685 0.459521 0.251243
0.692431 0.492439 0.271106
0.729672 0.525396 0.291505
0.765156 0.558223 0.312397
0.798661 0.590753 0.333740
0.232471 0.153309 0.082079
0.267825 0.176834 0.094501
0.304953 0.201788 0.107718
0.343603 0.228091 0.121718
0.383497 0.255653 0.136487
0.424331 0.284369 0.152009
0.465780 0.314123 0.168265
0.507511 0.344787 0.185233
0.549179 0.376220 0.202888
0.590445 0.408274 0.221204
0.630977 0.440793 0.240148
0.670457 0.473613 0.259687
0.708591 0.506569 0.279785
0.745108 0.539490 0.300401
0.779769 0.572210 0.321492
0.812367 0.604563 0.343012
0.842728 0.636388 0.364915
0.283534 0.187358 0.100069
0.321347 0.212901 0.113623
0.360566 0.239755 0.127954
0.400901 0.267825 0.143048
0.442039 0.297001 0.158887
0.483650 0.327161 0.175451
0.525396 0.358172 0.192717
0.566933 0.389890 0.210659
0.607925 0.422163 0.229248
0.648044 0.454832 0.248451
0.686982 0.487730 0.268235
0.724454 0.520692 0.288559
0.760203 0.553548 0.309384
0.794003 0.586130 0.330665
0.825662 0.618276 0.352355
0.855018 0.649828 0.374406
0.881944 0.680635 0.396765
0.337999 0.224255 0.119671
0.377733 0.251643 0.134331
0.418452 0.280201 0.149746
0.459834 0.309814 0.165898
0.501545 0.340356 0.182766
0.543243 0.371688 0.200325
0.584587 0.403663 0.218548
0.625244 0.436125 0.237404
0.664893 0.468913 0.256861
0.703236 0.501859 0.276881
0.740000 0.534796 0.297426
0.774939 0.567555 0.318451
0.807843 0.599970 0.339913
0.838533 0.631880 0.361764
0.866862 0.663130 0.383953
0.892715 0.693574 0.406429
0.916004 0.723075 0.429136
0.395082 0.263745 0.140846
0.436125 0.292770 0.156580
0.477690 0.322797 0.173041
0.519437 0.353695 0.190208
0.561025 0.385322 0.208055
0.602115 0.417525 0.226554
0.642378 0.450147 0.245672
0.681502 0.483023 0.265374
0.719200 0.515986 0.285624
0.755210 0.548867 0.306380
0.789302 0.581499 0.327599
0.821276 0.613717 0.349233
0.850970 0.645363 0.371235
0.878251 0.676285 0.393554
0.903014 0.706340 0.416135
0.925183 0.735397 0.438925
0.944699 0.763336 0.461868
0.453894 0.305524 0.163547
0.495579 0.335941 0.180314
0.537300 0.367169 0.197775
0.578716 0.399061 0.215905
0.619490 0.431464 0.234673
0.659302 0.464215 0.254046
0.697849 0.497149 0.273988
0.734854 0.530097 0.294460
0.770068 0.562892 0.315420
0.803275 0.595366 0.336823
0.834290 0.627358 0.358621
0.862964 0.658712 0.380765
0.889177 0.689280 0.403202
0.912837 0.718923 0.425880
0.933875 0.747514 0.448742
0.952239 0.774939 0.471733
0.967881 0.801095 0.494794
0.513475 0.349233 0.187714
0.555107 0.380765 0.205465
0.596288 0.412895 0.223872
0.636689 0.445467 0.242904
0.675994 0.478317 0.262525
0.713912 0.511278 0.282699
0.750178 0.544181 0.303386
0.784557 0.576858 0.324541
0.816845 0.609146 0.346119
0.846874 0.640883 0.368072
0.874506 0.671917 0.390348
0.899634 0.702105 0.412895
0.922177 0.731312 0.435659
0.942075 0.759417 0.458583
0.959279 0.786310 0.481611
0.973738 0.811893 0.504685
0.985377 0.836083 0.527747
0.572830 0.394470 0.213275
0.613717 0.426810 0.231954
0.653685 0.459521 0.251243
0.692431 0.492439 0.271106
0.729672 0.525396 0.291505
0.765156 0.558223 0.312397
0.798661 0.590753 0.333740
0.830000 0.622824 0.355484
0.859016 0.654278 0.377582
0.885587 0.684966 0.399981
0.909616 0.714750 0.422628
0.931032 0.743499 0.445467
0.949781 0.771097 0.468443
0.965815 0.797440 0.491497
0.979077 0.822435 0.514573
0.989469 0.846005 0.537613
0.996759 0.868082 0.560558
0.630977 0.440793 0.240148
0.670457 0.473613 0.259687
0.708591 0.506569 0.279785
0.745108 0.539490 0.300401
0.779769 0.572210 0.321492
0.812367 0.604563 0.343012
0.842728 0.636388 0.364915
0.870709 0.667532 0.387148
0.896201 0.697849 0.409660
0.919118 0.727204 0.432396
0.939397 0.755474 0.455300
0.956988 0.782546 0.478317
0.971843 0.808322 0.501388
0.983891 0.832715 0.524455
0.992996 0.855653 0.547462
0.998790 0.877074 0.570349
1.000000 0.896928 0.593061
0.686982 0.487730 0.268235
0.724454 0.520692 0.288559
0.760203 0.553548 0.309384
0.794003 0.586130 0.330665
0.825662 0.618276 0.352355
0.855018 0.649828 0.374406
0.881944 0.680635 0.396765
0.906342 0.710555 0.419379
0.928135 0.739460 0.442195
0.947268 0.767229 0.465154
0.963693 0.793757 0.488201
0.977355 0.818950 0.511278
0.988166 0.842728 0.534326
0.995925 0.865022 0.557288
0.999946 0.885777 0.580107
1.000000 0.904947 0.602727
1.000000 0.922496 0.625093
0.002865 0.001968 0.001120
0.009926 0.006770 0.003819
0.020113 0.013630 0.007630
0.033182 0.022354 0.012425
0.049027 0.032856 0.018141
0.067591 0.045089 0.024743
0.088825 0.059023 0.032209
0.112676 0.074635 0.040524
0.139074 0.091901 0.049676
0.167926 0.110793 0.059658
0.199109 0.131277 0.070462
0.232471 0.153309 0.082079
0.267825 0.176834 0.094501
0.304953 0.201788 0.107718
0.343603 0.228091 0.121718
0.383497 0.255653 0.136487
0.424331 0.284369 0.152009
0.013929 0.009473 0.005326
0.025369 0.017147 0.009569
0.039637 0.026641 0.014764
0.056653 0.037889 0.020864
0.076367 0.050854 0.027838
0.098730 0.065510 0.035669
0.123682 0.081834 0.044344
0.151145 0.099800 0.053853
0.181013 0.119379 0.064188
0.213150 0.140532 0.075341
0.247391 0.163212 0.087305
0.283534 0.187358 0.100069
0.321347 0.212901 0.113623
0.360566 0.239755 0.127954
0.400901 0.267825 0.143048
0.442039 0.297001 0.158887
0.483650 0.327161 0.175451
0.031143 0.020997 0.011682
0.046596 0.031249 0.017270
0.064774 0.043237 0.023747
0.085630 0.056930 0.031090
0.109111 0.072303 0.039284
0.135150 0.089334 0.048318
0.163658 0.107996 0.058182
0.194517 0.128255 0.068868
0.227578 0.150069 0.080370
0.262661 0.173385 0.092678
0.299550 0.198139 0.105782
0.337999 0.224255 0.119671
0.377733 0.251643 0.134331
0.418452 0.280201 0.149746
0.459834 0.309814 0.165898
0.501545 0.340356 0.182766
0.543243 0.371688 0.200325
0.054056 0.036176 0.019938
0.073387 0.048898 0.026789
0.095375 0.063314 0.034499
0.119962 0.079401 0.043054
0.147072 0.097134 0.052444
0.176604 0.116485 0.062661
0.208426 0.137416 0.073698
0.242378 0.159881 0.085546
0.278263 0.183822 0.098197
0.315852 0.209169 0.111639
0.354888 0.235842 0.125860
0.395082 0.263745 0.140846
0.436125 0.292770 0.156580
0.477690 0.322797 0.173041
0.519437 0.353695 0.190208
0.561025 0.385322 0.208055
0.602115 0.417525 0.226554
0.082488 0.054870 0.029989
0.105598 0.070005 0.038062
0.131277 0.086801 0.046976
0.159439 0.105231 0.056722
0.189970 0.125264 0.067292
0.222727 0.146859 0.078677
0.257533 0.169964 0.090870
0.294178 0.194517 0.103861
0.332421 0.220444 0.117639
0.371990 0.247656 0.132190
0.412587 0.276054 0.147498
0.453894 0.305524 0.163547
0.495579 0.335941 0.180314
0.537300 0.367169 0.197775
0.578716 0.399061 0.215905
0.619490 0.431464 0.234673
0.659302 0.464215 0.254046
0.116293 0.077001 0.041780
0.143048 0.094501 0.051052
0.172241 0.113623 0.061151
0.203746 0.134331 0.072072
0.237404 0.156580 0.083804
0.273026 0.180314 0.096341
0.310388 0.205465 0.109670
0.349233 0.231954 0.123781
0.389281 0.259687 0.138659
0.430222 0.288559 0.154287
0.471733 0.318451 0.170646
0.513475 0.349233 0.187714
0.555107 0.380765 0.205465
0.596288 0.412895 0.223872
0.636689 0.445467 0.242904
0.675994 0.478317 0.262525
0.713912 0.511278 0.282699
0.155268 0.102499 0.055279
0.185468 0.122306 0.065732
0.217918 0.143680 0.077001
0.252443 0.166573 0.089079
0.288839 0.190924 0.101957
0.326870 0.216659 0.115623
0.366267 0.243693 0.130064
0.406736 0.271928 0.145266
0.447962 0.301253 0.161210
0.489614 0.331543 0.177875
0.531351 0.362664 0.195239
0.572830 0.394470 0.213275
0.613717 0.426810 0.231954
0.653685 0.459521 0.251243
0.692431 0.492439 0.271106
0.729672 0.525396 0.291505
0.765156 0.558223 0.312397
0.199109 0.131277 0.070462
0.232471 0.153309 0.082079
0.267825 0.176834 0.094501
0.304953 0.201788 0.107718
0.343603 0.228091 0.121718
0.383497 0.255653 0.136487
0.424331 0.284369 0.152009
0.465780 0.314123 0.168265
0.507511 0.344787 0.185233
0.549179 0.376220 0.202888
0.590445 0.408274 0.221204
0.630977 0.440793 0.240148
0.670457 0.473613 0.259687
0.708591 0.506569 0.279785
0.745108 0.539490 0.300401
0.779769 0.572210 0.321492
0.812367 0.604563 0.343012
0.247391 0.163212 0.087305
0.283534 0.187358 0.100069
0.321347 0.212901 0.113623
0.360566 0.239755 0.127954
0.400901 0.267825 0.143048
0.442039 0.297001 0.158887
0.483650 0.327161 0.175451
0.525396 0.358172 0.192717
0.566933 0.389890 0.210659
0.607925 0.422163 0.229248
0.648044 0.454832 0.248451
0.686982 0.487730 0.268235
0.724454 0.520692 0.288559
0.760203 0.553548 0.309384
0.794003 0.586130 0.330665
0.825662 0.618276 0.352355
0.855018 0.649828 0.374406
0.299550 0.198139 0.105782
0.337999 0.224255 0.119671
0.377733 0.251643 0.134331
0.418452 0.280201 0.149746
0.459834 0.309814 0.165898
0.501545 0.340356 0.182766
0.543243 0.371688 0.200325
0.584587 0.403663 0.218548
0.625244 0.436125 0.237404
0.664893 0.468913 0.256861
0.703236 0.501859 0.276881
0.740000 0.534796 0.297426
0.774939 0.567555 0.318451
0.807843 0.599970 0.339913
0.838533 0.631880 0.361764
0.866862 0.663130 0.383953
0.892715 0.693574 0.406429
0.354888 0.235842 0.125860
0.395082 0.263745 0.140846
0.436125 0.292770 0.156580
0.477690 0.322797 0.173041
0.519437 0.353695 0.190208
0.561025 0.385322 0.208055
0.602115 0.417525 0.226554
0.642378 0.450147 0.245672
0.681502 0.483023 0.265374
0.719200 0.515986 0.285624
0.755210 0.548867 0.306380
0.789302 0.581499 0.327599
0.821276 0.613717 0.349233
0.850970 0.645363 0.371235
0.878251 0.676285 0.393554
0.903014 0.706340 0.416135
0.925183 0.735397 0.438925
0.412587 0.276054 0.147498
0.453894 0.305524 0.163547
0.495579 0.335941 0.180314
0.537300 0.367169 0.197775
0.578716 0.399061 0.215905
0.619490 0.431464 0.234673
0.659302 0.464215 0.254046
0.697849 0.497149 0.273988
0.734854 0.530097 0.294460
0.770068 0.562892 0.315420
0.803275 0.595366 0.336823
0.834290 0.627358 0.358621
0.862964 0.658712 0.380765
0.889177 0.689280 0.403202
0.912837 0.718923 0.425880
0.933875 0.747514 0.448742
0.952239 0.774939 0.471733
0.471733 0.318451 0.170646
0.513475 0.349233 0.187714
0.555107 0.380765 0.205465
0.596288 0.412895 0.223872
0.636689 0.445467 0.242904
0.675994 0.478317 0.262525
0.713912 0.511278 0.282699
0.750178 0.544181 0.303386
0.784557 0.576858 0.324541
0.816845 0.609146 0.346119
0.846874 0.640883 0.368072
0.874506 0.671917 0.390348
0.899634 0.702105 0.412895
0.922177 0.731312 0.435659
0.942075 0.759417 0.458583
0.959279 0.786310 0.481611
0.973738 0.811893 0.504685
0.531351 0.362664 0.195239
0.572830 0.394470 0.213275
0.613717 0.426810 0.231954
0.653685 0.459521 0.251243
0.692431 0.492439 0.271106
0.729672 0.525396 0.291505
0.765156 0.558223 0.312397
0.798661 0.590753 0.333740
0.830000 0.622824 0.355484
0.859016 0.654278 0.377582
0.885587 0.684966 0.399981
0.909616 0.714750 0.422628
0.931032 0.743499 0.445467
0.949781 0.771097 0.468443
0.965815 0.797440 0.491497
0.979077 0.822435 0.514573
0.989469 0.846005 0.537613
0.590445 0.408274 0.221204
0.630977 0.440793 0.240148
0.670457 0.473613 0.259687
0.708591 0.506569 0.279785
0.745108 0.539490 0.300401
0.779769 0.572210 0.321492
0.812367 0.604563 0.343012
0.842728 0.636388 0.364915
0.870709 0.667532 0.387148
0.896201 0.697849 0.409660
0.919118 0.727204 0.432396
0.939397 0.755474 0.455300
0.956988 0.782546 0.478317
0.971843 0.808322 0.501388
0.983891 0.832715 0.524455
0.992996 0.855653 0.547462
0.998790 0.877074 0.570349
0.648044 0.454832 0.248451
0.686982 0.487730 0.268235
0.724454 0.520692 0.288559
0.760203 0.553548 0.309384
0.794003 0.586130 0.330665
0.825662 0.618276 0.352355
0.855018 0.649828 0.374406
0.881944 0.680635 0.396765
0.906342 0.710555 0.419379
0.928135 0.739460 0.442195
0.947268 0.767229 0.465154
0.963693 0.793757 0.488201
0.977355 0.818950 0.511278
0.988166 0.842728 0.534326
0.995925 0.865022 0.557288
0.999946 0.885777 0.580107
1.000000 0.904947 0.602727
0.703236 0.501859 0.276881
0.740000 0.534796 0.297426
0.774939 0.567555 0.318451
0.807843 0.599970 0.339913
0.838533 0.631880 0.361764
0.866862 0.663130 0.383953
0.892715 0.693574 0.406429
0.916004 0.723075 0.429136
0.936663 0.751506 0.452020
0.954641 0.778756 0.475024
0.969890 0.804722 0.498091
0.982346 0.829318 0.521162
0.991885 0.852467 0.544181
0.998197 0.874108 0.567089
1.000000 0.894189 0.589829
1.000000 0.912668 0.612347
1.000000 0.929514 0.634587
0.005480 0.003752 0.002127
0.013929 0.009473 0.005326
0.025369 0.017147 0.009569
0.039637 0.026641 0.014764
0.056653 0.037889 0.020864
0.076367 0.050854 0.027838
0.098730 0.065510 0.035669
0.123682 0.081834 0.044344
0.151145 0.099800 0.053853
0.181013 0.119379 0.064188
0.213150 0.140532 0.075341
0.247391 0.163212 0.087305
0.283534 0.187358 0.100069
0.321347 0.212901 0.113623
0.360566 0.239755 0.127954
0.400901 0.267825 0.143048
0.442039 0.297001 0.158887
0.018478 0.012533 0.007023
0.031143 0.020997 0.011682
0.046596 0.031249 0.017270
