assets/presets/luts/sepia-print/lut.cube
TITLE "Sepia Print"
LUT_3D_SIZE 9
0.000000 0.000000 0.000000
0.011198 0.007630 0.004300
0.035277 0.023747 0.013186
0.070462 0.046976 0.025757
0.116293 0.077001 0.041780
0.172241 0.113623 0.061151
0.237404 0.156580 0.083804
0.310388 0.205465 0.109670
0.389281 0.259687 0.138659
0.020113 0.013630 0.007630
0.049027 0.032856 0.018141
0.088825 0.059023 0.032209
0.139074 0.091901 0.049676
0.199109 0.131277 0.070462
0.267825 0.176834 0.094501
0.343603 0.228091 0.121718
0.424331 0.284369 0.152009
0.507511 0.344787 0.185233
0.064774 0.043237 0.023747
0.109111 0.072303 0.039284
0.163658 0.107996 0.058182
0.227578 0.150069 0.080370
0.299550 0.198139 0.105782
0.377733 0.251643 0.134331
0.459834 0.309814 0.165898
0.543243 0.371688 0.200325
0.625244 0.436125 0.237404
0.131277 0.086801 0.046976
0.189970 0.125264 0.067292
0.257533 0.169964 0.090870
0.332421 0.220444 0.117639
0.412587 0.276054 0.147498
0.495579 0.335941 0.180314
0.578716 0.399061 0.215905
0.659302 0.464215 0.254046
0.734854 0.530097 0.294460
0.217918 0.143680 0.077001
0.288839 0.190924 0.101957
0.366267 0.243693 0.130064
0.447962 0.301253 0.161210
0.531351 0.362664 0.195239
0.613717 0.426810 0.231954
0.692431 0.492439 0.271106
0.765156 0.558223 0.312397
0.830000 0.622824 0.355484
0.321347 0.212901 0.113623
0.400901 0.267825 0.143048
0.483650 0.327161 0.175451
0.566933 0.389890 0.210659
0.648044 0.454832 0.248451
0.724454 0.520692 0.288559
0.794003 0.586130 0.330665
0.855018 0.649828 0.374406
0.906342 0.710555 0.419379
0.436125 0.292770 0.156580
0.519437 0.353695 0.190208
0.602115 0.417525 0.226554
0.681502 0.483023 0.265374
0.755210 0.548867 0.306380
0.821276 0.613717 0.349233
0.878251 0.676285 0.393554
0.925183 0.735397 0.438925
0.961514 0.790047 0.484906
0.555107 0.380765 0.205465
0.636689 0.445467 0.242904
0.713912 0.511278 0.282699
0.784557 0.576858 0.324541
0.846874 0.640883 0.368072
0.899634 0.702105 0.412895
0.942075 0.759417 0.458583
0.973738 0.811893 0.504685
0.994041 0.858807 0.550740
0.670457 0.473613 0.259687
0.745108 0.539490 0.300401
0.812367 0.604563 0.343012
0.870709 0.667532 0.387148
0.919118 0.727204 0.432396
0.956988 0.782546 0.478317
0.983891 0.832715 0.524455
0.998790 0.877074 0.570349
1.000000 0.915176 0.615542
0.002865 0.001968 0.001120
0.020113 0.013630 0.007630
0.049027 0.032856 0.018141
0.088825 0.059023 0.032209
0.139074 0.091901 0.049676
0.199109 0.131277 0.070462
0.267825 0.176834 0.094501
0.343603 0.228091 0.121718
0.424331 0.284369 0.152009
0.031143 0.020997 0.011682
0.064774 0.043237 0.023747
0.109111 0.072303 0.039284
0.163658 0.107996 0.058182
0.227578 0.150069 0.080370
0.299550 0.198139 0.105782
0.377733 0.251643 0.134331
0.459834 0.309814 0.165898
0.543243 0.371688 0.200325
0.082488 0.054870 0.029989
0.131277 0.086801 0.046976
0.189970 0.125264 0.067292
0.257533 0.169964 0.090870
0.332421 0.220444 0.117639
0.412587 0.276054 0.147498
0.495579 0.335941 0.180314
0.578716 0.399061 0.215905
0.659302 0.464215 0.254046
0.155268 0.102499 0.055279
0.217918 0.143680 0.077001
0.288839 0.190924 0.101957
0.366267 0.243693 0.130064
0.447962 0.301253 0.161210
0.531351 0.362664 0.195239
0.613717 0.426810 0.231954
0.692431 0.492439 0.271106
0.765156 0.558223 0.312397
0.247391 0.163212 0.087305
0.321347 0.212901 0.113623
0.400901 0.267825 0.143048
0.483650 0.327161 0.175451
0.566933 0.389890 0.210659
0.648044 0.454832 0.248451
0.724454 0.520692 0.288559
0.794003 0.586130 0.330665
0.855018 0.649828 0.374406
0.354888 0.235842 0.125860
0.436125 0.292770 0.156580
0.519437 0.353695 0.190208
0.602115 0.417525 0.226554
0.681502 0.483023 0.265374
0.755210 0.548867 0.306380
0.821276 0.613717 0.349233
0.878251 0.676285 0.393554
0.925183 0.735397 0.438925
0.471733 0.318451 0.170646
0.555107 0.380765 0.205465
0.636689 0.445467 0.242904
0.713912 0.511278 0.282699
0.784557 0.576858 0.324541
0.846874 0.640883 0.368072
0.899634 0.702105 0.412895
0.942075 0.759417 0.458583
0.973738 0.811893 0.504685
0.590445 0.408274 0.221204
0.670457 0.473613 0.259687
0.745108 0.539490 0.300401
0.812367 0.604563 0.343012
0.870709 0.667532 0.387148
0.919118 0.727204 0.432396
0.956988 0.782546 0.478317
0.983891 0.832715 0.524455
0.998790 0.877074 0.570349
0.703236 0.501859 0.276881
0.774939 0.567555 0.318451
0.838533 0.631880 0.361764
0.892715 0.693574 0.406429
0.936663 0.751506 0.452020
0.969890 0.804722 0.498091
0.991885 0.852467 0.544181
1.000000 0.894189 0.589829
1.000000 0.929514 0.634587
0.008716 0.005951 0.003361
0.031143 0.020997 0.011682
0.064774 0.043237 0.023747
0.109111 0.072303 0.039284
0.163658 0.107996 0.058182
0.227578 0.150069 0.080370
0.299550 0.198139 0.105782
0.377733 0.251643 0.134331
0.459834 0.309814 0.165898
0.044220 0.029677 0.016416
0.082488 0.054870 0.029989
0.131277 0.086801 0.046976
0.189970 0.125264 0.067292
0.257533 0.169964 0.090870
0.332421 0.220444 0.117639
0.412587 0.276054 0.147498
0.495579 0.335941 0.180314
0.578716 0.399061 0.215905
0.102138 0.067740 0.036857
0.155268 0.102499 0.055279
0.217918 0.143680 0.077001
0.288839 0.190924 0.101957
0.366267 0.243693 0.130064
0.447962 0.301253 0.161210
0.531351 0.362664 0.195239
0.613717 0.426810 0.231954
0.692431 0.492439 0.271106
0.181013 0.119379 0.064188
0.247391 0.163212 0.087305
0.321347 0.212901 0.113623
0.400901 0.267825 0.143048
0.483650 0.327161 0.175451
0.566933 0.389890 0.210659
0.648044 0.454832 0.248451
0.724454 0.520692 0.288559
0.794003 0.586130 0.330665
0.278263 0.183822 0.098197
0.354888 0.235842 0.125860
0.436125 0.292770 0.156580
0.519437 0.353695 0.190208
0.602115 0.417525 0.226554
0.681502 0.483023 0.265374
0.755210 0.548867 0.306380
0.821276 0.613717 0.349233
0.878251 0.676285 0.393554
0.389281 0.259687 0.138659
0.471733 0.318451 0.170646
0.555107 0.380765 0.205465
0.636689 0.445467 0.242904
0.713912 0.511278 0.282699
0.784557 0.576858 0.324541
0.846874 0.640883 0.368072
0.899634 0.702105 0.412895
0.942075 0.759417 0.458583
0.507511 0.344787 0.185233
0.590445 0.408274 0.221204
0.670457 0.473613 0.259687
0.745108 0.539490 0.300401
0.812367 0.604563 0.343012
0.870709 0.667532 0.387148
0.919118 0.727204 0.432396
0.956988 0.782546 0.478317
0.983891 0.832715 0.524455
0.625244 0.436125 0.237404
0.703236 0.501859 0.276881
0.774939 0.567555 0.318451
0.838533 0.631880 0.361764
0.892715 0.693574 0.406429
0.936663 0.751506 0.452020
0.969890 0.804722 0.498091
0.991885 0.852467 0.544181
1.000000 0.894189 0.589829
0.734854 0.530097 0.294460
0.803275 0.595366 0.336823
0.862964 0.658712 0.380765
0.912837 0.718923 0.425880
0.952239 0.774939 0.471733
0.980741 0.825891 0.517868
0.997518 0.871111 0.563825
1.000000 0.910128 0.609146
1.000000 0.942632 0.653389
0.016902 0.011474 0.006437
0.044220 0.029677 0.016416
0.082488 0.054870 0.029989
0.131277 0.086801 0.046976
0.189970 0.125264 0.067292
0.257533 0.169964 0.090870
0.332421 0.220444 0.117639
0.412587 0.276054 0.147498
0.495579 0.335941 0.180314
0.059305 0.039637 0.021807
0.102138 0.067740 0.036857
0.155268 0.102499 0.055279
0.217918 0.143680 0.077001
0.288839 0.190924 0.101957
0.366267 0.243693 0.130064
0.447962 0.301253 0.161210
0.531351 0.362664 0.195239
0.613717 0.426810 0.231954
0.123682 0.081834 0.044344
0.181013 0.119379 0.064188
0.247391 0.163212 0.087305
0.321347 0.212901 0.113623
0.400901 0.267825 0.143048
0.483650 0.327161 0.175451
0.566933 0.389890 0.210659
0.648044 0.454832 0.248451
0.724454 0.520692 0.288559
0.208426 0.137416 0.073698
0.278263 0.183822 0.098197
0.354888 0.235842 0.125860
0.436125 0.292770 0.156580
0.519437 0.353695 0.190208
0.602115 0.417525 0.226554
0.681502 0.483023 0.265374
0.755210 0.548867 0.306380
0.821276 0.613717 0.349233
0.310388 0.205465 0.109670
0.389281 0.259687 0.138659
0.471733 0.318451 0.170646
0.555107 0.380765 0.205465
0.636689 0.445467 0.242904
0.713912 0.511278 0.282699
0.784557 0.576858 0.324541
0.846874 0.640883 0.368072
0.899634 0.702105 0.412895
0.424331 0.284369 0.152009
0.507511 0.344787 0.185233
0.590445 0.408274 0.221204
0.670457 0.473613 0.259687
0.745108 0.539490 0.300401
0.812367 0.604563 0.343012
0.870709 0.667532 0.387148
0.919118 0.727204 0.432396
0.956988 0.782546 0.478317
0.543243 0.371688 0.200325
0.625244 0.436125 0.237404
0.703236 0.501859 0.276881
0.774939 0.567555 0.318451
0.838533 0.631880 0.361764
0.892715 0.693574 0.406429
0.936663 0.751506 0.452020
0.969890 0.804722 0.498091
0.991885 0.852467 0.544181
0.659302 0.464215 0.254046
0.734854 0.530097 0.294460
0.803275 0.595366 0.336823
0.862964 0.658712 0.380765
0.912837 0.718923 0.425880
0.952239 0.774939 0.471733
0.980741 0.825891 0.517868
0.997518 0.871111 0.563825
1.000000 0.910128 0.609146
0.765156 0.558223 0.312397
0.830000 0.622824 0.355484
0.885587 0.684966 0.399981
0.931032 0.743499 0.445467
0.965815 0.797440 0.491497
0.989469 0.846005 0.537613
1.000000 0.888613 0.583352
1.000000 0.924869 0.628264
1.000000 0.954516 0.671917
0.027237 0.018394 0.010254
0.059305 0.039637 0.021807
0.102138 0.067740 0.036857
0.155268 0.102499 0.055279
0.217918 0.143680 0.077001
0.288839 0.190924 0.101957
0.366267 0.243693 0.130064
0.447962 0.301253 0.161210
0.531351 0.362664 0.195239
0.076367 0.050854 0.027838
0.123682 0.081834 0.044344
0.181013 0.119379 0.064188
0.247391 0.163212 0.087305
0.321347 0.212901 0.113623
0.400901 0.267825 0.143048
0.483650 0.327161 0.175451
0.566933 0.389890 0.210659
0.648044 0.454832 0.248451
0.147072 0.097134 0.052444
0.208426 0.137416 0.073698
0.278263 0.183822 0.098197
0.354888 0.235842 0.125860
0.436125 0.292770 0.156580
0.519437 0.353695 0.190208
0.602115 0.417525 0.226554
0.681502 0.483023 0.265374
0.755210 0.548867 0.306380
0.237404 0.156580 0.083804
0.310388 0.205465 0.109670
0.389281 0.259687 0.138659
0.471733 0.318451 0.170646
0.555107 0.380765 0.205465
0.636689 0.445467 0.242904
0.713912 0.511278 0.282699
0.784557 0.576858 0.324541
0.846874 0.640883 0.368072
0.343603 0.228091 0.121718
0.424331 0.284369 0.152009
0.507511 0.344787 0.185233
0.590445 0.408274 0.221204
0.670457 0.473613 0.259687
0.745108 0.539490 0.300401
0.812367 0.604563 0.343012
0.870709 0.667532 0.387148
0.919118 0.727204 0.432396
0.459834 0.309814 0.165898
0.543243 0.371688 0.200325
0.625244 0.436125 0.237404
0.703236 0.501859 0.276881
0.774939 0.567555 0.318451
0.838533 0.631880 0.361764
0.892715 0.693574 0.406429
0.936663 0.751506 0.452020
0.969890 0.804722 0.498091
0.578716 0.399061 0.215905
0.659302 0.464215 0.254046
0.734854 0.530097 0.294460
0.803275 0.595366 0.336823
0.862964 0.658712 0.380765
0.912837 0.718923 0.425880
0.952239 0.774939 0.471733
0.980741 0.825891 0.517868
0.997518 0.871111 0.563825
0.692431 0.492439 0.271106
0.765156 0.558223 0.312397
0.830000 0.622824 0.355484
0.885587 0.684966 0.399981
0.931032 0.743499 0.445467
0.965815 0.797440 0.491497
0.989469 0.846005 0.537613
1.000000 0.888613 0.583352
1.000000 0.924869 0.628264
0.794003 0.586130 0.330665
0.855018 0.649828 0.374406
0.906342 0.710555 0.419379
0.947268 0.767229 0.465154
0.977355 0.818950 0.511278
0.995925 0.865022 0.557288
1.000000 0.904947 0.602727
1.000000 0.938396 0.647151
1.000000 0.965151 0.690140
0.039637 0.026641 0.014764
0.076367 0.050854 0.027838
0.123682 0.081834 0.044344
0.181013 0.119379 0.064188
0.247391 0.163212 0.087305
0.321347 0.212901 0.113623
0.400901 0.267825 0.143048
0.483650 0.327161 0.175451
0.566933 0.389890 0.210659
0.095375 0.063314 0.034499
0.147072 0.097134 0.052444
0.208426 0.137416 0.073698
0.278263 0.183822 0.098197
0.354888 0.235842 0.125860
0.436125 0.292770 0.156580
0.519437 0.353695 0.190208
0.602115 0.417525 0.226554
0.681502 0.483023 0.265374
0.172241 0.113623 0.061151
0.237404 0.156580 0.083804
0.310388 0.205465 0.109670
0.389281 0.259687 0.138659
0.471733 0.318451 0.170646
0.555107 0.380765 0.205465
0.636689 0.445467 0.242904
0.713912 0.511278 0.282699
0.784557 0.576858 0.324541
0.267825 0.176834 0.094501
0.343603 0.228091 0.121718
0.424331 0.284369 0.152009
0.507511 0.344787 0.185233
0.590445 0.408274 0.221204
0.670457 0.473613 0.259687
0.745108 0.539490 0.300401
0.812367 0.604563 0.343012
0.870709 0.667532 0.387148
0.377733 0.251643 0.134331
0.459834 0.309814 0.165898
0.543243 0.371688 0.200325
0.625244 0.436125 0.237404
0.703236 0.501859 0.276881
0.774939 0.567555 0.318451
0.838533 0.631880 0.361764
0.892715 0.693574 0.406429
0.936663 0.751506 0.452020
0.495579 0.335941 0.180314
0.578716 0.399061 0.215905
0.659302 0.464215 0.254046
0.734854 0.530097 0.294460
0.803275 0.595366 0.336823
0.862964 0.658712 0.380765
0.912837 0.718923 0.425880
0.952239 0.774939 0.471733
0.980741 0.825891 0.517868
0.613717 0.426810 0.231954
0.692431 0.492439 0.271106
0.765156 0.558223 0.312397
0.830000 0.622824 0.355484
0.885587 0.684966 0.399981
0.931032 0.743499 0.445467
0.965815 0.797440 0.491497
0.989469 0.846005 0.537613
1.000000 0.888613 0.583352
0.724454 0.520692 0.288559
0.794003 0.586130 0.330665
0.855018 0.649828 0.374406
0.906342 0.710555 0.419379
0.947268 0.767229 0.465154
0.977355 0.818950 0.511278
0.995925 0.865022 0.557288
1.000000 0.904947 0.602727
1.000000 0.938396 0.647151
0.821276 0.613717 0.349233
0.878251 0.676285 0.393554
0.925183 0.735397 0.438925
0.961514 0.790047 0.484906
0.986802 0.839420 0.531037
0.999684 0.882908 0.576858
1.000000 0.920090 0.621915
1.000000 0.950693 0.665774
1.000000 0.974519 0.708029
0.054056 0.036176 0.019938
0.095375 0.063314 0.034499
0.147072 0.097134 0.052444
0.208426 0.137416 0.073698
0.278263 0.183822 0.098197
0.354888 0.235842 0.125860
0.436125 0.292770 0.156580
0.519437 0.353695 0.190208
0.602115 0.417525 0.226554
0.116293 0.077001 0.041780
0.172241 0.113623 0.061151
0.237404 0.156580 0.083804
0.310388 0.205465 0.109670
0.389281 0.259687 0.138659
0.471733 0.318451 0.170646
0.555107 0.380765 0.205465
0.636689 0.445467 0.242904
0.713912 0.511278 0.282699
0.199109 0.131277 0.070462
0.267825 0.176834 0.094501
0.343603 0.228091 0.121718
0.424331 0.284369 0.152009
0.507511 0.344787 0.185233
0.590445 0.408274 0.221204
0.670457 0.473613 0.259687
0.745108 0.539490 0.300401
0.812367 0.604563 0.343012
0.299550 0.198139 0.105782
0.377733 0.251643 0.134331
0.459834 0.309814 0.165898
0.543243 0.371688 0.200325
0.625244 0.436125 0.237404
0.703236 0.501859 0.276881
0.774939 0.567555 0.318451
0.838533 0.631880 0.361764
0.892715 0.693574 0.406429
0.412587 0.276054 0.147498
0.495579 0.335941 0.180314
0.578716 0.399061 0.215905
0.659302 0.464215 0.254046
0.734854 0.530097 0.294460
0.803275 0.595366 0.336823
0.862964 0.658712 0.380765
0.912837 0.718923 0.425880
0.952239 0.774939 0.471733
0.531351 0.362664 0.195239
0.613717 0.426810 0.231954
0.692431 0.492439 0.271106
0.765156 0.558223 0.312397
0.830000 0.622824 0.355484
0.885587 0.684966 0.399981
0.931032 0.743499 0.445467
0.965815 0.797440 0.491497
0.989469 0.846005 0.537613
0.648044 0.454832 0.248451
0.724454 0.520692 0.288559
0.794003 0.586130 0.330665
0.855018 0.649828 0.374406
0.906342 0.710555 0.419379
0.947268 0.767229 0.465154
0.977355 0.818950 0.511278
0.995925 0.865022 0.557288
1.000000 0.904947 0.602727
0.755210 0.548867 0.306380
0.821276 0.613717 0.349233
0.878251 0.676285 0.393554
0.925183 0.735397 0.438925
0.961514 0.790047 0.484906
0.986802 0.839420 0.531037
0.999684 0.882908 0.576858
1.000000 0.920090 0.621915
1.000000 0.950693 0.665774
0.846874 0.640883 0.368072
0.899634 0.702105 0.412895
0.942075 0.759417 0.458583
0.973738 0.811893 0.504685
0.994041 0.858807 0.550740
1.000000 0.899634 0.596288
1.000000 0.934023 0.640883
1.000000 0.961746 0.684102
1.000000 0.982594 0.725555
0.070462 0.046976 0.025757
0.116293 0.077001 0.041780
0.172241 0.113623 0.061151
0.237404 0.156580 0.083804
0.310388 0.205465 0.109670
0.389281 0.259687 0.138659
0.471733 0.318451 0.170646
0.555107 0.380765 0.205465
0.636689 0.445467 0.242904
0.139074 0.091901 0.049676
0.199109 0.131277 0.070462
0.267825 0.176834 0.094501
0.343603 0.228091 0.121718
0.424331 0.284369 0.152009
0.507511 0.344787 0.185233
0.590445 0.408274 0.221204
0.670457 0.473613 0.259687
0.745108 0.539490 0.300401
0.227578 0.150069 0.080370
0.299550 0.198139 0.105782
0.377733 0.251643 0.134331
0.459834 0.309814 0.165898
0.543243 0.371688 0.200325
0.625244 0.436125 0.237404
0.703236 0.501859 0.276881
0.774939 0.567555 0.318451
0.838533 0.631880 0.361764
0.332421 0.220444 0.117639
0.412587 0.276054 0.147498
0.495579 0.335941 0.180314
0.578716 0.399061 0.215905
0.659302 0.464215 0.254046
0.734854 0.530097 0.294460
0.803275 0.595366 0.336823
0.862964 0.658712 0.380765
0.912837 0.718923 0.425880
0.447962 0.301253 0.161210
0.531351 0.362664 0.195239
0.613717 0.426810 0.231954
0.692431 0.492439 0.271106
0.765156 0.558223 0.312397
0.830000 0.622824 0.355484
0.885587 0.684966 0.399981
0.931032 0.743499 0.445467
0.965815 0.797440 0.491497
0.566933 0.389890 0.210659
0.648044 0.454832 0.248451
0.724454 0.520692 0.288559
0.794003 0.586130 0.330665
0.855018 0.649828 0.374406
0.906342 0.710555 0.419379
0.947268 0.767229 0.465154
0.977355 0.818950 0.511278
0.995925 0.865022 0.557288
0.681502 0.483023 0.265374
0.755210 0.548867 0.306380
0.821276 0.613717 0.349233
0.878251 0.676285 0.393554
0.925183 0.735397 0.438925
0.961514 0.790047 0.484906
0.986802 0.839420 0.531037
0.999684 0.882908 0.576858
1.000000 0.920090 0.621915
0.784557 0.576858 0.324541
0.846874 0.640883 0.368072
0.899634 0.702105 0.412895
0.942075 0.759417 0.458583
0.973738 0.811893 0.504685
0.994041 0.858807 0.550740
1.000000 0.899634 0.596288
1.000000 0.934023 0.640883
1.000000 0.961746 0.684102
0.870709 0.667532 0.387148
0.919118 0.727204 0.432396
0.956988 0.782546 0.478317
0.983891 0.832715 0.524455
0.998790 0.877074 0.570349
1.000000 0.915176 0.615542
1.000000 0.946731 0.659597
1.000000 0.971538 0.702105
1.000000 0.989335 0.742693
0.088825 0.059023 0.032209
0.139074 0.091901 0.049676
0.199109 0.131277 0.070462
0.267825 0.176834 0.094501
0.343603 0.228091 0.121718
0.424331 0.284369 0.152009
0.507511 0.344787 0.185233
0.590445 0.408274 0.221204
0.670457 0.473613 0.259687
0.163658 0.107996 0.058182
0.227578 0.150069 0.080370
0.299550 0.198139 0.105782
0.377733 0.251643 0.134331
0.459834 0.309814 0.165898
0.543243 0.371688 0.200325
0.625244 0.436125 0.237404
0.703236 0.501859 0.276881
0.774939 0.567555 0.318451
0.257533 0.169964 0.090870
0.332421 0.220444 0.117639
0.412587 0.276054 0.147498
0.495579 0.335941 0.180314
0.578716 0.399061 0.215905
0.659302 0.464215 0.254046
0.734854 0.530097 0.294460
0.803275 0.595366 0.336823
0.862964 0.658712 0.380765
0.366267 0.243693 0.130064
0.447962 0.301253 0.161210
0.531351 0.362664 0.195239
0.613717 0.426810 0.231954
0.692431 0.492439 0.271106
0.765156 0.558223 0.312397
0.830000 0.622824 0.355484
0.885587 0.684966 0.399981
0.931032 0.743499 0.445467
0.483650 0.327161 0.175451
0.566933 0.389890 0.210659
0.648044 0.454832 0.248451
0.724454 0.520692 0.288559
0.794003 0.586130 0.330665
0.855018 0.649828 0.374406
0.906342 0.710555 0.419379
0.947268 0.767229 0.465154
0.977355 0.818950 0.511278
0.602115 0.417525 0.226554
0.681502 0.483023 0.265374
0.755210 0.548867 0.306380
0.821276 0.613717 0.349233
0.878251 0.676285 0.393554
0.925183 0.735397 0.438925
0.961514 0.790047 0.484906
0.986802 0.839420 0.531037
0.999684 0.882908 0.576858
0.713912 0.511278 0.282699
0.784557 0.576858 0.324541
0.846874 0.640883 0.368072
0.899634 0.702105 0.412895
0.942075 0.759417 0.458583
0.973738 0.811893 0.504685
0.994041 0.858807 0.550740
1.000000 0.899634 0.596288
1.000000 0.934023 0.640883
0.812367 0.604563 0.343012
0.870709 0.667532 0.387148
0.919118 0.727204 0.432396
0.956988 0.782546 0.478317
0.983891 0.832715 0.524455
0.998790 0.877074 0.570349
1.000000 0.915176 0.615542
1.000000 0.946731 0.659597
1.000000 0.971538 0.702105
0.892715 0.693574 0.406429
0.936663 0.751506 0.452020
0.969890 0.804722 0.498091
0.991885 0.852467 0.544181
1.000000 0.894189 0.589829
1.000000 0.929514 0.634587
1.000000 0.958201 0.678027
1.000000 0.980048 0.719755
1.000000 0.994666 0.759417
