assets/presets/luts/print-2393/lut.cube
TITLE "Print 2393"
LUT_3D_SIZE 9
0.000000 0.000000 0.003468
0.009795 0.000000 0.003304
0.089197 0.000000 0.000000
0.282208 0.000000 0.000000
0.589611 0.000000 0.000000
0.897108 0.000000 0.000000
1.000000 0.000000 0.000000
1.000000 0.000000 0.000000
1.000000 0.000000 0.000000
0.000000 0.010206 0.003022
0.009235 0.010075 0.002885
0.086929 0.007020 0.000000
0.280707 0.000000 0.000000
0.588270 0.000000 0.000000
0.895826 0.000000 0.000000
1.000000 0.000000 0.000000
1.000000 0.000000 0.000000
1.000000 0.000000 0.000000
0.000000 0.076761 0.000606
0.006961 0.076633 0.000467
0.075174 0.075985 0.000000
0.266068 0.069648 0.000000
0.577050 0.056119 0.000000
0.886227 0.042990 0.000000
1.000000 0.034868 0.000000
1.000000 0.031612 0.000000
1.000000 0.030995 0.000000
0.000000 0.242229 0.000000
0.001646 0.242108 0.000000
0.069884 0.241473 0.000000
0.239364 0.239974 0.000000
0.536333 0.232806 0.000000
0.848223 0.219878 0.000000
1.000000 0.211383 0.000000
1.000000 0.207957 0.000000
1.000000 0.207307 0.000000
0.000000 0.506095 0.000000
0.000000 0.505977 0.000000
0.061960 0.505356 0.000000
0.231478 0.503810 0.000000
0.501632 0.501457 0.000000
0.789187 0.497397 0.000000
0.980272 0.491481 0.000000
1.000000 0.488661 0.000000
1.000000 0.488105 0.000000
0.000000 0.769837 0.000000
0.000000 0.769713 0.000000
0.054783 0.769055 0.000000
0.224380 0.767399 0.000000
0.494375 0.764691 0.000000
0.764520 0.762136 0.000000
0.939626 0.760839 0.000000
1.000000 0.759779 0.000000
1.000000 0.759538 0.000000
0.000000 0.935105 0.000000
0.000000 0.934972 0.000000
0.050208 0.934275 0.000000
0.219730 0.932542 0.000000
0.489651 0.929783 0.000000
0.759522 0.927025 0.000000
0.929209 0.925540 0.000000
0.998558 0.925197 0.000000
1.000000 0.925121 0.000000
0.000000 1.000000 0.000000
0.000000 1.000000 0.000000
0.048311 1.000000 0.000000
0.217821 0.999045 0.000000
0.487701 0.996287 0.000000
0.757505 0.993528 0.000000
0.926893 0.991811 0.000000
0.995373 0.991364 0.000000
1.000000 0.991301 0.000000
0.000000 1.000000 0.000000
0.000000 1.000000 0.000000
0.047950 1.000000 0.000000
0.217456 1.000000 0.000000
0.487326 1.000000 0.000000
0.757115 1.000000 0.000000
0.926487 1.000000 0.000000
0.994869 1.000000 0.000000
1.000000 1.000000 0.000000
0.000000 0.000000 0.016484
0.009632 0.000000 0.016352
0.087302 0.000000 0.014855
0.280926 0.000000 0.006740
0.588444 0.000000 0.000000
0.895980 0.000000 0.000000
1.000000 0.000000 0.000000
1.000000 0.000000 0.000000
1.000000 0.000000 0.000000
0.000000 0.010161 0.016037
0.009191 0.010030 0.015903
0.086102 0.006981 0.012832
0.279927 0.000000 0.004399
0.587348 0.000000 0.000000
0.894860 0.000000 0.000000
1.000000 0.000000 0.000000
1.000000 0.000000 0.000000
1.000000 0.000000 0.000000
0.000000 0.076717 0.013620
0.006919 0.076590 0.013481
0.075127 0.075937 0.012536
0.266840 0.069245 0.000000
0.577321 0.055790 0.000000
0.886126 0.042752 0.000000
1.000000 0.034670 0.000000
1.000000 0.031427 0.000000
1.000000 0.030813 0.000000
0.000000 0.242188 0.007267
0.001606 0.242067 0.007118
0.069844 0.241433 0.006330
0.239322 0.239930 0.003572
0.536972 0.232518 0.000000
0.849003 0.219479 0.000000
1.000000 0.210977 0.000000
1.000000 0.207554 0.000000
1.000000 0.206905 0.000000
0.000000 0.506055 0.000000
0.000000 0.505937 0.000000
0.061923 0.505316 0.000000
0.231443 0.503770 0.000000
0.501594 0.501413 0.000000
0.789465 0.497258 0.000000
0.980790 0.491247 0.000000
1.000000 0.488394 0.000000
1.000000 0.487834 0.000000
0.000000 0.769795 0.000000
0.000000 0.769671 0.000000
0.054749 0.769012 0.000000
0.224345 0.767356 0.000000
0.494338 0.764646 0.000000
0.764480 0.762087 0.000000
0.939657 0.760776 0.000000
1.000000 0.759698 0.000000
1.000000 0.759453 0.000000
0.000000 0.935060 0.000000
0.000000 0.934928 0.000000
0.050171 0.934230 0.000000
0.219694 0.932497 0.000000
0.489614 0.929738 0.000000
0.759484 0.926980 0.000000
0.929167 0.925492 0.000000
0.998522 0.925148 0.000000
1.000000 0.925072 0.000000
0.000000 1.000000 0.000000
0.000000 1.000000 0.000000
0.048275 1.000000 0.000000
0.217784 0.999000 0.000000
0.487664 0.996242 0.000000
0.757466 0.993484 0.000000
0.926852 0.991764 0.000000
0.995329 0.991316 0.000000
1.000000 0.991253 0.000000
0.000000 1.000000 0.000000
0.000000 1.000000 0.000000
0.047913 1.000000 0.000000
0.217419 1.000000 0.000000
0.487288 1.000000 0.000000
0.757075 1.000000 0.000000
0.926446 1.000000 0.000000
0.994825 1.000000 0.000000
1.000000 1.000000 0.000000
0.000000 0.000000 0.085098
0.009397 0.000000 0.084965
0.077560 0.000000 0.084257
0.268974 0.000000 0.085016
0.579158 0.000000 0.074025
0.887833 0.000000 0.061163
1.000000 0.000000 0.052892
1.000000 0.000000 0.049540
1.000000 0.000000 0.048903
0.000000 0.009926 0.084649
0.008957 0.009795 0.084514
0.077126 0.009110 0.083801
0.269217 0.000484 0.083597
0.578946 0.000000 0.071916
0.887361 0.000000 0.058891
1.000000 0.000000 0.050576
1.000000 0.000000 0.047211
1.000000 0.000000 0.046572
0.000000 0.076489 0.082222
0.006694 0.076362 0.082082
0.074889 0.075695 0.081342
0.267958 0.067649 0.073061
0.575464 0.054890 0.059798
0.883038 0.042182 0.046462
1.000000 0.034218 0.038062
1.000000 0.031013 0.034674
1.000000 0.030405 0.034031
0.000000 0.241972 0.075851
0.001398 0.241851 0.075702
0.069637 0.241218 0.074913
0.239099 0.239700 0.072378
0.540721 0.230794 0.039338
0.852887 0.217346 0.020410
1.000000 0.208893 0.010498
1.000000 0.205511 0.006672
1.000000 0.204870 0.005953
0.000000 0.505844 0.065175
0.000000 0.505727 0.065019
0.061728 0.505105 0.064195
0.231255 0.503557 0.062111
0.501395 0.501180 0.057256
0.791128 0.496452 0.017628
0.983742 0.489917 0.000000
1.000000 0.486894 0.000000
1.000000 0.486303 0.000000
0.000000 0.769572 0.053765
0.000000 0.769448 0.053599
0.054569 0.768787 0.052730
0.224162 0.767127 0.050587
0.494147 0.764409 0.047248
0.764271 0.761833 0.041606
0.939862 0.760431 0.018371
1.000000 0.759250 0.007542
1.000000 0.758983 0.005500
0.000000 0.934823 0.046643
0.000000 0.934690 0.046485
0.049980 0.933993 0.045652
0.219502 0.932260 0.043586
0.489419 0.929501 0.040318
0.759283 0.926743 0.037105
0.928944 0.925237 0.032216
0.998340 0.924890 0.024558
1.000000 0.924811 0.022839
0.000000 1.000000 0.043842
0.000000 1.000000 0.043684
0.048082 1.000000 0.042854
0.217590 0.998763 0.040802
0.487464 0.996005 0.037579
0.757258 0.993247 0.034436
0.926636 0.991521 0.032458
0.995094 0.991062 0.028619
1.000000 0.990999 0.027405
0.000000 1.000000 0.043312
0.000000 1.000000 0.043154
0.047720 1.000000 0.042325
0.217224 1.000000 0.040278
0.487087 1.000000 0.037065
0.756866 1.000000 0.033938
0.926230 1.000000 0.032031
0.994590 1.000000 0.029029
1.000000 1.000000 0.027955
0.000000 0.000000 0.255425
0.008817 0.000000 0.255290
0.076987 0.000000 0.254575
0.246253 0.000000 0.252765
0.544547 0.000000 0.258711
0.856584 0.000000 0.254304
1.000000 0.000000 0.248512
1.000000 0.000000 0.245862
1.000000 0.000000 0.245345
0.000000 0.009347 0.254970
0.008382 0.009217 0.254835
0.076557 0.008536 0.254114
0.245835 0.006870 0.252291
0.544826 0.000000 0.257944
0.856867 0.000000 0.252876
1.000000 0.000000 0.246831
1.000000 0.000000 0.244104
1.000000 0.000000 0.243573
0.000000 0.075926 0.252520
0.006140 0.075800 0.252379
0.074341 0.075137 0.251633
0.243674 0.073513 0.249750
0.546476 0.060499 0.253011
0.858045 0.046134 0.244429
1.000000 0.037552 0.237184
1.000000 0.034152 0.234104
1.000000 0.033510 0.233512
0.000000 0.241437 0.246108
0.000882 0.241317 0.245958
0.069125 0.240686 0.245166
0.238550 0.239129 0.243186
0.546177 0.226460 0.229794
0.853817 0.213800 0.216388
1.000000 0.205847 0.207937
1.000000 0.202641 0.204517
1.000000 0.202032 0.203867
0.000000 0.505321 0.235403
0.000000 0.505203 0.235246
0.061249 0.504581 0.234413
0.230791 0.503029 0.232314
0.500904 0.500599 0.228006
0.797188 0.493689 0.190597
0.992768 0.485776 0.174141
1.000000 0.482385 0.168570
1.000000 0.481735 0.167562
0.000000 0.769017 0.223952
0.000000 0.768891 0.223787
0.054121 0.768227 0.222920
0.223705 0.766555 0.220787
0.493672 0.763820 0.217467
0.763751 0.761200 0.212388
0.940780 0.759459 0.188280
1.000000 0.757924 0.177630
1.000000 0.757581 0.175667
0.000000 0.934234 0.216862
0.000000 0.934102 0.216704
0.049506 0.933404 0.215871
0.219025 0.931672 0.213807
0.488934 0.928913 0.210548
0.758782 0.926155 0.207350
0.928386 0.924606 0.203036
0.997921 0.924244 0.195104
1.000000 0.924153 0.193306
0.000000 1.000000 0.214063
0.000000 1.000000 0.213905
0.047604 0.999907 0.213077
0.217106 0.998175 0.211031
0.486966 0.995416 0.207822
0.756739 0.992659 0.204700
0.926100 0.990927 0.202797
0.994508 0.990430 0.199469
1.000000 0.990367 0.198244
0.000000 1.000000 0.213534
0.000000 1.000000 0.213376
0.047241 1.000000 0.212549
0.216738 1.000000 0.210508
0.486586 1.000000 0.207311
0.756343 1.000000 0.204206
0.925690 1.000000 0.202317
0.994001 1.000000 0.199867
1.000000 1.000000 0.198811
0.000000 0.000000 0.526632
0.007905 0.000000 0.526496
0.076086 0.000000 0.525769
0.245377 0.000000 0.523933
0.515028 0.000000 0.520922
0.802322 0.000000 0.527285
0.995316 0.000000 0.531826
1.000000 0.000000 0.532665
1.000000 0.000000 0.532764
0.000000 0.008432 0.526171
0.007477 0.008304 0.526033
0.075663 0.007631 0.525302
0.244964 0.005983 0.523453
0.514630 0.003416 0.520427
0.802344 0.000000 0.526866
0.995539 0.000000 0.531217
1.000000 0.000000 0.531960
1.000000 0.000000 0.532041
0.000000 0.075036 0.523685
0.005269 0.074911 0.523543
0.073478 0.074255 0.522787
0.242830 0.072645 0.520884
0.512561 0.070126 0.517788
0.802662 0.060610 0.524540
0.996869 0.051183 0.527713
1.000000 0.047324 0.527903
1.000000 0.046593 0.527880
0.000000 0.240590 0.517212
0.000066 0.240470 0.517061
0.068314 0.239842 0.516265
0.237747 0.238292 0.514276
0.507565 0.235838 0.511086
0.805090 0.224222 0.517143
1.000000 0.214715 0.515831
1.000000 0.210968 0.514289
1.000000 0.210264 0.513951
0.000000 0.504485 0.506453
0.000000 0.504367 0.506294
0.060498 0.503743 0.505451
0.230062 0.502185 0.503329
0.500124 0.499670 0.499897
0.808024 0.486888 0.486237
1.000000 0.478825 0.477675
1.000000 0.475567 0.474233
1.000000 0.474949 0.473581
0.000000 0.768125 0.494955
0.000000 0.767998 0.494791
0.053401 0.767327 0.493930
0.222968 0.765636 0.491815
0.492917 0.762883 0.488515
0.762920 0.760194 0.484337
0.944948 0.757029 0.459596
1.000000 0.754439 0.450832
1.000000 0.753898 0.449310
0.000000 0.933298 0.487911
0.000000 0.933165 0.487753
0.048749 0.932467 0.486921
0.218263 0.930735 0.484863
0.488155 0.927976 0.481621
0.757976 0.925218 0.478451
0.927488 0.923599 0.475054
0.997487 0.923169 0.466417
1.000000 0.923035 0.464455
0.000000 0.999801 0.485118
0.000000 0.999668 0.484961
0.046839 0.998970 0.484135
0.216330 0.997238 0.482100
0.486164 0.994480 0.478917
0.755902 0.991722 0.475832
0.925234 0.989991 0.473958
0.993560 0.989424 0.471537
1.000000 0.989362 0.470277
0.000000 1.000000 0.484590
0.000000 1.000000 0.484434
0.046473 1.000000 0.483610
0.215959 1.000000 0.481581
0.485779 1.000000 0.478412
0.755498 1.000000 0.475345
0.924817 1.000000 0.473485
0.993055 1.000000 0.471894
1.000000 1.000000 0.470889
0.000000 0.000000 0.797825
0.007008 0.000000 0.797686
0.075199 0.000000 0.796949
0.244512 0.000000 0.795088
0.514193 0.000000 0.792046
0.783944 0.000000 0.788928
0.956476 0.000000 0.789293
1.000000 0.000000 0.791667
1.000000 0.000000 0.792175
0.000000 0.007529 0.797356
0.006586 0.007402 0.797217
0.074782 0.006736 0.796475
0.244105 0.005103 0.794603
0.513799 0.002557 0.791547
0.783560 0.000061 0.788420
0.956208 0.000000 0.788856
1.000000 0.000000 0.791260
1.000000 0.000000 0.791771
0.000000 0.074155 0.794838
0.004408 0.074032 0.794694
0.072625 0.073381 0.793929
0.241995 0.071784 0.792008
0.511748 0.069281 0.788889
0.781546 0.066813 0.785721
0.954874 0.063831 0.786571
1.000000 0.061217 0.789123
1.000000 0.060660 0.789646
0.000000 0.239747 0.788310
0.000000 0.239628 0.788159
0.067507 0.239003 0.787358
0.236947 0.237457 0.785362
0.506770 0.235007 0.782168
0.776631 0.232553 0.778936
0.952311 0.228760 0.780978
1.000000 0.225686 0.783685
1.000000 0.225052 0.784184
0.000000 0.503647 0.777488
0.000000 0.503529 0.777327
0.059760 0.502902 0.776475
0.229341 0.501336 0.774337
0.499417 0.498804 0.770892
0.769496 0.496210 0.767449
0.952064 0.490051 0.771555
1.000000 0.486212 0.773011
1.000000 0.485470 0.773165
0.000000 0.767224 0.765966
0.000000 0.767096 0.765803
0.052673 0.766417 0.764949
0.222219 0.764705 0.762857
0.492160 0.761946 0.759565
0.762085 0.759187 0.756290
0.955325 0.751043 0.747843
1.000000 0.747762 0.744447
1.000000 0.747140 0.743804
0.000000 0.932361 0.758961
0.000000 0.932228 0.758804
0.047989 0.931530 0.757974
0.217496 0.929798 0.755923
0.487367 0.927039 0.752702
0.757158 0.924281 0.749563
0.926575 0.922594 0.747085
0.998460 0.921724 0.737222
1.000000 0.921389 0.735261
0.000000 0.998864 0.756177
0.000000 0.998731 0.756020
0.046068 0.998033 0.755199
0.215547 0.996301 0.753178
0.485351 0.993543 0.750024
0.755049 0.990786 0.746979
0.924351 0.989055 0.745135
0.992595 0.988419 0.743622
1.000000 0.988355 0.742256
0.000000 1.000000 0.755652
0.000000 1.000000 0.755496
0.045700 1.000000 0.754677
0.215171 1.000000 0.752662
0.484960 1.000000 0.749524
0.754638 1.000000 0.746499
0.923926 1.000000 0.744671
0.992105 1.000000 0.743829
1.000000 1.000000 0.742987
0.000000 0.000000 0.968126
0.006451 0.000000 0.967986
0.074648 0.000000 0.967243
0.243975 0.000000 0.965368
0.513673 0.000000 0.962308
0.783436 0.000000 0.959177
0.952871 0.000000 0.957187
1.000000 0.000000 0.956381
1.000000 0.000000 0.956228
0.000000 0.006966 0.967654
0.006033 0.006840 0.967513
0.074235 0.006178 0.966765
0.243571 0.004555 0.964880
0.513281 0.002021 0.961806
0.783053 0.000000 0.958667
0.952490 0.000000 0.956673
1.000000 0.000000 0.955867
1.000000 0.000000 0.955714
0.000000 0.073606 0.965116
0.003873 0.073483 0.964971
0.072095 0.072836 0.964202
0.241475 0.071246 0.962269
0.511239 0.068752 0.959138
0.781045 0.066289 0.955962
0.950494 0.064750 0.953957
1.000000 0.064131 0.953148
1.000000 0.064013 0.952995
0.000000 0.239219 0.958557
0.000000 0.239101 0.958405
0.067003 0.238477 0.957603
0.236446 0.236934 0.955603
0.506271 0.234484 0.952408
0.776157 0.232028 0.949150
0.945710 0.230474 0.947040
1.000000 0.229841 0.946185
1.000000 0.229679 0.946115
0.000000 0.503120 0.947692
0.000000 0.503001 0.947530
0.059301 0.502372 0.946673
0.228892 0.500801 0.944526
0.498973 0.498257 0.941077
0.769046 0.495646 0.937641
0.938622 0.493966 0.935516
1.000000 0.493086 0.935083
1.000000 0.492757 0.935324
0.000000 0.766653 0.936165
0.000000 0.766524 0.936003
0.052211 0.765840 0.935154
0.221744 0.764117 0.933076
0.491685 0.761358 0.929785
0.761602 0.758599 0.926517
0.931085 0.756867 0.924490
1.000000 0.754942 0.925768
1.000000 0.754301 0.926281
0.000000 0.931772 0.929182
0.000000 0.931640 0.929025
0.047511 0.930942 0.928197
0.217012 0.929209 0.926152
0.486868 0.926451 0.922946
0.756638 0.923693 0.919828
0.925995 0.921962 0.917929
1.000000 0.918903 0.914818
1.000000 0.918065 0.913970
0.000000 0.998275 0.926405
0.000000 0.998143 0.926249
0.045581 0.997445 0.925431
0.215050 0.995713 0.923419
0.484834 0.992955 0.920286
0.754506 0.990198 0.917267
0.923788 0.988467 0.915444
0.991977 0.987786 0.914521
1.000000 0.987695 0.912857
0.000000 1.000000 0.925882
0.000000 1.000000 0.925726
0.045211 1.000000 0.924911
0.214672 1.000000 0.922906
0.484440 1.000000 0.919790
0.754090 1.000000 0.916793
0.923357 1.000000 0.914985
0.991523 1.000000 0.914276
1.000000 1.000000 0.913874
0.000000 0.000000 1.000000
0.006229 0.000000 1.000000
0.074428 0.000000 1.000000
0.243759 0.000000 1.000000
0.513464 0.000000 1.000000
0.783232 0.000000 1.000000
0.952668 0.000000 1.000000
1.000000 0.000000 1.000000
1.000000 0.000000 1.000000
0.000000 0.006740 1.000000
0.005812 0.006615 1.000000
0.074016 0.005954 1.000000
0.243356 0.004335 1.000000
0.513073 0.001806 1.000000
0.782849 0.000000 1.000000
0.952288 0.000000 1.000000
1.000000 0.000000 1.000000
1.000000 0.000000 1.000000
0.000000 0.073386 1.000000
0.003659 0.073263 1.000000
0.071882 0.072617 1.000000
0.241266 0.071030 1.000000
0.511035 0.068540 1.000000
0.780843 0.066079 1.000000
0.950293 0.064540 1.000000
1.000000 0.063920 1.000000
1.000000 0.063803 1.000000
0.000000 0.239007 1.000000
0.000000 0.238889 1.000000
0.066800 0.238265 1.000000
0.236245 0.236723 1.000000
0.506069 0.234274 1.000000
0.775967 0.231816 1.000000
0.945525 0.230260 1.000000
1.000000 0.229629 1.000000
1.000000 0.229509 1.000000
0.000000 0.502907 1.000000
0.000000 0.502787 1.000000
0.059118 0.502158 1.000000
0.228712 0.500584 1.000000
0.498795 0.498035 1.000000
0.768864 0.495419 1.000000
0.938436 0.493733 1.000000
1.000000 0.493043 1.000000
1.000000 0.492912 1.000000
0.000000 0.766422 1.000000
0.000000 0.766292 1.000000
0.052024 0.765606 1.000000
0.221553 0.763880 1.000000
0.491493 0.761121 0.998354
0.761407 0.758362 0.995089
0.930886 0.756630 0.993066
0.999149 0.755932 0.992259
1.000000 0.755800 0.992107
0.000000 0.931535 0.997751
0.000000 0.931403 0.997594
0.047318 0.930705 0.996767
0.216816 0.928972 0.994725
0.486666 0.926214 0.991525
0.756427 0.923456 0.988416
0.925777 0.921725 0.986524
0.993980 0.921028 0.985777
1.000000 0.920830 0.985771
0.000000 0.998038 0.994977
0.000000 0.997906 0.994822
0.045384 0.997208 0.994005
0.214849 0.995476 0.991997
0.484625 0.992718 0.988872
0.754285 0.989961 0.985865
0.923559 0.988230 0.984050
0.991728 0.987533 0.983338
1.000000 0.987369 0.983172
0.000000 1.000000 0.994455
0.000000 1.000000 0.994300
0.045013 1.000000 0.993486
0.214470 1.000000 0.991486
0.484229 1.000000 0.988378
0.753868 1.000000 0.985393
0.923125 1.000000 0.983594
0.991288 1.000000 0.982889
1.000000 1.000000 0.982753
0.000000 0.000000 1.000000
0.006186 0.000000 1.000000
0.074386 0.000000 1.000000
0.243719 0.000000 1.000000
0.513424 0.000000 1.000000
0.783193 0.000000 1.000000
0.952630 0.000000 1.000000
1.000000 0.000000 1.000000
1.000000 0.000000 1.000000
0.000000 0.006698 1.000000
0.005770 0.006572 1.000000
0.073974 0.005912 1.000000
0.243316 0.004294 1.000000
0.513033 0.001765 1.000000
0.782810 0.000000 1.000000
0.952250 0.000000 1.000000
1.000000 0.000000 1.000000
1.000000 0.000000 1.000000
0.000000 0.073344 1.000000
0.003619 0.073221 1.000000
0.071842 0.072576 1.000000
0.241227 0.070990 1.000000
0.510996 0.068500 1.000000
0.780805 0.066039 1.000000
0.950254 0.064500 1.000000
1.000000 0.063880 1.000000
1.000000 0.063763 1.000000
0.000000 0.238967 1.000000
0.000000 0.238849 1.000000
0.066762 0.238225 1.000000
0.236207 0.236683 1.000000
0.506031 0.234234 1.000000
0.775931 0.231776 1.000000
0.945490 0.230219 1.000000
1.000000 0.229588 1.000000
1.000000 0.229468 1.000000
0.000000 0.502866 1.000000
0.000000 0.502747 1.000000
0.059083 0.502117 1.000000
0.228678 0.500543 1.000000
0.498761 0.497993 1.000000
0.768829 0.495375 1.000000
0.938400 0.493689 1.000000
1.000000 0.492999 1.000000
1.000000 0.492867 1.000000
0.000000 0.766378 1.000000
0.000000 0.766248 1.000000
0.051988 0.765562 1.000000
0.221517 0.763835 1.000000
0.491456 0.761076 1.000000
0.761370 0.758317 1.000000
0.930849 0.756585 1.000000
0.999111 0.755887 1.000000
1.000000 0.755755 1.000000
0.000000 0.931490 1.000000
0.000000 0.931358 1.000000
0.047281 0.930660 1.000000
0.216779 0.928927 1.000000
0.486628 0.926169 1.000000
0.756387 0.923411 1.000000
0.925735 0.921680 0.999536
0.993938 0.920983 0.998790
1.000000 0.920850 0.998650
0.000000 0.997993 1.000000
0.000000 0.997861 1.000000
0.045347 0.997163 1.000000
0.214811 0.995431 1.000000
0.484585 0.992673 1.000000
0.754243 0.989916 0.998878
0.923515 0.988185 0.997065
0.991684 0.987488 0.996353
1.000000 0.987356 0.996219
0.000000 1.000000 1.000000
0.000000 1.000000 1.000000
0.044975 1.000000 1.000000
0.214431 1.000000 1.000000
0.484189 1.000000 1.000000
0.753825 1.000000 0.998406
0.923081 1.000000 0.996609
0.991243 1.000000 0.995904
1.000000 0.999972 0.995772
