assets/presets/luts/print-2393/lut.cube
TITLE "Print 2393"
LUT_3D_SIZE 5
0.000000 0.000000 0.003468
0.089197 0.000000 0.000000
0.589611 0.000000 0.000000
1.000000 0.000000 0.000000
1.000000 0.000000 0.000000
0.000000 0.076761 0.000606
0.075174 0.075985 0.000000
0.577050 0.056119 0.000000
1.000000 0.034868 0.000000
1.000000 0.030995 0.000000
0.000000 0.506095 0.000000
0.061960 0.505356 0.000000
0.501632 0.501457 0.000000
0.980272 0.491481 0.000000
1.000000 0.488105 0.000000
0.000000 0.935105 0.000000
0.050208 0.934275 0.000000
0.489651 0.929783 0.000000
0.929209 0.925540 0.000000
1.000000 0.925121 0.000000
0.000000 1.000000 0.000000
0.047950 1.000000 0.000000
0.487326 1.000000 0.000000
0.926487 1.000000 0.000000
1.000000 1.000000 0.000000
0.000000 0.000000 0.085098
0.077560 0.000000 0.084257
0.579158 0.000000 0.074025
1.000000 0.000000 0.052892
1.000000 0.000000 0.048903
0.000000 0.076489 0.082222
0.074889 0.075695 0.081342
0.575464 0.054890 0.059798
1.000000 0.034218 0.038062
1.000000 0.030405 0.034031
0.000000 0.505844 0.065175
0.061728 0.505105 0.064195
0.501395 0.501180 0.057256
0.983742 0.489917 0.000000
1.000000 0.486303 0.000000
0.000000 0.934823 0.046643
0.049980 0.933993 0.045652
0.489419 0.929501 0.040318
0.928944 0.925237 0.032216
1.000000 0.924811 0.022839
0.000000 1.000000 0.043312
0.047720 1.000000 0.042325
0.487087 1.000000 0.037065
0.926230 1.000000 0.032031
1.000000 1.000000 0.027955
0.000000 0.000000 0.526632
0.076086 0.000000 0.525769
0.515028 0.000000 0.520922
0.995316 0.000000 0.531826
1.000000 0.000000 0.532764
0.000000 0.075036 0.523685
0.073478 0.074255 0.522787
0.512561 0.070126 0.517788
0.996869 0.051183 0.527713
1.000000 0.046593 0.527880
0.000000 0.504485 0.506453
0.060498 0.503743 0.505451
0.500124 0.499670 0.499897
1.000000 0.478825 0.477675
1.000000 0.474949 0.473581
0.000000 0.933298 0.487911
0.048749 0.932467 0.486921
0.488155 0.927976 0.481621
0.927488 0.923599 0.475054
1.000000 0.923035 0.464455
0.000000 1.000000 0.484590
0.046473 1.000000 0.483610
0.485779 1.000000 0.478412
0.924817 1.000000 0.473485
1.000000 1.000000 0.470889
0.000000 0.000000 0.968126
0.074648 0.000000 0.967243
0.513673 0.000000 0.962308
0.952871 0.000000 0.957187
1.000000 0.000000 0.956228
0.000000 0.073606 0.965116
0.072095 0.072836 0.964202
0.511239 0.068752 0.959138
0.950494 0.064750 0.953957
1.000000 0.064013 0.952995
0.000000 0.503120 0.947692
0.059301 0.502372 0.946673
0.498973 0.498257 0.941077
0.938622 0.493966 0.935516
1.000000 0.492757 0.935324
0.000000 0.931772 0.929182
0.047511 0.930942 0.928197
0.486868 0.926451 0.922946
0.925995 0.921962 0.917929
1.000000 0.918065 0.913970
0.000000 1.000000 0.925882
0.045211 1.000000 0.924911
0.484440 1.000000 0.919790
0.923357 1.000000 0.914985
1.000000 1.000000 0.913874
0.000000 0.000000 1.000000
0.074386 0.000000 1.000000
0.513424 0.000000 1.000000
0.952630 0.000000 1.000000
1.000000 0.000000 1.000000
0.000000 0.073344 1.000000
0.071842 0.072576 1.000000
0.510996 0.068500 1.000000
0.950254 0.064500 1.000000
1.000000 0.063763 1.000000
0.000000 0.502866 1.000000
0.059083 0.502117 1.000000
0.498761 0.497993 1.000000
0.938400 0.493689 1.000000
1.000000 0.492867 1.000000
0.000000 0.931490 1.000000
0.047281 0.930660 1.000000
0.486628 0.926169 1.000000
0.925735 0.921680 0.999536
1.000000 0.920850 0.998650
0.000000 1.000000 1.000000
0.044975 1.000000 1.000000
0.484189 1.000000 1.000000
0.923081 1.000000 0.996609
1.000000 0.999972 0.995772
