assets/presets/luts/print-2393/lut.cube
TITLE "Print 2393"
LUT_3D_SIZE 17
0.000000 0.000000 0.003468
0.000000 0.000000 0.003444
0.009795 0.000000 0.003304
0.036038 0.000000 0.002497
0.089197 0.000000 0.000000
0.168914 0.000000 0.000000
0.282208 0.000000 0.000000
0.426415 0.000000 0.000000
0.589611 0.000000 0.000000
0.752833 0.000000 0.000000
0.897108 0.000000 0.000000
1.000000 0.000000 0.000000
1.000000 0.000000 0.000000
1.000000 0.000000 0.000000
1.000000 0.000000 0.000000
1.000000 0.000000 0.000000
1.000000 0.000000 0.000000
0.000000 0.000000 0.003387
0.000000 0.000000 0.003363
0.009680 0.000000 0.003211
0.035771 0.000000 0.002311
0.088915 0.000000 0.000000
0.168674 0.000000 0.000000
0.281976 0.000000 0.000000
0.426187 0.000000 0.000000
0.589387 0.000000 0.000000
0.752611 0.000000 0.000000
0.896888 0.000000 0.000000
1.000000 0.000000 0.000000
1.000000 0.000000 0.000000
1.000000 0.000000 0.000000
1.000000 0.000000 0.000000
1.000000 0.000000 0.000000
1.000000 0.000000 0.000000
0.000000 0.010206 0.003022
0.000000 0.010182 0.002997
0.009235 0.010075 0.002885
0.034436 0.009614 0.001759
0.086929 0.007020 0.000000
0.167226 0.003520 0.000000
0.280707 0.000000 0.000000
0.425015 0.000000 0.000000
0.588270 0.000000 0.000000
0.751529 0.000000 0.000000
0.895826 0.000000 0.000000
1.000000 0.000000 0.000000
1.000000 0.000000 0.000000
1.000000 0.000000 0.000000
1.000000 0.000000 0.000000
1.000000 0.000000 0.000000
1.000000 0.000000 0.000000
0.000000 0.033805 0.002176
0.000000 0.033781 0.002151
0.008418 0.033675 0.002041
0.032603 0.033437 0.001735
0.080940 0.032217 0.000000
0.162100 0.028664 0.000000
0.276504 0.023667 0.000000
0.421432 0.017471 0.000000
0.585058 0.010575 0.000000
0.748535 0.003741 0.000000
0.892962 0.000000 0.000000
1.000000 0.000000 0.000000
1.000000 0.000000 0.000000
1.000000 0.000000 0.000000
1.000000 0.000000 0.000000
1.000000 0.000000 0.000000
1.000000 0.000000 0.000000
0.000000 0.076761 0.000606
0.000000 0.076737 0.000581
0.006961 0.076633 0.000467
0.031148 0.076395 0.000207
0.075174 0.075985 0.000000
0.151372 0.074352 0.000000
0.266068 0.069648 0.000000
0.412301 0.063250 0.000000
0.577050 0.056119 0.000000
0.741305 0.049111 0.000000
0.886227 0.042990 0.000000
0.999996 0.038214 0.000000
1.000000 0.034868 0.000000
1.000000 0.032766 0.000000
1.000000 0.031612 0.000000
1.000000 0.031107 0.000000
1.000000 0.030995 0.000000
0.000000 0.145059 0.000000
0.000000 0.145037 0.000000
0.004717 0.144935 0.000000
0.028912 0.144703 0.000000
0.072931 0.144283 0.000000
0.142911 0.143657 0.000000
0.249914 0.141807 0.000000
0.394965 0.136361 0.000000
0.560739 0.129261 0.000000
0.726251 0.122062 0.000000
0.872156 0.115749 0.000000
0.986593 0.110830 0.000000
1.000000 0.107390 0.000000
1.000000 0.105232 0.000000
1.000000 0.104048 0.000000
1.000000 0.103531 0.000000
1.000000 0.103416 0.000000
0.000000 0.242229 0.000000
0.000000 0.242207 0.000000
0.001646 0.242108 0.000000
0.025849 0.241882 0.000000
0.069884 0.241473 0.000000
0.139847 0.240826 0.000000
0.239364 0.239974 0.000000
0.373988 0.238143 0.000000
0.536333 0.232806 0.000000
0.701651 0.226129 0.000000
0.848223 0.219878 0.000000
0.963354 0.214897 0.000000
1.000000 0.211383 0.000000
1.000000 0.209172 0.000000
1.000000 0.207957 0.000000
1.000000 0.207425 0.000000
1.000000 0.207307 0.000000
0.000000 0.365995 0.000000
0.000000 0.365974 0.000000
0.000000 0.365877 0.000000
0.022085 0.365656 0.000000
0.066131 0.365255 0.000000
0.136109 0.364619 0.000000
0.235578 0.363716 0.000000
0.362266 0.362664 0.000000
0.512869 0.361094 0.000000
0.672666 0.356767 0.000000
0.817366 0.351580 0.000000
0.932056 0.347041 0.000000
1.000000 0.343706 0.000000
1.000000 0.341566 0.000000
1.000000 0.340380 0.000000
1.000000 0.339859 0.000000
1.000000 0.339743 0.000000
0.000000 0.506095 0.000000
0.000000 0.506074 0.000000
0.000000 0.505977 0.000000
0.017904 0.505757 0.000000
0.061960 0.505356 0.000000
0.131962 0.504719 0.000000
0.231478 0.503810 0.000000
0.358149 0.502648 0.000000
0.501632 0.501457 0.000000
0.650729 0.500263 0.000000
0.789187 0.497397 0.000000
0.900803 0.494144 0.000000
0.980272 0.491481 0.000000
1.000000 0.489682 0.000000
1.000000 0.488661 0.000000
1.000000 0.488207 0.000000
1.000000 0.488105 0.000000
0.000000 0.646159 0.000000
0.000000 0.646138 0.000000
0.000000 0.646039 0.000000
0.013991 0.645815 0.000000
0.058077 0.645405 0.000000
0.128121 0.644751 0.000000
0.227685 0.643816 0.000000
0.354397 0.642614 0.000000
0.497767 0.641236 0.000000
0.641297 0.640007 0.000000
0.771803 0.639148 0.000000
0.878197 0.637571 0.000000
0.954711 0.635937 0.000000
1.000000 0.634713 0.000000
1.000000 0.633984 0.000000
1.000000 0.633653 0.000000
1.000000 0.633579 0.000000
0.000000 0.769837 0.000000
0.000000 0.769815 0.000000
0.000000 0.769713 0.000000
0.010695 0.769480 0.000000
0.054783 0.769055 0.000000
0.124827 0.768375 0.000000
0.224380 0.767399 0.000000
0.351062 0.766140 0.000000
0.494375 0.764691 0.000000
0.637671 0.763226 0.000000
0.764520 0.762136 0.000000
0.866268 0.761562 0.000000
0.939626 0.760839 0.000000
0.986521 0.760196 0.000000
1.000000 0.759779 0.000000
1.000000 0.759583 0.000000
1.000000 0.759538 0.000000
0.000000 0.866900 0.000000
0.000000 0.866876 0.000000
0.000000 0.866770 0.000000
0.008066 0.866528 0.000000
0.052141 0.866086 0.000000
0.122159 0.865377 0.000000
0.221673 0.864361 0.000000
0.348318 0.863067 0.000000
0.491613 0.861602 0.000000
0.634901 0.860138 0.000000
0.761529 0.858844 0.000000
0.861250 0.858056 0.000000
0.932433 0.857699 0.000000
0.977888 0.857395 0.000000
1.000000 0.857183 0.000000
1.000000 0.857080 0.000000
1.000000 0.857055 0.000000
0.000000 0.935105 0.000000
0.000000 0.935081 0.000000
0.000000 0.934972 0.000000
0.006141 0.934725 0.000000
0.050208 0.934275 0.000000
0.120218 0.933559 0.000000
0.219730 0.932542 0.000000
0.346370 0.931248 0.000000
0.489651 0.929783 0.000000
0.632919 0.928319 0.000000
0.759522 0.927025 0.000000
0.858991 0.926013 0.000000
0.929209 0.925540 0.000000
0.973839 0.925326 0.000000
0.998558 0.925197 0.000000
1.000000 0.925135 0.000000
1.000000 0.925121 0.000000
0.000000 0.978019 0.000000
0.000000 0.977995 0.000000
0.000000 0.977887 0.000000
0.004919 0.977639 0.000000
0.048985 0.977189 0.000000
0.118994 0.976473 0.000000
0.218501 0.975456 0.000000
0.345132 0.974162 0.000000
0.488398 0.972698 0.000000
0.631646 0.971233 0.000000
0.758229 0.969940 0.000000
0.857677 0.968923 0.000000
0.927665 0.968275 0.000000
0.971921 0.968017 0.000000
0.996391 0.967899 0.000000
1.000000 0.967848 0.000000
1.000000 0.967837 0.000000
0.000000 1.000000 0.000000
0.000000 1.000000 0.000000
0.000000 1.000000 0.000000
0.004246 1.000000 0.000000
0.048311 1.000000 0.000000
0.118318 1.000000 0.000000
0.217821 0.999045 0.000000
0.344445 0.997751 0.000000
0.487701 0.996287 0.000000
0.630937 0.994822 0.000000
0.757505 0.993528 0.000000
0.856942 0.992512 0.000000
0.926893 0.991811 0.000000
0.971015 0.991495 0.000000
0.995373 0.991364 0.000000
1.000000 0.991313 0.000000
1.000000 0.991301 0.000000
0.000000 1.000000 0.000000
0.000000 1.000000 0.000000
0.000000 1.000000 0.000000
0.003951 1.000000 0.000000
0.048015 1.000000 0.000000
0.118021 1.000000 0.000000
0.217522 1.000000 0.000000
0.344143 1.000000 0.000000
0.487394 1.000000 0.000000
0.630623 1.000000 0.000000
0.757186 1.000000 0.000000
0.856617 1.000000 0.000000
0.926561 1.000000 0.000000
0.970642 1.000000 0.000000
0.994959 1.000000 0.000000
1.000000 1.000000 0.000000
1.000000 1.000000 0.000000
0.000000 1.000000 0.000000
0.000000 1.000000 0.000000
0.000000 1.000000 0.000000
0.003886 1.000000 0.000000
0.047950 1.000000 0.000000
0.117955 1.000000 0.000000
0.217456 1.000000 0.000000
0.344075 1.000000 0.000000
0.487326 1.000000 0.000000
0.630554 1.000000 0.000000
0.757115 1.000000 0.000000
0.856545 1.000000 0.000000
0.926487 1.000000 0.000000
0.970561 1.000000 0.000000
0.994869 1.000000 0.000000
1.000000 1.000000 0.000000
1.000000 1.000000 0.000000
0.000000 0.000000 0.005839
0.000000 0.000000 0.005815
0.009753 0.000000 0.005702
0.035832 0.000000 0.005068
0.088953 0.000000 0.002373
0.168709 0.000000 0.000000
0.282008 0.000000 0.000000
0.426217 0.000000 0.000000
0.589415 0.000000 0.000000
0.752638 0.000000 0.000000
0.896914 0.000000 0.000000
1.000000 0.000000 0.000000
1.000000 0.000000 0.000000
1.000000 0.000000 0.000000
1.000000 0.000000 0.000000
1.000000 0.000000 0.000000
1.000000 0.000000 0.000000
0.000000 0.000000 0.005758
0.000000 0.000000 0.005734
0.009654 0.000000 0.005607
0.035607 0.000000 0.004879
0.088709 0.000000 0.001961
0.168497 0.000000 0.000000
0.281792 0.000000 0.000000
0.426001 0.000000 0.000000
0.589199 0.000000 0.000000
0.752423 0.000000 0.000000
0.896698 0.000000 0.000000
1.000000 0.000000 0.000000
1.000000 0.000000 0.000000
1.000000 0.000000 0.000000
1.000000 0.000000 0.000000
1.000000 0.000000 0.000000
1.000000 0.000000 0.000000
0.000000 0.010198 0.005392
0.000000 0.010174 0.005368
0.009227 0.010066 0.005257
0.034384 0.009605 0.004268
0.086885 0.006984 0.000311
0.167179 0.003484 0.000000
0.280604 0.000000 0.000000
0.424883 0.000000 0.000000
0.588122 0.000000 0.000000
0.751371 0.000000 0.000000
0.895663 0.000000 0.000000
1.000000 0.000000 0.000000
1.000000 0.000000 0.000000
1.000000 0.000000 0.000000
1.000000 0.000000 0.000000
1.000000 0.000000 0.000000
1.000000 0.000000 0.000000
0.000000 0.033797 0.004547
0.000000 0.033773 0.004522
0.008410 0.033667 0.004411
0.032595 0.033428 0.004113
0.080961 0.032180 0.000000
0.162222 0.028590 0.000000
0.276552 0.023607 0.000000
0.421414 0.017427 0.000000
0.584996 0.010543 0.000000
0.748446 0.003717 0.000000
0.892857 0.000000 0.000000
1.000000 0.000000 0.000000
1.000000 0.000000 0.000000
1.000000 0.000000 0.000000
1.000000 0.000000 0.000000
1.000000 0.000000 0.000000
1.000000 0.000000 0.000000
0.000000 0.076753 0.002977
0.000000 0.076730 0.002951
0.006954 0.076625 0.002837
0.031140 0.076387 0.002577
0.075166 0.075977 0.001841
0.151467 0.074309 0.000000
0.266210 0.069575 0.000000
0.412409 0.063178 0.000000
0.577109 0.056057 0.000000
0.741324 0.049059 0.000000
0.886218 0.042945 0.000000
0.999969 0.038173 0.000000
1.000000 0.034829 0.000000
1.000000 0.032729 0.000000
1.000000 0.031576 0.000000
1.000000 0.031072 0.000000
1.000000 0.030960 0.000000
0.000000 0.145052 0.000407
0.000000 0.145029 0.000381
0.004709 0.144927 0.000263
0.028904 0.144695 0.000000
0.072923 0.144275 0.000000
0.142903 0.143649 0.000000
0.249984 0.141774 0.000000
0.395102 0.136297 0.000000
0.560878 0.129187 0.000000
0.726367 0.121990 0.000000
0.872249 0.115680 0.000000
0.986667 0.110765 0.000000
1.000000 0.107327 0.000000
1.000000 0.105171 0.000000
1.000000 0.103988 0.000000
1.000000 0.103471 0.000000
1.000000 0.103356 0.000000
0.000000 0.242221 0.000000
0.000000 0.242199 0.000000
0.001638 0.242100 0.000000
0.025842 0.241875 0.000000
0.069877 0.241466 0.000000
0.139840 0.240818 0.000000
0.239356 0.239966 0.000000
0.374035 0.238119 0.000000
0.536448 0.232755 0.000000
0.701791 0.226062 0.000000
0.848366 0.219806 0.000000
0.963491 0.214823 0.000000
1.000000 0.211309 0.000000
1.000000 0.209098 0.000000
1.000000 0.207883 0.000000
1.000000 0.207352 0.000000
1.000000 0.207234 0.000000
0.000000 0.365988 0.000000
0.000000 0.365966 0.000000
0.000000 0.365870 0.000000
0.022078 0.365649 0.000000
0.066124 0.365248 0.000000
0.136102 0.364612 0.000000
0.235571 0.363708 0.000000
0.362258 0.362656 0.000000
0.512897 0.361077 0.000000
0.672749 0.356730 0.000000
0.817482 0.351528 0.000000
0.932188 0.346980 0.000000
1.000000 0.343641 0.000000
1.000000 0.341499 0.000000
1.000000 0.340312 0.000000
1.000000 0.339790 0.000000
1.000000 0.339674 0.000000
0.000000 0.506088 0.000000
0.000000 0.506066 0.000000
0.000000 0.505970 0.000000
0.017897 0.505750 0.000000
0.061953 0.505349 0.000000
0.131956 0.504711 0.000000
0.231472 0.503803 0.000000
0.358143 0.502640 0.000000
0.501625 0.501449 0.000000
0.650743 0.500251 0.000000
0.789236 0.497372 0.000000
0.900880 0.494109 0.000000
0.980366 0.491438 0.000000
1.000000 0.489636 0.000000
1.000000 0.488613 0.000000
1.000000 0.488158 0.000000
1.000000 0.488056 0.000000
0.000000 0.646152 0.000000
0.000000 0.646130 0.000000
0.000000 0.646032 0.000000
0.013985 0.645807 0.000000
0.058071 0.645397 0.000000
0.128115 0.644744 0.000000
0.227679 0.643808 0.000000
0.354391 0.642606 0.000000
0.497761 0.641228 0.000000
0.641290 0.639999 0.000000
0.771806 0.639137 0.000000
0.878219 0.637554 0.000000
0.954749 0.635915 0.000000
1.000000 0.634688 0.000000
1.000000 0.633957 0.000000
1.000000 0.633625 0.000000
1.000000 0.633550 0.000000
0.000000 0.769830 0.000000
0.000000 0.769807 0.000000
0.000000 0.769705 0.000000
0.010689 0.769472 0.000000
0.054777 0.769047 0.000000
0.124820 0.768367 0.000000
0.224374 0.767391 0.000000
0.351056 0.766132 0.000000
0.494368 0.764682 0.000000
0.637665 0.763218 0.000000
0.764512 0.762127 0.000000
0.866265 0.761553 0.000000
0.939632 0.760827 0.000000
0.986534 0.760182 0.000000
1.000000 0.759764 0.000000
1.000000 0.759568 0.000000
1.000000 0.759523 0.000000
0.000000 0.866892 0.000000
0.000000 0.866868 0.000000
0.000000 0.866762 0.000000
0.008060 0.866520 0.000000
0.052135 0.866078 0.000000
0.122153 0.865369 0.000000
0.221666 0.864353 0.000000
0.348311 0.863059 0.000000
0.491606 0.861594 0.000000
0.634894 0.860130 0.000000
0.761522 0.858835 0.000000
0.861243 0.858047 0.000000
0.932427 0.857690 0.000000
0.977885 0.857386 0.000000
1.000000 0.857173 0.000000
1.000000 0.857069 0.000000
1.000000 0.857045 0.000000
0.000000 0.935097 0.000000
0.000000 0.935073 0.000000
0.000000 0.934964 0.000000
0.006135 0.934717 0.000000
0.050201 0.934266 0.000000
0.120212 0.933551 0.000000
0.219724 0.932534 0.000000
0.346363 0.931239 0.000000
0.489645 0.929775 0.000000
0.632912 0.928311 0.000000
0.759515 0.927016 0.000000
0.858984 0.926004 0.000000
0.929202 0.925531 0.000000
0.973832 0.925317 0.000000
0.998551 0.925188 0.000000
1.000000 0.925126 0.000000
1.000000 0.925112 0.000000
0.000000 0.978011 0.000000
0.000000 0.977987 0.000000
0.000000 0.977879 0.000000
0.004913 0.977631 0.000000
0.048978 0.977181 0.000000
0.118987 0.976465 0.000000
0.218494 0.975448 0.000000
0.345125 0.974154 0.000000
0.488392 0.972690 0.000000
0.631639 0.971225 0.000000
0.758222 0.969931 0.000000
0.857670 0.968915 0.000000
0.927658 0.968267 0.000000
0.971913 0.968008 0.000000
0.996383 0.967891 0.000000
1.000000 0.967839 0.000000
1.000000 0.967828 0.000000
0.000000 1.000000 0.000000
0.000000 1.000000 0.000000
0.000000 1.000000 0.000000
0.004240 1.000000 0.000000
0.048304 1.000000 0.000000
0.118311 1.000000 0.000000
0.217814 0.999037 0.000000
0.344438 0.997743 0.000000
0.487695 0.996278 0.000000
0.630929 0.994814 0.000000
0.757498 0.993520 0.000000
0.856935 0.992504 0.000000
0.926886 0.991802 0.000000
0.971007 0.991486 0.000000
0.995365 0.991356 0.000000
1.000000 0.991304 0.000000
1.000000 0.991293 0.000000
0.000000 1.000000 0.000000
0.000000 1.000000 0.000000
0.000000 1.000000 0.000000
0.003945 1.000000 0.000000
0.048009 1.000000 0.000000
0.118014 1.000000 0.000000
0.217516 1.000000 0.000000
0.344136 1.000000 0.000000
0.487387 1.000000 0.000000
0.630616 1.000000 0.000000
0.757179 1.000000 0.000000
0.856610 1.000000 0.000000
0.926554 1.000000 0.000000
0.970634 1.000000 0.000000
0.994951 1.000000 0.000000
1.000000 1.000000 0.000000
1.000000 1.000000 0.000000
0.000000 1.000000 0.000000
0.000000 1.000000 0.000000
0.000000 1.000000 0.000000
0.003879 1.000000 0.000000
0.047943 1.000000 0.000000
0.117948 1.000000 0.000000
0.217449 1.000000 0.000000
0.344069 1.000000 0.000000
0.487319 1.000000 0.000000
0.630546 1.000000 0.000000
0.757108 1.000000 0.000000
0.856537 1.000000 0.000000
0.926480 1.000000 0.000000
0.970553 1.000000 0.000000
0.994861 1.000000 0.000000
1.000000 1.000000 0.000000
1.000000 1.000000 0.000000
0.000000 0.000000 0.016484
0.000000 0.000000 0.016460
0.009632 0.000000 0.016352
0.034863 0.000000 0.016256
0.087302 0.000000 0.014855
0.167496 0.000000 0.011540
0.280926 0.000000 0.006740
0.425207 0.000000 0.000588
0.588444 0.000000 0.000000
0.751691 0.000000 0.000000
0.895980 0.000000 0.000000
1.000000 0.000000 0.000000
1.000000 0.000000 0.000000
1.000000 0.000000 0.000000
1.000000 0.000000 0.000000
1.000000 0.000000 0.000000
1.000000 0.000000 0.000000
0.000000 0.000000 0.016403
0.000000 0.000000 0.016379
0.009552 0.000000 0.016270
0.034728 0.000000 0.016112
0.087166 0.000000 0.014496
0.167383 0.000000 0.011126
0.280775 0.000000 0.006316
0.425034 0.000000 0.000160
0.588260 0.000000 0.000000
0.751501 0.000000 0.000000
0.895786 0.000000 0.000000
1.000000 0.000000 0.000000
1.000000 0.000000 0.000000
1.000000 0.000000 0.000000
1.000000 0.000000 0.000000
1.000000 0.000000 0.000000
1.000000 0.000000 0.000000
0.000000 0.010161 0.016037
0.000000 0.010137 0.016013
0.009191 0.010030 0.015903
0.034062 0.009598 0.015465
0.086102 0.006981 0.012832
0.166625 0.003412 0.009225
0.279927 0.000000 0.004399
0.424143 0.000000 0.000000
0.587348 0.000000 0.000000
0.750579 0.000000 0.000000
0.894860 0.000000 0.000000
1.000000 0.000000 0.000000
1.000000 0.000000 0.000000
1.000000 0.000000 0.000000
1.000000 0.000000 0.000000
1.000000 0.000000 0.000000
1.000000 0.000000 0.000000
0.000000 0.033761 0.015191
0.000000 0.033737 0.015166
0.008374 0.033631 0.015055
0.032557 0.033390 0.014784
0.080930 0.032035 0.010509
0.162678 0.028271 0.005309
0.276636 0.023369 0.000205
0.421213 0.017261 0.000000
0.584619 0.010424 0.000000
0.747968 0.003626 0.000000
0.892319 0.000000 0.000000
1.000000 0.000000 0.000000
1.000000 0.000000 0.000000
1.000000 0.000000 0.000000
1.000000 0.000000 0.000000
1.000000 0.000000 0.000000
1.000000 0.000000 0.000000
0.000000 0.076717 0.013620
0.000000 0.076694 0.013595
0.006919 0.076590 0.013481
0.031106 0.076352 0.013220
0.075127 0.075937 0.012536
0.151929 0.074098 0.002992
0.266840 0.069245 0.000000
0.412851 0.062863 0.000000
0.577321 0.055790 0.000000
0.741355 0.048835 0.000000
0.886126 0.042752 0.000000
0.999799 0.038001 0.000000
1.000000 0.034670 0.000000
1.000000 0.032577 0.000000
1.000000 0.031427 0.000000
1.000000 0.030925 0.000000
1.000000 0.030813 0.000000
0.000000 0.145017 0.011049
0.000000 0.144994 0.011023
0.004675 0.144893 0.010906
0.028870 0.144661 0.010636
0.072890 0.144241 0.010144
0.142867 0.143612 0.008898
0.250314 0.141620 0.000000
0.395724 0.136003 0.000000
0.561491 0.128855 0.000000
0.726869 0.121666 0.000000
0.872639 0.115377 0.000000
0.986973 0.110479 0.000000
1.000000 0.107053 0.000000
1.000000 0.104904 0.000000
1.000000 0.103726 0.000000
1.000000 0.103210 0.000000
1.000000 0.103096 0.000000
0.000000 0.242188 0.007267
0.000000 0.242166 0.007239
0.001606 0.242067 0.007118
0.025810 0.241842 0.006839
0.069844 0.241433 0.006330
0.139808 0.240785 0.005519
0.239322 0.239930 0.003572
0.374256 0.238007 0.000000
0.536972 0.232518 0.000000
0.702426 0.225759 0.000000
0.849003 0.219479 0.000000
0.964100 0.214491 0.000000
1.000000 0.210977 0.000000
1.000000 0.208768 0.000000
1.000000 0.207554 0.000000
1.000000 0.207023 0.000000
1.000000 0.206905 0.000000
0.000000 0.365955 0.002303
0.000000 0.365934 0.002275
0.000000 0.365837 0.002151
0.022047 0.365616 0.001865
0.066092 0.365215 0.001345
0.136071 0.364579 0.000518
0.235540 0.363676 0.000000
0.362224 0.362621 0.000000
0.513028 0.360997 0.000000
0.673129 0.356558 0.000000
0.818012 0.351289 0.000000
0.932786 0.346705 0.000000
1.000000 0.343347 0.000000
1.000000 0.341196 0.000000
1.000000 0.340004 0.000000
1.000000 0.339481 0.000000
1.000000 0.339364 0.000000
0.000000 0.506055 0.000000
0.000000 0.506034 0.000000
0.000000 0.505937 0.000000
0.017866 0.505717 0.000000
0.061923 0.505316 0.000000
0.131926 0.504679 0.000000
0.231443 0.503770 0.000000
0.358114 0.502607 0.000000
0.501594 0.501413 0.000000
0.650806 0.500192 0.000000
0.789465 0.497258 0.000000
0.901231 0.493948 0.000000
0.980790 0.491247 0.000000
1.000000 0.489427 0.000000
1.000000 0.488394 0.000000
1.000000 0.487936 0.000000
1.000000 0.487834 0.000000
0.000000 0.646119 0.000000
0.000000 0.646097 0.000000
0.000000 0.645999 0.000000
0.013957 0.645774 0.000000
0.058043 0.645364 0.000000
0.128087 0.644710 0.000000
0.227651 0.643774 0.000000
0.354364 0.642572 0.000000
0.497733 0.641193 0.000000
0.641259 0.639961 0.000000
0.771822 0.639089 0.000000
0.878322 0.637480 0.000000
0.954924 0.635816 0.000000
1.000000 0.634573 0.000000
1.000000 0.633833 0.000000
1.000000 0.633497 0.000000
1.000000 0.633422 0.000000
0.000000 0.769795 0.000000
0.000000 0.769773 0.000000
0.000000 0.769671 0.000000
0.010661 0.769438 0.000000
0.054749 0.769012 0.000000
0.124792 0.768332 0.000000
0.224345 0.767356 0.000000
0.351027 0.766096 0.000000
0.494338 0.764646 0.000000
0.637635 0.763181 0.000000
0.764480 0.762087 0.000000
0.866253 0.761511 0.000000
0.939657 0.760776 0.000000
0.986591 0.760122 0.000000
1.000000 0.759698 0.000000
1.000000 0.759499 0.000000
1.000000 0.759453 0.000000
0.000000 0.866856 0.000000
0.000000 0.866832 0.000000
0.000000 0.866726 0.000000
0.008031 0.866484 0.000000
0.052105 0.866041 0.000000
0.122123 0.865333 0.000000
0.221636 0.864316 0.000000
0.348282 0.863022 0.000000
0.491576 0.861557 0.000000
0.634864 0.860093 0.000000
0.761492 0.858799 0.000000
0.861209 0.858008 0.000000
0.932401 0.857650 0.000000
0.977872 0.857343 0.000000
1.000000 0.857129 0.000000
1.000000 0.857023 0.000000
1.000000 0.856999 0.000000
0.000000 0.935060 0.000000
0.000000 0.935036 0.000000
0.000000 0.934928 0.000000
0.006105 0.934680 0.000000
0.050171 0.934230 0.000000
0.120182 0.933514 0.000000
0.219694 0.932497 0.000000
0.346333 0.931203 0.000000
0.489614 0.929738 0.000000
0.632881 0.928274 0.000000
0.759484 0.926980 0.000000
0.858952 0.925967 0.000000
0.929167 0.925492 0.000000
0.973799 0.925278 0.000000
0.998522 0.925148 0.000000
1.000000 0.925086 0.000000
1.000000 0.925072 0.000000
0.000000 0.977974 0.000000
0.000000 0.977950 0.000000
0.000000 0.977842 0.000000
0.004883 0.977594 0.000000
0.048949 0.977144 0.000000
0.118957 0.976428 0.000000
0.218464 0.975411 0.000000
0.345095 0.974117 0.000000
0.488361 0.972653 0.000000
0.631608 0.971188 0.000000
0.758190 0.969895 0.000000
0.857638 0.968878 0.000000
0.927624 0.968228 0.000000
0.971878 0.967968 0.000000
0.996348 0.967851 0.000000
1.000000 0.967800 0.000000
1.000000 0.967788 0.000000
0.000000 1.000000 0.000000
0.000000 1.000000 0.000000
0.000000 1.000000 0.000000
0.004210 1.000000 0.000000
0.048275 1.000000 0.000000
0.118281 1.000000 0.000000
0.217784 0.999000 0.000000
0.344408 0.997706 0.000000
0.487664 0.996242 0.000000
0.630898 0.994777 0.000000
0.757466 0.993484 0.000000
0.856902 0.992467 0.000000
0.926852 0.991764 0.000000
0.970972 0.991447 0.000000
0.995329 0.991316 0.000000
1.000000 0.991264 0.000000
1.000000 0.991253 0.000000
0.000000 1.000000 0.000000
0.000000 1.000000 0.000000
0.000000 1.000000 0.000000
0.003915 1.000000 0.000000
0.047979 1.000000 0.000000
0.117984 1.000000 0.000000
0.217486 1.000000 0.000000
0.344105 1.000000 0.000000
0.487356 1.000000 0.000000
0.630585 1.000000 0.000000
0.757147 1.000000 0.000000
0.856577 1.000000 0.000000
0.926520 1.000000 0.000000
0.970599 1.000000 0.000000
0.994915 1.000000 0.000000
1.000000 1.000000 0.000000
1.000000 1.000000 0.000000
0.000000 1.000000 0.000000
0.000000 1.000000 0.000000
0.000000 1.000000 0.000000
0.003849 1.000000 0.000000
0.047913 1.000000 0.000000
0.117918 1.000000 0.000000
0.217419 1.000000 0.000000
0.344038 1.000000 0.000000
0.487288 1.000000 0.000000
0.630515 1.000000 0.000000
0.757075 1.000000 0.000000
0.856504 1.000000 0.000000
0.926446 1.000000 0.000000
0.970518 1.000000 0.000000
0.994825 1.000000 0.000000
1.000000 1.000000 0.000000
1.000000 1.000000 0.000000
0.000000 0.000000 0.040822
0.000000 0.000000 0.040797
0.009549 0.000000 0.040689
0.033725 0.000000 0.040440
0.082277 0.000000 0.041267
0.163368 0.000000 0.039568
0.277494 0.000000 0.035244
0.422210 0.000000 0.029248
0.585708 0.000000 0.022307
0.749111 0.000000 0.015304
0.893493 0.000000 0.009083
1.000000 0.000000 0.004180
1.000000 0.000000 0.000724
1.000000 0.000000 0.000000
1.000000 0.000000 0.000000
1.000000 0.000000 0.000000
1.000000 0.000000 0.000000
0.000000 0.000000 0.040740
0.000000 0.000000 0.040716
0.009468 0.000000 0.040607
