assets/presets/luts/matte-faded/lut.cube
TITLE "Matte Faded"
LUT_3D_SIZE 9
0.101264 0.094308 0.085961
0.184430 0.100088 0.091741
0.267596 0.105869 0.097522
0.350762 0.111649 0.103302
0.433928 0.117430 0.109083
0.517094 0.123210 0.114863
0.600260 0.128991 0.120644
0.683426 0.134771 0.126424
0.766592 0.140552 0.132205
0.120928 0.192227 0.105625
0.204094 0.198008 0.111406
0.287260 0.203788 0.117186
0.370426 0.209569 0.122967
0.453592 0.215349 0.128747
0.536758 0.221130 0.134528
0.619924 0.226910 0.140308
0.703090 0.232691 0.146088
0.786256 0.238471 0.151869
0.140593 0.290147 0.125289
0.223759 0.295927 0.131070
0.306925 0.301708 0.136850
0.390091 0.307488 0.142631
0.473257 0.313269 0.148411
0.556423 0.319049 0.154192
0.639589 0.324830 0.159972
0.722755 0.330610 0.165753
0.805921 0.336391 0.171533
0.160257 0.388066 0.144954
0.243423 0.393847 0.150734
0.326589 0.399627 0.156515
0.409755 0.405408 0.162295
0.492921 0.411188 0.168076
0.576087 0.416969 0.173856
0.659253 0.422749 0.179637
0.742419 0.428530 0.185417
0.825585 0.434310 0.191198
0.179922 0.485986 0.164618
0.263088 0.491766 0.170399
0.346254 0.497547 0.176179
0.429420 0.503327 0.181960
0.512586 0.509107 0.187740
0.595751 0.514888 0.193521
0.678917 0.520668 0.199301
0.762083 0.526449 0.205082
0.845249 0.532229 0.210862
0.199586 0.583905 0.184283
0.282752 0.589685 0.190063
0.365918 0.595466 0.195844
0.449084 0.601246 0.201624
0.532250 0.607027 0.207405
0.615416 0.612807 0.213185
0.698582 0.618588 0.218966
0.781748 0.624368 0.224746
0.864914 0.630149 0.230527
0.219250 0.681824 0.203947
0.302416 0.687605 0.209728
0.385582 0.693385 0.215508
0.468748 0.699166 0.221289
0.551914 0.704946 0.227069
0.635080 0.710727 0.232850
0.718246 0.716507 0.238630
0.801412 0.722288 0.244411
0.884578 0.728068 0.250191
0.238915 0.779744 0.223612
0.322081 0.785524 0.229392
0.405247 0.791305 0.235173
0.488413 0.797085 0.240953
0.571579 0.802866 0.246734
0.654745 0.808646 0.252514
0.737911 0.814427 0.258295
0.821077 0.820207 0.264075
0.904243 0.825988 0.269856
0.258579 0.877663 0.243276
0.341745 0.883444 0.249057
0.424911 0.889224 0.254837
0.508077 0.895005 0.260617
0.591243 0.900785 0.266398
0.674409 0.906566 0.272178
0.757575 0.912346 0.277959
0.840741 0.918127 0.283739
0.923907 0.923907 0.289520
0.103275 0.096319 0.167271
0.186441 0.102100 0.173051
0.269607 0.107880 0.178832
0.352773 0.113661 0.184612
0.435939 0.119441 0.190393
0.519105 0.125222 0.196173
0.602271 0.131002 0.201954
0.685437 0.136783 0.207734
0.768603 0.142563 0.213515
0.122940 0.194239 0.186935
0.206106 0.200019 0.192716
0.289272 0.205800 0.198496
0.372438 0.211580 0.204277
0.455604 0.217361 0.210057
0.538770 0.223141 0.215838
0.621936 0.228922 0.221618
0.705102 0.234702 0.227398
0.788268 0.240483 0.233179
0.142604 0.292158 0.206600
0.225770 0.297939 0.212380
0.308936 0.303719 0.218160
0.392102 0.309500 0.223941
0.475268 0.315280 0.229721
0.558434 0.321061 0.235502
0.641600 0.326841 0.241282
0.724766 0.332622 0.247063
0.807932 0.338402 0.252843
0.162269 0.390078 0.226264
0.245435 0.395858 0.232044
0.328601 0.401639 0.237825
0.411767 0.407419 0.243605
0.494933 0.413200 0.249386
0.578099 0.418980 0.255166
0.661265 0.424761 0.260947
0.744431 0.430541 0.266727
0.827597 0.436322 0.272508
0.181933 0.487997 0.245928
0.265099 0.493778 0.251709
0.348265 0.499558 0.257489
0.431431 0.505339 0.263270
0.514597 0.511119 0.269050
0.597763 0.516900 0.274831
0.680929 0.522680 0.280611
0.764095 0.528461 0.286392
0.847261 0.534241 0.292172
0.201598 0.585917 0.265593
0.284764 0.591697 0.271373
0.367930 0.597478 0.277154
0.451096 0.603258 0.282934
0.534262 0.609039 0.288715
0.617428 0.614819 0.294495
0.700593 0.620600 0.300276
0.783759 0.626380 0.306056
0.866925 0.632160 0.311837
0.221262 0.683836 0.285257
0.304428 0.689617 0.291038
0.387594 0.695397 0.296818
0.470760 0.701177 0.302599
0.553926 0.706958 0.308379
0.637092 0.712738 0.314160
0.720258 0.718519 0.319940
0.803424 0.724299 0.325721
0.886590 0.730080 0.331501
0.240926 0.781755 0.304922
0.324092 0.787536 0.310702
0.407258 0.793316 0.316483
0.490424 0.799097 0.322263
0.573590 0.804877 0.328044
0.656756 0.810658 0.333824
0.739922 0.816438 0.339605
0.823088 0.822219 0.345385
0.906254 0.827999 0.351166
0.260591 0.879675 0.324586
0.343757 0.885455 0.330367
0.426923 0.891236 0.336147
0.510089 0.897016 0.341927
0.593255 0.902797 0.347708
0.676421 0.908577 0.353488
0.759587 0.914358 0.359269
0.842753 0.920138 0.365049
0.925919 0.925919 0.370830
0.105287 0.098331 0.248581
0.188453 0.104112 0.254361
0.271619 0.109892 0.260142
0.354785 0.115673 0.265922
0.437951 0.121453 0.271703
0.521117 0.127234 0.277483
0.604283 0.133014 0.283264
0.687449 0.138794 0.289044
0.770615 0.144575 0.294825
0.124951 0.196250 0.268245
0.208117 0.202031 0.274026
0.291283 0.207811 0.279806
0.374449 0.213592 0.285587
0.457615 0.219372 0.291367
0.540781 0.225153 0.297148
0.623947 0.230933 0.302928
0.707113 0.236714 0.308708
0.790279 0.242494 0.314489
0.144616 0.294170 0.287910
0.227782 0.299950 0.293690
0.310948 0.305731 0.299470
0.394114 0.311511 0.305251
0.477280 0.317292 0.311031
0.560446 0.323072 0.316812
0.643612 0.328853 0.322592
0.726778 0.334633 0.328373
0.809944 0.340414 0.334153
0.164280 0.392089 0.307574
0.247446 0.397870 0.313354
0.330612 0.403650 0.319135
0.413778 0.409431 0.324915
0.496944 0.415211 0.330696
0.580110 0.420992 0.336476
0.663276 0.426772 0.342257
0.746442 0.432553 0.348037
0.829608 0.438333 0.353818
0.183945 0.490009 0.327238
0.267111 0.495789 0.333019
0.350277 0.501570 0.338799
0.433443 0.507350 0.344580
0.516609 0.513131 0.350360
0.599775 0.518911 0.356141
0.682941 0.524692 0.361921
0.766107 0.530472 0.367702
0.849273 0.536253 0.373482
0.203609 0.587928 0.346903
0.286775 0.593709 0.352683
0.369941 0.599489 0.358464
0.453107 0.605270 0.364244
0.536273 0.611050 0.370025
0.619439 0.616831 0.375805
0.702605 0.622611 0.381586
0.785771 0.628392 0.387366
0.868937 0.634172 0.393147
0.223274 0.685848 0.366567
0.306440 0.691628 0.372348
0.389606 0.697409 0.378128
0.472772 0.703189 0.383909
0.555938 0.708970 0.389689
0.639104 0.714750 0.395470
0.722270 0.720531 0.401250
0.805436 0.726311 0.407031
0.888601 0.732091 0.412811
0.242938 0.783767 0.386232
0.326104 0.789548 0.392012
0.409270 0.795328 0.397793
0.492436 0.801108 0.403573
0.575602 0.806889 0.409354
0.658768 0.812669 0.415134
0.741934 0.818450 0.420915
0.825100 0.824230 0.426695
0.908266 0.830011 0.432476
0.262602 0.881686 0.405896
0.345768 0.887467 0.411677
0.428934 0.893247 0.417457
0.512100 0.899028 0.423238
0.595266 0.904808 0.429018
0.678432 0.910589 0.434798
0.761598 0.916369 0.440579
0.844764 0.922150 0.446359
0.927930 0.927930 0.452140
0.107299 0.100343 0.329891
0.190465 0.106123 0.335671
0.273631 0.111904 0.341452
0.356797 0.117684 0.347232
0.439963 0.123465 0.353013
0.523129 0.129245 0.358793
0.606295 0.135026 0.364574
0.689461 0.140806 0.370354
0.772627 0.146587 0.376135
0.126963 0.198262 0.349555
0.210129 0.204043 0.355336
0.293295 0.209823 0.361116
0.376461 0.215604 0.366897
0.459627 0.221384 0.372677
0.542793 0.227165 0.378458
0.625959 0.232945 0.384238
0.709125 0.238726 0.390018
0.792291 0.244506 0.395799
0.146628 0.296182 0.369220
0.229794 0.301962 0.375000
0.312959 0.307743 0.380780
0.396125 0.313523 0.386561
0.479291 0.319303 0.392341
0.562457 0.325084 0.398122
0.645623 0.330864 0.403902
0.728789 0.336645 0.409683
0.811955 0.342425 0.415463
0.166292 0.394101 0.388884
0.249458 0.399881 0.394664
0.332624 0.405662 0.400445
0.415790 0.411442 0.406225
0.498956 0.417223 0.412006
0.582122 0.423003 0.417786
0.665288 0.428784 0.423567
0.748454 0.434564 0.429347
0.831620 0.440345 0.435128
0.185956 0.492020 0.408548
0.269122 0.497801 0.414329
0.352288 0.503581 0.420109
0.435454 0.509362 0.425890
0.518620 0.515142 0.431670
0.601786 0.520923 0.437451
0.684952 0.526703 0.443231
0.768118 0.532484 0.449012
0.851284 0.538264 0.454792
0.205621 0.589940 0.428213
0.288787 0.595720 0.433993
0.371953 0.601501 0.439774
0.455119 0.607281 0.445554
0.538285 0.613062 0.451335
0.621451 0.618842 0.457115
0.704617 0.624623 0.462896
0.787783 0.630403 0.468676
0.870949 0.636184 0.474457
0.225285 0.687859 0.447877
0.308451 0.693640 0.453658
0.391617 0.699420 0.459438
0.474783 0.705201 0.465219
0.557949 0.710981 0.470999
0.641115 0.716762 0.476780
0.724281 0.722542 0.482560
0.807447 0.728323 0.488341
0.890613 0.734103 0.494121
0.244950 0.785779 0.467542
0.328116 0.791559 0.473322
0.411282 0.797340 0.479103
0.494448 0.803120 0.484883
0.577614 0.808901 0.490664
0.660780 0.814681 0.496444
0.743946 0.820462 0.502225
0.827112 0.826242 0.508005
0.910278 0.832023 0.513786
0.264614 0.883698 0.487206
0.347780 0.889479 0.492987
0.430946 0.895259 0.498767
0.514112 0.901040 0.504548
0.597278 0.906820 0.510328
0.680444 0.912601 0.516109
0.763610 0.918381 0.521889
0.846776 0.924161 0.527669
0.929942 0.929942 0.533450
0.109310 0.102354 0.411201
0.192476 0.108135 0.416981
0.275642 0.113915 0.422762
0.358808 0.119696 0.428542
0.441974 0.125476 0.434323
0.525140 0.131257 0.440103
0.608306 0.137037 0.445884
0.691472 0.142818 0.451664
0.774638 0.148598 0.457445
0.128975 0.200274 0.430865
0.212141 0.206054 0.436646
0.295307 0.211835 0.442426
0.378473 0.217615 0.448207
0.461639 0.223396 0.453987
0.544805 0.229176 0.459768
0.627971 0.234957 0.465548
0.711137 0.240737 0.471329
0.794303 0.246518 0.477109
0.148639 0.298193 0.450530
0.231805 0.303974 0.456310
0.314971 0.309754 0.462090
0.398137 0.315535 0.467871
0.481303 0.321315 0.473651
0.564469 0.327096 0.479432
0.647635 0.332876 0.485212
0.730801 0.338657 0.490993
0.813967 0.344437 0.496773
0.168304 0.396113 0.470194
0.251470 0.401893 0.475974
0.334636 0.407674 0.481755
0.417801 0.413454 0.487535
0.500968 0.419234 0.493316
0.584134 0.425015 0.499096
0.667299 0.430795 0.504877
0.750465 0.436576 0.510657
0.833631 0.442356 0.516438
0.187968 0.494032 0.489858
0.271134 0.499812 0.495639
0.354300 0.505593 0.501419
0.437466 0.511373 0.507200
0.520632 0.517154 0.512980
0.603798 0.522934 0.518761
0.686964 0.528715 0.524541
0.770130 0.534495 0.530322
0.853296 0.540276 0.536102
0.207632 0.591951 0.509523
0.290798 0.597732 0.515303
0.373964 0.603512 0.521084
0.457130 0.609293 0.526864
0.540296 0.615073 0.532645
0.623462 0.620854 0.538425
0.706628 0.626634 0.544206
0.789794 0.632415 0.549986
0.872960 0.638195 0.555767
0.227297 0.689871 0.529187
0.310463 0.695651 0.534968
0.393629 0.701432 0.540748
0.476795 0.707212 0.546529
0.559961 0.712993 0.552309
0.643127 0.718773 0.558090
0.726293 0.724554 0.563870
0.809459 0.730334 0.569651
0.892625 0.736115 0.575431
0.246961 0.787790 0.548852
0.330127 0.793571 0.554632
0.413293 0.799351 0.560413
0.496459 0.805132 0.566193
0.579625 0.810912 0.571974
0.662791 0.816693 0.577754
0.745957 0.822473 0.583535
0.829123 0.828254 0.589315
0.912289 0.834034 0.595096
0.266626 0.885710 0.568516
0.349792 0.891490 0.574297
0.432958 0.897271 0.580077
0.516124 0.903051 0.585858
0.599290 0.908832 0.591638
0.682456 0.914612 0.597418
0.765622 0.920393 0.603199
0.848788 0.926173 0.608979
0.931954 0.931954 0.614760
0.111322 0.104366 0.492511
0.194488 0.110146 0.498291
0.277654 0.115927 0.504072
0.360820 0.121707 0.509852
0.443986 0.127488 0.515633
0.527152 0.133268 0.521413
0.610318 0.139049 0.527194
0.693484 0.144829 0.532974
0.776650 0.150610 0.538755
0.130986 0.202285 0.512175
0.214152 0.208066 0.517956
0.297318 0.213846 0.523736
0.380484 0.219627 0.529517
0.463650 0.225407 0.535297
0.546816 0.231188 0.541078
0.629982 0.236968 0.546858
0.713148 0.242749 0.552639
0.796314 0.248529 0.558419
0.150651 0.300205 0.531840
0.233817 0.305985 0.537620
0.316983 0.311766 0.543401
0.400149 0.317546 0.549181
0.483315 0.323327 0.554962
0.566481 0.329107 0.560742
0.649647 0.334888 0.566522
0.732813 0.340668 0.572303
0.815979 0.346449 0.578083
0.170315 0.398124 0.551504
0.253481 0.403905 0.557284
0.336647 0.409685 0.563065
0.419813 0.415466 0.568845
0.502979 0.421246 0.574626
0.586145 0.427027 0.580406
0.669311 0.432807 0.586187
0.752477 0.438588 0.591967
0.835643 0.444368 0.597748
0.189980 0.496044 0.571168
0.273146 0.501824 0.576949
0.356312 0.507605 0.582729
0.439478 0.513385 0.588510
0.522644 0.519166 0.594290
0.605810 0.524946 0.600071
0.688976 0.530726 0.605851
0.772142 0.536507 0.611632
0.855307 0.542287 0.617412
0.209644 0.593963 0.590833
0.292810 0.599743 0.596613
0.375976 0.605524 0.602394
0.459142 0.611304 0.608174
0.542308 0.617085 0.613955
0.625474 0.622865 0.619735
0.708640 0.628646 0.625516
0.791806 0.634426 0.631296
0.874972 0.640207 0.637077
0.229308 0.691882 0.610497
0.312474 0.697663 0.616278
0.395640 0.703443 0.622058
0.478806 0.709224 0.627839
0.561972 0.715004 0.633619
0.645138 0.720785 0.639400
0.728304 0.726565 0.645180
0.811470 0.732346 0.650961
0.894636 0.738126 0.656741
0.248973 0.789802 0.630162
0.332139 0.795582 0.635942
0.415305 0.801363 0.641723
0.498471 0.807143 0.647503
0.581637 0.812924 0.653284
0.664803 0.818704 0.659064
0.747969 0.824485 0.664845
0.831135 0.830265 0.670625
0.914301 0.836046 0.676406
0.268637 0.887721 0.649826
0.351803 0.893502 0.655607
0.434969 0.899282 0.661387
0.518135 0.905063 0.667168
0.601301 0.910843 0.672948
0.684467 0.916624 0.678729
0.767633 0.922404 0.684509
0.850799 0.928185 0.690289
0.933965 0.933965 0.696070
0.113333 0.106377 0.573821
0.196499 0.112158 0.579601
0.279665 0.117938 0.585382
0.362831 0.123719 0.591162
0.445997 0.129499 0.596943
0.529163 0.135280 0.602723
0.612329 0.141060 0.608504
0.695495 0.146841 0.614284
0.778661 0.152621 0.620065
0.132998 0.204297 0.593485
0.216164 0.210077 0.599266
0.299330 0.215858 0.605046
0.382496 0.221638 0.610827
0.465662 0.227419 0.616607
0.548828 0.233199 0.622388
0.631994 0.238980 0.628168
0.715160 0.244760 0.633949
0.798326 0.250541 0.639729
0.152662 0.302216 0.613150
0.235828 0.307997 0.618930
0.318994 0.313777 0.624711
0.402160 0.319558 0.630491
0.485326 0.325338 0.636271
0.568492 0.331119 0.642052
0.651658 0.336899 0.647832
0.734824 0.342680 0.653613
0.817990 0.348460 0.659393
0.172327 0.400136 0.632814
0.255493 0.405916 0.638594
0.338659 0.411697 0.644375
0.421825 0.417477 0.650155
0.504991 0.423258 0.655936
0.588157 0.429038 0.661716
0.671323 0.434819 0.667497
0.754489 0.440599 0.673277
0.837655 0.446380 0.679058
0.191991 0.498055 0.652478
0.275157 0.503836 0.658259
0.358323 0.509616 0.664039
0.441489 0.515397 0.669820
0.524655 0.521177 0.675600
0.607821 0.526958 0.681381
0.690987 0.532738 0.687161
0.774153 0.538519 0.692942
0.857319 0.544299 0.698722
0.211656 0.595975 0.672143
0.294822 0.601755 0.677923
0.377988 0.607536 0.683704
0.461154 0.613316 0.689484
0.544320 0.619097 0.695265
0.627486 0.624877 0.701045
0.710652 0.630658 0.706826
0.793818 0.636438 0.712606
0.876984 0.642219 0.718387
0.231320 0.693894 0.691807
0.314486 0.699675 0.697588
0.397652 0.705455 0.703368
0.480818 0.711236 0.709149
0.563984 0.717016 0.714929
0.647150 0.722796 0.720710
0.730316 0.728577 0.726490
0.813482 0.734357 0.732271
0.896648 0.740138 0.738051
0.250984 0.791813 0.711472
0.334150 0.797594 0.717252
0.417316 0.803374 0.723033
0.500482 0.809155 0.728813
0.583648 0.814935 0.734594
0.666814 0.820716 0.740374
0.749980 0.826496 0.746155
0.833146 0.832277 0.751935
0.916312 0.838057 0.757716
0.270649 0.889733 0.731136
0.353815 0.895513 0.736917
0.436981 0.901294 0.742697
0.520147 0.907074 0.748478
0.603313 0.912855 0.754258
0.686479 0.918635 0.760038
0.769645 0.924416 0.765819
0.852811 0.930196 0.771599
0.935977 0.935977 0.777380
0.115345 0.108389 0.655131
0.198511 0.114170 0.660911
0.281677 0.119950 0.666692
0.364843 0.125731 0.672472
0.448009 0.131511 0.678253
0.531175 0.137292 0.684033
0.614341 0.143072 0.689814
0.697507 0.148853 0.695594
0.780673 0.154633 0.701375
0.135010 0.206309 0.674795
0.218176 0.212089 0.680576
0.301342 0.217870 0.686356
0.384507 0.223650 0.692137
0.467673 0.229430 0.697917
0.550839 0.235211 0.703698
0.634005 0.240991 0.709478
0.717171 0.246772 0.715259
0.800337 0.252552 0.721039
0.154674 0.304228 0.694460
0.237840 0.310008 0.700240
0.321006 0.315789 0.706021
0.404172 0.321569 0.711801
0.487338 0.327350 0.717582
0.570504 0.333130 0.723362
0.653670 0.338911 0.729142
0.736836 0.344691 0.734923
0.820002 0.350472 0.740703
0.174338 0.402147 0.714124
0.257504 0.407928 0.719904
0.340670 0.413708 0.725685
0.423836 0.419489 0.731465
0.507002 0.425269 0.737246
0.590168 0.431050 0.743026
0.673334 0.436830 0.748807
0.756500 0.442611 0.754587
0.839666 0.448391 0.760368
0.194003 0.500067 0.733788
0.277169 0.505847 0.739569
0.360335 0.511628 0.745349
0.443501 0.517408 0.751130
0.526667 0.523189 0.756910
0.609833 0.528969 0.762691
0.692999 0.534750 0.768471
0.776165 0.540530 0.774252
0.859331 0.546311 0.780032
0.213667 0.597986 0.753453
0.296833 0.603767 0.759233
0.379999 0.609547 0.765014
0.463165 0.615328 0.770794
0.546331 0.621108 0.776575
0.629497 0.626889 0.782355
0.712663 0.632669 0.788136
0.795829 0.638450 0.793916
0.878995 0.644230 0.799697
0.233332 0.695906 0.773117
0.316498 0.701686 0.778898
0.399664 0.707467 0.784678
0.482830 0.713247 0.790459
0.565996 0.719028 0.796239
0.649162 0.724808 0.802020
0.732328 0.730589 0.807800
0.815494 0.736369 0.813581
0.898660 0.742150 0.819361
0.252996 0.793825 0.792782
0.336162 0.799606 0.798562
0.419328 0.805386 0.804343
0.502494 0.811167 0.810123
0.585660 0.816947 0.815904
0.668826 0.822728 0.821684
0.751992 0.828508 0.827465
0.835158 0.834288 0.833245
0.918324 0.840069 0.839026
0.272660 0.891744 0.812446
0.355826 0.897525 0.818227
0.438992 0.903305 0.824007
0.522158 0.909086 0.829788
0.605324 0.914866 0.835568
0.688490 0.920647 0.841349
0.771656 0.926427 0.847129
0.854822 0.932208 0.852910
0.937988 0.937988 0.858690
0.117357 0.110401 0.736441
0.200523 0.116181 0.742221
0.283689 0.121962 0.748002
0.366855 0.127742 0.753782
0.450021 0.133523 0.759563
0.533187 0.139303 0.765343
0.616353 0.145084 0.771124
0.699519 0.150864 0.776904
0.782685 0.156645 0.782685
0.137021 0.208320 0.756105
0.220187 0.214101 0.761886
0.303353 0.219881 0.767666
0.386519 0.225662 0.773447
0.469685 0.231442 0.779227
0.552851 0.237223 0.785008
0.636017 0.243003 0.790788
0.719183 0.248784 0.796569
0.802349 0.254564 0.802349
0.156686 0.306240 0.775770
0.239852 0.312020 0.781550
0.323018 0.317801 0.787331
0.406184 0.323581 0.793111
0.489350 0.329361 0.798891
0.572515 0.335142 0.804672
0.655681 0.340922 0.810452
0.738847 0.346703 0.816233
0.822013 0.352483 0.822013
0.176350 0.404159 0.795434
0.259516 0.409939 0.801214
0.342682 0.415720 0.806995
0.425848 0.421500 0.812775
0.509014 0.427281 0.818556
0.592180 0.433061 0.824336
0.675346 0.438842 0.830117
0.758512 0.444622 0.835897
0.841678 0.450403 0.841678
0.196014 0.502078 0.815098
0.279180 0.507859 0.820879
0.362346 0.513639 0.826659
0.445512 0.519420 0.832440
0.528678 0.525200 0.838220
0.611844 0.530981 0.844001
0.695010 0.536761 0.849781
0.778176 0.542542 0.855562
0.861342 0.548322 0.861342
0.215679 0.599998 0.834763
0.298845 0.605778 0.840543
0.382011 0.611559 0.846324
0.465177 0.617339 0.852104
0.548343 0.623120 0.857885
0.631509 0.628900 0.863665
0.714675 0.634681 0.869446
0.797841 0.640461 0.875226
0.881007 0.646242 0.881007
0.235343 0.697917 0.854427
0.318509 0.703698 0.860208
0.401675 0.709478 0.865988
0.484841 0.715259 0.871769
0.568007 0.721039 0.877549
0.651173 0.726820 0.883330
0.734339 0.732600 0.889110
0.817505 0.738381 0.894891
0.900671 0.744161 0.900671
0.255008 0.795837 0.874092
0.338174 0.801617 0.879872
0.421340 0.807398 0.885653
0.504506 0.813178 0.891433
0.587672 0.818959 0.897214
0.670838 0.824739 0.902994
0.754004 0.830520 0.908775
0.837170 0.836300 0.914555
0.920336 0.842081 0.920336
0.274672 0.893756 0.893756
0.357838 0.899537 0.899537
0.441004 0.905317 0.905317
0.524170 0.911098 0.911098
0.607336 0.916878 0.916878
0.690502 0.922659 0.922659
0.773668 0.928439 0.928439
0.856834 0.934220 0.934220
0.940000 0.940000 0.940000
