assets/presets/luts/matte-faded/lut.cube
TITLE "Matte Faded"
LUT_3D_SIZE 17
0.101264 0.094308 0.085961
0.142847 0.097198 0.088851
0.184430 0.100088 0.091741
0.226013 0.102979 0.094631
0.267596 0.105869 0.097522
0.309179 0.108759 0.100412
0.350762 0.111649 0.103302
0.392345 0.114540 0.106192
0.433928 0.117430 0.109083
0.475511 0.120320 0.111973
0.517094 0.123210 0.114863
0.558677 0.126101 0.117753
0.600260 0.128991 0.120644
0.641843 0.131881 0.123534
0.683426 0.134771 0.126424
0.725009 0.137662 0.129314
0.766592 0.140552 0.132205
0.111096 0.143268 0.095793
0.152679 0.146158 0.098683
0.194262 0.149048 0.101573
0.235845 0.151938 0.104464
0.277428 0.154829 0.107354
0.319011 0.157719 0.110244
0.360594 0.160609 0.113134
0.402177 0.163499 0.116025
0.443760 0.166390 0.118915
0.485343 0.169280 0.121805
0.526926 0.172170 0.124695
0.568509 0.175060 0.127586
0.610092 0.177950 0.130476
0.651675 0.180841 0.133366
0.693258 0.183731 0.136256
0.734841 0.186621 0.139147
0.776424 0.189511 0.142037
0.120928 0.192227 0.105625
0.162511 0.195118 0.108515
0.204094 0.198008 0.111406
0.245677 0.200898 0.114296
0.287260 0.203788 0.117186
0.328843 0.206678 0.120076
0.370426 0.209569 0.122967
0.412009 0.212459 0.125857
0.453592 0.215349 0.128747
0.495175 0.218239 0.131637
0.536758 0.221130 0.134528
0.578341 0.224020 0.137418
0.619924 0.226910 0.140308
0.661507 0.229800 0.143198
0.703090 0.232691 0.146088
0.744673 0.235581 0.148979
0.786256 0.238471 0.151869
0.130760 0.241187 0.115457
0.172343 0.244077 0.118348
0.213926 0.246967 0.121238
0.255509 0.249858 0.124128
0.297092 0.252748 0.127018
0.338675 0.255638 0.129909
0.380258 0.258528 0.132799
0.421841 0.261419 0.135689
0.463424 0.264309 0.138579
0.505007 0.267199 0.141469
0.546590 0.270089 0.144360
0.588173 0.272980 0.147250
0.629756 0.275870 0.150140
0.671339 0.278760 0.153030
0.712922 0.281650 0.155921
0.754505 0.284541 0.158811
0.796088 0.287431 0.161701
0.140593 0.290147 0.125289
0.182176 0.293037 0.128180
0.223759 0.295927 0.131070
0.265342 0.298817 0.133960
0.306925 0.301708 0.136850
0.348508 0.304598 0.139741
0.390091 0.307488 0.142631
0.431674 0.310378 0.145521
0.473257 0.313269 0.148411
0.514840 0.316159 0.151302
0.556423 0.319049 0.154192
0.598006 0.321939 0.157082
0.639589 0.324830 0.159972
0.681172 0.327720 0.162863
0.722755 0.330610 0.165753
0.764338 0.333500 0.168643
0.805921 0.336391 0.171533
0.150425 0.339106 0.135122
0.192008 0.341997 0.138012
0.233591 0.344887 0.140902
0.275174 0.347777 0.143792
0.316757 0.350667 0.146683
0.358340 0.353558 0.149573
0.399923 0.356448 0.152463
0.441506 0.359338 0.155353
0.483089 0.362228 0.158244
0.524672 0.365119 0.161134
0.566255 0.368009 0.164024
0.607838 0.370899 0.166914
0.649421 0.373789 0.169805
0.691004 0.376680 0.172695
0.732587 0.379570 0.175585
0.774170 0.382460 0.178475
0.815753 0.385350 0.181366
0.160257 0.388066 0.144954
0.201840 0.390956 0.147844
0.243423 0.393847 0.150734
0.285006 0.396737 0.153625
0.326589 0.399627 0.156515
0.368172 0.402517 0.159405
0.409755 0.405408 0.162295
0.451338 0.408298 0.165186
0.492921 0.411188 0.168076
0.534504 0.414078 0.170966
0.576087 0.416969 0.173856
0.617670 0.419859 0.176747
0.659253 0.422749 0.179637
0.700836 0.425639 0.182527
0.742419 0.428530 0.185417
0.784002 0.431420 0.188308
0.825585 0.434310 0.191198
0.170089 0.437026 0.154786
0.211672 0.439916 0.157676
0.253255 0.442806 0.160567
0.294838 0.445697 0.163457
0.336421 0.448587 0.166347
0.378004 0.451477 0.169237
0.419587 0.454367 0.172128
0.461170 0.457258 0.175018
0.502753 0.460148 0.177908
0.544336 0.463038 0.180798
0.585919 0.465928 0.183689
0.627502 0.468819 0.186579
0.669085 0.471709 0.189469
0.710668 0.474599 0.192359
0.752251 0.477489 0.195250
0.793834 0.480379 0.198140
0.835417 0.483270 0.201030
0.179922 0.485986 0.164618
0.221505 0.488876 0.167509
0.263088 0.491766 0.170399
0.304671 0.494656 0.173289
0.346254 0.497547 0.176179
0.387837 0.500437 0.179070
0.429420 0.503327 0.181960
0.471002 0.506217 0.184850
0.512586 0.509107 0.187740
0.554168 0.511998 0.190631
0.595751 0.514888 0.193521
0.637334 0.517778 0.196411
0.678917 0.520668 0.199301
0.720500 0.523559 0.202192
0.762083 0.526449 0.205082
0.803666 0.529339 0.207972
0.845249 0.532229 0.210862
0.189754 0.534945 0.174451
0.231337 0.537835 0.177341
0.272920 0.540726 0.180231
0.314503 0.543616 0.183121
0.356086 0.546506 0.186012
0.397669 0.549396 0.188902
0.439252 0.552287 0.191792
0.480835 0.555177 0.194682
0.522418 0.558067 0.197572
0.564001 0.560957 0.200463
0.605584 0.563848 0.203353
0.647167 0.566738 0.206243
0.688750 0.569628 0.209133
0.730333 0.572518 0.212024
0.771916 0.575409 0.214914
0.813499 0.578299 0.217804
0.855082 0.581189 0.220694
0.199586 0.583905 0.184283
0.241169 0.586795 0.187173
0.282752 0.589685 0.190063
0.324335 0.592576 0.192953
0.365918 0.595466 0.195844
0.407501 0.598356 0.198734
0.449084 0.601246 0.201624
0.490667 0.604137 0.204514
0.532250 0.607027 0.207405
0.573833 0.609917 0.210295
0.615416 0.612807 0.213185
0.656999 0.615698 0.216075
0.698582 0.618588 0.218966
0.740165 0.621478 0.221856
0.781748 0.624368 0.224746
0.823331 0.627259 0.227636
0.864914 0.630149 0.230527
0.209418 0.632865 0.194115
0.251001 0.635755 0.197005
0.292584 0.638645 0.199895
0.334167 0.641535 0.202786
0.375750 0.644426 0.205676
0.417333 0.647316 0.208566
0.458916 0.650206 0.211456
0.500499 0.653096 0.214347
0.542082 0.655987 0.217237
0.583665 0.658877 0.220127
0.625248 0.661767 0.223017
0.666831 0.664657 0.225908
0.708414 0.667548 0.228798
0.749997 0.670438 0.231688
0.791580 0.673328 0.234578
0.833163 0.676218 0.237469
0.874746 0.679109 0.240359
0.219250 0.681824 0.203947
0.260833 0.684715 0.206837
0.302416 0.687605 0.209728
0.343999 0.690495 0.212618
0.385582 0.693385 0.215508
0.427165 0.696276 0.218398
0.468748 0.699166 0.221289
0.510331 0.702056 0.224179
0.551914 0.704946 0.227069
0.593497 0.707837 0.229959
0.635080 0.710727 0.232850
0.676663 0.713617 0.235740
0.718246 0.716507 0.238630
0.759829 0.719398 0.241520
0.801412 0.722288 0.244411
0.842995 0.725178 0.247301
0.884578 0.728068 0.250191
0.229083 0.730784 0.213779
0.270666 0.733674 0.216670
0.312249 0.736565 0.219560
0.353832 0.739455 0.222450
0.395415 0.742345 0.225340
0.436998 0.745235 0.228231
0.478581 0.748126 0.231121
0.520164 0.751016 0.234011
0.561747 0.753906 0.236901
0.603330 0.756796 0.239792
0.644913 0.759687 0.242682
0.686496 0.762577 0.245572
0.728079 0.765467 0.248462
0.769662 0.768357 0.251353
0.811244 0.771248 0.254243
0.852827 0.774138 0.257133
0.894410 0.777028 0.260023
0.238915 0.779744 0.223612
0.280498 0.782634 0.226502
0.322081 0.785524 0.229392
0.363664 0.788415 0.232282
0.405247 0.791305 0.235173
0.446830 0.794195 0.238063
0.488413 0.797085 0.240953
0.529996 0.799976 0.243843
0.571579 0.802866 0.246734
0.613162 0.805756 0.249624
0.654745 0.808646 0.252514
0.696328 0.811536 0.255404
0.737911 0.814427 0.258295
0.779494 0.817317 0.261185
0.821077 0.820207 0.264075
0.862660 0.823097 0.266965
0.904243 0.825988 0.269856
0.248747 0.828704 0.233444
0.290330 0.831594 0.236334
0.331913 0.834484 0.239224
0.373496 0.837374 0.242115
0.415079 0.840264 0.245005
0.456662 0.843155 0.247895
0.498245 0.846045 0.250785
0.539828 0.848935 0.253676
0.581411 0.851825 0.256566
0.622994 0.854716 0.259456
0.664577 0.857606 0.262346
0.706160 0.860496 0.265236
0.747743 0.863386 0.268127
0.789326 0.866277 0.271017
0.830909 0.869167 0.273907
0.872492 0.872057 0.276797
0.914075 0.874947 0.279688
0.258579 0.877663 0.243276
0.300162 0.880553 0.246166
0.341745 0.883444 0.249057
0.383328 0.886334 0.251947
0.424911 0.889224 0.254837
0.466494 0.892114 0.257727
0.508077 0.895005 0.260617
0.549660 0.897895 0.263508
0.591243 0.900785 0.266398
0.632826 0.903675 0.269288
0.674409 0.906566 0.272178
0.715992 0.909456 0.275069
0.757575 0.912346 0.277959
0.799158 0.915236 0.280849
0.840741 0.918127 0.283739
0.882324 0.921017 0.286630
0.923907 0.923907 0.289520
0.102270 0.095314 0.126616
0.143853 0.098204 0.129506
0.185436 0.101094 0.132396
0.227019 0.103984 0.135286
0.268602 0.106875 0.138177
0.310185 0.109765 0.141067
0.351768 0.112655 0.143957
0.393351 0.115545 0.146847
0.434934 0.118436 0.149738
0.476517 0.121326 0.152628
0.518100 0.124216 0.155518
0.559683 0.127106 0.158408
0.601266 0.129997 0.161299
0.642849 0.132887 0.164189
0.684432 0.135777 0.167079
0.726015 0.138667 0.169969
0.767598 0.141558 0.172860
0.112102 0.144273 0.136448
0.153685 0.147164 0.139338
0.195268 0.150054 0.142228
0.236851 0.152944 0.145119
0.278434 0.155834 0.148009
0.320017 0.158725 0.150899
0.361600 0.161615 0.153789
0.403183 0.164505 0.156680
0.444766 0.167395 0.159570
0.486349 0.170286 0.162460
0.527932 0.173176 0.165350
0.569515 0.176066 0.168241
0.611098 0.178956 0.171131
0.652681 0.181847 0.174021
0.694264 0.184737 0.176911
0.735847 0.187627 0.179802
0.777430 0.190517 0.182692
0.121934 0.193233 0.146280
0.163517 0.196123 0.149170
0.205100 0.199014 0.152061
0.246683 0.201904 0.154951
0.288266 0.204794 0.157841
0.329849 0.207684 0.160731
0.371432 0.210575 0.163622
0.413015 0.213465 0.166512
0.454598 0.216355 0.169402
0.496181 0.219245 0.172292
0.537764 0.222136 0.175183
0.579347 0.225026 0.178073
0.620930 0.227916 0.180963
0.662513 0.230806 0.183853
0.704096 0.233696 0.186743
0.745679 0.236587 0.189634
0.787262 0.239477 0.192524
0.131766 0.242193 0.156112
0.173349 0.245083 0.159003
0.214932 0.247973 0.161893
0.256515 0.250864 0.164783
0.298098 0.253754 0.167673
0.339681 0.256644 0.170564
0.381264 0.259534 0.173454
0.422847 0.262424 0.176344
0.464430 0.265315 0.179234
0.506013 0.268205 0.182124
0.547596 0.271095 0.185015
0.589179 0.273985 0.187905
0.630762 0.276876 0.190795
0.672345 0.279766 0.193685
0.713928 0.282656 0.196576
0.755511 0.285546 0.199466
0.797094 0.288437 0.202356
0.141598 0.291153 0.165945
0.183181 0.294043 0.168835
0.224764 0.296933 0.171725
0.266347 0.299823 0.174615
0.307930 0.302713 0.177505
0.349513 0.305604 0.180396
0.391096 0.308494 0.183286
0.432679 0.311384 0.186176
0.474262 0.314274 0.189066
0.515845 0.317165 0.191957
0.557428 0.320055 0.194847
0.599011 0.322945 0.197737
0.640594 0.325835 0.200627
0.682177 0.328726 0.203518
0.723760 0.331616 0.206408
0.765343 0.334506 0.209298
0.806926 0.337396 0.212188
0.151431 0.340112 0.175777
0.193014 0.343002 0.178667
0.234597 0.345893 0.181557
0.276180 0.348783 0.184447
0.317763 0.351673 0.187338
0.359346 0.354563 0.190228
0.400929 0.357454 0.193118
0.442512 0.360344 0.196008
0.484095 0.363234 0.198899
0.525678 0.366124 0.201789
0.567261 0.369015 0.204679
0.608844 0.371905 0.207569
0.650427 0.374795 0.210460
0.692010 0.377685 0.213350
0.733593 0.380576 0.216240
0.775176 0.383466 0.219130
0.816759 0.386356 0.222021
0.161263 0.389072 0.185609
0.202846 0.391962 0.188499
0.244429 0.394852 0.191389
0.286012 0.397743 0.194280
0.327595 0.400633 0.197170
0.369178 0.403523 0.200060
0.410761 0.406413 0.202950
0.452344 0.409304 0.205841
0.493927 0.412194 0.208731
0.535510 0.415084 0.211621
0.577093 0.417974 0.214511
0.618676 0.420865 0.217402
0.660259 0.423755 0.220292
0.701842 0.426645 0.223182
0.743425 0.429535 0.226072
0.785008 0.432426 0.228963
0.826591 0.435316 0.231853
0.171095 0.438032 0.195441
0.212678 0.440922 0.198331
0.254261 0.443812 0.201222
0.295844 0.446702 0.204112
0.337427 0.449593 0.207002
0.379010 0.452483 0.209892
0.420593 0.455373 0.212783
0.462176 0.458263 0.215673
0.503759 0.461154 0.218563
0.545342 0.464044 0.221453
0.586925 0.466934 0.224344
0.628508 0.469824 0.227234
0.670091 0.472715 0.230124
0.711674 0.475605 0.233014
0.753257 0.478495 0.235905
0.794840 0.481385 0.238795
0.836423 0.484276 0.241685
0.180927 0.486991 0.205273
0.222510 0.489882 0.208164
0.264093 0.492772 0.211054
0.305676 0.495662 0.213944
0.347259 0.498552 0.216834
0.388842 0.501443 0.219725
0.430425 0.504333 0.222615
0.472008 0.507223 0.225505
0.513591 0.510113 0.228395
0.555174 0.513004 0.231286
0.596757 0.515894 0.234176
0.638340 0.518784 0.237066
0.679923 0.521674 0.239956
0.721506 0.524565 0.242847
0.763089 0.527455 0.245737
0.804672 0.530345 0.248627
0.846255 0.533235 0.251517
0.190760 0.535951 0.215106
0.232343 0.538841 0.217996
0.273926 0.541732 0.220886
0.315509 0.544622 0.223776
0.357092 0.547512 0.226667
0.398675 0.550402 0.229557
0.440258 0.553293 0.232447
0.481841 0.556183 0.235337
0.523423 0.559073 0.238228
0.565006 0.561963 0.241118
0.606589 0.564853 0.244008
0.648172 0.567744 0.246898
0.689755 0.570634 0.249788
0.731339 0.573524 0.252679
0.772921 0.576414 0.255569
0.814504 0.579305 0.258459
0.856087 0.582195 0.261349
0.200592 0.584911 0.224938
0.242175 0.587801 0.227828
0.283758 0.590691 0.230718
0.325341 0.593581 0.233608
0.366924 0.596472 0.236499
0.408507 0.599362 0.239389
0.450090 0.602252 0.242279
0.491673 0.605142 0.245169
0.533256 0.608033 0.248060
0.574839 0.610923 0.250950
0.616422 0.613813 0.253840
0.658005 0.616703 0.256730
0.699588 0.619594 0.259621
0.741171 0.622484 0.262511
0.782754 0.625374 0.265401
0.824337 0.628264 0.268291
0.865920 0.631155 0.271182
0.210424 0.633870 0.234770
0.252007 0.636761 0.237660
0.293590 0.639651 0.240550
0.335173 0.642541 0.243441
0.376756 0.645431 0.246331
0.418339 0.648322 0.249221
0.459922 0.651212 0.252111
0.501505 0.654102 0.255002
0.543088 0.656992 0.257892
0.584671 0.659883 0.260782
0.626254 0.662773 0.263672
0.667837 0.665663 0.266563
0.709420 0.668553 0.269453
0.751003 0.671444 0.272343
0.792586 0.674334 0.275233
0.834169 0.677224 0.278124
0.875752 0.680114 0.281014
0.220256 0.682830 0.244602
0.261839 0.685720 0.247492
0.303422 0.688611 0.250383
0.345005 0.691501 0.253273
0.386588 0.694391 0.256163
0.428171 0.697281 0.259053
0.469754 0.700172 0.261944
0.511337 0.703062 0.264834
0.552920 0.705952 0.267724
0.594503 0.708842 0.270614
0.636086 0.711733 0.273505
0.677669 0.714623 0.276395
0.719252 0.717513 0.279285
0.760835 0.720403 0.282175
0.802418 0.723294 0.285066
0.844001 0.726184 0.287956
0.885584 0.729074 0.290846
0.230088 0.731790 0.254434
0.271671 0.734680 0.257325
0.313254 0.737570 0.260215
0.354837 0.740461 0.263105
0.396420 0.743351 0.265995
0.438003 0.746241 0.268886
0.479586 0.749131 0.271776
0.521169 0.752022 0.274666
0.562752 0.754912 0.277556
0.604335 0.757802 0.280447
0.645918 0.760692 0.283337
0.687501 0.763583 0.286227
0.729084 0.766473 0.289117
0.770667 0.769363 0.292008
0.812250 0.772253 0.294898
0.853833 0.775144 0.297788
0.895416 0.778034 0.300678
0.239921 0.780750 0.264267
0.281504 0.783640 0.267157
0.323087 0.786530 0.270047
0.364670 0.789420 0.272937
0.406253 0.792311 0.275828
0.447836 0.795201 0.278718
0.489419 0.798091 0.281608
0.531002 0.800981 0.284498
0.572585 0.803872 0.287389
0.614168 0.806762 0.290279
0.655751 0.809652 0.293169
0.697334 0.812542 0.296059
0.738917 0.815433 0.298950
0.780500 0.818323 0.301840
0.822083 0.821213 0.304730
0.863666 0.824103 0.307620
0.905249 0.826994 0.310511
0.249753 0.829709 0.274099
0.291336 0.832600 0.276989
0.332919 0.835490 0.279879
0.374502 0.838380 0.282770
0.416085 0.841270 0.285660
0.457668 0.844161 0.288550
0.499251 0.847051 0.291440
0.540834 0.849941 0.294331
0.582417 0.852831 0.297221
0.624000 0.855722 0.300111
0.665583 0.858612 0.303001
0.707166 0.861502 0.305892
0.748749 0.864392 0.308782
0.790332 0.867283 0.311672
0.831915 0.870173 0.314562
0.873498 0.873063 0.317452
0.915081 0.875953 0.320343
0.259585 0.878669 0.283931
0.301168 0.881559 0.286821
0.342751 0.884450 0.289712
0.384334 0.887340 0.292602
0.425917 0.890230 0.295492
0.467500 0.893120 0.298382
0.509083 0.896011 0.301273
0.550666 0.898901 0.304163
0.592249 0.901791 0.307053
0.633832 0.904681 0.309943
0.675415 0.907571 0.312833
0.716998 0.910462 0.315724
0.758581 0.913352 0.318614
0.800164 0.916242 0.321504
0.841747 0.919132 0.324394
0.883330 0.922023 0.327285
0.924913 0.924913 0.330175
0.103275 0.096319 0.167271
0.144858 0.099210 0.170161
0.186441 0.102100 0.173051
0.228024 0.104990 0.175941
0.269607 0.107880 0.178832
0.311190 0.110771 0.181722
0.352773 0.113661 0.184612
0.394356 0.116551 0.187502
0.435939 0.119441 0.190393
0.477522 0.122332 0.193283
0.519105 0.125222 0.196173
0.560688 0.128112 0.199063
0.602271 0.131002 0.201954
0.643854 0.133893 0.204844
0.685437 0.136783 0.207734
0.727020 0.139673 0.210624
0.768603 0.142563 0.213515
0.113108 0.145279 0.177103
0.154691 0.148169 0.179993
0.196274 0.151060 0.182883
0.237857 0.153950 0.185774
0.279440 0.156840 0.188664
0.321023 0.159730 0.191554
0.362606 0.162621 0.194444
0.404189 0.165511 0.197335
0.445772 0.168401 0.200225
0.487355 0.171291 0.203115
0.528938 0.174182 0.206005
0.570521 0.177072 0.208896
0.612104 0.179962 0.211786
0.653687 0.182852 0.214676
0.695270 0.185743 0.217566
0.736853 0.188633 0.220457
0.778436 0.191523 0.223347
0.122940 0.194239 0.186935
0.164523 0.197129 0.189825
0.206106 0.200019 0.192716
0.247689 0.202910 0.195606
0.289272 0.205800 0.198496
0.330855 0.208690 0.201386
0.372438 0.211580 0.204277
0.414021 0.214471 0.207167
0.455604 0.217361 0.210057
0.497187 0.220251 0.212947
0.538770 0.223141 0.215838
0.580353 0.226032 0.218728
0.621936 0.228922 0.221618
0.663519 0.231812 0.224508
0.705102 0.234702 0.227398
0.746685 0.237593 0.230289
0.788268 0.240483 0.233179
0.132772 0.243199 0.196767
0.174355 0.246089 0.199658
0.215938 0.248979 0.202548
0.257521 0.251869 0.205438
0.299104 0.254760 0.208328
0.340687 0.257650 0.211219
0.382270 0.260540 0.214109
0.423853 0.263430 0.216999
0.465436 0.266321 0.219889
0.507019 0.269211 0.222779
0.548602 0.272101 0.225670
0.590185 0.274991 0.228560
0.631768 0.277882 0.231450
0.673351 0.280772 0.234340
0.714934 0.283662 0.237231
0.756517 0.286552 0.240121
0.798100 0.289442 0.243011
0.142604 0.292158 0.206600
0.184187 0.295049 0.209490
0.225770 0.297939 0.212380
0.267353 0.300829 0.215270
0.308936 0.303719 0.218160
0.350519 0.306610 0.221051
0.392102 0.309500 0.223941
0.433685 0.312390 0.226831
0.475268 0.315280 0.229721
0.516851 0.318170 0.232612
0.558434 0.321061 0.235502
0.600017 0.323951 0.238392
0.641600 0.326841 0.241282
0.683183 0.329731 0.244173
0.724766 0.332622 0.247063
0.766349 0.335512 0.249953
0.807932 0.338402 0.252843
0.152437 0.341118 0.216432
0.194020 0.344008 0.219322
0.235602 0.346898 0.222212
0.277185 0.349789 0.225102
0.318769 0.352679 0.227993
0.360351 0.355569 0.230883
0.401934 0.358459 0.233773
0.443517 0.361350 0.236663
0.485100 0.364240 0.239554
0.526683 0.367130 0.242444
0.568266 0.370020 0.245334
0.609849 0.372911 0.248224
0.651432 0.375801 0.251115
0.693015 0.378691 0.254005
0.734598 0.381581 0.256895
0.776181 0.384472 0.259785
0.817764 0.387362 0.262676
0.162269 0.390078 0.226264
0.203852 0.392968 0.229154
0.245435 0.395858 0.232044
0.287018 0.398748 0.234935
0.328601 0.401639 0.237825
0.370184 0.404529 0.240715
0.411767 0.407419 0.243605
0.453350 0.410309 0.246496
0.494933 0.413200 0.249386
0.536516 0.416090 0.252276
0.578099 0.418980 0.255166
0.619682 0.421870 0.258057
0.661265 0.424761 0.260947
0.702848 0.427651 0.263837
0.744431 0.430541 0.266727
0.786014 0.433431 0.269618
0.827597 0.436322 0.272508
0.172101 0.439037 0.236096
0.213684 0.441928 0.238986
0.255267 0.444818 0.241877
0.296850 0.447708 0.244767
0.338433 0.450598 0.247657
0.380016 0.453489 0.250547
0.421599 0.456379 0.253438
0.463182 0.459269 0.256328
0.504765 0.462159 0.259218
0.546348 0.465050 0.262108
0.587931 0.467940 0.264999
0.629514 0.470830 0.267889
0.671097 0.473720 0.270779
0.712680 0.476611 0.273669
0.754263 0.479501 0.276560
0.795846 0.482391 0.279450
0.837429 0.485281 0.282340
0.181933 0.487997 0.245928
0.223516 0.490887 0.248819
0.265099 0.493778 0.251709
0.306682 0.496668 0.254599
0.348265 0.499558 0.257489
0.389848 0.502448 0.260380
0.431431 0.505339 0.263270
0.473014 0.508229 0.266160
0.514597 0.511119 0.269050
0.556180 0.514009 0.271941
0.597763 0.516900 0.274831
0.639346 0.519790 0.277721
0.680929 0.522680 0.280611
0.722512 0.525570 0.283502
0.764095 0.528461 0.286392
0.805678 0.531351 0.289282
0.847261 0.534241 0.292172
0.191765 0.536957 0.255761
0.233348 0.539847 0.258651
0.274931 0.542737 0.261541
0.316514 0.545628 0.264431
0.358097 0.548518 0.267322
0.399680 0.551408 0.270212
0.441263 0.554298 0.273102
0.482846 0.557189 0.275992
0.524429 0.560079 0.278883
0.566012 0.562969 0.281773
0.607595 0.565859 0.284663
0.649178 0.568750 0.287553
0.690761 0.571640 0.290443
0.732344 0.574530 0.293334
0.773927 0.577420 0.296224
0.815510 0.580311 0.299114
0.857093 0.583201 0.302004
0.201598 0.585917 0.265593
0.243181 0.588807 0.268483
0.284764 0.591697 0.271373
0.326347 0.594587 0.274264
0.367930 0.597478 0.277154
0.409513 0.600368 0.280044
0.451096 0.603258 0.282934
0.492679 0.606148 0.285824
0.534262 0.609039 0.288715
0.575845 0.611929 0.291605
0.617428 0.614819 0.294495
0.659011 0.617709 0.297385
0.700593 0.620600 0.300276
0.742176 0.623490 0.303166
0.783759 0.626380 0.306056
0.825342 0.629270 0.308946
0.866925 0.632160 0.311837
0.211430 0.634876 0.275425
0.253013 0.637767 0.278315
0.294596 0.640657 0.281205
0.336179 0.643547 0.284096
0.377762 0.646437 0.286986
0.419345 0.649328 0.289876
0.460928 0.652218 0.292766
0.502511 0.655108 0.295657
0.544094 0.657998 0.298547
0.585677 0.660888 0.301437
0.627260 0.663779 0.304327
0.668843 0.666669 0.307218
0.710426 0.669559 0.310108
0.752009 0.672449 0.312998
0.793592 0.675340 0.315888
0.835175 0.678230 0.318779
0.876758 0.681120 0.321669
0.221262 0.683836 0.285257
0.262845 0.686726 0.288147
0.304428 0.689617 0.291038
0.346011 0.692507 0.293928
0.387594 0.695397 0.296818
0.429177 0.698287 0.299708
0.470760 0.701177 0.302599
0.512343 0.704068 0.305489
0.553926 0.706958 0.308379
0.595509 0.709848 0.311269
0.637092 0.712738 0.314160
0.678675 0.715629 0.317050
0.720258 0.718519 0.319940
0.761841 0.721409 0.322830
0.803424 0.724299 0.325721
0.845007 0.727190 0.328611
0.886590 0.730080 0.331501
0.231094 0.732796 0.295089
0.272677 0.735686 0.297980
0.314260 0.738576 0.300870
0.355843 0.741466 0.303760
0.397426 0.744357 0.306650
0.439009 0.747247 0.309541
0.480592 0.750137 0.312431
0.522175 0.753027 0.315321
0.563758 0.755918 0.318211
0.605341 0.758808 0.321102
0.646924 0.761698 0.323992
0.688507 0.764588 0.326882
0.730090 0.767479 0.329772
0.771673 0.770369 0.332663
0.813256 0.773259 0.335553
0.854839 0.776149 0.338443
0.896422 0.779040 0.341333
0.240926 0.781755 0.304922
0.282509 0.784646 0.307812
0.324092 0.787536 0.310702
0.365675 0.790426 0.313592
0.407258 0.793316 0.316483
0.448841 0.796207 0.319373
0.490424 0.799097 0.322263
0.532007 0.801987 0.325153
0.573590 0.804877 0.328044
0.615173 0.807768 0.330934
0.656756 0.810658 0.333824
0.698339 0.813548 0.336714
0.739922 0.816438 0.339605
0.781505 0.819329 0.342495
0.823088 0.822219 0.345385
0.864671 0.825109 0.348275
0.906254 0.827999 0.351166
0.250759 0.830715 0.314754
0.292342 0.833605 0.317644
0.333925 0.836496 0.320534
0.375508 0.839386 0.323425
0.417091 0.842276 0.326315
0.458674 0.845166 0.329205
0.500257 0.848057 0.332095
0.541840 0.850947 0.334986
0.583423 0.853837 0.337876
0.625006 0.856727 0.340766
0.666589 0.859618 0.343656
0.708172 0.862508 0.346547
0.749755 0.865398 0.349437
0.791338 0.868288 0.352327
0.832921 0.871179 0.355217
0.874504 0.874069 0.358107
0.916087 0.876959 0.360998
0.260591 0.879675 0.324586
0.302174 0.882565 0.327476
0.343757 0.885455 0.330367
0.385340 0.888346 0.333257
0.426923 0.891236 0.336147
0.468506 0.894126 0.339037
0.510089 0.897016 0.341927
0.551672 0.899907 0.344818
0.593255 0.902797 0.347708
0.634838 0.905687 0.350598
0.676421 0.908577 0.353488
0.718004 0.911468 0.356379
0.759587 0.914358 0.359269
0.801170 0.917248 0.362159
0.842753 0.920138 0.365049
0.884336 0.923029 0.367940
0.925919 0.925919 0.370830
0.104281 0.097325 0.207926
0.145864 0.100216 0.210816
0.187447 0.103106 0.213706
0.229030 0.105996 0.216596
0.270613 0.108886 0.219487
0.312196 0.111776 0.222377
0.353779 0.114667 0.225267
0.395362 0.117557 0.228157
0.436945 0.120447 0.231048
0.478528 0.123337 0.233938
0.520111 0.126228 0.236828
0.561694 0.129118 0.239718
0.603277 0.132008 0.242609
0.644860 0.134898 0.245499
0.686443 0.137789 0.248389
0.728026 0.140679 0.251279
0.769609 0.143569 0.254170
0.114113 0.146285 0.217758
0.155696 0.149175 0.220648
0.197279 0.152065 0.223538
