assets/presets/luts/matte-faded/lut.cube
TITLE "Matte Faded"
LUT_3D_SIZE 5
0.101264 0.094308 0.085961
0.267596 0.105869 0.097522
0.433928 0.117430 0.109083
0.600260 0.128991 0.120644
0.766592 0.140552 0.132205
0.140593 0.290147 0.125289
0.306925 0.301708 0.136850
0.473257 0.313269 0.148411
0.639589 0.324830 0.159972
0.805921 0.336391 0.171533
0.179922 0.485986 0.164618
0.346254 0.497547 0.176179
0.512586 0.509107 0.187740
0.678917 0.520668 0.199301
0.845249 0.532229 0.210862
0.219250 0.681824 0.203947
0.385582 0.693385 0.215508
0.551914 0.704946 0.227069
0.718246 0.716507 0.238630
0.884578 0.728068 0.250191
0.258579 0.877663 0.243276
0.424911 0.889224 0.254837
0.591243 0.900785 0.266398
0.757575 0.912346 0.277959
0.923907 0.923907 0.289520
0.105287 0.098331 0.248581
0.271619 0.109892 0.260142
0.437951 0.121453 0.271703
0.604283 0.133014 0.283264
0.770615 0.144575 0.294825
0.144616 0.294170 0.287910
0.310948 0.305731 0.299470
0.477280 0.317292 0.311031
0.643612 0.328853 0.322592
0.809944 0.340414 0.334153
0.183945 0.490009 0.327238
0.350277 0.501570 0.338799
0.516609 0.513131 0.350360
0.682941 0.524692 0.361921
0.849273 0.536253 0.373482
0.223274 0.685848 0.366567
0.389606 0.697409 0.378128
0.555938 0.708970 0.389689
0.722270 0.720531 0.401250
0.888601 0.732091 0.412811
0.262602 0.881686 0.405896
0.428934 0.893247 0.417457
0.595266 0.904808 0.429018
0.761598 0.916369 0.440579
0.927930 0.927930 0.452140
0.109310 0.102354 0.411201
0.275642 0.113915 0.422762
0.441974 0.125476 0.434323
0.608306 0.137037 0.445884
0.774638 0.148598 0.457445
0.148639 0.298193 0.450530
0.314971 0.309754 0.462090
0.481303 0.321315 0.473651
0.647635 0.332876 0.485212
0.813967 0.344437 0.496773
0.187968 0.494032 0.489858
0.354300 0.505593 0.501419
0.520632 0.517154 0.512980
0.686964 0.528715 0.524541
0.853296 0.540276 0.536102
0.227297 0.689871 0.529187
0.393629 0.701432 0.540748
0.559961 0.712993 0.552309
0.726293 0.724554 0.563870
0.892625 0.736115 0.575431
0.266626 0.885710 0.568516
0.432958 0.897271 0.580077
0.599290 0.908832 0.591638
0.765622 0.920393 0.603199
0.931954 0.931954 0.614760
0.113333 0.106377 0.573821
0.279665 0.117938 0.585382
0.445997 0.129499 0.596943
0.612329 0.141060 0.608504
0.778661 0.152621 0.620065
0.152662 0.302216 0.613150
0.318994 0.313777 0.624711
0.485326 0.325338 0.636271
0.651658 0.336899 0.647832
0.817990 0.348460 0.659393
0.191991 0.498055 0.652478
0.358323 0.509616 0.664039
0.524655 0.521177 0.675600
0.690987 0.532738 0.687161
0.857319 0.544299 0.698722
0.231320 0.693894 0.691807
0.397652 0.705455 0.703368
0.563984 0.717016 0.714929
0.730316 0.728577 0.726490
0.896648 0.740138 0.738051
0.270649 0.889733 0.731136
0.436981 0.901294 0.742697
0.603313 0.912855 0.754258
0.769645 0.924416 0.765819
0.935977 0.935977 0.777380
0.117357 0.110401 0.736441
0.283689 0.121962 0.748002
0.450021 0.133523 0.759563
0.616353 0.145084 0.771124
0.782685 0.156645 0.782685
0.156686 0.306240 0.775770
0.323018 0.317801 0.787331
0.489350 0.329361 0.798891
0.655681 0.340922 0.810452
0.822013 0.352483 0.822013
0.196014 0.502078 0.815098
0.362346 0.513639 0.826659
0.528678 0.525200 0.838220
0.695010 0.536761 0.849781
0.861342 0.548322 0.861342
0.235343 0.697917 0.854427
0.401675 0.709478 0.865988
0.568007 0.721039 0.877549
0.734339 0.732600 0.889110
0.900671 0.744161 0.900671
0.274672 0.893756 0.893756
0.441004 0.905317 0.905317
0.607336 0.916878 0.916878
0.773668 0.928439 0.928439
0.940000 0.940000 0.940000
