assets/presets/luts/mono-yellow/lut.cube
TITLE "Mono Yellow"
LUT_3D_SIZE 9
0.000000 0.000000 0.000000
0.013877 0.013877 0.013877
0.039865 0.039865 0.039865
0.075042 0.075042 0.075042
0.118433 0.118433 0.118433
0.169273 0.169273 0.169273
0.226727 0.226727 0.226727
0.289797 0.289797 0.289797
0.357297 0.357297 0.357297
0.019431 0.019431 0.019431
0.047844 0.047844 0.047844
0.085150 0.085150 0.085150
0.130475 0.130475 0.130475
0.183052 0.183052 0.183052
0.242011 0.242011 0.242011
0.306308 0.306308 0.306308
0.374708 0.374708 0.374708
0.445812 0.445812 0.445812
0.056376 0.056376 0.056376
0.095759 0.095759 0.095759
0.142971 0.142971 0.142971
0.197231 0.197231 0.197231
0.257630 0.257630 0.257630
0.323075 0.323075 0.323075
0.392289 0.392289 0.392289
0.463833 0.463833 0.463833
0.536167 0.536167 0.536167
0.106857 0.106857 0.106857
0.155908 0.155908 0.155908
0.211794 0.211794 0.211794
0.273565 0.273565 0.273565
0.340079 0.340079 0.340079
0.410015 0.410015 0.410015
0.481904 0.481904 0.481904
0.554188 0.554188 0.554188
0.625292 0.625292 0.625292
0.169273 0.169273 0.169273
0.226727 0.226727 0.226727
0.289797 0.289797 0.289797
0.357297 0.357297 0.357297
0.427864 0.427864 0.427864
0.500000 0.500000 0.500000
0.572136 0.572136 0.572136
0.642703 0.642703 0.642703
0.710203 0.710203 0.710203
0.242011 0.242011 0.242011
0.306308 0.306308 0.306308
0.374708 0.374708 0.374708
0.445812 0.445812 0.445812
0.518096 0.518096 0.518096
0.589985 0.589985 0.589985
0.659921 0.659921 0.659921
0.726435 0.726435 0.726435
0.788206 0.788206 0.788206
0.323075 0.323075 0.323075
0.392289 0.392289 0.392289
0.463833 0.463833 0.463833
0.536167 0.536167 0.536167
0.607711 0.607711 0.607711
0.676925 0.676925 0.676925
0.742370 0.742370 0.742370
0.802769 0.802769 0.802769
0.857029 0.857029 0.857029
0.410015 0.410015 0.410015
0.481904 0.481904 0.481904
0.554188 0.554188 0.554188
0.625292 0.625292 0.625292
0.693692 0.693692 0.693692
0.757989 0.757989 0.757989
0.816948 0.816948 0.816948
0.869525 0.869525 0.869525
0.914850 0.914850 0.914850
0.500000 0.500000 0.500000
0.572136 0.572136 0.572136
0.642703 0.642703 0.642703
0.710203 0.710203 0.710203
0.773273 0.773273 0.773273
0.830727 0.830727 0.830727
0.881567 0.881567 0.881567
0.924958 0.924958 0.924958
0.960135 0.960135 0.960135
0.001784 0.001784 0.001784
0.019431 0.019431 0.019431
0.047844 0.047844 0.047844
0.085150 0.085150 0.085150
0.130475 0.130475 0.130475
0.183052 0.183052 0.183052
0.242011 0.242011 0.242011
0.306308 0.306308 0.306308
0.374708 0.374708 0.374708
0.025635 0.025635 0.025635
0.056376 0.056376 0.056376
0.095759 0.095759 0.095759
0.142971 0.142971 0.142971
0.197231 0.197231 0.197231
0.257630 0.257630 0.257630
0.323075 0.323075 0.323075
0.392289 0.392289 0.392289
0.463833 0.463833 0.463833
0.065447 0.065447 0.065447
0.106857 0.106857 0.106857
0.155908 0.155908 0.155908
0.211794 0.211794 0.211794
0.273565 0.273565 0.273565
0.340079 0.340079 0.340079
0.410015 0.410015 0.410015
0.481904 0.481904 0.481904
0.554188 0.554188 0.554188
0.118433 0.118433 0.118433
0.169273 0.169273 0.169273
0.226727 0.226727 0.226727
0.289797 0.289797 0.289797
0.357297 0.357297 0.357297
0.427864 0.427864 0.427864
0.500000 0.500000 0.500000
0.572136 0.572136 0.572136
0.642703 0.642703 0.642703
0.183052 0.183052 0.183052
0.242011 0.242011 0.242011
0.306308 0.306308 0.306308
0.374708 0.374708 0.374708
0.445812 0.445812 0.445812
0.518096 0.518096 0.518096
0.589985 0.589985 0.589985
0.659921 0.659921 0.659921
0.726435 0.726435 0.726435
0.257630 0.257630 0.257630
0.323075 0.323075 0.323075
0.392289 0.392289 0.392289
0.463833 0.463833 0.463833
0.536167 0.536167 0.536167
0.607711 0.607711 0.607711
0.676925 0.676925 0.676925
0.742370 0.742370 0.742370
0.802769 0.802769 0.802769
0.340079 0.340079 0.340079
0.410015 0.410015 0.410015
0.481904 0.481904 0.481904
0.554188 0.554188 0.554188
0.625292 0.625292 0.625292
0.693692 0.693692 0.693692
0.757989 0.757989 0.757989
0.816948 0.816948 0.816948
0.869525 0.869525 0.869525
0.427864 0.427864 0.427864
0.500000 0.500000 0.500000
0.572136 0.572136 0.572136
0.642703 0.642703 0.642703
0.710203 0.710203 0.710203
0.773273 0.773273 0.773273
0.830727 0.830727 0.830727
0.881567 0.881567 0.881567
0.924958 0.924958 0.924958
0.518096 0.518096 0.518096
0.589985 0.589985 0.589985
0.659921 0.659921 0.659921
0.726435 0.726435 0.726435
0.788206 0.788206 0.788206
0.844092 0.844092 0.844092
0.893143 0.893143 0.893143
0.934553 0.934553 0.934553
0.967545 0.967545 0.967545
0.004943 0.004943 0.004943
0.025635 0.025635 0.025635
0.056376 0.056376 0.056376
0.095759 0.095759 0.095759
0.142971 0.142971 0.142971
0.197231 0.197231 0.197231
0.257630 0.257630 0.257630
0.323075 0.323075 0.323075
0.392289 0.392289 0.392289
0.032455 0.032455 0.032455
0.065447 0.065447 0.065447
0.106857 0.106857 0.106857
0.155908 0.155908 0.155908
0.211794 0.211794 0.211794
0.273565 0.273565 0.273565
0.340079 0.340079 0.340079
0.410015 0.410015 0.410015
0.481904 0.481904 0.481904
0.075042 0.075042 0.075042
0.118433 0.118433 0.118433
0.169273 0.169273 0.169273
0.226727 0.226727 0.226727
0.289797 0.289797 0.289797
0.357297 0.357297 0.357297
0.427864 0.427864 0.427864
0.500000 0.500000 0.500000
0.572136 0.572136 0.572136
0.130475 0.130475 0.130475
0.183052 0.183052 0.183052
0.242011 0.242011 0.242011
0.306308 0.306308 0.306308
0.374708 0.374708 0.374708
0.445812 0.445812 0.445812
0.518096 0.518096 0.518096
0.589985 0.589985 0.589985
0.659921 0.659921 0.659921
0.197231 0.197231 0.197231
0.257630 0.257630 0.257630
0.323075 0.323075 0.323075
0.392289 0.392289 0.392289
0.463833 0.463833 0.463833
0.536167 0.536167 0.536167
0.607711 0.607711 0.607711
0.676925 0.676925 0.676925
0.742370 0.742370 0.742370
0.273565 0.273565 0.273565
0.340079 0.340079 0.340079
0.410015 0.410015 0.410015
0.481904 0.481904 0.481904
0.554188 0.554188 0.554188
0.625292 0.625292 0.625292
0.693692 0.693692 0.693692
0.757989 0.757989 0.757989
0.816948 0.816948 0.816948
0.357297 0.357297 0.357297
0.427864 0.427864 0.427864
0.500000 0.500000 0.500000
0.572136 0.572136 0.572136
0.642703 0.642703 0.642703
0.710203 0.710203 0.710203
0.773273 0.773273 0.773273
0.830727 0.830727 0.830727
0.881567 0.881567 0.881567
0.445812 0.445812 0.445812
0.518096 0.518096 0.518096
0.589985 0.589985 0.589985
0.659921 0.659921 0.659921
0.726435 0.726435 0.726435
0.788206 0.788206 0.788206
0.844092 0.844092 0.844092
0.893143 0.893143 0.893143
0.934553 0.934553 0.934553
0.536167 0.536167 0.536167
0.607711 0.607711 0.607711
0.676925 0.676925 0.676925
0.742370 0.742370 0.742370
0.802769 0.802769 0.802769
0.857029 0.857029 0.857029
0.904241 0.904241 0.904241
0.943624 0.943624 0.943624
0.974365 0.974365 0.974365
0.009022 0.009022 0.009022
0.032455 0.032455 0.032455
0.065447 0.065447 0.065447
0.106857 0.106857 0.106857
0.155908 0.155908 0.155908
0.211794 0.211794 0.211794
0.273565 0.273565 0.273565
0.340079 0.340079 0.340079
0.410015 0.410015 0.410015
0.039865 0.039865 0.039865
0.075042 0.075042 0.075042
0.118433 0.118433 0.118433
0.169273 0.169273 0.169273
0.226727 0.226727 0.226727
0.289797 0.289797 0.289797
0.357297 0.357297 0.357297
0.427864 0.427864 0.427864
0.500000 0.500000 0.500000
0.085150 0.085150 0.085150
0.130475 0.130475 0.130475
0.183052 0.183052 0.183052
0.242011 0.242011 0.242011
0.306308 0.306308 0.306308
0.374708 0.374708 0.374708
0.445812 0.445812 0.445812
0.518096 0.518096 0.518096
0.589985 0.589985 0.589985
0.142971 0.142971 0.142971
0.197231 0.197231 0.197231
0.257630 0.257630 0.257630
0.323075 0.323075 0.323075
0.392289 0.392289 0.392289
0.463833 0.463833 0.463833
0.536167 0.536167 0.536167
0.607711 0.607711 0.607711
0.676925 0.676925 0.676925
0.211794 0.211794 0.211794
0.273565 0.273565 0.273565
0.340079 0.340079 0.340079
0.410015 0.410015 0.410015
0.481904 0.481904 0.481904
0.554188 0.554188 0.554188
0.625292 0.625292 0.625292
0.693692 0.693692 0.693692
0.757989 0.757989 0.757989
0.289797 0.289797 0.289797
0.357297 0.357297 0.357297
0.427864 0.427864 0.427864
0.500000 0.500000 0.500000
0.572136 0.572136 0.572136
0.642703 0.642703 0.642703
0.710203 0.710203 0.710203
0.773273 0.773273 0.773273
0.830727 0.830727 0.830727
0.374708 0.374708 0.374708
0.445812 0.445812 0.445812
0.518096 0.518096 0.518096
0.589985 0.589985 0.589985
0.659921 0.659921 0.659921
0.726435 0.726435 0.726435
0.788206 0.788206 0.788206
0.844092 0.844092 0.844092
0.893143 0.893143 0.893143
0.463833 0.463833 0.463833
0.536167 0.536167 0.536167
0.607711 0.607711 0.607711
0.676925 0.676925 0.676925
0.742370 0.742370 0.742370
0.802769 0.802769 0.802769
0.857029 0.857029 0.857029
0.904241 0.904241 0.904241
0.943624 0.943624 0.943624
0.554188 0.554188 0.554188
0.625292 0.625292 0.625292
0.693692 0.693692 0.693692
0.757989 0.757989 0.757989
0.816948 0.816948 0.816948
0.869525 0.869525 0.869525
0.914850 0.914850 0.914850
0.952156 0.952156 0.952156
0.980569 0.980569 0.980569
0.013877 0.013877 0.013877
0.039865 0.039865 0.039865
0.075042 0.075042 0.075042
0.118433 0.118433 0.118433
0.169273 0.169273 0.169273
0.226727 0.226727 0.226727
0.289797 0.289797 0.289797
0.357297 0.357297 0.357297
0.427864 0.427864 0.427864
0.047844 0.047844 0.047844
0.085150 0.085150 0.085150
0.130475 0.130475 0.130475
0.183052 0.183052 0.183052
0.242011 0.242011 0.242011
0.306308 0.306308 0.306308
0.374708 0.374708 0.374708
0.445812 0.445812 0.445812
0.518096 0.518096 0.518096
0.095759 0.095759 0.095759
0.142971 0.142971 0.142971
0.197231 0.197231 0.197231
0.257630 0.257630 0.257630
0.323075 0.323075 0.323075
0.392289 0.392289 0.392289
0.463833 0.463833 0.463833
0.536167 0.536167 0.536167
0.607711 0.607711 0.607711
0.155908 0.155908 0.155908
0.211794 0.211794 0.211794
0.273565 0.273565 0.273565
0.340079 0.340079 0.340079
0.410015 0.410015 0.410015
0.481904 0.481904 0.481904
0.554188 0.554188 0.554188
0.625292 0.625292 0.625292
0.693692 0.693692 0.693692
0.226727 0.226727 0.226727
0.289797 0.289797 0.289797
0.357297 0.357297 0.357297
0.427864 0.427864 0.427864
0.500000 0.500000 0.500000
0.572136 0.572136 0.572136
0.642703 0.642703 0.642703
0.710203 0.710203 0.710203
0.773273 0.773273 0.773273
0.306308 0.306308 0.306308
0.374708 0.374708 0.374708
0.445812 0.445812 0.445812
0.518096 0.518096 0.518096
0.589985 0.589985 0.589985
0.659921 0.659921 0.659921
0.726435 0.726435 0.726435
0.788206 0.788206 0.788206
0.844092 0.844092 0.844092
0.392289 0.392289 0.392289
0.463833 0.463833 0.463833
0.536167 0.536167 0.536167
0.607711 0.607711 0.607711
0.676925 0.676925 0.676925
0.742370 0.742370 0.742370
0.802769 0.802769 0.802769
0.857029 0.857029 0.857029
0.904241 0.904241 0.904241
0.481904 0.481904 0.481904
0.554188 0.554188 0.554188
0.625292 0.625292 0.625292
0.693692 0.693692 0.693692
0.757989 0.757989 0.757989
0.816948 0.816948 0.816948
0.869525 0.869525 0.869525
0.914850 0.914850 0.914850
0.952156 0.952156 0.952156
0.572136 0.572136 0.572136
0.642703 0.642703 0.642703
0.710203 0.710203 0.710203
0.773273 0.773273 0.773273
0.830727 0.830727 0.830727
0.881567 0.881567 0.881567
0.924958 0.924958 0.924958
0.960135 0.960135 0.960135
0.986123 0.986123 0.986123
0.019431 0.019431 0.019431
0.047844 0.047844 0.047844
0.085150 0.085150 0.085150
0.130475 0.130475 0.130475
0.183052 0.183052 0.183052
0.242011 0.242011 0.242011
0.306308 0.306308 0.306308
0.374708 0.374708 0.374708
0.445812 0.445812 0.445812
0.056376 0.056376 0.056376
0.095759 0.095759 0.095759
0.142971 0.142971 0.142971
0.197231 0.197231 0.197231
0.257630 0.257630 0.257630
0.323075 0.323075 0.323075
0.392289 0.392289 0.392289
0.463833 0.463833 0.463833
0.536167 0.536167 0.536167
0.106857 0.106857 0.106857
0.155908 0.155908 0.155908
0.211794 0.211794 0.211794
0.273565 0.273565 0.273565
0.340079 0.340079 0.340079
0.410015 0.410015 0.410015
0.481904 0.481904 0.481904
0.554188 0.554188 0.554188
0.625292 0.625292 0.625292
0.169273 0.169273 0.169273
0.226727 0.226727 0.226727
0.289797 0.289797 0.289797
0.357297 0.357297 0.357297
0.427864 0.427864 0.427864
0.500000 0.500000 0.500000
0.572136 0.572136 0.572136
0.642703 0.642703 0.642703
0.710203 0.710203 0.710203
0.242011 0.242011 0.242011
0.306308 0.306308 0.306308
0.374708 0.374708 0.374708
0.445812 0.445812 0.445812
0.518096 0.518096 0.518096
0.589985 0.589985 0.589985
0.659921 0.659921 0.659921
0.726435 0.726435 0.726435
0.788206 0.788206 0.788206
0.323075 0.323075 0.323075
0.392289 0.392289 0.392289
0.463833 0.463833 0.463833
0.536167 0.536167 0.536167
0.607711 0.607711 0.607711
0.676925 0.676925 0.676925
0.742370 0.742370 0.742370
0.802769 0.802769 0.802769
0.857029 0.857029 0.857029
0.410015 0.410015 0.410015
0.481904 0.481904 0.481904
0.554188 0.554188 0.554188
0.625292 0.625292 0.625292
0.693692 0.693692 0.693692
0.757989 0.757989 0.757989
0.816948 0.816948 0.816948
0.869525 0.869525 0.869525
0.914850 0.914850 0.914850
0.500000 0.500000 0.500000
0.572136 0.572136 0.572136
0.642703 0.642703 0.642703
0.710203 0.710203 0.710203
0.773273 0.773273 0.773273
0.830727 0.830727 0.830727
0.881567 0.881567 0.881567
0.924958 0.924958 0.924958
0.960135 0.960135 0.960135
0.589985 0.589985 0.589985
0.659921 0.659921 0.659921
0.726435 0.726435 0.726435
0.788206 0.788206 0.788206
0.844092 0.844092 0.844092
0.893143 0.893143 0.893143
0.934553 0.934553 0.934553
0.967545 0.967545 0.967545
0.990978 0.990978 0.990978
0.025635 0.025635 0.025635
0.056376 0.056376 0.056376
0.095759 0.095759 0.095759
0.142971 0.142971 0.142971
0.197231 0.197231 0.197231
0.257630 0.257630 0.257630
0.323075 0.323075 0.323075
0.392289 0.392289 0.392289
0.463833 0.463833 0.463833
0.065447 0.065447 0.065447
0.106857 0.106857 0.106857
0.155908 0.155908 0.155908
0.211794 0.211794 0.211794
0.273565 0.273565 0.273565
0.340079 0.340079 0.340079
0.410015 0.410015 0.410015
0.481904 0.481904 0.481904
0.554188 0.554188 0.554188
0.118433 0.118433 0.118433
0.169273 0.169273 0.169273
0.226727 0.226727 0.226727
0.289797 0.289797 0.289797
0.357297 0.357297 0.357297
0.427864 0.427864 0.427864
0.500000 0.500000 0.500000
0.572136 0.572136 0.572136
0.642703 0.642703 0.642703
0.183052 0.183052 0.183052
0.242011 0.242011 0.242011
0.306308 0.306308 0.306308
0.374708 0.374708 0.374708
0.445812 0.445812 0.445812
0.518096 0.518096 0.518096
0.589985 0.589985 0.589985
0.659921 0.659921 0.659921
0.726435 0.726435 0.726435
0.257630 0.257630 0.257630
0.323075 0.323075 0.323075
0.392289 0.392289 0.392289
0.463833 0.463833 0.463833
0.536167 0.536167 0.536167
0.607711 0.607711 0.607711
0.676925 0.676925 0.676925
0.742370 0.742370 0.742370
0.802769 0.802769 0.802769
0.340079 0.340079 0.340079
0.410015 0.410015 0.410015
0.481904 0.481904 0.481904
0.554188 0.554188 0.554188
0.625292 0.625292 0.625292
0.693692 0.693692 0.693692
0.757989 0.757989 0.757989
0.816948 0.816948 0.816948
0.869525 0.869525 0.869525
0.427864 0.427864 0.427864
0.500000 0.500000 0.500000
0.572136 0.572136 0.572136
0.642703 0.642703 0.642703
0.710203 0.710203 0.710203
0.773273 0.773273 0.773273
0.830727 0.830727 0.830727
0.881567 0.881567 0.881567
0.924958 0.924958 0.924958
0.518096 0.518096 0.518096
0.589985 0.589985 0.589985
0.659921 0.659921 0.659921
0.726435 0.726435 0.726435
0.788206 0.788206 0.788206
0.844092 0.844092 0.844092
0.893143 0.893143 0.893143
0.934553 0.934553 0.934553
0.967545 0.967545 0.967545
0.607711 0.607711 0.607711
0.676925 0.676925 0.676925
0.742370 0.742370 0.742370
0.802769 0.802769 0.802769
0.857029 0.857029 0.857029
0.904241 0.904241 0.904241
0.943624 0.943624 0.943624
0.974365 0.974365 0.974365
0.995057 0.995057 0.995057
0.032455 0.032455 0.032455
0.065447 0.065447 0.065447
0.106857 0.106857 0.106857
0.155908 0.155908 0.155908
0.211794 0.211794 0.211794
0.273565 0.273565 0.273565
0.340079 0.340079 0.340079
0.410015 0.410015 0.410015
0.481904 0.481904 0.481904
0.075042 0.075042 0.075042
0.118433 0.118433 0.118433
0.169273 0.169273 0.169273
0.226727 0.226727 0.226727
0.289797 0.289797 0.289797
0.357297 0.357297 0.357297
0.427864 0.427864 0.427864
0.500000 0.500000 0.500000
0.572136 0.572136 0.572136
0.130475 0.130475 0.130475
0.183052 0.183052 0.183052
0.242011 0.242011 0.242011
0.306308 0.306308 0.306308
0.374708 0.374708 0.374708
0.445812 0.445812 0.445812
0.518096 0.518096 0.518096
0.589985 0.589985 0.589985
0.659921 0.659921 0.659921
0.197231 0.197231 0.197231
0.257630 0.257630 0.257630
0.323075 0.323075 0.323075
0.392289 0.392289 0.392289
0.463833 0.463833 0.463833
0.536167 0.536167 0.536167
0.607711 0.607711 0.607711
0.676925 0.676925 0.676925
0.742370 0.742370 0.742370
0.273565 0.273565 0.273565
0.340079 0.340079 0.340079
0.410015 0.410015 0.410015
0.481904 0.481904 0.481904
0.554188 0.554188 0.554188
0.625292 0.625292 0.625292
0.693692 0.693692 0.693692
0.757989 0.757989 0.757989
0.816948 0.816948 0.816948
0.357297 0.357297 0.357297
0.427864 0.427864 0.427864
0.500000 0.500000 0.500000
0.572136 0.572136 0.572136
0.642703 0.642703 0.642703
0.710203 0.710203 0.710203
0.773273 0.773273 0.773273
0.830727 0.830727 0.830727
0.881567 0.881567 0.881567
0.445812 0.445812 0.445812
0.518096 0.518096 0.518096
0.589985 0.589985 0.589985
0.659921 0.659921 0.659921
0.726435 0.726435 0.726435
0.788206 0.788206 0.788206
0.844092 0.844092 0.844092
0.893143 0.893143 0.893143
0.934553 0.934553 0.934553
0.536167 0.536167 0.536167
0.607711 0.607711 0.607711
0.676925 0.676925 0.676925
0.742370 0.742370 0.742370
0.802769 0.802769 0.802769
0.857029 0.857029 0.857029
0.904241 0.904241 0.904241
0.943624 0.943624 0.943624
0.974365 0.974365 0.974365
0.625292 0.625292 0.625292
0.693692 0.693692 0.693692
0.757989 0.757989 0.757989
0.816948 0.816948 0.816948
0.869525 0.869525 0.869525
0.914850 0.914850 0.914850
0.952156 0.952156 0.952156
0.980569 0.980569 0.980569
0.998216 0.998216 0.998216
0.039865 0.039865 0.039865
0.075042 0.075042 0.075042
0.118433 0.118433 0.118433
0.169273 0.169273 0.169273
0.226727 0.226727 0.226727
0.289797 0.289797 0.289797
0.357297 0.357297 0.357297
0.427864 0.427864 0.427864
0.500000 0.500000 0.500000
0.085150 0.085150 0.085150
0.130475 0.130475 0.130475
0.183052 0.183052 0.183052
0.242011 0.242011 0.242011
0.306308 0.306308 0.306308
0.374708 0.374708 0.374708
0.445812 0.445812 0.445812
0.518096 0.518096 0.518096
0.589985 0.589985 0.589985
0.142971 0.142971 0.142971
0.197231 0.197231 0.197231
0.257630 0.257630 0.257630
0.323075 0.323075 0.323075
0.392289 0.392289 0.392289
0.463833 0.463833 0.463833
0.536167 0.536167 0.536167
0.607711 0.607711 0.607711
0.676925 0.676925 0.676925
0.211794 0.211794 0.211794
0.273565 0.273565 0.273565
0.340079 0.340079 0.340079
0.410015 0.410015 0.410015
0.481904 0.481904 0.481904
0.554188 0.554188 0.554188
0.625292 0.625292 0.625292
0.693692 0.693692 0.693692
0.757989 0.757989 0.757989
0.289797 0.289797 0.289797
0.357297 0.357297 0.357297
0.427864 0.427864 0.427864
0.500000 0.500000 0.500000
0.572136 0.572136 0.572136
0.642703 0.642703 0.642703
0.710203 0.710203 0.710203
0.773273 0.773273 0.773273
0.830727 0.830727 0.830727
0.374708 0.374708 0.374708
0.445812 0.445812 0.445812
0.518096 0.518096 0.518096
0.589985 0.589985 0.589985
0.659921 0.659921 0.659921
0.726435 0.726435 0.726435
0.788206 0.788206 0.788206
0.844092 0.844092 0.844092
0.893143 0.893143 0.893143
0.463833 0.463833 0.463833
0.536167 0.536167 0.536167
0.607711 0.607711 0.607711
0.676925 0.676925 0.676925
0.742370 0.742370 0.742370
0.802769 0.802769 0.802769
0.857029 0.857029 0.857029
0.904241 0.904241 0.904241
0.943624 0.943624 0.943624
0.554188 0.554188 0.554188
0.625292 0.625292 0.625292
0.693692 0.693692 0.693692
0.757989 0.757989 0.757989
0.816948 0.816948 0.816948
0.869525 0.869525 0.869525
0.914850 0.914850 0.914850
0.952156 0.952156 0.952156
0.980569 0.980569 0.980569
0.642703 0.642703 0.642703
0.710203 0.710203 0.710203
0.773273 0.773273 0.773273
0.830727 0.830727 0.830727
0.881567 0.881567 0.881567
0.924958 0.924958 0.924958
0.960135 0.960135 0.960135
0.986123 0.986123 0.986123
1.000000 1.000000 1.000000
