assets/presets/luts/mono-yellow/lut.cube
TITLE "Mono Yellow"
LUT_3D_SIZE 5
0.000000 0.000000 0.000000
0.039865 0.039865 0.039865
0.118433 0.118433 0.118433
0.226727 0.226727 0.226727
0.357297 0.357297 0.357297
0.056376 0.056376 0.056376
0.142971 0.142971 0.142971
0.257630 0.257630 0.257630
0.392289 0.392289 0.392289
0.536167 0.536167 0.536167
0.169273 0.169273 0.169273
0.289797 0.289797 0.289797
0.427864 0.427864 0.427864
0.572136 0.572136 0.572136
0.710203 0.710203 0.710203
0.323075 0.323075 0.323075
0.463833 0.463833 0.463833
0.607711 0.607711 0.607711
0.742370 0.742370 0.742370
0.857029 0.857029 0.857029
0.500000 0.500000 0.500000
0.642703 0.642703 0.642703
0.773273 0.773273 0.773273
0.881567 0.881567 0.881567
0.960135 0.960135 0.960135
0.004943 0.004943 0.004943
0.056376 0.056376 0.056376
0.142971 0.142971 0.142971
0.257630 0.257630 0.257630
0.392289 0.392289 0.392289
0.075042 0.075042 0.075042
0.169273 0.169273 0.169273
0.289797 0.289797 0.289797
0.427864 0.427864 0.427864
0.572136 0.572136 0.572136
0.197231 0.197231 0.197231
0.323075 0.323075 0.323075
0.463833 0.463833 0.463833
0.607711 0.607711 0.607711
0.742370 0.742370 0.742370
0.357297 0.357297 0.357297
0.500000 0.500000 0.500000
0.642703 0.642703 0.642703
0.773273 0.773273 0.773273
0.881567 0.881567 0.881567
0.536167 0.536167 0.536167
0.676925 0.676925 0.676925
0.802769 0.802769 0.802769
0.904241 0.904241 0.904241
0.974365 0.974365 0.974365
0.013877 0.013877 0.013877
0.075042 0.075042 0.075042
0.169273 0.169273 0.169273
0.289797 0.289797 0.289797
0.427864 0.427864 0.427864
0.095759 0.095759 0.095759
0.197231 0.197231 0.197231
0.323075 0.323075 0.323075
0.463833 0.463833 0.463833
0.607711 0.607711 0.607711
0.226727 0.226727 0.226727
0.357297 0.357297 0.357297
0.500000 0.500000 0.500000
0.642703 0.642703 0.642703
0.773273 0.773273 0.773273
0.392289 0.392289 0.392289
0.536167 0.536167 0.536167
0.676925 0.676925 0.676925
0.802769 0.802769 0.802769
0.904241 0.904241 0.904241
0.572136 0.572136 0.572136
0.710203 0.710203 0.710203
0.830727 0.830727 0.830727
0.924958 0.924958 0.924958
0.986123 0.986123 0.986123
0.025635 0.025635 0.025635
0.095759 0.095759 0.095759
0.197231 0.197231 0.197231
0.323075 0.323075 0.323075
0.463833 0.463833 0.463833
0.118433 0.118433 0.118433
0.226727 0.226727 0.226727
0.357297 0.357297 0.357297
0.500000 0.500000 0.500000
0.642703 0.642703 0.642703
0.257630 0.257630 0.257630
0.392289 0.392289 0.392289
0.536167 0.536167 0.536167
0.676925 0.676925 0.676925
0.802769 0.802769 0.802769
0.427864 0.427864 0.427864
0.572136 0.572136 0.572136
0.710203 0.710203 0.710203
0.830727 0.830727 0.830727
0.924958 0.924958 0.924958
0.607711 0.607711 0.607711
0.742370 0.742370 0.742370
0.857029 0.857029 0.857029
0.943624 0.943624 0.943624
0.995057 0.995057 0.995057
0.039865 0.039865 0.039865
0.118433 0.118433 0.118433
0.226727 0.226727 0.226727
0.357297 0.357297 0.357297
0.500000 0.500000 0.500000
0.142971 0.142971 0.142971
0.257630 0.257630 0.257630
0.392289 0.392289 0.392289
0.536167 0.536167 0.536167
0.676925 0.676925 0.676925
0.289797 0.289797 0.289797
0.427864 0.427864 0.427864
0.572136 0.572136 0.572136
0.710203 0.710203 0.710203
0.830727 0.830727 0.830727
0.463833 0.463833 0.463833
0.607711 0.607711 0.607711
0.742370 0.742370 0.742370
0.857029 0.857029 0.857029
0.943624 0.943624 0.943624
0.642703 0.642703 0.642703
0.773273 0.773273 0.773273
0.881567 0.881567 0.881567
0.960135 0.960135 0.960135
1.000000 1.000000 1.000000
