assets/presets/luts/mono-yellow/lut.cube
TITLE "Mono Yellow"
LUT_3D_SIZE 17
0.000000 0.000000 0.000000
0.004943 0.004943 0.004943
0.013877 0.013877 0.013877
0.025635 0.025635 0.025635
0.039865 0.039865 0.039865
0.056376 0.056376 0.056376
0.075042 0.075042 0.075042
0.095759 0.095759 0.095759
0.118433 0.118433 0.118433
0.142971 0.142971 0.142971
0.169273 0.169273 0.169273
0.197231 0.197231 0.197231
0.226727 0.226727 0.226727
0.257630 0.257630 0.257630
0.289797 0.289797 0.289797
0.323075 0.323075 0.323075
0.357297 0.357297 0.357297
0.006879 0.006879 0.006879
0.016570 0.016570 0.016570
0.028970 0.028970 0.028970
0.043784 0.043784 0.043784
0.060845 0.060845 0.060845
0.080032 0.080032 0.080032
0.101247 0.101247 0.101247
0.124396 0.124396 0.124396
0.149385 0.149385 0.149385
0.176111 0.176111 0.176111
0.204466 0.204466 0.204466
0.234326 0.234326 0.234326
0.265559 0.265559 0.265559
0.298019 0.298019 0.298019
0.331549 0.331549 0.331549
0.365980 0.365980 0.365980
0.401135 0.401135 0.401135
0.019431 0.019431 0.019431
0.032455 0.032455 0.032455
0.047844 0.047844 0.047844
0.065447 0.065447 0.065447
0.085150 0.085150 0.085150
0.106857 0.106857 0.106857
0.130475 0.130475 0.130475
0.155908 0.155908 0.155908
0.183052 0.183052 0.183052
0.211794 0.211794 0.211794
0.242011 0.242011 0.242011
0.273565 0.273565 0.273565
0.306308 0.306308 0.306308
0.340079 0.340079 0.340079
0.374708 0.374708 0.374708
0.410015 0.410015 0.410015
0.445812 0.445812 0.445812
0.036088 0.036088 0.036088
0.052042 0.052042 0.052042
0.070179 0.070179 0.070179
0.090392 0.090392 0.090392
0.112586 0.112586 0.112586
0.136667 0.136667 0.136667
0.162538 0.162538 0.162538
0.190092 0.190092 0.190092
0.219216 0.219216 0.219216
0.249780 0.249780 0.249780
0.281645 0.281645 0.281645
0.314660 0.314660 0.314660
0.348663 0.348663 0.348663
0.383479 0.383479 0.383479
0.418926 0.418926 0.418926
0.454815 0.454815 0.454815
0.490951 0.490951 0.490951
0.056376 0.056376 0.056376
0.075042 0.075042 0.075042
0.095759 0.095759 0.095759
0.118433 0.118433 0.118433
0.142971 0.142971 0.142971
0.169273 0.169273 0.169273
0.197231 0.197231 0.197231
0.226727 0.226727 0.226727
0.257630 0.257630 0.257630
0.289797 0.289797 0.289797
0.323075 0.323075 0.323075
0.357297 0.357297 0.357297
0.392289 0.392289 0.392289
0.427864 0.427864 0.427864
0.463833 0.463833 0.463833
0.500000 0.500000 0.500000
0.536167 0.536167 0.536167
0.080032 0.080032 0.080032
0.101247 0.101247 0.101247
0.124396 0.124396 0.124396
0.149385 0.149385 0.149385
0.176111 0.176111 0.176111
0.204466 0.204466 0.204466
0.234326 0.234326 0.234326
0.265559 0.265559 0.265559
0.298019 0.298019 0.298019
0.331549 0.331549 0.331549
0.365980 0.365980 0.365980
0.401135 0.401135 0.401135
0.436827 0.436827 0.436827
0.472864 0.472864 0.472864
0.509049 0.509049 0.509049
0.545185 0.545185 0.545185
0.581074 0.581074 0.581074
0.106857 0.106857 0.106857
0.130475 0.130475 0.130475
0.155908 0.155908 0.155908
0.183052 0.183052 0.183052
0.211794 0.211794 0.211794
0.242011 0.242011 0.242011
0.273565 0.273565 0.273565
0.306308 0.306308 0.306308
0.340079 0.340079 0.340079
0.374708 0.374708 0.374708
0.410015 0.410015 0.410015
0.445812 0.445812 0.445812
0.481904 0.481904 0.481904
0.518096 0.518096 0.518096
0.554188 0.554188 0.554188
0.589985 0.589985 0.589985
0.625292 0.625292 0.625292
0.136667 0.136667 0.136667
0.162538 0.162538 0.162538
0.190092 0.190092 0.190092
0.219216 0.219216 0.219216
0.249780 0.249780 0.249780
0.281645 0.281645 0.281645
0.314660 0.314660 0.314660
0.348663 0.348663 0.348663
0.383479 0.383479 0.383479
0.418926 0.418926 0.418926
0.454815 0.454815 0.454815
0.490951 0.490951 0.490951
0.527136 0.527136 0.527136
0.563173 0.563173 0.563173
0.598865 0.598865 0.598865
0.634020 0.634020 0.634020
0.668451 0.668451 0.668451
0.169273 0.169273 0.169273
0.197231 0.197231 0.197231
0.226727 0.226727 0.226727
0.257630 0.257630 0.257630
0.289797 0.289797 0.289797
0.323075 0.323075 0.323075
0.357297 0.357297 0.357297
0.392289 0.392289 0.392289
0.427864 0.427864 0.427864
0.463833 0.463833 0.463833
0.500000 0.500000 0.500000
0.536167 0.536167 0.536167
0.572136 0.572136 0.572136
0.607711 0.607711 0.607711
0.642703 0.642703 0.642703
0.676925 0.676925 0.676925
0.710203 0.710203 0.710203
0.204466 0.204466 0.204466
0.234326 0.234326 0.234326
0.265559 0.265559 0.265559
0.298019 0.298019 0.298019
0.331549 0.331549 0.331549
0.365980 0.365980 0.365980
0.401135 0.401135 0.401135
0.436827 0.436827 0.436827
0.472864 0.472864 0.472864
0.509049 0.509049 0.509049
0.545185 0.545185 0.545185
0.581074 0.581074 0.581074
0.616521 0.616521 0.616521
0.651337 0.651337 0.651337
0.685340 0.685340 0.685340
0.718355 0.718355 0.718355
0.750220 0.750220 0.750220
0.242011 0.242011 0.242011
0.273565 0.273565 0.273565
0.306308 0.306308 0.306308
0.340079 0.340079 0.340079
0.374708 0.374708 0.374708
0.410015 0.410015 0.410015
0.445812 0.445812 0.445812
0.481904 0.481904 0.481904
0.518096 0.518096 0.518096
0.554188 0.554188 0.554188
0.589985 0.589985 0.589985
0.625292 0.625292 0.625292
0.659921 0.659921 0.659921
0.693692 0.693692 0.693692
0.726435 0.726435 0.726435
0.757989 0.757989 0.757989
0.788206 0.788206 0.788206
0.281645 0.281645 0.281645
0.314660 0.314660 0.314660
0.348663 0.348663 0.348663
0.383479 0.383479 0.383479
0.418926 0.418926 0.418926
0.454815 0.454815 0.454815
0.490951 0.490951 0.490951
0.527136 0.527136 0.527136
0.563173 0.563173 0.563173
0.598865 0.598865 0.598865
0.634020 0.634020 0.634020
0.668451 0.668451 0.668451
0.701981 0.701981 0.701981
0.734441 0.734441 0.734441
0.765674 0.765674 0.765674
0.795534 0.795534 0.795534
0.823889 0.823889 0.823889
0.323075 0.323075 0.323075
0.357297 0.357297 0.357297
0.392289 0.392289 0.392289
0.427864 0.427864 0.427864
0.463833 0.463833 0.463833
0.500000 0.500000 0.500000
0.536167 0.536167 0.536167
0.572136 0.572136 0.572136
0.607711 0.607711 0.607711
0.642703 0.642703 0.642703
0.676925 0.676925 0.676925
0.710203 0.710203 0.710203
0.742370 0.742370 0.742370
0.773273 0.773273 0.773273
0.802769 0.802769 0.802769
0.830727 0.830727 0.830727
0.857029 0.857029 0.857029
0.365980 0.365980 0.365980
0.401135 0.401135 0.401135
0.436827 0.436827 0.436827
0.472864 0.472864 0.472864
0.509049 0.509049 0.509049
0.545185 0.545185 0.545185
0.581074 0.581074 0.581074
0.616521 0.616521 0.616521
0.651337 0.651337 0.651337
0.685340 0.685340 0.685340
0.718355 0.718355 0.718355
0.750220 0.750220 0.750220
0.780784 0.780784 0.780784
0.809908 0.809908 0.809908
0.837462 0.837462 0.837462
0.863333 0.863333 0.863333
0.887414 0.887414 0.887414
0.410015 0.410015 0.410015
0.445812 0.445812 0.445812
0.481904 0.481904 0.481904
0.518096 0.518096 0.518096
0.554188 0.554188 0.554188
0.589985 0.589985 0.589985
0.625292 0.625292 0.625292
0.659921 0.659921 0.659921
0.693692 0.693692 0.693692
0.726435 0.726435 0.726435
0.757989 0.757989 0.757989
0.788206 0.788206 0.788206
0.816948 0.816948 0.816948
0.844092 0.844092 0.844092
0.869525 0.869525 0.869525
0.893143 0.893143 0.893143
0.914850 0.914850 0.914850
0.454815 0.454815 0.454815
0.490951 0.490951 0.490951
0.527136 0.527136 0.527136
0.563173 0.563173 0.563173
0.598865 0.598865 0.598865
0.634020 0.634020 0.634020
0.668451 0.668451 0.668451
0.701981 0.701981 0.701981
0.734441 0.734441 0.734441
0.765674 0.765674 0.765674
0.795534 0.795534 0.795534
0.823889 0.823889 0.823889
0.850615 0.850615 0.850615
0.875604 0.875604 0.875604
0.898753 0.898753 0.898753
0.919968 0.919968 0.919968
0.939155 0.939155 0.939155
0.500000 0.500000 0.500000
0.536167 0.536167 0.536167
0.572136 0.572136 0.572136
0.607711 0.607711 0.607711
0.642703 0.642703 0.642703
0.676925 0.676925 0.676925
0.710203 0.710203 0.710203
0.742370 0.742370 0.742370
0.773273 0.773273 0.773273
0.802769 0.802769 0.802769
0.830727 0.830727 0.830727
0.857029 0.857029 0.857029
0.881567 0.881567 0.881567
0.904241 0.904241 0.904241
0.924958 0.924958 0.924958
0.943624 0.943624 0.943624
0.960135 0.960135 0.960135
0.000649 0.000649 0.000649
0.006879 0.006879 0.006879
0.016570 0.016570 0.016570
0.028970 0.028970 0.028970
0.043784 0.043784 0.043784
0.060845 0.060845 0.060845
0.080032 0.080032 0.080032
0.101247 0.101247 0.101247
0.124396 0.124396 0.124396
0.149385 0.149385 0.149385
0.176111 0.176111 0.176111
0.204466 0.204466 0.204466
0.234326 0.234326 0.234326
0.265559 0.265559 0.265559
0.298019 0.298019 0.298019
0.331549 0.331549 0.331549
0.365980 0.365980 0.365980
0.009022 0.009022 0.009022
0.019431 0.019431 0.019431
0.032455 0.032455 0.032455
0.047844 0.047844 0.047844
0.065447 0.065447 0.065447
0.085150 0.085150 0.085150
0.106857 0.106857 0.106857
0.130475 0.130475 0.130475
0.155908 0.155908 0.155908
0.183052 0.183052 0.183052
0.211794 0.211794 0.211794
0.242011 0.242011 0.242011
0.273565 0.273565 0.273565
0.306308 0.306308 0.306308
0.340079 0.340079 0.340079
0.374708 0.374708 0.374708
0.410015 0.410015 0.410015
0.022454 0.022454 0.022454
0.036088 0.036088 0.036088
0.052042 0.052042 0.052042
0.070179 0.070179 0.070179
0.090392 0.090392 0.090392
0.112586 0.112586 0.112586
0.136667 0.136667 0.136667
0.162538 0.162538 0.162538
0.190092 0.190092 0.190092
0.219216 0.219216 0.219216
0.249780 0.249780 0.249780
0.281645 0.281645 0.281645
0.314660 0.314660 0.314660
0.348663 0.348663 0.348663
0.383479 0.383479 0.383479
0.418926 0.418926 0.418926
0.454815 0.454815 0.454815
0.039865 0.039865 0.039865
0.056376 0.056376 0.056376
0.075042 0.075042 0.075042
0.095759 0.095759 0.095759
0.118433 0.118433 0.118433
0.142971 0.142971 0.142971
0.169273 0.169273 0.169273
0.197231 0.197231 0.197231
0.226727 0.226727 0.226727
0.257630 0.257630 0.257630
0.289797 0.289797 0.289797
0.323075 0.323075 0.323075
0.357297 0.357297 0.357297
0.392289 0.392289 0.392289
0.427864 0.427864 0.427864
0.463833 0.463833 0.463833
0.500000 0.500000 0.500000
0.060845 0.060845 0.060845
0.080032 0.080032 0.080032
0.101247 0.101247 0.101247
0.124396 0.124396 0.124396
0.149385 0.149385 0.149385
0.176111 0.176111 0.176111
0.204466 0.204466 0.204466
0.234326 0.234326 0.234326
0.265559 0.265559 0.265559
0.298019 0.298019 0.298019
0.331549 0.331549 0.331549
0.365980 0.365980 0.365980
0.401135 0.401135 0.401135
0.436827 0.436827 0.436827
0.472864 0.472864 0.472864
0.509049 0.509049 0.509049
0.545185 0.545185 0.545185
0.085150 0.085150 0.085150
0.106857 0.106857 0.106857
0.130475 0.130475 0.130475
0.155908 0.155908 0.155908
0.183052 0.183052 0.183052
0.211794 0.211794 0.211794
0.242011 0.242011 0.242011
0.273565 0.273565 0.273565
0.306308 0.306308 0.306308
0.340079 0.340079 0.340079
0.374708 0.374708 0.374708
0.410015 0.410015 0.410015
0.445812 0.445812 0.445812
0.481904 0.481904 0.481904
0.518096 0.518096 0.518096
0.554188 0.554188 0.554188
0.589985 0.589985 0.589985
0.112586 0.112586 0.112586
0.136667 0.136667 0.136667
0.162538 0.162538 0.162538
0.190092 0.190092 0.190092
0.219216 0.219216 0.219216
0.249780 0.249780 0.249780
0.281645 0.281645 0.281645
0.314660 0.314660 0.314660
0.348663 0.348663 0.348663
0.383479 0.383479 0.383479
0.418926 0.418926 0.418926
0.454815 0.454815 0.454815
0.490951 0.490951 0.490951
0.527136 0.527136 0.527136
0.563173 0.563173 0.563173
0.598865 0.598865 0.598865
0.634020 0.634020 0.634020
0.142971 0.142971 0.142971
0.169273 0.169273 0.169273
0.197231 0.197231 0.197231
0.226727 0.226727 0.226727
0.257630 0.257630 0.257630
0.289797 0.289797 0.289797
0.323075 0.323075 0.323075
0.357297 0.357297 0.357297
0.392289 0.392289 0.392289
0.427864 0.427864 0.427864
0.463833 0.463833 0.463833
0.500000 0.500000 0.500000
0.536167 0.536167 0.536167
0.572136 0.572136 0.572136
0.607711 0.607711 0.607711
0.642703 0.642703 0.642703
0.676925 0.676925 0.676925
0.176111 0.176111 0.176111
0.204466 0.204466 0.204466
0.234326 0.234326 0.234326
0.265559 0.265559 0.265559
0.298019 0.298019 0.298019
0.331549 0.331549 0.331549
0.365980 0.365980 0.365980
0.401135 0.401135 0.401135
0.436827 0.436827 0.436827
0.472864 0.472864 0.472864
0.509049 0.509049 0.509049
0.545185 0.545185 0.545185
0.581074 0.581074 0.581074
0.616521 0.616521 0.616521
0.651337 0.651337 0.651337
0.685340 0.685340 0.685340
0.718355 0.718355 0.718355
0.211794 0.211794 0.211794
0.242011 0.242011 0.242011
0.273565 0.273565 0.273565
0.306308 0.306308 0.306308
0.340079 0.340079 0.340079
0.374708 0.374708 0.374708
0.410015 0.410015 0.410015
0.445812 0.445812 0.445812
0.481904 0.481904 0.481904
0.518096 0.518096 0.518096
0.554188 0.554188 0.554188
0.589985 0.589985 0.589985
0.625292 0.625292 0.625292
0.659921 0.659921 0.659921
0.693692 0.693692 0.693692
0.726435 0.726435 0.726435
0.757989 0.757989 0.757989
0.249780 0.249780 0.249780
0.281645 0.281645 0.281645
0.314660 0.314660 0.314660
0.348663 0.348663 0.348663
0.383479 0.383479 0.383479
0.418926 0.418926 0.418926
0.454815 0.454815 0.454815
0.490951 0.490951 0.490951
0.527136 0.527136 0.527136
0.563173 0.563173 0.563173
0.598865 0.598865 0.598865
0.634020 0.634020 0.634020
0.668451 0.668451 0.668451
0.701981 0.701981 0.701981
0.734441 0.734441 0.734441
0.765674 0.765674 0.765674
0.795534 0.795534 0.795534
0.289797 0.289797 0.289797
0.323075 0.323075 0.323075
0.357297 0.357297 0.357297
0.392289 0.392289 0.392289
0.427864 0.427864 0.427864
0.463833 0.463833 0.463833
0.500000 0.500000 0.500000
0.536167 0.536167 0.536167
0.572136 0.572136 0.572136
0.607711 0.607711 0.607711
0.642703 0.642703 0.642703
0.676925 0.676925 0.676925
0.710203 0.710203 0.710203
0.742370 0.742370 0.742370
0.773273 0.773273 0.773273
0.802769 0.802769 0.802769
0.830727 0.830727 0.830727
0.331549 0.331549 0.331549
0.365980 0.365980 0.365980
0.401135 0.401135 0.401135
0.436827 0.436827 0.436827
0.472864 0.472864 0.472864
0.509049 0.509049 0.509049
0.545185 0.545185 0.545185
0.581074 0.581074 0.581074
0.616521 0.616521 0.616521
0.651337 0.651337 0.651337
0.685340 0.685340 0.685340
0.718355 0.718355 0.718355
0.750220 0.750220 0.750220
0.780784 0.780784 0.780784
0.809908 0.809908 0.809908
0.837462 0.837462 0.837462
0.863333 0.863333 0.863333
0.374708 0.374708 0.374708
0.410015 0.410015 0.410015
0.445812 0.445812 0.445812
0.481904 0.481904 0.481904
0.518096 0.518096 0.518096
0.554188 0.554188 0.554188
0.589985 0.589985 0.589985
0.625292 0.625292 0.625292
0.659921 0.659921 0.659921
0.693692 0.693692 0.693692
0.726435 0.726435 0.726435
0.757989 0.757989 0.757989
0.788206 0.788206 0.788206
0.816948 0.816948 0.816948
0.844092 0.844092 0.844092
0.869525 0.869525 0.869525
0.893143 0.893143 0.893143
0.418926 0.418926 0.418926
0.454815 0.454815 0.454815
0.490951 0.490951 0.490951
0.527136 0.527136 0.527136
0.563173 0.563173 0.563173
0.598865 0.598865 0.598865
0.634020 0.634020 0.634020
0.668451 0.668451 0.668451
0.701981 0.701981 0.701981
0.734441 0.734441 0.734441
0.765674 0.765674 0.765674
0.795534 0.795534 0.795534
0.823889 0.823889 0.823889
0.850615 0.850615 0.850615
0.875604 0.875604 0.875604
0.898753 0.898753 0.898753
0.919968 0.919968 0.919968
0.463833 0.463833 0.463833
0.500000 0.500000 0.500000
0.536167 0.536167 0.536167
0.572136 0.572136 0.572136
0.607711 0.607711 0.607711
0.642703 0.642703 0.642703
0.676925 0.676925 0.676925
0.710203 0.710203 0.710203
0.742370 0.742370 0.742370
0.773273 0.773273 0.773273
0.802769 0.802769 0.802769
0.830727 0.830727 0.830727
0.857029 0.857029 0.857029
0.881567 0.881567 0.881567
0.904241 0.904241 0.904241
0.924958 0.924958 0.924958
0.943624 0.943624 0.943624
0.509049 0.509049 0.509049
0.545185 0.545185 0.545185
0.581074 0.581074 0.581074
0.616521 0.616521 0.616521
0.651337 0.651337 0.651337
0.685340 0.685340 0.685340
0.718355 0.718355 0.718355
0.750220 0.750220 0.750220
0.780784 0.780784 0.780784
0.809908 0.809908 0.809908
0.837462 0.837462 0.837462
0.863333 0.863333 0.863333
0.887414 0.887414 0.887414
0.909608 0.909608 0.909608
0.929821 0.929821 0.929821
0.947958 0.947958 0.947958
0.963912 0.963912 0.963912
0.001784 0.001784 0.001784
0.009022 0.009022 0.009022
0.019431 0.019431 0.019431
0.032455 0.032455 0.032455
0.047844 0.047844 0.047844
0.065447 0.065447 0.065447
0.085150 0.085150 0.085150
0.106857 0.106857 0.106857
0.130475 0.130475 0.130475
0.155908 0.155908 0.155908
0.183052 0.183052 0.183052
0.211794 0.211794 0.211794
0.242011 0.242011 0.242011
0.273565 0.273565 0.273565
0.306308 0.306308 0.306308
0.340079 0.340079 0.340079
0.374708 0.374708 0.374708
0.011358 0.011358 0.011358
0.022454 0.022454 0.022454
0.036088 0.036088 0.036088
0.052042 0.052042 0.052042
0.070179 0.070179 0.070179
0.090392 0.090392 0.090392
0.112586 0.112586 0.112586
0.136667 0.136667 0.136667
0.162538 0.162538 0.162538
0.190092 0.190092 0.190092
0.219216 0.219216 0.219216
0.249780 0.249780 0.249780
0.281645 0.281645 0.281645
0.314660 0.314660 0.314660
0.348663 0.348663 0.348663
0.383479 0.383479 0.383479
0.418926 0.418926 0.418926
0.025635 0.025635 0.025635
0.039865 0.039865 0.039865
0.056376 0.056376 0.056376
0.075042 0.075042 0.075042
0.095759 0.095759 0.095759
0.118433 0.118433 0.118433
0.142971 0.142971 0.142971
0.169273 0.169273 0.169273
0.197231 0.197231 0.197231
0.226727 0.226727 0.226727
0.257630 0.257630 0.257630
0.289797 0.289797 0.289797
0.323075 0.323075 0.323075
0.357297 0.357297 0.357297
0.392289 0.392289 0.392289
0.427864 0.427864 0.427864
0.463833 0.463833 0.463833
0.043784 0.043784 0.043784
0.060845 0.060845 0.060845
0.080032 0.080032 0.080032
0.101247 0.101247 0.101247
0.124396 0.124396 0.124396
0.149385 0.149385 0.149385
0.176111 0.176111 0.176111
0.204466 0.204466 0.204466
0.234326 0.234326 0.234326
0.265559 0.265559 0.265559
0.298019 0.298019 0.298019
0.331549 0.331549 0.331549
0.365980 0.365980 0.365980
0.401135 0.401135 0.401135
0.436827 0.436827 0.436827
0.472864 0.472864 0.472864
0.509049 0.509049 0.509049
0.065447 0.065447 0.065447
0.085150 0.085150 0.085150
0.106857 0.106857 0.106857
0.130475 0.130475 0.130475
0.155908 0.155908 0.155908
0.183052 0.183052 0.183052
0.211794 0.211794 0.211794
0.242011 0.242011 0.242011
0.273565 0.273565 0.273565
0.306308 0.306308 0.306308
0.340079 0.340079 0.340079
0.374708 0.374708 0.374708
0.410015 0.410015 0.410015
0.445812 0.445812 0.445812
0.481904 0.481904 0.481904
0.518096 0.518096 0.518096
0.554188 0.554188 0.554188
0.090392 0.090392 0.090392
0.112586 0.112586 0.112586
0.136667 0.136667 0.136667
0.162538 0.162538 0.162538
0.190092 0.190092 0.190092
0.219216 0.219216 0.219216
0.249780 0.249780 0.249780
0.281645 0.281645 0.281645
0.314660 0.314660 0.314660
0.348663 0.348663 0.348663
0.383479 0.383479 0.383479
0.418926 0.418926 0.418926
0.454815 0.454815 0.454815
0.490951 0.490951 0.490951
0.527136 0.527136 0.527136
0.563173 0.563173 0.563173
0.598865 0.598865 0.598865
0.118433 0.118433 0.118433
0.142971 0.142971 0.142971
0.169273 0.169273 0.169273
0.197231 0.197231 0.197231
0.226727 0.226727 0.226727
0.257630 0.257630 0.257630
0.289797 0.289797 0.289797
0.323075 0.323075 0.323075
0.357297 0.357297 0.357297
0.392289 0.392289 0.392289
0.427864 0.427864 0.427864
0.463833 0.463833 0.463833
0.500000 0.500000 0.500000
0.536167 0.536167 0.536167
0.572136 0.572136 0.572136
0.607711 0.607711 0.607711
0.642703 0.642703 0.642703
0.149385 0.149385 0.149385
0.176111 0.176111 0.176111
0.204466 0.204466 0.204466
0.234326 0.234326 0.234326
0.265559 0.265559 0.265559
0.298019 0.298019 0.298019
0.331549 0.331549 0.331549
0.365980 0.365980 0.365980
0.401135 0.401135 0.401135
0.436827 0.436827 0.436827
0.472864 0.472864 0.472864
0.509049 0.509049 0.509049
0.545185 0.545185 0.545185
0.581074 0.581074 0.581074
0.616521 0.616521 0.616521
0.651337 0.651337 0.651337
0.685340 0.685340 0.685340
0.183052 0.183052 0.183052
0.211794 0.211794 0.211794
0.242011 0.242011 0.242011
0.273565 0.273565 0.273565
0.306308 0.306308 0.306308
0.340079 0.340079 0.340079
0.374708 0.374708 0.374708
0.410015 0.410015 0.410015
0.445812 0.445812 0.445812
0.481904 0.481904 0.481904
0.518096 0.518096 0.518096
0.554188 0.554188 0.554188
0.589985 0.589985 0.589985
0.625292 0.625292 0.625292
0.659921 0.659921 0.659921
0.693692 0.693692 0.693692
0.726435 0.726435 0.726435
0.219216 0.219216 0.219216
0.249780 0.249780 0.249780
0.281645 0.281645 0.281645
0.314660 0.314660 0.314660
0.348663 0.348663 0.348663
0.383479 0.383479 0.383479
0.418926 0.418926 0.418926
0.454815 0.454815 0.454815
0.490951 0.490951 0.490951
0.527136 0.527136 0.527136
0.563173 0.563173 0.563173
0.598865 0.598865 0.598865
0.634020 0.634020 0.634020
0.668451 0.668451 0.668451
0.701981 0.701981 0.701981
0.734441 0.734441 0.734441
0.765674 0.765674 0.765674
0.257630 0.257630 0.257630
0.289797 0.289797 0.289797
0.323075 0.323075 0.323075
0.357297 0.357297 0.357297
0.392289 0.392289 0.392289
0.427864 0.427864 0.427864
0.463833 0.463833 0.463833
0.500000 0.500000 0.500000
0.536167 0.536167 0.536167
0.572136 0.572136 0.572136
0.607711 0.607711 0.607711
0.642703 0.642703 0.642703
0.676925 0.676925 0.676925
0.710203 0.710203 0.710203
0.742370 0.742370 0.742370
0.773273 0.773273 0.773273
0.802769 0.802769 0.802769
0.298019 0.298019 0.298019
0.331549 0.331549 0.331549
0.365980 0.365980 0.365980
0.401135 0.401135 0.401135
0.436827 0.436827 0.436827
0.472864 0.472864 0.472864
0.509049 0.509049 0.509049
0.545185 0.545185 0.545185
0.581074 0.581074 0.581074
0.616521 0.616521 0.616521
0.651337 0.651337 0.651337
0.685340 0.685340 0.685340
0.718355 0.718355 0.718355
0.750220 0.750220 0.750220
0.780784 0.780784 0.780784
0.809908 0.809908 0.809908
0.837462 0.837462 0.837462
0.340079 0.340079 0.340079
0.374708 0.374708 0.374708
0.410015 0.410015 0.410015
0.445812 0.445812 0.445812
0.481904 0.481904 0.481904
0.518096 0.518096 0.518096
0.554188 0.554188 0.554188
0.589985 0.589985 0.589985
0.625292 0.625292 0.625292
0.659921 0.659921 0.659921
0.693692 0.693692 0.693692
0.726435 0.726435 0.726435
0.757989 0.757989 0.757989
0.788206 0.788206 0.788206
0.816948 0.816948 0.816948
0.844092 0.844092 0.844092
0.869525 0.869525 0.869525
0.383479 0.383479 0.383479
0.418926 0.418926 0.418926
0.454815 0.454815 0.454815
0.490951 0.490951 0.490951
0.527136 0.527136 0.527136
0.563173 0.563173 0.563173
0.598865 0.598865 0.598865
0.634020 0.634020 0.634020
0.668451 0.668451 0.668451
0.701981 0.701981 0.701981
0.734441 0.734441 0.734441
0.765674 0.765674 0.765674
0.795534 0.795534 0.795534
0.823889 0.823889 0.823889
0.850615 0.850615 0.850615
0.875604 0.875604 0.875604
0.898753 0.898753 0.898753
0.427864 0.427864 0.427864
0.463833 0.463833 0.463833
0.500000 0.500000 0.500000
0.536167 0.536167 0.536167
0.572136 0.572136 0.572136
0.607711 0.607711 0.607711
0.642703 0.642703 0.642703
0.676925 0.676925 0.676925
0.710203 0.710203 0.710203
0.742370 0.742370 0.742370
0.773273 0.773273 0.773273
0.802769 0.802769 0.802769
0.830727 0.830727 0.830727
0.857029 0.857029 0.857029
0.881567 0.881567 0.881567
0.904241 0.904241 0.904241
0.924958 0.924958 0.924958
0.472864 0.472864 0.472864
0.509049 0.509049 0.509049
0.545185 0.545185 0.545185
0.581074 0.581074 0.581074
0.616521 0.616521 0.616521
0.651337 0.651337 0.651337
0.685340 0.685340 0.685340
0.718355 0.718355 0.718355
0.750220 0.750220 0.750220
0.780784 0.780784 0.780784
0.809908 0.809908 0.809908
0.837462 0.837462 0.837462
0.863333 0.863333 0.863333
0.887414 0.887414 0.887414
0.909608 0.909608 0.909608
0.929821 0.929821 0.929821
0.947958 0.947958 0.947958
0.518096 0.518096 0.518096
0.554188 0.554188 0.554188
0.589985 0.589985 0.589985
0.625292 0.625292 0.625292
0.659921 0.659921 0.659921
0.693692 0.693692 0.693692
0.726435 0.726435 0.726435
0.757989 0.757989 0.757989
0.788206 0.788206 0.788206
0.816948 0.816948 0.816948
0.844092 0.844092 0.844092
0.869525 0.869525 0.869525
0.893143 0.893143 0.893143
0.914850 0.914850 0.914850
0.934553 0.934553 0.934553
0.952156 0.952156 0.952156
0.967545 0.967545 0.967545
0.003234 0.003234 0.003234
0.011358 0.011358 0.011358
0.022454 0.022454 0.022454
0.036088 0.036088 0.036088
0.052042 0.052042 0.052042
0.070179 0.070179 0.070179
0.090392 0.090392 0.090392
0.112586 0.112586 0.112586
0.136667 0.136667 0.136667
0.162538 0.162538 0.162538
0.190092 0.190092 0.190092
0.219216 0.219216 0.219216
0.249780 0.249780 0.249780
0.281645 0.281645 0.281645
0.314660 0.314660 0.314660
0.348663 0.348663 0.348663
0.383479 0.383479 0.383479
0.013877 0.013877 0.013877
0.025635 0.025635 0.025635
0.039865 0.039865 0.039865
