assets/presets/luts/winter-blue/lut.cube
TITLE "Winter Blue"
LUT_3D_SIZE 5
0.000000 0.000000 0.000000
0.177308 0.000000 0.005572
0.401639 0.000000 0.015748
0.626516 0.001603 0.025362
0.851807 0.013589 0.034551
0.000000 0.217953 0.028749
0.220723 0.229980 0.037817
0.446364 0.242090 0.046646
0.672106 0.254236 0.055373
0.897841 0.266397 0.064161
0.041108 0.470658 0.058552
0.266827 0.482833 0.067416
0.492408 0.495007 0.076575
0.717703 0.507119 0.086152
0.942564 0.519106 0.096267
0.086443 0.723500 0.089766
0.311109 0.735426 0.100108
0.535138 0.747142 0.111153
0.758698 0.758698 0.122698
0.982245 0.770245 0.134245
0.126904 0.974904 0.126904
0.350445 0.986445 0.138445
0.573959 0.997959 0.149959
0.797431 1.000000 0.161431
1.000000 1.000000 0.172846
0.000000 0.000000 0.210478
0.181426 0.000000 0.221099
0.405957 0.000000 0.231069
0.630990 0.005660 0.240523
0.856392 0.017685 0.249599
0.000000 0.222025 0.243864
0.225336 0.234086 0.252835
0.451026 0.246214 0.261614
0.676772 0.258361 0.270338
0.902493 0.270535 0.279196
0.045773 0.474789 0.273537
0.271462 0.486970 0.282487
0.496963 0.499130 0.291775
0.722127 0.511207 0.301521
0.946806 0.523137 0.311847
0.090807 0.727570 0.305207
0.315273 0.739432 0.315774
0.539068 0.751068 0.327068
0.762621 0.762621 0.338621
0.986163 0.774163 0.350163
0.130825 0.978825 0.342825
0.354359 0.990359 0.354359
0.577860 1.000000 0.365860
0.801315 1.000000 0.377315
1.000000 1.000000 0.388706
0.000000 0.000000 0.426167
0.185617 0.000000 0.436551
0.410334 0.000000 0.446330
0.635507 0.009731 0.455641
0.861003 0.021790 0.464619
0.004390 0.226111 0.458941
0.229971 0.238200 0.467832
0.455695 0.250339 0.476576
0.681437 0.262491 0.485321
0.907129 0.274672 0.494264
0.050434 0.478924 0.488546
0.276076 0.491105 0.497597
0.501479 0.503244 0.507027
0.726494 0.515278 0.516956
0.950975 0.527144 0.527507
0.095108 0.731621 0.520719
0.319357 0.743411 0.531526
0.542992 0.754992 0.542992
0.766543 0.766543 0.554543
0.990077 0.778077 0.566077
0.134745 0.982745 0.558745
0.358269 0.994269 0.570269
0.581756 1.000000 0.581756
0.805191 1.000000 0.593191
1.000000 1.000000 0.604558
0.000000 0.000000 0.641770
0.189876 0.000000 0.651933
0.414763 0.001828 0.661538
0.640061 0.013816 0.670720
0.865637 0.025903 0.679616
0.008978 0.230207 0.673985
0.234622 0.242319 0.682811
0.460364 0.254465 0.691537
0.686099 0.266626 0.700328
0.911744 0.278808 0.709372
0.055085 0.483062 0.703585
0.280662 0.495236 0.712751
0.505950 0.507346 0.722337
0.730800 0.519330 0.732464
0.955066 0.531125 0.743252
0.099341 0.735649 0.736309
0.323357 0.747360 0.747368
0.546916 0.758916 0.758916
0.770462 0.770462 0.770462
0.993988 0.781988 0.781988
0.138662 0.986662 0.774662
0.362175 0.998175 0.786175
0.585646 1.000000 0.797646
0.809060 1.000000 0.809060
1.000000 1.000000 0.820400
0.000000 0.000000 0.857293
0.194198 0.000000 0.867251
0.419239 0.005885 0.876697
0.644647 0.017912 0.885767
0.870287 0.030022 0.894597
0.013593 0.234314 0.889002
0.239285 0.246442 0.897779
0.465030 0.258590 0.906503
0.690750 0.270764 0.915365
0.916332 0.282938 0.924522
0.059719 0.487199 0.918658
0.285214 0.499358 0.927953
0.510370 0.511433 0.937709
0.735039 0.523360 0.948047
0.959072 0.535077 0.959088
0.103501 0.739653 0.951979
0.327286 0.751286 0.963286
0.550838 0.762838 0.974838
0.774380 0.774380 0.986380
0.997894 0.785894 0.997894
0.142576 0.990576 0.990576
0.366076 1.000000 1.000000
0.589530 1.000000 1.000000
0.812920 1.000000 1.000000
1.000000 1.000000 1.000000
