assets/presets/luts/winter-blue/lut.cube
TITLE "Winter Blue"
LUT_3D_SIZE 17
0.000000 0.000000 0.000000
0.009498 0.000000 0.000000
0.065388 0.000000 0.000231
0.121326 0.000000 0.002925
0.177308 0.000000 0.005572
0.233332 0.000000 0.008176
0.289396 0.000000 0.010739
0.345499 0.000000 0.013262
0.401639 0.000000 0.015748
0.457812 0.000000 0.018199
0.514017 0.000000 0.020616
0.570253 0.000000 0.023003
0.626516 0.001603 0.025362
0.682805 0.004588 0.027693
0.739118 0.007581 0.030001
0.795453 0.010582 0.032286
0.851807 0.013589 0.034551
0.000000 0.029289 0.003894
0.019404 0.032170 0.006525
0.075443 0.035066 0.009114
0.131522 0.037975 0.011662
0.187638 0.040899 0.014171
0.243790 0.043834 0.016644
0.299975 0.046782 0.019082
0.356192 0.049741 0.021489
0.412438 0.052710 0.023865
0.468711 0.055689 0.026214
0.525009 0.058677 0.028536
0.581330 0.061673 0.030835
0.637672 0.064676 0.033112
0.694033 0.067686 0.035371
0.750411 0.070702 0.037611
0.806803 0.073723 0.039837
0.863208 0.076749 0.042050
0.000000 0.092038 0.012580
0.029782 0.094966 0.015075
0.085946 0.097906 0.017536
0.142143 0.100858 0.019962
0.198370 0.103821 0.022357
0.254626 0.106794 0.024723
0.310909 0.109776 0.027062
0.367215 0.112766 0.029376
0.423544 0.115765 0.031667
0.479894 0.118771 0.033937
0.536261 0.121783 0.036188
0.592644 0.124801 0.038423
0.649042 0.127824 0.040644
0.705451 0.130851 0.042852
0.761870 0.133882 0.045051
0.818297 0.136915 0.047241
0.874729 0.139951 0.049426
0.000000 0.154935 0.020838
0.040553 0.157902 0.023222
0.096818 0.160878 0.025578
0.153110 0.163864 0.027907
0.209425 0.166857 0.030212
0.265762 0.169859 0.032495
0.322118 0.172867 0.034758
0.378491 0.175881 0.037004
0.434880 0.178901 0.039233
0.491282 0.181926 0.041449
0.547695 0.184954 0.043654
0.604117 0.187986 0.045849
0.660546 0.191020 0.048037
0.716980 0.194056 0.050220
0.773417 0.197093 0.052400
0.829854 0.200130 0.054579
0.886291 0.203167 0.056760
0.000000 0.217953 0.028749
0.051637 0.220949 0.031046
0.107981 0.223953 0.033321
0.164344 0.226964 0.035578
0.220723 0.229980 0.037817
0.277117 0.233002 0.040041
0.333523 0.236028 0.042253
0.389940 0.239058 0.044454
0.446364 0.242090 0.046646
0.502796 0.245125 0.048832
0.559231 0.248162 0.051014
0.615668 0.251199 0.053193
0.672106 0.254236 0.055373
0.728541 0.257273 0.057555
0.784976 0.260311 0.059744
0.841410 0.263353 0.061945
0.897841 0.266397 0.064161
0.006572 0.281061 0.036395
0.062957 0.284080 0.038628
0.119356 0.287103 0.040848
0.175766 0.290131 0.043055
0.232186 0.293162 0.045253
0.288613 0.296195 0.047443
0.345046 0.299231 0.049627
0.401482 0.302267 0.051807
0.457920 0.305305 0.053987
0.514357 0.308342 0.056167
0.570791 0.311378 0.058350
0.627226 0.314418 0.060544
0.683659 0.317461 0.062750
0.740089 0.320506 0.064971
0.796512 0.323552 0.067208
0.852927 0.326598 0.069464
0.909331 0.329643 0.071740
0.018010 0.344234 0.043856
0.074433 0.347266 0.046051
0.130862 0.350300 0.048238
0.187297 0.353336 0.050421
0.243734 0.356373 0.052601
0.300171 0.359410 0.054780
0.356607 0.362447 0.056961
0.413042 0.365485 0.059148
0.469476 0.368526 0.061346
0.525908 0.371569 0.063557
0.582336 0.374615 0.065784
0.638756 0.377661 0.068027
0.695168 0.380707 0.070290
0.751567 0.383751 0.072574
0.807953 0.386794 0.074880
0.864323 0.389833 0.077211
0.920674 0.392868 0.079569
0.029548 0.407442 0.051215
0.085985 0.410479 0.053394
0.142422 0.413516 0.055574
0.198858 0.416552 0.057756
0.255292 0.419591 0.059946
0.311726 0.422633 0.062149
0.368157 0.425678 0.064366
0.424582 0.428724 0.066598
0.480999 0.431770 0.068849
0.537407 0.434815 0.071119
0.593802 0.437859 0.073411
0.650182 0.440900 0.075726
0.706545 0.443938 0.078067
0.762889 0.446972 0.080435
0.819211 0.449999 0.082832
0.875509 0.453021 0.085260
0.931781 0.456034 0.087721
0.041108 0.470658 0.058552
0.097543 0.473699 0.060747
0.153976 0.476742 0.062954
0.210405 0.479787 0.065177
0.266827 0.482833 0.067416
0.323241 0.485879 0.069673
0.379644 0.488924 0.071951
0.436034 0.491967 0.074251
0.492408 0.495007 0.076575
0.548765 0.498043 0.078925
0.605101 0.501074 0.081304
0.661414 0.504100 0.083712
0.717703 0.507119 0.086152
0.773965 0.510130 0.088626
0.830197 0.513132 0.091135
0.886397 0.516124 0.093681
0.942564 0.519106 0.096267
0.052652 0.533895 0.065990
0.109071 0.536942 0.068235
0.165482 0.539987 0.070500
0.221880 0.543032 0.072785
0.278265 0.546074 0.075094
0.334632 0.549113 0.077428
0.390982 0.552147 0.079788
0.447310 0.555177 0.082177
0.503615 0.558200 0.084597
0.559894 0.561216 0.087049
0.616145 0.564224 0.089535
0.672366 0.567222 0.092058
0.728554 0.570211 0.094618
0.784707 0.573188 0.097219
0.840823 0.576154 0.099862
0.896900 0.579106 0.102548
0.952934 0.582044 0.105280
0.064114 0.597140 0.073623
0.120493 0.600181 0.075941
0.176854 0.603218 0.078284
0.233196 0.606251 0.080654
0.289516 0.609278 0.083054
0.345812 0.612299 0.085485
0.402081 0.615312 0.087950
0.458321 0.618316 0.090449
0.514530 0.621312 0.092985
0.570706 0.624296 0.095560
0.626846 0.627269 0.098176
0.682948 0.630230 0.100835
0.739009 0.633178 0.103538
0.795028 0.636111 0.106287
0.851002 0.639028 0.109084
0.906928 0.641930 0.111932
0.962818 0.644818 0.114818
0.075407 0.660354 0.081525
0.131719 0.663379 0.083936
0.188005 0.666397 0.086379
0.244264 0.669407 0.088855
0.300493 0.672408 0.091368
0.356691 0.675399 0.093918
0.412854 0.678380 0.096508
0.468980 0.681349 0.099139
0.525067 0.684305 0.101813
0.581114 0.687247 0.104533
0.637116 0.690175 0.107300
0.693073 0.693086 0.110115
0.748982 0.695982 0.112982
0.804870 0.698870 0.115870
0.860758 0.701758 0.118758
0.916647 0.704647 0.121647
0.972535 0.707535 0.124535
0.086443 0.723500 0.089766
0.142661 0.726498 0.092292
0.198846 0.729486 0.094856
0.254996 0.732462 0.097461
0.311109 0.735426 0.100108
0.367181 0.738378 0.102798
0.423212 0.741315 0.105535
0.479198 0.744237 0.108319
0.535138 0.747142 0.111153
0.591033 0.750033 0.114033
0.646922 0.752922 0.116921
0.702810 0.755810 0.119810
0.758698 0.758698 0.122698
0.814586 0.761586 0.125586
0.870474 0.764473 0.128474
0.926360 0.767360 0.131360
0.982245 0.770245 0.134245
0.097134 0.786543 0.098419
0.153232 0.789502 0.101082
0.209290 0.792449 0.103789
0.265304 0.795380 0.106543
0.321274 0.798296 0.109345
0.377196 0.801196 0.112197
0.433085 0.804085 0.115085
0.488973 0.806973 0.117973
0.544861 0.809861 0.120862
0.600750 0.812750 0.123750
0.656637 0.815637 0.126637
0.712524 0.818524 0.129524
0.768411 0.821411 0.132411
0.824296 0.824296 0.135295
0.880179 0.827179 0.138179
0.936061 0.830061 0.141061
0.991941 0.832941 0.143941
0.107391 0.849444 0.107557
0.163343 0.852354 0.110377
0.219248 0.855248 0.113248
0.275136 0.858136 0.116136
0.331025 0.861025 0.119025
0.386913 0.863913 0.121913
0.442801 0.866801 0.124801
0.498689 0.869689 0.127689
0.554575 0.872575 0.130575
0.610461 0.875461 0.133461
0.666345 0.878345 0.136345
0.722228 0.881228 0.139228
0.778110 0.884110 0.142110
0.833989 0.886989 0.144989
0.889866 0.889866 0.147866
0.945740 0.892740 0.150740
1.000000 0.895612 0.153612
0.117188 0.912188 0.117188
0.173076 0.915076 0.120076
0.228965 0.917965 0.122965
0.284852 0.920852 0.125852
0.340740 0.923740 0.128740
0.396626 0.926626 0.131626
0.452511 0.929511 0.134511
0.508395 0.932395 0.137395
0.564278 0.935278 0.140278
0.620158 0.938158 0.143158
0.676036 0.941036 0.146036
0.731913 0.943913 0.148913
0.787786 0.946786 0.151786
0.843657 0.949657 0.154657
0.899525 0.952525 0.157525
0.955389 0.955389 0.160389
1.000000 0.958250 0.163250
0.126904 0.974904 0.126904
0.182791 0.977791 0.129791
0.238677 0.980677 0.132677
0.294561 0.983561 0.135561
0.350445 0.986445 0.138445
0.406326 0.989326 0.141326
0.462206 0.992206 0.144206
0.518084 0.995084 0.147084
0.573959 0.997959 0.149959
0.629832 1.000000 0.152832
0.685701 1.000000 0.155701
0.741568 1.000000 0.158568
0.797431 1.000000 0.161431
0.853291 1.000000 0.164291
0.909146 1.000000 0.167147
0.964998 1.000000 0.169998
1.000000 1.000000 0.172846
0.000000 0.000000 0.048653
0.010474 0.000000 0.051427
0.066381 0.000000 0.054151
0.122333 0.000000 0.056829
0.178330 0.000000 0.059461
0.234368 0.000000 0.062051
0.290446 0.000000 0.064600
0.346562 0.000000 0.067110
0.402713 0.000000 0.069584
0.458897 0.000000 0.072023
0.515113 0.000000 0.074430
0.571358 0.000000 0.076807
0.627630 0.002616 0.079156
0.683928 0.005603 0.081480
0.740249 0.008599 0.083779
0.796590 0.011602 0.086057
0.852951 0.014612 0.088315
0.000000 0.030265 0.057792
0.020431 0.033152 0.060409
0.076484 0.036052 0.062984
0.132576 0.038967 0.065518
0.188705 0.041894 0.068015
0.244868 0.044834 0.070476
0.301064 0.047786 0.072903
0.357291 0.050748 0.075299
0.413546 0.053721 0.077666
0.469828 0.056703 0.080005
0.526134 0.059693 0.082319
0.582463 0.062692 0.084611
0.638812 0.065697 0.086881
0.695178 0.068710 0.089133
0.751561 0.071727 0.091369
0.807958 0.074750 0.093590
0.864367 0.077777 0.095798
0.000000 0.093031 0.066431
0.030852 0.095963 0.068915
0.087028 0.098907 0.071363
0.143236 0.101863 0.073779
0.199473 0.104829 0.076164
0.255738 0.107805 0.078520
0.312029 0.110790 0.080850
0.368344 0.113784 0.083156
0.424680 0.116785 0.085440
0.481035 0.119793 0.087703
0.537408 0.122808 0.089949
0.593797 0.125827 0.092179
0.650198 0.128852 0.094395
0.706611 0.131880 0.096600
0.763033 0.134912 0.098795
0.819462 0.137946 0.100983
0.875896 0.140982 0.103167
0.000000 0.155942 0.074651
0.041659 0.158912 0.077025
0.097933 0.161891 0.079372
0.154233 0.164879 0.081693
0.210556 0.167876 0.083990
0.266899 0.170880 0.086266
0.323261 0.173890 0.088523
0.379640 0.176906 0.090762
0.436034 0.179928 0.092987
0.492440 0.182954 0.095199
0.548856 0.185984 0.097400
0.605281 0.189016 0.099593
0.661712 0.192051 0.101779
0.718147 0.195088 0.103960
0.774584 0.198125 0.106140
0.831021 0.201162 0.108320
0.887457 0.204198 0.110501
0.000000 0.218969 0.082532
0.052771 0.221969 0.084821
0.109121 0.224975 0.087090
0.165490 0.227988 0.089340
0.221874 0.231006 0.091574
0.278272 0.234029 0.093794
0.334682 0.237057 0.096001
0.391102 0.240087 0.098199
0.447529 0.243121 0.100389
0.503962 0.246156 0.102573
0.560398 0.249193 0.104754
0.616836 0.252230 0.106933
0.673273 0.255267 0.109113
0.729707 0.258304 0.111297
0.786142 0.261344 0.113490
0.842575 0.264387 0.115696
0.899005 0.267431 0.117917
0.007720 0.282086 0.090155
0.064110 0.285106 0.092384
0.120512 0.288131 0.094599
0.176926 0.291160 0.096803
0.233349 0.294192 0.098997
0.289778 0.297226 0.101185
0.346213 0.300262 0.103368
0.402650 0.303299 0.105548
0.459087 0.306336 0.107727
0.515523 0.309373 0.109908
0.571958 0.312410 0.112094
0.628392 0.315451 0.114292
0.684824 0.318495 0.116503
0.741252 0.321540 0.118729
0.797673 0.324586 0.120972
0.854084 0.327632 0.123234
0.910484 0.330677 0.125518
0.019171 0.345263 0.097603
0.075597 0.348296 0.099794
0.132028 0.351331 0.101980
0.188464 0.354367 0.104161
0.244901 0.357405 0.106341
0.301338 0.360442 0.108521
0.357774 0.363478 0.110703
0.414208 0.366517 0.112893
0.470642 0.369559 0.115095
0.527073 0.372603 0.117311
0.583498 0.375649 0.119544
0.639916 0.378695 0.121794
0.696324 0.381741 0.124063
0.752719 0.384785 0.126354
0.809099 0.387826 0.128669
0.865463 0.390864 0.131009
0.921807 0.393897 0.133376
0.030715 0.408473 0.104955
0.087153 0.411510 0.107134
0.143589 0.414547 0.109315
0.200024 0.417584 0.111499
0.256459 0.420624 0.113693
0.312892 0.423667 0.115900
0.369321 0.426712 0.118122
0.425744 0.429758 0.120361
0.482158 0.432804 0.122617
0.538561 0.435849 0.124895
0.594951 0.438892 0.127194
0.651326 0.441933 0.129518
0.707683 0.444969 0.131868
0.764019 0.448000 0.134245
0.820334 0.451026 0.136653
0.876623 0.454045 0.139092
0.932885 0.457056 0.141565
0.042274 0.471690 0.112296
0.098709 0.474732 0.114495
0.155141 0.477776 0.116707
0.211568 0.480821 0.118935
0.267988 0.483867 0.121180
0.324398 0.486913 0.123444
0.380797 0.489957 0.125729
0.437182 0.493000 0.128037
0.493550 0.496038 0.130370
0.549900 0.499073 0.132730
0.606229 0.502103 0.135118
0.662534 0.505126 0.137537
0.718814 0.508142 0.139988
0.775066 0.511150 0.142474
0.831287 0.514149 0.144995
0.887476 0.517138 0.147555
0.943631 0.520116 0.150155
0.053814 0.534930 0.119750
0.110231 0.537976 0.122002
0.166637 0.541021 0.124273
0.223031 0.544065 0.126567
0.279410 0.547106 0.128884
0.335772 0.550144 0.131226
0.392114 0.553177 0.133596
0.448435 0.556204 0.135995
0.504731 0.559225 0.138426
0.561001 0.562238 0.140889
0.617242 0.565243 0.143387
0.673452 0.568238 0.145923
0.729629 0.571223 0.148497
0.785770 0.574197 0.151112
0.841873 0.577158 0.153769
0.897935 0.580106 0.156471
0.953955 0.583039 0.159219
0.065263 0.598173 0.127407
0.121636 0.601213 0.129733
0.177991 0.604249 0.132086
0.234326 0.607280 0.134466
0.290638 0.610305 0.136876
0.346925 0.613323 0.139318
0.403185 0.616333 0.141794
0.459415 0.619335 0.144306
0.515613 0.622326 0.146855
0.571777 0.625307 0.149444
0.627904 0.628276 0.152074
0.683992 0.631233 0.154747
0.740040 0.634175 0.157466
0.796043 0.637103 0.160231
0.852001 0.640015 0.163046
0.907911 0.642911 0.165911
0.963799 0.645799 0.168799
0.076535 0.661382 0.135340
0.132838 0.664404 0.137762
0.189115 0.667420 0.140216
0.245364 0.670427 0.142705
0.301583 0.673425 0.145230
0.357769 0.676413 0.147793
0.413920 0.679390 0.150397
0.470033 0.682354 0.153042
0.526107 0.685306 0.155732
0.582138 0.688243 0.158467
0.638126 0.691165 0.161250
0.694066 0.694072 0.164083
0.749963 0.696963 0.166963
0.805851 0.699851 0.169851
0.861739 0.702739 0.172739
0.917628 0.705628 0.175628
0.973516 0.708516 0.178516
0.087540 0.724520 0.143620
0.143747 0.727514 0.146158
0.199920 0.730498 0.148736
0.256058 0.733470 0.151355
0.312157 0.736430 0.154016
0.368215 0.739377 0.156722
0.424231 0.742309 0.159475
0.480202 0.745225 0.162276
0.536125 0.748125 0.165127
0.592014 0.751014 0.168014
0.647902 0.753902 0.170902
0.703791 0.756791 0.173791
0.759679 0.759679 0.176679
0.815567 0.762567 0.179567
0.871454 0.765454 0.182454
0.927340 0.768340 0.185340
0.983225 0.771225 0.188225
0.098190 0.787549 0.152319
0.154275 0.790505 0.154996
0.210318 0.793446 0.157719
0.266318 0.796372 0.160489
0.322271 0.799283 0.163308
0.378177 0.802177 0.166177
0.434066 0.805066 0.169066
0.489954 0.807954 0.171954
0.545842 0.810842 0.174842
0.601730 0.813730 0.177730
0.657618 0.816618 0.180618
0.713505 0.819505 0.183505
0.769390 0.822390 0.186390
0.825275 0.825275 0.189275
0.881158 0.828158 0.192158
0.937039 0.831039 0.195039
0.992918 0.833918 0.197918
0.108399 0.850434 0.161509
0.164335 0.853339 0.164347
0.220229 0.856229 0.167229
0.276117 0.859117 0.170117
0.332006 0.862006 0.173006
0.387894 0.864894 0.175894
0.443782 0.867782 0.178782
0.499669 0.870669 0.181669
0.555555 0.873555 0.184555
0.611441 0.876441 0.187441
0.667325 0.879325 0.190325
0.723207 0.882207 0.193207
0.779088 0.885088 0.196088
0.834966 0.887966 0.198966
0.890842 0.890842 0.201842
0.946716 0.893716 0.204716
1.000000 0.896587 0.207587
0.118169 0.913169 0.171169
0.174057 0.916057 0.174057
0.229945 0.918945 0.176945
0.285833 0.921833 0.179833
0.341720 0.924720 0.182720
0.397606 0.927606 0.185606
0.453491 0.930491 0.188491
0.509374 0.933374 0.191374
0.565256 0.936256 0.194256
0.621136 0.939136 0.197136
0.677013 0.942013 0.200013
0.732889 0.944889 0.202889
0.788761 0.947761 0.205761
0.844631 0.950631 0.208631
0.900498 0.953498 0.211498
0.956361 0.956361 0.214361
1.000000 0.959221 0.217221
0.127884 0.975884 0.180884
0.183771 0.978771 0.183771
0.239656 0.981656 0.186656
0.295541 0.984541 0.189541
0.351424 0.987424 0.192424
0.407305 0.990305 0.195305
0.463184 0.993184 0.198184
0.519060 0.996060 0.201061
0.574935 0.998935 0.203935
0.630806 1.000000 0.206806
0.686675 1.000000 0.209675
0.742541 1.000000 0.212541
0.798403 1.000000 0.215403
0.854261 1.000000 0.218261
0.910115 1.000000 0.221115
0.965966 1.000000 0.223966
1.000000 1.000000 0.226812
0.000000 0.000000 0.102600
0.011456 0.000000 0.105357
0.067379 0.000000 0.108066
0.123346 0.000000 0.110728
0.179357 0.000000 0.113346
0.235409 0.000000 0.115921
0.291500 0.000000 0.118457
0.347628 0.000000 0.120954
0.403790 0.000000 0.123416
0.459986 0.000000 0.125844
0.516212 0.000000 0.128241
0.572466 0.000648 0.130608
0.628748 0.003630 0.132948
0.685053 0.006620 0.135263
0.741381 0.009618 0.137555
0.797729 0.012624 0.139826
0.854096 0.015636 0.142078
0.000000 0.031244 0.111686
0.021464 0.034135 0.114288
0.077530 0.037040 0.116849
0.133635 0.039960 0.119370
0.189775 0.042891 0.121855
0.245950 0.045835 0.124304
0.302157 0.048791 0.126720
0.358393 0.051757 0.129106
0.414658 0.054732 0.131463
0.470948 0.057717 0.133794
0.527262 0.060711 0.136100
0.583598 0.063712 0.138384
0.639953 0.066720 0.140648
0.696326 0.069734 0.142894
0.752714 0.072753 0.145124
0.809115 0.075778 0.147341
0.865527 0.078806 0.149546
0.000000 0.094025 0.120279
0.031927 0.096962 0.122750
0.088114 0.099910 0.125187
0.144332 0.102869 0.127592
0.200579 0.105839 0.129967
0.256853 0.108818 0.132315
0.313152 0.111806 0.134636
0.369474 0.114802 0.136934
0.425817 0.117806 0.139211
0.482179 0.120816 0.141468
0.538557 0.123833 0.143708
0.594950 0.126854 0.145933
0.651356 0.129880 0.148145
0.707772 0.132909 0.150346
0.764197 0.135942 0.152539
0.820628 0.138977 0.154725
0.877063 0.142013 0.156907
0.000000 0.156949 0.128460
0.042768 0.159922 0.130825
0.099051 0.162905 0.133163
0.155359 0.165896 0.135475
0.211689 0.168895 0.137765
0.268039 0.171901 0.140034
0.324407 0.174914 0.142285
0.380791 0.177932 0.144520
0.437189 0.180955 0.146740
0.493599 0.183982 0.148948
0.550018 0.187013 0.151146
0.606445 0.190047 0.153336
0.662878 0.193082 0.155520
0.719314 0.196119 0.157701
0.775752 0.199156 0.159880
0.832188 0.202193 0.162060
0.888623 0.205230 0.164243
0.000000 0.219987 0.136312
0.053906 0.222989 0.138594
0.110263 0.225997 0.140856
0.166637 0.229012 0.143100
0.223027 0.232032 0.145329
0.279429 0.235057 0.147545
0.335843 0.238085 0.149749
0.392265 0.241117 0.151944
0.448694 0.244152 0.154131
0.505129 0.247188 0.156314
0.561565 0.250225 0.158494
0.618003 0.253262 0.160674
0.674439 0.256299 0.162854
0.730874 0.259336 0.165040
0.787308 0.262377 0.167238
0.843741 0.265420 0.169449
0.900168 0.268466 0.171674
0.008870 0.283111 0.143914
0.065264 0.286133 0.146137
0.121671 0.289159 0.148348
0.178088 0.292189 0.150549
0.234513 0.295222 0.152741
0.290944 0.298257 0.154927
0.347380 0.301293 0.157108
0.403817 0.304330 0.159288
0.460254 0.307368 0.161467
0.516690 0.310404 0.163649
0.573124 0.313443 0.165839
0.629558 0.316485 0.168041
0.685989 0.319529 0.170257
0.742415 0.322575 0.172489
0.798833 0.325621 0.174738
0.855240 0.328666 0.177007
0.911636 0.331710 0.179298
0.020334 0.346293 0.151348
0.076761 0.349326 0.153537
0.133195 0.352362 0.155721
0.189631 0.355399 0.157902
0.246068 0.358436 0.160081
0.302505 0.361473 0.162261
0.358940 0.364510 0.164445
0.415375 0.367550 0.166639
0.471808 0.370593 0.168846
0.528237 0.373638 0.171068
0.584660 0.376684 0.173306
0.641075 0.379730 0.175562
0.697478 0.382775 0.177839
0.753869 0.385818 0.180138
0.810244 0.388858 0.182461
0.866601 0.391895 0.184810
0.922938 0.394926 0.187187
0.031882 0.409505 0.158695
0.088320 0.412542 0.160875
0.144756 0.415578 0.163056
0.201190 0.418616 0.165243
0.257625 0.421657 0.167441
0.314057 0.424701 0.169653
0.370484 0.427747 0.171880
0.426904 0.430793 0.174125
0.483315 0.433838 0.176388
0.539714 0.436883 0.178673
0.596099 0.439925 0.180981
0.652468 0.442964 0.183313
0.708818 0.445999 0.185672
0.765148 0.449029 0.188059
0.821454 0.452052 0.190477
0.877734 0.455068 0.192928
0.933987 0.458077 0.195412
0.043441 0.472723 0.166042
0.099875 0.475765 0.168245
0.156305 0.478810 0.170462
0.212730 0.481855 0.172695
0.269147 0.484902 0.174947
0.325554 0.487947 0.177218
0.381948 0.490991 0.179510
0.438328 0.494032 0.181827
0.494690 0.497070 0.184169
0.551033 0.500103 0.186538
0.607354 0.503130 0.188936
0.663651 0.506151 0.191366
0.719922 0.509165 0.193828
0.776163 0.512170 0.196326
0.832374 0.515165 0.198860
0.888552 0.518150 0.201433
0.944693 0.521124 0.204047
0.054975 0.535964 0.173513
0.111389 0.539010 0.175771
0.167791 0.542055 0.178050
0.224181 0.545098 0.180351
0.280554 0.548138 0.182676
0.336910 0.551174 0.185028
0.393245 0.554206 0.187407
0.449557 0.557231 0.189817
0.505845 0.560249 0.192258
0.562105 0.563260 0.194733
0.618336 0.566261 0.197244
0.674535 0.569253 0.199793
0.730700 0.572234 0.202380
0.786828 0.575204 0.205009
0.842917 0.578160 0.207682
0.898966 0.581103 0.210399
0.954970 0.584032 0.213163
0.066411 0.599205 0.181195
0.122778 0.602244 0.183529
0.179126 0.605279 0.185891
0.235453 0.608308 0.188281
0.291757 0.611331 0.190702
0.348035 0.614346 0.193155
0.404285 0.617354 0.195643
0.460505 0.620352 0.198168
0.516691 0.623340 0.200730
0.572843 0.626317 0.203333
0.628957 0.629282 0.205977
0.685032 0.632234 0.208666
0.741065 0.635171 0.211400
0.797053 0.638094 0.214182
0.852995 0.641001 0.217013
0.908892 0.643892 0.219892
0.964780 0.646780 0.222780
0.077659 0.662409 0.189159
0.133954 0.665429 0.191591
0.190222 0.668442 0.194057
0.246461 0.671446 0.196558
0.302669 0.674441 0.199096
0.358843 0.677425 0.201673
0.414981 0.680398 0.204290
0.471081 0.683358 0.206951
0.527141 0.686305 0.209656
0.583158 0.689237 0.212407
0.639130 0.692154 0.215207
0.695054 0.695055 0.218057
0.750943 0.697943 0.220943
0.806832 0.700832 0.223832
0.862720 0.703720 0.226720
0.918608 0.706608 0.229608
0.974496 0.709496 0.232496
0.088632 0.725538 0.197478
0.144828 0.728529 0.200029
0.200990 0.731509 0.202621
0.257114 0.734477 0.205254
0.313200 0.737432 0.207930
0.369244 0.740374 0.210652
0.425245 0.743301 0.213421
0.481200 0.746212 0.216238
0.537107 0.749107 0.219107
0.592995 0.751995 0.221995
0.648883 0.754883 0.224883
0.704772 0.757772 0.227772
0.760660 0.760660 0.230660
0.816547 0.763547 0.233547
0.872434 0.766434 0.236434
0.928320 0.769320 0.239320
0.984204 0.772204 0.242204
0.099242 0.788554 0.206223
0.155313 0.791505 0.208916
0.211342 0.794441 0.211654
0.267326 0.797363 0.214441
0.323264 0.800268 0.217277
0.379158 0.803158 0.220158
0.435046 0.806046 0.223046
0.490935 0.808935 0.225935
0.546823 0.811823 0.228823
0.602711 0.814711 0.231711
0.658598 0.817598 0.234598
0.714485 0.820485 0.237485
0.770370 0.823370 0.240370
0.826254 0.826254 0.243254
0.882137 0.829137 0.246137
0.938017 0.832017 0.249017
0.993896 0.834896 0.251896
0.109401 0.851422 0.215467
0.165321 0.854321 0.218322
0.221210 0.857210 0.221210
0.277098 0.860098 0.224098
0.332986 0.862987 0.226986
0.388875 0.865875 0.229875
0.444762 0.868762 0.232762
0.500649 0.871649 0.235649
0.556535 0.874535 0.238535
0.612420 0.877420 0.241420
0.668304 0.880304 0.244304
0.724186 0.883186 0.247185
0.780065 0.886065 0.250065
0.835943 0.888943 0.252943
0.891818 0.891818 0.255818
0.947691 0.894691 0.258691
1.000000 0.897561 0.261561
0.119150 0.914150 0.225150
0.175038 0.917038 0.228038
0.230926 0.919926 0.230926
0.286814 0.922814 0.233814
0.342700 0.925700 0.236700
0.398586 0.928586 0.239586
0.454470 0.931470 0.242470
0.510353 0.934353 0.245353
0.566234 0.937234 0.248234
0.622113 0.940113 0.251113
0.677990 0.942990 0.253990
0.733865 0.945865 0.256865
0.789736 0.948736 0.259736
0.845605 0.951605 0.262605
0.901471 0.954471 0.265471
0.957333 0.957333 0.268333
1.000000 0.960191 0.271191
0.128865 0.976865 0.234865
0.184751 0.979751 0.237751
0.240636 0.982636 0.240636
0.296520 0.985520 0.243520
0.352402 0.988402 0.246402
0.408283 0.991283 0.249283
0.464161 0.994161 0.252161
0.520037 0.997037 0.255037
0.575910 0.999910 0.257910
0.631781 1.000000 0.260781
0.687649 1.000000 0.263649
0.743513 1.000000 0.266513
0.799374 1.000000 0.269374
0.855231 1.000000 0.272231
0.911084 1.000000 0.275084
0.966933 1.000000 0.277933
1.000000 1.000000 0.280777
0.000000 0.000000 0.156542
0.012443 0.000000 0.159283
0.068381 0.000000 0.161975
0.124364 0.000000 0.164622
0.180389 0.000000 0.167225
0.236455 0.000000 0.169787
0.292558 0.000000 0.172309
0.348698 0.000000 0.174794
0.404872 0.000000 0.177244
0.461078 0.000000 0.179662
0.517314 0.000000 0.182048
0.573578 0.001659 0.184406
0.629867 0.004644 0.186737
0.686181 0.007637 0.189044
0.742516 0.010638 0.191329
0.798871 0.013646 0.193593
0.855243 0.016660 0.195839
0.000000 0.032224 0.165574
0.022501 0.035120 0.168162
0.078580 0.038030 0.170709
