assets/presets/luts/winter-blue/lut.cube
TITLE "Winter Blue"
LUT_3D_SIZE 9
0.000000 0.000000 0.000000
0.065388 0.000000 0.000231
0.177308 0.000000 0.005572
0.289396 0.000000 0.010739
0.401639 0.000000 0.015748
0.514017 0.000000 0.020616
0.626516 0.001603 0.025362
0.739118 0.007581 0.030001
0.851807 0.013589 0.034551
0.000000 0.092038 0.012580
0.085946 0.097906 0.017536
0.198370 0.103821 0.022357
0.310909 0.109776 0.027062
0.423544 0.115765 0.031667
0.536261 0.121783 0.036188
0.649042 0.127824 0.040644
0.761870 0.133882 0.045051
0.874729 0.139951 0.049426
0.000000 0.217953 0.028749
0.107981 0.223953 0.033321
0.220723 0.229980 0.037817
0.333523 0.236028 0.042253
0.446364 0.242090 0.046646
0.559231 0.248162 0.051014
0.672106 0.254236 0.055373
0.784976 0.260311 0.059744
0.897841 0.266397 0.064161
0.018010 0.344234 0.043856
0.130862 0.350300 0.048238
0.243734 0.356373 0.052601
0.356607 0.362447 0.056961
0.469476 0.368526 0.061346
0.582336 0.374615 0.065784
0.695168 0.380707 0.070290
0.807953 0.386794 0.074880
0.920674 0.392868 0.079569
0.041108 0.470658 0.058552
0.153976 0.476742 0.062954
0.266827 0.482833 0.067416
0.379644 0.488924 0.071951
0.492408 0.495007 0.076575
0.605101 0.501074 0.081304
0.717703 0.507119 0.086152
0.830197 0.513132 0.091135
0.942564 0.519106 0.096267
0.064114 0.597140 0.073623
0.176854 0.603218 0.078284
0.289516 0.609278 0.083054
0.402081 0.615312 0.087950
0.514530 0.621312 0.092985
0.626846 0.627269 0.098176
0.739009 0.633178 0.103538
0.851002 0.639028 0.109084
0.962818 0.644818 0.114818
0.086443 0.723500 0.089766
0.198846 0.729486 0.094856
0.311109 0.735426 0.100108
0.423212 0.741315 0.105535
0.535138 0.747142 0.111153
0.646922 0.752922 0.116921
0.758698 0.758698 0.122698
0.870474 0.764473 0.128474
0.982245 0.770245 0.134245
0.107391 0.849444 0.107557
0.219248 0.855248 0.113248
0.331025 0.861025 0.119025
0.442801 0.866801 0.124801
0.554575 0.872575 0.130575
0.666345 0.878345 0.136345
0.778110 0.884110 0.142110
0.889866 0.889866 0.147866
1.000000 0.895612 0.153612
0.126904 0.974904 0.126904
0.238677 0.980677 0.132677
0.350445 0.986445 0.138445
0.462206 0.992206 0.144206
0.573959 0.997959 0.149959
0.685701 1.000000 0.155701
0.797431 1.000000 0.161431
0.909146 1.000000 0.167147
1.000000 1.000000 0.172846
0.000000 0.000000 0.102600
0.067379 0.000000 0.108066
0.179357 0.000000 0.113346
0.291500 0.000000 0.118457
0.403790 0.000000 0.123416
0.516212 0.000000 0.128241
0.628748 0.003630 0.132948
0.741381 0.009618 0.137555
0.854096 0.015636 0.142078
0.000000 0.094025 0.120279
0.088114 0.099910 0.125187
0.200579 0.105839 0.129967
0.313152 0.111806 0.134636
0.425817 0.117806 0.139211
0.538557 0.123833 0.143708
0.651356 0.129880 0.148145
0.764197 0.135942 0.152539
0.877063 0.142013 0.156907
0.000000 0.219987 0.136312
0.110263 0.225997 0.140856
0.223027 0.232032 0.145329
0.335843 0.238085 0.149749
0.448694 0.244152 0.154131
0.561565 0.250225 0.158494
0.674439 0.256299 0.162854
0.787308 0.262377 0.167238
0.900168 0.268466 0.171674
0.020334 0.346293 0.151348
0.133195 0.352362 0.155721
0.246068 0.358436 0.160081
0.358940 0.364510 0.164445
0.471808 0.370593 0.168846
0.584660 0.376684 0.173306
0.697478 0.382775 0.177839
0.810244 0.388858 0.182461
0.922938 0.394926 0.187187
0.043441 0.472723 0.166042
0.156305 0.478810 0.170462
0.269147 0.484902 0.174947
0.381948 0.490991 0.179510
0.494690 0.497070 0.184169
0.607354 0.503130 0.188936
0.719922 0.509165 0.193828
0.832374 0.515165 0.198860
0.944693 0.521124 0.204047
0.066411 0.599205 0.181195
0.179126 0.605279 0.185891
0.291757 0.611331 0.190702
0.404285 0.617354 0.195643
0.516691 0.623340 0.200730
0.628957 0.629282 0.205977
0.741065 0.635171 0.211400
0.852995 0.641001 0.217013
0.964780 0.646780 0.222780
0.088632 0.725538 0.197478
0.200990 0.731509 0.202621
0.313200 0.737432 0.207930
0.425245 0.743301 0.213421
0.537107 0.749107 0.219107
0.648883 0.754883 0.224883
0.760660 0.760660 0.230660
0.872434 0.766434 0.236434
0.984204 0.772204 0.242204
0.109401 0.851422 0.215467
0.221210 0.857210 0.221210
0.332986 0.862987 0.226986
0.444762 0.868762 0.232762
0.556535 0.874535 0.238535
0.668304 0.880304 0.244304
0.780065 0.886065 0.250065
0.891818 0.891818 0.255818
1.000000 0.897561 0.261561
0.128865 0.976865 0.234865
0.240636 0.982636 0.240636
0.352402 0.988402 0.246402
0.464161 0.994161 0.252161
0.575910 0.999910 0.257910
0.687649 1.000000 0.263649
0.799374 1.000000 0.269374
0.911084 1.000000 0.275084
1.000000 1.000000 0.280777
0.000000 0.000000 0.210478
0.069389 0.000000 0.215879
0.181426 0.000000 0.221099
0.293620 0.000000 0.226157
0.405957 0.000000 0.231069
0.518419 0.000000 0.235852
0.630990 0.005660 0.240523
0.743653 0.011659 0.245100
0.856392 0.017685 0.249599
0.000000 0.096019 0.227961
0.090296 0.101919 0.232824
0.202800 0.107861 0.237565
0.315406 0.113840 0.242199
0.428099 0.119850 0.246746
0.540861 0.125884 0.251221
0.653675 0.131937 0.255641
0.766526 0.138003 0.260025
0.879397 0.144076 0.264388
0.000000 0.222025 0.243864
0.112553 0.228044 0.248382
0.225336 0.234086 0.252835
0.338166 0.240144 0.257241
0.451026 0.246214 0.261614
0.563900 0.252288 0.265974
0.676772 0.258361 0.270338
0.789640 0.264444 0.274738
0.902493 0.270535 0.279196
0.022661 0.348353 0.258836
0.135528 0.354425 0.263203
0.248403 0.360499 0.267562
0.361273 0.366574 0.271934
0.474137 0.372661 0.276353
0.586980 0.378753 0.280836
0.699783 0.384842 0.285398
0.812526 0.390921 0.290053
0.925192 0.396982 0.294818
0.045773 0.474789 0.273537
0.158632 0.480878 0.277977
0.271462 0.486970 0.282487
0.384245 0.493057 0.287081
0.496963 0.499130 0.291775
0.609596 0.505183 0.296583
0.722127 0.511207 0.301521
0.834536 0.517194 0.306604
0.946806 0.523137 0.311847
0.068700 0.601270 0.288777
0.181389 0.607337 0.293511
0.293987 0.613380 0.298365
0.406475 0.619391 0.303354
0.518836 0.625363 0.308493
0.631050 0.631288 0.313798
0.743099 0.637158 0.319284
0.854965 0.642965 0.324965
0.966742 0.648742 0.330742
0.090807 0.727570 0.305207
0.203116 0.733526 0.310405
0.315273 0.739432 0.315774
0.427257 0.745280 0.321329
0.539068 0.751068 0.327068
0.650845 0.756845 0.332845
0.762621 0.762621 0.338621
0.874394 0.768394 0.344394
0.986163 0.774163 0.350163
0.111390 0.853393 0.323401
0.223171 0.859172 0.329171
0.334948 0.864948 0.334948
0.446723 0.870723 0.340723
0.558495 0.876495 0.346495
0.670261 0.882261 0.352261
0.782020 0.888020 0.358020
0.893770 0.893770 0.363770
1.000000 0.899508 0.369508
0.130825 0.978825 0.342825
0.242595 0.984595 0.348595
0.354359 0.990359 0.354359
0.466115 0.996115 0.360115
0.577860 1.000000 0.365860
0.689595 1.000000 0.371594
0.801315 1.000000 0.377315
0.913019 1.000000 0.383019
1.000000 1.000000 0.388706
0.000000 0.000000 0.318334
0.071421 0.000000 0.323671
0.183513 0.000000 0.328834
0.295757 0.000000 0.333841
0.408139 0.000000 0.338707
0.520639 0.001716 0.343450
0.633244 0.007694 0.348087
0.745934 0.013703 0.352635
0.858694 0.019736 0.357112
0.000000 0.098017 0.335627
0.092492 0.103932 0.340447
0.205033 0.109888 0.345149
0.317670 0.115878 0.349752
0.430388 0.121897 0.354273
0.543170 0.127938 0.358727
0.655999 0.133996 0.363133
0.768858 0.140065 0.367508
0.881732 0.146139 0.371868
0.002107 0.224066 0.351407
0.114850 0.230094 0.355901
0.227651 0.236142 0.360336
0.340493 0.242205 0.364729
0.453360 0.248276 0.369096
0.566235 0.254350 0.373455
0.679105 0.260425 0.377827
0.791970 0.266512 0.382244
0.904813 0.272604 0.386726
0.024991 0.350414 0.366321
0.137863 0.356487 0.370683
0.250736 0.362561 0.375043
0.363605 0.368640 0.379429
0.476465 0.374729 0.383868
0.589296 0.380821 0.388376
0.702080 0.386908 0.392967
0.814799 0.392982 0.397658
0.927435 0.399035 0.402464
0.048105 0.476856 0.381038
0.160956 0.482947 0.385500
0.273772 0.489038 0.390037
0.386535 0.495121 0.394663
0.499226 0.501188 0.399394
0.611826 0.507232 0.404244
0.724318 0.513244 0.409230
0.836682 0.519218 0.414366
0.948900 0.525144 0.419666
0.070980 0.603332 0.396372
0.183640 0.609392 0.401145
0.296203 0.615425 0.406043
0.408651 0.621424 0.411081
0.520964 0.627381 0.416275
0.633124 0.633288 0.421640
0.745113 0.639138 0.427191
0.856927 0.644927 0.432927
0.968704 0.650704 0.438704
0.092965 0.729598 0.412954
0.205225 0.735538 0.418208
0.317325 0.741425 0.423639
0.429247 0.747251 0.429261
0.541030 0.753030 0.435030
0.652807 0.758807 0.440807
0.764582 0.764582 0.446582
0.876354 0.770354 0.452354
0.988120 0.776120 0.458120
0.113357 0.855357 0.431357
0.225133 0.861133 0.437133
0.336910 0.866910 0.442910
0.448684 0.872684 0.448684
0.560454 0.878454 0.454454
0.672218 0.884218 0.460218
0.783974 0.889974 0.465974
0.895720 0.895720 0.471720
1.000000 0.901454 0.477454
0.132785 0.980785 0.450785
0.244553 0.986553 0.456553
0.356315 0.992315 0.462315
0.468067 0.998067 0.468067
0.579809 1.000000 0.473809
0.691539 1.000000 0.479539
0.803254 1.000000 0.485254
0.914953 1.000000 0.490953
1.000000 1.000000 0.496633
0.000000 0.000000 0.426167
0.073471 0.000000 0.431443
0.185617 0.000000 0.436551
0.297910 0.000000 0.441508
0.410334 0.000000 0.446330
0.522871 0.003742 0.451036
0.635507 0.009731 0.455641
0.748223 0.015749 0.460163
0.861003 0.021790 0.464619
0.000000 0.100021 0.443278
0.094702 0.105951 0.448056
0.207277 0.111919 0.452723
0.319943 0.117919 0.457296
0.432685 0.123946 0.461792
0.545484 0.129994 0.466228
0.658326 0.136056 0.470621
0.771192 0.142128 0.474989
0.884067 0.148202 0.479348
0.004390 0.226111 0.458941
0.117154 0.232146 0.463413
0.229971 0.238200 0.467832
0.342824 0.244266 0.472214
0.455695 0.250339 0.476576
0.568568 0.256413 0.480936
0.681437 0.262491 0.485321
0.794297 0.268580 0.489758
0.907129 0.274672 0.494264
0.027324 0.352476 0.473803
0.140198 0.358550 0.478163
0.253069 0.364624 0.482527
0.365937 0.370707 0.486929
0.478789 0.376798 0.491390
0.591606 0.382889 0.495925
0.704370 0.388973 0.500549
0.817063 0.395040 0.505277
0.929666 0.401085 0.510124
0.050434 0.478924 0.488546
0.163276 0.485016 0.493032
0.276076 0.491105 0.497597
0.388816 0.497184 0.502257
0.501479 0.503244 0.507027
0.614044 0.509278 0.511922
0.726494 0.515278 0.516956
0.838811 0.521236 0.522146
0.950975 0.527144 0.527507
0.073252 0.605393 0.503980
0.185881 0.611444 0.508794
0.298407 0.617467 0.513738
0.410810 0.623452 0.518827
0.523074 0.629393 0.524077
0.635178 0.635282 0.529504
0.747105 0.641110 0.535121
0.858889 0.646889 0.540889
0.970666 0.652666 0.546666
0.095108 0.731621 0.520719
0.207315 0.737543 0.526032
0.319357 0.743411 0.531526
0.431215 0.749215 0.537215
0.542992 0.754992 0.542992
0.654768 0.760768 0.548768
0.766543 0.766543 0.554543
0.878313 0.772313 0.560313
0.990077 0.778077 0.566077
0.115318 0.857318 0.539318
0.227095 0.863095 0.545095
0.338871 0.868871 0.550871
0.450644 0.874644 0.556644
0.562412 0.880412 0.562412
0.674174 0.886174 0.568174
0.785927 0.891927 0.573927
0.897669 0.897669 0.579669
1.000000 0.903399 0.585399
0.134745 0.982745 0.558745
0.246511 0.988511 0.564511
0.358269 0.994269 0.570269
0.470018 1.000000 0.576018
0.581756 1.000000 0.581756
0.693481 1.000000 0.587481
0.805191 1.000000 0.593191
0.916884 1.000000 0.598884
1.000000 1.000000 0.604558
0.000000 0.000000 0.533979
0.075541 0.000000 0.539196
0.187738 0.000000 0.544251
0.300078 0.000000 0.549160
0.412542 0.000000 0.553941
0.525115 0.005772 0.558610
0.637779 0.011772 0.563185
0.750519 0.017798 0.567683
0.863318 0.023846 0.572120
0.000000 0.102030 0.550914
0.096923 0.107974 0.555653
0.209531 0.113953 0.560286
0.322225 0.119963 0.564830
0.434988 0.125998 0.569304
0.547804 0.132051 0.573724
0.660656 0.138117 0.578107
0.773527 0.144190 0.582470
0.886400 0.150264 0.586830
0.006680 0.228158 0.566467
0.119464 0.234200 0.570919
0.232295 0.240259 0.575323
0.345156 0.246328 0.579697
0.458030 0.252402 0.584056
0.570901 0.258475 0.588420
0.683769 0.264558 0.592821
0.796621 0.270649 0.597280
0.909440 0.276740 0.601813
0.029658 0.354539 0.581285
0.142532 0.360613 0.585644
0.255402 0.366689 0.590017
0.368266 0.372775 0.594437
0.481109 0.378867 0.598921
0.593910 0.384956 0.603484
0.706652 0.391035 0.608142
0.819317 0.397096 0.612909
0.931885 0.403131 0.617800
0.052761 0.480993 0.596061
0.165591 0.487085 0.600572
0.278372 0.493171 0.605168
0.391089 0.499244 0.609864
0.503720 0.505296 0.614674
0.616248 0.511320 0.619615
0.728655 0.517306 0.624701
0.840922 0.523248 0.629947
0.953031 0.529138 0.635369
0.075514 0.607451 0.611601
0.188110 0.613493 0.616457
0.300596 0.619504 0.621449
0.412954 0.625475 0.626591
0.525165 0.631399 0.631900
0.637212 0.637268 0.637389
0.749074 0.643074 0.643074
0.860851 0.648851 0.648851
0.972627 0.654627 0.654627
0.097233 0.733638 0.628504
0.209387 0.739543 0.633876
0.321368 0.745389 0.639435
0.433177 0.751177 0.645177
0.544954 0.756954 0.650954
0.656730 0.762730 0.656730
0.768503 0.768503 0.662503
0.880271 0.774271 0.668271
0.992033 0.780033 0.674033
0.117280 0.859280 0.647280
0.229057 0.865057 0.653057
0.340832 0.870832 0.658832
0.452604 0.876604 0.664604
0.564370 0.882370 0.670370
0.676128 0.888128 0.676128
0.787878 0.893878 0.681878
0.899616 0.899616 0.687616
1.000000 0.905342 0.693341
0.136704 0.984704 0.666704
0.248467 0.990467 0.672467
0.360223 0.996223 0.678223
0.471968 1.000000 0.683968
0.583702 1.000000 0.689702
0.695422 1.000000 0.695422
0.807127 1.000000 0.701127
0.918813 1.000000 0.706813
1.000000 1.000000 0.712480
0.000000 0.000000 0.641770
0.077629 0.000000 0.646930
0.189876 0.000000 0.651933
0.302260 0.000000 0.656797
0.414763 0.001828 0.661538
0.527369 0.007807 0.666173
0.640061 0.013816 0.670720
0.752822 0.019850 0.675196
0.865637 0.025903 0.679616
0.000000 0.104044 0.658536
0.099157 0.110000 0.663237
0.211796 0.115991 0.667838
0.324515 0.122010 0.672357
0.437298 0.128052 0.676810
0.550128 0.134110 0.681216
0.662988 0.140179 0.685590
0.775862 0.146253 0.689950
0.888733 0.152327 0.694313
0.008978 0.230207 0.673985
0.121780 0.236256 0.678419
0.234622 0.242319 0.682811
0.347490 0.248390 0.687178
0.460364 0.254465 0.691537
0.573234 0.260540 0.695909
0.686099 0.266626 0.700328
0.798942 0.272718 0.704811
0.911744 0.278808 0.709372
0.031992 0.356602 0.688765
0.144866 0.362676 0.693125
0.257735 0.368755 0.697512
0.370594 0.374844 0.701952
0.483424 0.380936 0.706461
0.596207 0.387022 0.711055
0.708925 0.393096 0.715748
0.821559 0.399149 0.720555
0.934090 0.405173 0.725493
0.055085 0.483062 0.703585
0.167900 0.489153 0.708123
0.280662 0.495236 0.712751
0.393351 0.501302 0.717484
0.505950 0.507346 0.722337
0.618439 0.513357 0.727325
0.730800 0.519330 0.732464
0.843015 0.525255 0.737768
0.955066 0.531125 0.743252
0.077765 0.609506 0.719236
0.190326 0.615538 0.724137
0.302771 0.621537 0.729178
0.415081 0.627493 0.734375
0.527238 0.633399 0.739743
0.639224 0.639247 0.745297
0.751036 0.645036 0.751036
0.862813 0.650813 0.756813
0.974589 0.656589 0.762589
0.099341 0.735649 0.736309
0.211438 0.741535 0.741743
0.323357 0.747360 0.747368
0.435139 0.753139 0.753139
0.546916 0.758916 0.758916
0.658691 0.764691 0.764691
0.770462 0.770462 0.770462
0.882229 0.776229 0.776229
0.993988 0.781988 0.781988
0.119242 0.861242 0.755242
0.231018 0.867018 0.761018
0.342793 0.872793 0.766793
0.454562 0.878562 0.772562
0.566326 0.884326 0.778326
0.678082 0.890082 0.784082
0.789828 0.895828 0.789828
0.901562 0.901562 0.795562
1.000000 0.907282 0.801282
0.138662 0.986662 0.774662
0.250423 0.992423 0.780423
0.362175 0.998175 0.786175
0.473917 1.000000 0.791917
0.585646 1.000000 0.797646
0.697361 1.000000 0.803361
0.809060 1.000000 0.809060
0.920740 1.000000 0.814740
1.000000 1.000000 0.820400
0.000000 0.000000 0.749541
0.079734 0.000000 0.754646
0.192030 0.000000 0.759600
0.304456 0.000000 0.764420
0.416995 0.003854 0.769123
0.529632 0.009844 0.773727
0.642350 0.015863 0.778247
0.755131 0.021904 0.782702
0.867960 0.027962 0.787108
0.000000 0.106063 0.766145
0.101401 0.112031 0.770810
0.214070 0.118032 0.775381
0.326812 0.124060 0.779876
0.439613 0.130108 0.784311
0.552455 0.136170 0.788704
0.665321 0.142242 0.793071
0.778196 0.148316 0.797430
0.891066 0.154391 0.801802
0.011282 0.232260 0.781497
0.124100 0.238314 0.785914
0.236953 0.244380 0.790296
0.349824 0.250453 0.794658
0.462698 0.256527 0.799019
0.575567 0.262606 0.803404
0.688426 0.268695 0.807842
0.801257 0.274787 0.812350
0.914042 0.280874 0.816941
0.034327 0.358665 0.796245
0.147198 0.364738 0.800610
0.260066 0.370822 0.805013
0.372917 0.376913 0.809475
0.485734 0.383004 0.814011
0.598497 0.389087 0.818637
0.711188 0.395154 0.823367
0.823789 0.401198 0.828217
0.936282 0.407211 0.833201
0.057404 0.485131 0.811117
0.170203 0.491220 0.815684
0.282942 0.497298 0.820346
0.395603 0.503358 0.825118
0.508167 0.509391 0.830015
0.620615 0.515390 0.835053
0.732928 0.521348 0.840246
0.845090 0.527255 0.845609
0.957080 0.533105 0.851159
0.080005 0.611558 0.826885
0.192528 0.617580 0.831832
0.304930 0.623564 0.836924
0.417190 0.629504 0.842178
0.529291 0.635392 0.847607
0.641214 0.641219 0.853228
0.752998 0.646998 0.858998
0.864774 0.652774 0.864774
0.976550 0.658550 0.870550
0.101431 0.737654 0.844133
0.213469 0.743521 0.849631
0.325324 0.749324 0.855324
0.437101 0.755101 0.861101
0.548877 0.760877 0.866877
0.660651 0.766651 0.872651
0.772421 0.772421 0.878421
0.884185 0.778185 0.884185
0.995941 0.783941 0.889941
0.121204 0.863204 0.863204
0.232980 0.868980 0.868980
0.344753 0.874753 0.874753
0.456521 0.880521 0.880521
0.568282 0.886282 0.886282
0.680035 0.892035 0.892035
0.791777 0.897777 0.897777
0.903506 0.903506 0.903506
1.000000 0.909222 0.909222
0.140619 0.988619 0.882619
0.252377 0.994377 0.888377
0.364127 1.000000 0.894127
0.475864 1.000000 0.899864
0.587589 1.000000 0.905589
0.699298 1.000000 0.911298
0.810991 1.000000 0.916991
0.922665 1.000000 0.922665
1.000000 1.000000 0.928317
0.000000 0.000000 0.857293
0.081856 0.000000 0.862344
0.194198 0.000000 0.867251
0.306665 0.000000 0.872030
0.419239 0.005885 0.876697
0.531906 0.011885 0.881270
0.644647 0.017912 0.885767
0.757446 0.023960 0.890203
0.870287 0.030022 0.894597
0.000000 0.108086 0.873741
0.103657 0.114066 0.878372
0.216352 0.120077 0.882915
0.329116 0.126112 0.887388
0.441933 0.132165 0.891807
0.554785 0.138232 0.896189
0.667656 0.144305 0.900552
0.780530 0.150379 0.904912
0.893399 0.156457 0.909296
0.013593 0.234314 0.889002
0.126424 0.240373 0.893406
0.239285 0.246442 0.897779
0.352159 0.252516 0.902138
0.465030 0.258590 0.906503
0.577898 0.264673 0.910904
0.690750 0.270764 0.915365
0.803568 0.276855 0.919899
0.916332 0.282938 0.924522
0.036662 0.360727 0.903726
0.149531 0.366803 0.908099
0.262396 0.372890 0.912521
0.375237 0.378982 0.917006
0.488038 0.385071 0.921571
0.600778 0.391150 0.926231
0.713441 0.397210 0.931000
0.826007 0.403244 0.935894
0.938458 0.409244 0.940928
0.059719 0.487199 0.918658
0.172500 0.493286 0.923256
0.285214 0.499358 0.927953
0.397844 0.505410 0.932766
0.510370 0.511433 0.937709
0.622775 0.517419 0.942798
0.735039 0.523360 0.948047
0.847144 0.529248 0.953472
0.959072 0.535077 0.959088
0.082233 0.613606 0.934550
0.194717 0.619617 0.939544
0.307072 0.625587 0.944690
0.419281 0.631510 0.950001
0.531324 0.637378 0.955494
0.643183 0.643183 0.961183
0.754959 0.648959 0.966959
0.866736 0.654736 0.972736
0.978510 0.660510 0.978510
0.103501 0.739653 0.951979
0.215479 0.745499 0.957542
0.327286 0.751286 0.963286
0.439063 0.757063 0.969063
0.550838 0.762838 0.974838
0.662611 0.768611 0.980611
0.774380 0.774380 0.986380
0.886141 0.780141 0.992141
0.997894 0.785894 0.997894
0.123166 0.865166 0.971166
0.234941 0.870941 0.976941
0.346712 0.876712 0.982712
0.458478 0.882478 0.988478
0.570237 0.888237 0.994237
0.681986 0.893986 0.999986
0.793724 0.899724 1.000000
0.905449 0.905449 1.000000
1.000000 0.911159 1.000000
0.142576 0.990576 0.990576
0.254331 0.996331 0.996331
0.366076 1.000000 1.000000
0.477810 1.000000 1.000000
0.589530 1.000000 1.000000
0.701234 1.000000 1.000000
0.812920 1.000000 1.000000
0.924587 1.000000 1.000000
1.000000 1.000000 1.000000
