assets/presets/luts/steel-blue/lut.cube
TITLE "Steel Blue"
LUT_3D_SIZE 9
0.000000 0.000000 0.000000
0.016234 0.000000 0.000000
0.141003 0.000000 0.000000
0.265772 0.000000 0.000000
0.390610 0.000000 0.000000
0.515590 0.000000 0.000000
0.640699 0.000000 0.000000
0.765920 0.000000 0.000000
0.891238 0.000000 0.000000
0.000000 0.044971 0.000000
0.038144 0.051219 0.000000
0.163184 0.057584 0.000000
0.288346 0.063979 0.000000
0.413613 0.070400 0.000000
0.538971 0.076844 0.000000
0.664404 0.083307 0.000000
0.789897 0.089785 0.000000
0.915434 0.096274 0.000000
0.000000 0.188801 0.000000
0.061343 0.195149 0.000000
0.186737 0.201602 0.000000
0.312200 0.208072 0.000000
0.437715 0.214555 0.000000
0.563268 0.221048 0.000000
0.688843 0.227546 0.000000
0.814425 0.234046 0.000000
0.939999 0.240555 0.002519
0.000000 0.332924 0.000000
0.085541 0.339327 0.000000
0.211106 0.345823 0.000000
0.336686 0.352323 0.000000
0.462266 0.358823 0.000000
0.587831 0.365345 0.005094
0.713365 0.371895 0.010810
0.838854 0.378464 0.016664
0.964282 0.385045 0.022661
0.000000 0.477184 0.000000
0.110104 0.483606 0.002056
0.235657 0.490142 0.007698
0.361172 0.496701 0.013476
0.486635 0.503277 0.019396
0.612029 0.509861 0.025459
0.737341 0.516446 0.031671
0.862553 0.523023 0.038035
0.987652 0.529587 0.044555
0.010612 0.621597 0.016250
0.134401 0.628091 0.022158
0.259759 0.634676 0.028289
0.385027 0.641259 0.034570
0.510190 0.647831 0.041005
0.635231 0.654385 0.047597
0.760136 0.660914 0.054351
0.884918 0.667416 0.061242
1.000000 0.673916 0.068148
0.034332 0.766156 0.037585
0.157801 0.772635 0.044007
0.282782 0.779179 0.050673
0.407619 0.785693 0.057502
0.532388 0.792193 0.064408
0.657157 0.798692 0.071311
0.781926 0.805186 0.078200
0.906695 0.811672 0.085064
1.000000 0.818145 0.091889
0.056724 0.910554 0.060758
0.179859 0.916969 0.067574
0.304628 0.923467 0.074472
0.429397 0.929957 0.081351
0.554166 0.936438 0.088198
0.678935 0.942904 0.095003
0.803704 0.949352 0.101754
0.928473 0.955778 0.108439
1.000000 0.962179 0.115048
0.078502 1.000000 0.084584
0.201636 1.000000 0.091324
0.326405 1.000000 0.098105
0.451174 1.000000 0.104828
0.575943 1.000000 0.111479
0.700712 1.000000 0.118049
0.825481 1.000000 0.124525
0.950250 1.000000 0.130895
1.000000 1.000000 0.137193
0.000000 0.000000 0.044098
0.018514 0.000000 0.050312
0.143283 0.000000 0.056609
0.268060 0.000000 0.062898
0.392951 0.000000 0.069073
0.517979 0.000000 0.075110
0.643130 0.000000 0.081025
0.768389 0.000000 0.086832
0.893738 0.000000 0.092548
0.000000 0.047260 0.065812
0.040507 0.053520 0.071841
0.165593 0.059896 0.077821
0.290795 0.066301 0.083685
0.416097 0.072731 0.089449
0.541484 0.079183 0.095128
0.666940 0.085651 0.100737
0.792451 0.092134 0.106292
0.918001 0.098626 0.111808
0.000000 0.191127 0.086414
0.063841 0.197483 0.092062
0.189261 0.203943 0.097707
0.314745 0.210418 0.103290
0.440275 0.216905 0.108825
0.565838 0.223400 0.114328
0.691417 0.229900 0.119815
0.816998 0.236400 0.125300
0.942565 0.242919 0.130868
0.000000 0.335272 0.105905
0.088106 0.341679 0.111351
0.213678 0.348176 0.116845
0.339260 0.354676 0.122329
0.464837 0.361181 0.127836
0.590392 0.367714 0.133466
0.715912 0.374272 0.139231
0.841380 0.380846 0.145137
0.966782 0.387430 0.151186
0.000000 0.479538 0.124916
0.112671 0.485969 0.130401
0.238212 0.492515 0.136092
0.363710 0.499081 0.141921
0.489150 0.505660 0.147892
0.614516 0.512245 0.154009
0.739793 0.518829 0.160275
0.864967 0.525402 0.166695
0.990020 0.531958 0.173272
0.013140 0.623979 0.144719
0.136904 0.630475 0.150678
0.262231 0.637061 0.156863
0.387463 0.643640 0.163199
0.512583 0.650207 0.169691
0.637577 0.656753 0.176341
0.762429 0.663270 0.183154
0.887198 0.669770 0.190060
1.000000 0.676269 0.196964
0.036748 0.768535 0.166241
0.160173 0.775007 0.172720
0.285104 0.781541 0.179444
0.409900 0.788046 0.186320
0.534669 0.794546 0.193226
0.659437 0.801044 0.200126
0.784207 0.807536 0.207007
0.908975 0.814017 0.213858
1.000000 0.820485 0.220667
0.059004 0.912908 0.189577
0.182139 0.919322 0.196391
0.306908 0.925818 0.203283
0.431677 0.932305 0.210152
0.556446 0.938781 0.216985
0.681215 0.945241 0.223772
0.805984 0.951682 0.230500
0.930753 0.958099 0.237159
1.000000 0.964490 0.243737
0.080782 1.000000 0.213379
0.203916 1.000000 0.220103
0.328685 1.000000 0.226865
0.453454 1.000000 0.233563
0.578223 1.000000 0.240186
0.702992 1.000000 0.246723
0.827761 1.000000 0.253162
0.952530 1.000000 0.259494
1.000000 1.000000 0.265791
0.000000 0.000000 0.171352
0.020771 0.000000 0.177566
0.145540 0.000000 0.183863
0.270343 0.000000 0.190125
0.395285 0.000000 0.196249
0.520359 0.000000 0.202241
0.645550 0.000000 0.208115
0.770843 0.000000 0.213888
0.896222 0.000000 0.219575
0.000000 0.049529 0.193015
0.042863 0.055801 0.198996
0.167992 0.062188 0.204933
0.293232 0.068603 0.210759
0.418566 0.075041 0.216491
0.543979 0.081499 0.222143
0.669457 0.087973 0.227731
0.794983 0.094459 0.233271
0.920543 0.100953 0.238776
0.000000 0.193432 0.213473
0.066322 0.199796 0.219091
0.191767 0.206261 0.224712
0.317269 0.212741 0.230276
0.442813 0.219232 0.235798
0.568383 0.225729 0.241294
0.693965 0.232229 0.246778
0.819543 0.238732 0.252278
0.945101 0.245262 0.257894
0.000000 0.337597 0.232884
0.090648 0.344006 0.238320
0.216226 0.350505 0.243808
0.341807 0.357005 0.249292
0.467378 0.363519 0.254836
0.592923 0.370062 0.260514
0.718426 0.376626 0.266329
0.843872 0.383205 0.272286
0.969246 0.389789 0.278388
0.000000 0.481869 0.251890
0.115208 0.488312 0.257422
0.240735 0.494865 0.263162
0.366214 0.501437 0.269042
0.491629 0.508020 0.275065
0.616965 0.514605 0.281235
0.742207 0.521185 0.287556
0.867339 0.527754 0.294032
0.992347 0.534302 0.300666
0.015633 0.626337 0.271864
0.139370 0.632835 0.277875
0.264665 0.639419 0.284114
0.389858 0.645995 0.290505
0.514935 0.652555 0.297053
0.639880 0.659092 0.303762
0.764686 0.665599 0.310626
0.889454 0.672099 0.317533
1.000000 0.678597 0.324434
0.039124 0.770887 0.293573
0.162503 0.777352 0.300109
0.287383 0.783875 0.306892
0.412156 0.790376 0.313793
0.536925 0.796875 0.320698
0.661694 0.803371 0.327592
0.786463 0.809859 0.334464
0.911232 0.816336 0.341301
1.000000 0.822798 0.348093
0.061261 0.915237 0.317050
0.184395 0.921650 0.323861
0.309164 0.928143 0.330746
0.433933 0.934627 0.337603
0.558702 0.941097 0.344421
0.683471 0.947551 0.351188
0.808240 0.953984 0.357893
0.933009 0.960392 0.364524
1.000000 0.966772 0.371070
0.083038 1.000000 0.340824
0.206172 1.000000 0.347531
0.330941 1.000000 0.354271
0.455710 1.000000 0.360943
0.580479 1.000000 0.367537
0.705248 1.000000 0.374040
0.830017 1.000000 0.380441
0.954786 1.000000 0.386749
1.000000 1.000000 0.393045
0.000000 0.000000 0.298606
0.023027 0.000000 0.304821
0.147796 0.000000 0.311118
0.272645 0.000000 0.317334
0.397636 0.000000 0.323409
0.522754 0.000000 0.329357
0.647983 0.000000 0.335193
0.773309 0.000000 0.340933
0.898715 0.000000 0.346593
0.000000 0.051802 0.320200
0.045235 0.058086 0.326135
0.170405 0.064484 0.332030
0.295680 0.070907 0.337821
0.421044 0.077353 0.343523
0.546483 0.083817 0.349150
0.671980 0.090295 0.354719
0.797520 0.096785 0.360245
0.923088 0.103282 0.365742
0.000000 0.195740 0.340520
0.068813 0.202110 0.346111
0.194280 0.208582 0.351710
0.319799 0.215066 0.357257
0.445354 0.221559 0.362768
0.570930 0.228058 0.368257
0.696512 0.234558 0.373741
0.822085 0.241069 0.379273
0.947633 0.247609 0.384937
0.000000 0.339924 0.359859
0.093193 0.346335 0.365286
0.218773 0.352834 0.370771
0.344353 0.359335 0.376262
0.469916 0.365860 0.381853
0.595447 0.372412 0.387580
0.720932 0.378982 0.393445
0.846354 0.385564 0.399454
0.971699 0.392149 0.405609
0.000000 0.484205 0.378882
0.117741 0.490657 0.384462
0.243252 0.497218 0.390251
0.368710 0.503795 0.396182
0.494099 0.510379 0.402257
0.619403 0.516964 0.408481
0.744607 0.523541 0.414857
0.869696 0.530103 0.421389
0.994655 0.536642 0.428081
0.018117 0.628696 0.399028
0.141826 0.635195 0.405092
0.267086 0.641777 0.411385
0.392239 0.648348 0.417832
0.517270 0.654900 0.424437
0.642164 0.661427 0.431203
0.766942 0.667928 0.438099
0.891711 0.674428 0.445005
1.000000 0.680924 0.451901
0.041484 0.773237 0.420926
0.164816 0.779693 0.427519
0.289643 0.786205 0.434359
0.414412 0.792705 0.441266
0.539181 0.799203 0.448168
0.663950 0.805697 0.455056
0.788719 0.812182 0.461916
0.913488 0.818654 0.468739
1.000000 0.825109 0.475511
0.063517 0.917566 0.444522
0.186651 0.923978 0.451329
0.311420 0.930468 0.458205
0.436189 0.936947 0.465050
0.560958 0.943412 0.471851
0.685727 0.949859 0.478597
0.810496 0.956283 0.485277
0.935265 0.962682 0.491879
1.000000 0.969050 0.498391
0.085294 1.000000 0.468263
0.208428 1.000000 0.474951
0.333197 1.000000 0.481668
0.457966 1.000000 0.488314
0.582735 1.000000 0.494876
0.707504 1.000000 0.501344
0.832273 1.000000 0.507706
0.957042 1.000000 0.514003
1.000000 1.000000 0.520300
0.000000 0.000000 0.425861
0.025283 0.000000 0.432075
0.150063 0.000000 0.438361
0.274965 0.000000 0.444525
0.400004 0.000000 0.450552
0.525163 0.000000 0.456458
0.650429 0.000000 0.462258
0.775785 0.000000 0.467968
0.901217 0.000000 0.473602
0.000000 0.054080 0.447368
0.047622 0.060375 0.453259
0.172832 0.066782 0.459115
0.298140 0.073214 0.464872
0.423533 0.079667 0.470545
0.548994 0.086137 0.476150
0.674508 0.092620 0.481702
0.800060 0.099112 0.487215
0.925635 0.105611 0.492706
0.000000 0.198051 0.467557
0.071313 0.204427 0.473122
0.196800 0.210904 0.478701
0.322333 0.217392 0.484233
0.447898 0.223887 0.489735
0.573478 0.230387 0.495220
0.699058 0.236887 0.500708
0.824624 0.243409 0.506286
0.950159 0.249958 0.511998
0.000000 0.342251 0.486830
0.095739 0.348663 0.492251
0.221321 0.355163 0.497734
0.346896 0.361670 0.503248
0.472450 0.368205 0.508888
0.597966 0.374764 0.514663
0.723430 0.381339 0.520580
0.848826 0.387923 0.526640
0.974139 0.394508 0.532849
0.000000 0.486544 0.505891
0.120268 0.493006 0.511518
0.245762 0.499573 0.517358
0.371197 0.506154 0.523340
0.496557 0.512739 0.529468
0.621827 0.519322 0.535746
0.746992 0.525894 0.542177
0.872036 0.532449 0.548766
0.996944 0.538978 0.555516
0.020591 0.631055 0.526211
0.144269 0.637554 0.532327
0.269493 0.644133 0.538675
0.394604 0.650698 0.545178
0.519588 0.657242 0.551841
0.644429 0.663757 0.558666
0.769198 0.670257 0.565572
0.893967 0.676756 0.572476
1.000000 0.683251 0.579365
0.043827 0.775584 0.548300
0.167110 0.782030 0.554949
0.291899 0.788534 0.561832
0.416668 0.795034 0.568738
0.541437 0.801531 0.575637
0.666206 0.808022 0.582516
0.790975 0.814502 0.589364
0.915744 0.820969 0.596170
1.000000 0.827417 0.602922
0.065773 0.919894 0.571993
0.188907 0.926304 0.578794
0.313676 0.932791 0.585660
0.438445 0.939265 0.592490
0.563214 0.945724 0.599273
0.687983 0.952163 0.605997
0.812752 0.958579 0.612650
0.937521 0.964967 0.619221
1.000000 0.971324 0.625699
0.087550 1.000000 0.595695
0.210685 1.000000 0.602364
0.335454 1.000000 0.609056
0.460223 1.000000 0.615673
0.584992 1.000000 0.622203
0.709761 1.000000 0.628635
0.834530 1.000000 0.634961
0.959299 1.000000 0.641258
1.000000 1.000000 0.647554
0.000000 0.000000 0.553115
0.027539 0.000000 0.559330
0.152351 0.000000 0.565584
0.277303 0.000000 0.571697
0.402387 0.000000 0.577680
0.527586 0.000000 0.583546
0.652886 0.000000 0.589312
0.778271 0.000000 0.594993
0.903726 0.000000 0.600604
0.000000 0.056362 0.574519
0.050024 0.062668 0.580368
0.175271 0.069084 0.586186
0.300611 0.075524 0.591912
0.426030 0.081983 0.597559
0.551512 0.088458 0.603143
0.677041 0.094945 0.608679
0.802603 0.101440 0.614183
0.928182 0.107940 0.619669
0.000000 0.200364 0.594583
0.073820 0.206746 0.600126
0.199326 0.213227 0.605686
0.324872 0.219719 0.611205
0.450444 0.226216 0.616699
0.576025 0.232716 0.622183
0.701602 0.239220 0.627689
0.827159 0.245753 0.633315
0.952679 0.252310 0.639077
0.000000 0.344578 0.613798
0.098286 0.350992 0.619214
0.223868 0.357492 0.624698
0.349437 0.364008 0.630252
0.474979 0.370553 0.635939
0.600478 0.377119 0.641765
0.725920 0.383698 0.647733
0.851288 0.390283 0.653846
0.976567 0.396866 0.660109
0.000000 0.488888 0.632917
0.122790 0.495357 0.638593
0.248265 0.501930 0.644483
0.373674 0.508513 0.650517
0.499004 0.515098 0.656698
0.624238 0.521678 0.663031
0.749361 0.528245 0.669518
0.874359 0.534792 0.676164
0.999215 0.541310 0.682973
0.023055 0.633415 0.653413
0.146700 0.639912 0.659582
0.271885 0.646487 0.665985
0.396953 0.653046 0.672545
0.521887 0.659580 0.679266
0.646685 0.666086 0.686139
0.771454 0.672586 0.693045
0.896223 0.679084 0.699945
1.000000 0.685576 0.706826
0.046153 0.777927 0.675694
0.169384 0.784362 0.682401
0.294155 0.790863 0.689305
0.418924 0.797362 0.696210
0.543693 0.803858 0.703103
0.668462 0.810345 0.709972
0.793231 0.816821 0.716806
0.918000 0.823282 0.723594
1.000000 0.829723 0.730325
0.068029 0.922222 0.699462
0.191164 0.928630 0.706256
0.315933 0.935112 0.713110
0.440702 0.941582 0.719925
0.565471 0.948034 0.726688
0.690240 0.954465 0.733388
0.815009 0.960871 0.740013
0.939778 0.967249 0.746552
1.000000 0.973594 0.752994
0.089807 1.000000 0.723121
0.212941 1.000000 0.729768
0.337710 1.000000 0.736435
0.462479 1.000000 0.743022
0.587248 1.000000 0.749518
0.712017 1.000000 0.755911
0.836786 1.000000 0.762215
0.961555 1.000000 0.768512
1.000000 1.000000 0.774809
0.000000 0.000000 0.680370
0.029796 0.000000 0.686583
0.154657 0.000000 0.692789
0.279658 0.000000 0.698853
0.404785 0.000000 0.704792
0.530022 0.000000 0.710621
0.655354 0.000000 0.716355
0.780765 0.000000 0.722009
0.906242 0.000000 0.727598
0.000000 0.058649 0.701654
0.052439 0.064964 0.707463
0.177722 0.071389 0.713246
0.303092 0.077836 0.718942
0.428535 0.084302 0.724564
0.554036 0.090781 0.730129
0.679579 0.097272 0.735652
0.805148 0.103769 0.741148
0.930730 0.110269 0.746632
0.000000 0.202680 0.721601
0.076334 0.209067 0.727122
0.201856 0.215552 0.732666
0.327414 0.222046 0.738174
0.452991 0.228545 0.743663
0.578573 0.235045 0.749147
0.704144 0.241558 0.754688
0.829689 0.248100 0.760362
0.955193 0.254664 0.766174
0.000000 0.346907 0.740764
0.100834 0.353321 0.746177
0.226413 0.359823 0.751671
0.351974 0.366350 0.757272
0.477502 0.372903 0.763009
0.602983 0.379475 0.768885
0.728400 0.386057 0.774904
0.853738 0.392642 0.781071
0.978982 0.399223 0.787388
0.001442 0.491234 0.759960
0.125306 0.497711 0.765685
0.250759 0.504288 0.771627
0.376142 0.510873 0.777713
0.501439 0.517457 0.783948
0.626635 0.524033 0.790335
0.751715 0.530594 0.796879
0.876663 0.537131 0.803584
1.000000 0.543639 0.810445
0.025507 0.635774 0.780634
0.149118 0.642270 0.786857
0.274263 0.648840 0.793316
0.399284 0.655391 0.799933
0.524167 0.661914 0.806712
0.648941 0.668415 0.813612
0.773710 0.674915 0.820517
0.898479 0.681411 0.827412
1.000000 0.687900 0.834284
0.048461 0.780267 0.803109
0.171643 0.786692 0.809871
0.296412 0.793192 0.816778
0.421181 0.799690 0.823680
0.545950 0.806183 0.830566
0.670719 0.812667 0.837424
0.795488 0.819138 0.844243
0.920257 0.825592 0.851011
1.000000 0.832026 0.857718
0.070286 0.924549 0.826930
0.193420 0.930954 0.833714
0.318189 0.937432 0.840556
0.442958 0.943896 0.847353
0.567727 0.950341 0.854095
0.692496 0.956764 0.860769
0.817265 0.963160 0.867365
0.942034 0.969526 0.873870
1.000000 0.975859 0.880274
0.092063 1.000000 0.850540
0.215197 1.000000 0.857163
0.339966 1.000000 0.863803
0.464735 1.000000 0.870359
0.589504 1.000000 0.876819
0.714273 1.000000 0.883173
0.839042 1.000000 0.889470
0.963811 1.000000 0.895767
1.000000 1.000000 0.902063
0.000000 0.000000 0.807624
0.032068 0.000000 0.813822
0.156981 0.000000 0.819975
0.282028 0.000000 0.825993
0.407197 0.000000 0.831891
0.532469 0.000000 0.837684
0.657832 0.000000 0.843387
0.783269 0.000000 0.849016
0.908764 0.000000 0.854587
0.000000 0.060938 0.828773
0.054868 0.067264 0.834544
0.180184 0.073697 0.840294
0.305582 0.080151 0.845962
0.431048 0.086622 0.851562
0.556565 0.093106 0.857111
0.682119 0.099599 0.862622
0.807695 0.106098 0.868112
0.933277 0.112598 0.873596
0.000000 0.204997 0.848610
0.078855 0.211390 0.854112
0.204392 0.217878 0.859641
0.329958 0.224374 0.865141
0.455538 0.230874 0.870626
0.581118 0.237375 0.876116
0.706682 0.243899 0.881704
0.832214 0.250450 0.887427
0.957700 0.257020 0.893289
0.000000 0.349236 0.867728
0.103381 0.355650 0.873140
0.228956 0.362158 0.878661
0.354507 0.368696 0.884310
0.480020 0.375256 0.890097
0.605479 0.381833 0.896024
0.730870 0.388417 0.902095
0.856176 0.395001 0.908315
0.981383 0.401579 0.914687
0.003968 0.493583 0.887022
0.127814 0.500066 0.892796
0.253244 0.506647 0.898789
0.378598 0.513232 0.904928
0.503860 0.519815 0.911217
0.629016 0.526386 0.917660
0.754051 0.532939 0.924261
0.878949 0.539466 0.931024
1.000000 0.545968 0.937918
0.027948 0.638134 0.907875
0.151522 0.644626 0.914152
0.276624 0.651190 0.920667
0.401598 0.657732 0.927341
0.526429 0.664244 0.934178
0.651198 0.670744 0.941085
0.775967 0.677243 0.947987
0.900736 0.683737 0.954875
1.000000 0.690222 0.961737
0.050750 0.782603 0.930545
0.173899 0.789021 0.937344
0.298668 0.795521 0.944250
0.423437 0.802018 0.951148
0.548206 0.808508 0.958025
0.672975 0.814988 0.964871
0.797744 0.821453 0.971673
0.922513 0.827900 0.978420
1.000000 0.834325 0.985102
0.072542 0.926876 0.954394
0.195676 0.933276 0.961168
0.320445 0.939750 0.967995
0.445214 0.946207 0.974774
0.569983 0.952645 0.981493
0.694752 0.959059 0.988140
0.819521 0.965445 0.994705
0.944290 0.971799 1.000000
1.000000 0.978119 1.000000
0.094319 1.000000 0.977950
0.217453 1.000000 0.984550
0.342222 1.000000 0.991161
0.466991 1.000000 0.997684
0.591760 1.000000 1.000000
0.716529 1.000000 1.000000
0.841298 1.000000 1.000000
0.966067 1.000000 1.000000
1.000000 1.000000 1.000000
0.000000 0.000000 0.934879
0.034359 0.000000 0.941042
0.159322 0.000000 0.947145
0.284415 0.000000 0.953118
0.409622 0.000000 0.958976
0.534929 0.000000 0.964735
0.660320 0.000000 0.970410
0.785779 0.000000 0.976017
0.911292 0.000000 0.981569
0.000000 0.063232 0.955879
0.057310 0.069566 0.961613
0.182657 0.076007 0.967332
0.308081 0.082468 0.972974
0.433567 0.088944 0.978554
0.559099 0.095432 0.984087
0.684663 0.101927 0.989589
0.810243 0.108427 0.995075
0.935824 0.114927 1.000000
0.000000 0.207317 0.975612
0.081382 0.213714 0.981095
0.206931 0.220205 0.986613
0.332504 0.226703 0.992105
0.458086 0.233203 0.997589
0.583662 0.239709 1.000000
0.709216 0.246243 1.000000
0.834734 0.252802 1.000000
0.960199 0.259377 1.000000
0.000000 0.351565 0.994691
0.105928 0.357979 1.000000
0.231496 0.364498 1.000000
0.357035 0.371044 1.000000
0.482530 0.377611 1.000000
0.607967 0.384191 1.000000
0.733329 0.390776 1.000000
0.858601 0.397359 1.000000
0.983769 0.403932 1.000000
0.006489 0.495935 1.000000
0.130315 0.502423 1.000000
0.255719 0.509007 1.000000
0.381042 0.515592 1.000000
0.506268 0.522171 1.000000
0.631383 0.528737 1.000000
0.756370 0.535281 1.000000
0.881215 0.541797 1.000000
1.000000 0.548297 1.000000
0.030376 0.640492 1.000000
0.153912 0.646980 1.000000
0.278970 0.653537 1.000000
0.403893 0.660069 1.000000
0.528685 0.666573 1.000000
0.653454 0.673073 1.000000
0.778223 0.679571 1.000000
0.902992 0.686062 1.000000
1.000000 0.692543 1.000000
0.053020 0.784935 1.000000
0.176155 0.791350 1.000000
0.300924 0.797849 1.000000
0.425693 0.804344 1.000000
0.550462 0.810831 1.000000
0.675231 0.817306 1.000000
0.800000 0.823765 1.000000
0.924769 0.830205 1.000000
1.000000 0.836621 1.000000
0.074798 0.929201 1.000000
0.197932 0.935598 1.000000
0.322701 0.942066 1.000000
0.447470 0.948517 1.000000
0.572239 0.954946 1.000000
0.697008 0.961350 1.000000
0.821777 0.967725 1.000000
0.946546 0.974068 1.000000
1.000000 0.980375 1.000000
0.096575 1.000000 1.000000
0.219709 1.000000 1.000000
0.344478 1.000000 1.000000
0.469247 1.000000 1.000000
0.594016 1.000000 1.000000
0.718785 1.000000 1.000000
0.843554 1.000000 1.000000
0.968323 1.000000 1.000000
1.000000 1.000000 1.000000
