assets/presets/luts/steel-blue/lut.cube
TITLE "Steel Blue"
LUT_3D_SIZE 17
0.000000 0.000000 0.000000
0.000000 0.000000 0.000000
0.016234 0.000000 0.000000
0.078619 0.000000 0.000000
0.141003 0.000000 0.000000
0.203388 0.000000 0.000000
0.265772 0.000000 0.000000
0.328172 0.000000 0.000000
0.390610 0.000000 0.000000
0.453083 0.000000 0.000000
0.515590 0.000000 0.000000
0.578130 0.000000 0.000000
0.640699 0.000000 0.000000
0.703296 0.000000 0.000000
0.765920 0.000000 0.000000
0.828568 0.000000 0.000000
0.891238 0.000000 0.000000
0.000000 0.000000 0.000000
0.000000 0.000000 0.000000
0.027107 0.000000 0.000000
0.089494 0.000000 0.000000
0.151911 0.000000 0.000000
0.214365 0.000000 0.000000
0.276854 0.000000 0.000000
0.339376 0.000000 0.000000
0.401929 0.000000 0.000000
0.464511 0.001613 0.000000
0.527121 0.004817 0.000000
0.589756 0.008028 0.000000
0.652414 0.011245 0.000000
0.715094 0.014467 0.000000
0.777794 0.017695 0.000000
0.840511 0.020926 0.000000
0.903244 0.024162 0.000000
0.000000 0.044971 0.000000
0.000000 0.048050 0.000000
0.038144 0.051219 0.000000
0.100648 0.054398 0.000000
0.163184 0.057584 0.000000
0.225751 0.060778 0.000000
0.288346 0.063979 0.000000
0.350968 0.067187 0.000000
0.413613 0.070400 0.000000
0.476282 0.073620 0.000000
0.538971 0.076844 0.000000
0.601679 0.080074 0.000000
0.664404 0.083307 0.000000
0.727144 0.086545 0.000000
0.789897 0.089785 0.000000
0.852661 0.093028 0.000000
0.915434 0.096274 0.000000
0.000000 0.116839 0.000000
0.000000 0.119946 0.000000
0.049579 0.123143 0.000000
0.112187 0.126347 0.000000
0.174820 0.129558 0.000000
0.237476 0.132774 0.000000
0.300154 0.135996 0.000000
0.362853 0.139223 0.000000
0.425569 0.142454 0.000000
0.488301 0.145689 0.000000
0.551047 0.148928 0.000000
0.613805 0.152170 0.000000
0.676573 0.155414 0.000000
0.739350 0.158661 0.000000
0.802134 0.161909 0.000000
0.864922 0.165158 0.000000
0.927712 0.168408 0.000000
0.000000 0.188801 0.000000
0.000000 0.191930 0.000000
0.061343 0.195149 0.000000
0.124031 0.198373 0.000000
0.186737 0.201602 0.000000
0.249461 0.204835 0.000000
0.312200 0.208072 0.000000
0.374952 0.211312 0.000000
0.437715 0.214555 0.000000
0.500488 0.217801 0.000000
0.563268 0.221048 0.000000
0.626053 0.224297 0.000000
0.688843 0.227546 0.000000
0.751634 0.230796 0.000000
0.814425 0.234046 0.000000
0.877214 0.237297 0.000000
0.939999 0.240555 0.002519
0.000000 0.260835 0.000000
0.010626 0.263982 0.000000
0.073357 0.267217 0.000000
0.136102 0.270455 0.000000
0.198859 0.273697 0.000000
0.261627 0.276941 0.000000
0.324403 0.280187 0.000000
0.387186 0.283435 0.000000
0.449974 0.286685 0.000000
0.512764 0.289934 0.000000
0.575555 0.293185 0.000000
0.638346 0.296434 0.000000
0.701133 0.299688 0.001012
0.763915 0.302949 0.003803
0.826691 0.306218 0.006628
0.889458 0.309494 0.009488
0.952215 0.312774 0.012381
0.000000 0.332924 0.000000
0.022769 0.336082 0.000000
0.085541 0.339327 0.000000
0.148320 0.342574 0.000000
0.211106 0.345823 0.000000
0.273895 0.349073 0.000000
0.336686 0.352323 0.000000
0.399477 0.355573 0.000000
0.462266 0.358823 0.000000
0.525051 0.362080 0.002287
0.587831 0.365345 0.005094
0.650603 0.368617 0.007935
0.713365 0.371895 0.010810
0.776116 0.375178 0.013720
0.838854 0.378464 0.016664
0.901577 0.381754 0.019645
0.964282 0.385045 0.022661
0.000000 0.405047 0.000000
0.035026 0.408211 0.000000
0.097816 0.411461 0.000000
0.160607 0.414711 0.000000
0.223398 0.417961 0.000000
0.286185 0.421214 0.000781
0.348968 0.424475 0.003570
0.411745 0.427743 0.006392
0.474513 0.431018 0.009249
0.537270 0.434298 0.012140
0.600015 0.437582 0.015065
0.662746 0.440870 0.018026
0.725461 0.444161 0.021023
0.788158 0.447453 0.024057
0.850834 0.450746 0.027127
0.913489 0.454038 0.030234
0.976120 0.457329 0.033379
0.000000 0.477184 0.000000
0.047318 0.480349 0.000000
0.110104 0.483606 0.002056
0.172884 0.486870 0.004860
0.235657 0.490142 0.007698
0.298420 0.493419 0.010570
0.361172 0.496701 0.013476
0.423911 0.499987 0.016418
0.486635 0.503277 0.019396
0.549341 0.506568 0.022409
0.612029 0.509861 0.025459
0.674696 0.513154 0.028547
0.737341 0.516446 0.031671
0.799960 0.519736 0.034834
0.862553 0.523023 0.038035
0.925118 0.526308 0.041275
0.987652 0.529587 0.044555
0.000000 0.549353 0.006231
0.059567 0.552542 0.009010
0.122325 0.555821 0.011898
0.185071 0.559106 0.014821
0.247804 0.562393 0.017779
0.310520 0.565684 0.020773
0.373218 0.568976 0.023803
0.435897 0.572269 0.026870
0.498553 0.575561 0.029974
0.561187 0.578853 0.033117
0.623794 0.582142 0.036297
0.686374 0.585428 0.039516
0.748925 0.588710 0.042774
0.811445 0.591987 0.046072
0.873931 0.595258 0.049410
0.936383 0.598522 0.052788
0.998797 0.601778 0.056208
0.010612 0.621597 0.016250
0.071693 0.624800 0.019147
0.134401 0.628091 0.022158
0.197091 0.631384 0.025205
0.259759 0.634676 0.028289
0.322406 0.637969 0.031410
0.385027 0.641259 0.034570
0.447623 0.644547 0.037768
0.510190 0.647831 0.041005
0.572726 0.651111 0.044281
0.635231 0.654385 0.047597
0.697702 0.657653 0.050953
0.760136 0.660914 0.054351
0.822534 0.664167 0.057789
0.884918 0.667416 0.061242
0.947303 0.670667 0.064695
1.000000 0.673916 0.068148
0.022601 0.693878 0.026695
0.083617 0.697084 0.029715
0.146253 0.700376 0.032854
0.208862 0.703665 0.036031
0.271445 0.706951 0.039247
0.333998 0.710234 0.042502
0.396521 0.713511 0.045796
0.459010 0.716783 0.049131
0.521464 0.720048 0.052506
0.583882 0.723304 0.055922
0.646269 0.726555 0.059371
0.708653 0.729805 0.062825
0.771038 0.733055 0.066278
0.833422 0.736304 0.069730
0.895807 0.739553 0.073179
0.958191 0.742800 0.076623
1.000000 0.746045 0.080062
0.034332 0.766156 0.037585
0.095261 0.769355 0.040734
0.157801 0.772635 0.044007
0.220308 0.775910 0.047320
0.282782 0.779179 0.050673
0.345219 0.782440 0.054067
0.407619 0.785693 0.057502
0.470004 0.788943 0.060955
0.532388 0.792193 0.064408
0.594773 0.795443 0.067861
0.657157 0.798692 0.071311
0.719542 0.801940 0.074758
0.781926 0.805186 0.078200
0.844311 0.808430 0.081636
0.906695 0.811672 0.085064
0.969080 0.814910 0.088482
1.000000 0.818145 0.091889
0.045725 0.838393 0.048940
0.106546 0.841573 0.052224
0.168966 0.844831 0.055637
0.231355 0.848081 0.059085
0.293739 0.851331 0.062538
0.356124 0.854581 0.065991
0.418508 0.857831 0.069443
0.480893 0.861079 0.072892
0.543277 0.864327 0.076337
0.605662 0.867572 0.079776
0.668046 0.870815 0.083208
0.730431 0.874055 0.086632
0.792815 0.877292 0.090045
0.855200 0.880525 0.093448
0.917584 0.883753 0.096837
0.979969 0.886977 0.100212
1.000000 0.890196 0.103571
0.056724 0.910554 0.060758
0.117474 0.913719 0.064121
0.179859 0.916969 0.067574
0.242243 0.920218 0.071025
0.304628 0.923467 0.074472
0.367012 0.926713 0.077915
0.429397 0.929957 0.081351
0.491781 0.933199 0.084779
0.554166 0.936438 0.088198
0.616550 0.939673 0.091607
0.678935 0.942904 0.095003
0.741319 0.946130 0.098386
0.803704 0.949352 0.101754
0.866088 0.952568 0.105106
0.928473 0.955778 0.108439
0.990857 0.958982 0.111754
1.000000 0.962179 0.115048
0.067613 0.982691 0.072696
0.128363 0.985853 0.076051
0.190747 0.989099 0.079491
0.253132 0.992342 0.082924
0.315516 0.995582 0.086348
0.377901 0.998819 0.089762
0.440285 1.000000 0.093165
0.502670 1.000000 0.096556
0.565054 1.000000 0.099932
0.627439 1.000000 0.103293
0.689823 1.000000 0.106636
0.752208 1.000000 0.109961
0.814592 1.000000 0.113267
0.876977 1.000000 0.116551
0.939361 1.000000 0.119812
1.000000 1.000000 0.123049
1.000000 1.000000 0.126260
0.078502 1.000000 0.084584
0.139251 1.000000 0.087914
0.201636 1.000000 0.091324
0.264020 1.000000 0.094721
0.326405 1.000000 0.098105
0.388789 1.000000 0.101475
0.451174 1.000000 0.104828
0.513558 1.000000 0.108163
0.575943 1.000000 0.111479
0.638327 1.000000 0.114775
0.700712 1.000000 0.118049
0.763096 1.000000 0.121299
0.825481 1.000000 0.124525
0.887865 1.000000 0.127724
0.950250 1.000000 0.130895
1.000000 1.000000 0.134045
1.000000 1.000000 0.137193
0.000000 0.000000 0.000000
0.000000 0.000000 0.000000
0.017386 0.000000 0.000000
0.079771 0.000000 0.000000
0.142155 0.000000 0.000000
0.204540 0.000000 0.000000
0.266926 0.000000 0.000000
0.329339 0.000000 0.002396
0.391790 0.000000 0.005478
0.454276 0.000000 0.008525
0.516795 0.000000 0.011539
0.579346 0.000000 0.014521
0.641926 0.000000 0.017474
0.704533 0.000000 0.020400
0.767166 0.000000 0.023300
0.829822 0.000000 0.026176
0.892500 0.000000 0.029031
0.000000 0.000000 0.000000
0.000000 0.000000 0.000000
0.028259 0.000000 0.000000
0.090653 0.000000 0.000696
0.153084 0.000000 0.003798
0.215551 0.000000 0.006864
0.278052 0.000000 0.009895
0.340586 0.000000 0.012895
0.403150 0.000000 0.015864
0.465742 0.002784 0.018804
0.528361 0.005991 0.021718
0.591005 0.009205 0.024607
0.653672 0.012423 0.027473
0.716359 0.015648 0.030319
0.779065 0.018876 0.033145
0.841789 0.022110 0.035955
0.904527 0.025346 0.038749
0.000000 0.046127 0.002204
0.000000 0.049208 0.005208
0.039336 0.052381 0.008258
0.101852 0.055563 0.011274
0.164400 0.058752 0.014259
0.226977 0.061948 0.017215
0.289582 0.065152 0.020143
0.352212 0.068362 0.023045
0.414867 0.071578 0.025924
0.477543 0.074799 0.028780
0.540240 0.078025 0.031617
0.602954 0.081256 0.034435
0.665685 0.084491 0.037238
0.728429 0.087730 0.040026
0.791187 0.090971 0.042801
0.853954 0.094216 0.045566
0.916731 0.097462 0.048323
0.000000 0.118006 0.012725
0.000000 0.121115 0.015618
0.050810 0.124315 0.018561
0.113427 0.127521 0.021477
0.176068 0.130734 0.024368
0.238733 0.133952 0.027236
0.301419 0.137176 0.030083
0.364124 0.140404 0.032911
0.426846 0.143637 0.035722
0.489583 0.146874 0.038517
0.552334 0.150114 0.041300
0.615096 0.153357 0.044070
0.677868 0.156602 0.046831
0.740648 0.159849 0.049585
0.803433 0.163098 0.052332
0.866222 0.166347 0.055076
0.929013 0.169597 0.057818
0.000000 0.189976 0.022881
0.000000 0.193107 0.025685
0.062604 0.196328 0.028544
0.125299 0.199554 0.031382
0.188012 0.202784 0.034202
0.250741 0.206019 0.037005
0.313485 0.209257 0.039794
0.376241 0.212498 0.042571
0.439008 0.215742 0.045337
0.501783 0.218989 0.048094
0.564566 0.222236 0.050845
0.627353 0.225485 0.053591
0.690143 0.228735 0.056333
0.752935 0.231985 0.059075
0.815725 0.235235 0.061817
0.878513 0.238488 0.064573
0.941296 0.241749 0.067362
0.000000 0.262017 0.032751
0.011903 0.265165 0.035489
0.074639 0.268401 0.038286
0.137389 0.271641 0.041069
0.200150 0.274884 0.043840
0.262921 0.278129 0.046602
0.325700 0.281376 0.049356
0.388485 0.284624 0.052104
0.451274 0.287874 0.054848
0.514065 0.291124 0.057590
0.576856 0.294374 0.060332
0.639645 0.297624 0.063077
0.702431 0.300880 0.065848
0.765211 0.304145 0.068651
0.827984 0.307416 0.071489
0.890748 0.310693 0.074361
0.953500 0.313975 0.077267
0.000000 0.334110 0.042413
0.024061 0.337269 0.045108
0.086836 0.340515 0.047866
0.149618 0.343763 0.050617
0.212405 0.347012 0.053363
0.275195 0.350262 0.056105
0.337986 0.353512 0.058847
0.400777 0.356762 0.061589
0.463565 0.360014 0.064343
0.526349 0.363274 0.067129
0.589126 0.366542 0.069948
0.651894 0.369816 0.072801
0.714653 0.373096 0.075689
0.777399 0.376380 0.078611
0.840132 0.379668 0.081569
0.902848 0.382958 0.084563
0.965546 0.386250 0.087593
0.000000 0.406236 0.051948
0.036326 0.409400 0.054620
0.099117 0.412650 0.057362
0.161908 0.415900 0.060104
0.224698 0.419150 0.062848
0.287484 0.422406 0.065616
0.350265 0.425670 0.068417
0.413038 0.428940 0.071252
0.475802 0.432217 0.074121
0.538555 0.435499 0.077024
0.601296 0.438785 0.079963
0.664021 0.442074 0.082937
0.726729 0.445365 0.085947
0.789419 0.448658 0.088994
0.852088 0.451951 0.092078
0.914734 0.455243 0.095199
0.977356 0.458533 0.098358
0.000000 0.478373 0.061433
0.048617 0.481540 0.064113
0.111401 0.484799 0.066896
0.174179 0.488067 0.069713
0.236948 0.491340 0.072563
0.299708 0.494619 0.075448
0.362455 0.497903 0.078367
0.425189 0.501191 0.081322
0.487907 0.504481 0.084313
0.550607 0.507773 0.087339
0.613287 0.511066 0.090403
0.675946 0.514358 0.093504
0.738581 0.517650 0.096642
0.801192 0.520939 0.099819
0.863774 0.524226 0.103034
0.926328 0.527508 0.106289
0.988851 0.530785 0.109583
0.000000 0.550551 0.071090
0.060857 0.553741 0.073881
0.123611 0.557023 0.076782
0.186352 0.560308 0.079717
0.249079 0.563597 0.082689
0.311789 0.566888 0.085696
0.374480 0.570181 0.088739
0.437151 0.573473 0.091820
0.499799 0.576766 0.094938
0.562423 0.580056 0.098094
0.625021 0.583344 0.101288
0.687591 0.586629 0.104522
0.750130 0.589909 0.107794
0.812638 0.593184 0.111107
0.875112 0.596453 0.114459
0.937550 0.599714 0.117853
0.999951 0.602968 0.121287
0.011890 0.622800 0.081153
0.072965 0.626004 0.084063
0.135667 0.629296 0.087087
0.198349 0.632588 0.090147
0.261010 0.635881 0.093245
0.323647 0.639173 0.096380
0.386259 0.642462 0.099554
0.448845 0.645749 0.102766
0.511401 0.649032 0.106017
0.573926 0.652310 0.109308
0.636418 0.655582 0.112639
0.698876 0.658847 0.116010
0.761297 0.662105 0.119422
0.823686 0.665356 0.122870
0.886070 0.668606 0.126323
0.948455 0.671856 0.129777
1.000000 0.675105 0.133229
0.023856 0.695082 0.091644
0.084864 0.698289 0.094678
0.147490 0.701579 0.097830
0.210090 0.704868 0.101022
0.272662 0.708153 0.104251
0.335204 0.711434 0.107521
0.397715 0.714709 0.110830
0.460192 0.717978 0.114179
0.522633 0.721240 0.117569
0.585036 0.724494 0.121001
0.647421 0.727744 0.124453
0.709805 0.730994 0.127907
0.772190 0.734244 0.131360
0.834574 0.737493 0.134810
0.896959 0.740741 0.138258
0.959343 0.743987 0.141700
1.000000 0.747232 0.145137
0.035554 0.767359 0.102582
0.096473 0.770556 0.105745
0.159001 0.773834 0.109033
0.221497 0.777107 0.112360
0.283957 0.780373 0.115728
0.346381 0.783631 0.119137
0.408771 0.786882 0.122583
0.471156 0.790132 0.126036
0.533540 0.793382 0.129490
0.595925 0.796632 0.132942
0.658309 0.799880 0.136391
0.720694 0.803128 0.139837
0.783078 0.806373 0.143277
0.845463 0.809617 0.146709
0.907847 0.812857 0.150134
0.970232 0.816094 0.153548
1.000000 0.819327 0.156951
0.046908 0.839589 0.113988
0.107715 0.842766 0.117286
0.170122 0.846020 0.120714
0.232506 0.849270 0.124166
0.294891 0.852520 0.127620
0.357275 0.855770 0.131073
0.419660 0.859019 0.134524
0.482044 0.862268 0.137972
0.544429 0.865514 0.141415
0.606813 0.868759 0.144851
0.669198 0.872001 0.148280
0.731582 0.875240 0.151700
0.793967 0.878475 0.155110
0.856351 0.881707 0.158508
0.918736 0.884934 0.161892
0.981120 0.888156 0.165261
1.000000 0.891372 0.168614
0.057876 0.911744 0.125840
0.118626 0.914908 0.129203
0.181011 0.918158 0.132655
0.243395 0.921407 0.136105
0.305780 0.924654 0.139551
0.368164 0.927900 0.142991
0.430549 0.931144 0.146424
0.492933 0.934384 0.149850
0.555318 0.937622 0.153265
0.617702 0.940855 0.156669
0.680087 0.944085 0.160061
0.742471 0.947310 0.163438
0.804856 0.950529 0.166801
0.867240 0.953743 0.170146
0.929625 0.956951 0.173473
0.992009 0.960153 0.176780
1.000000 0.963347 0.180066
0.068765 0.983879 0.137776
0.129515 0.987041 0.141129
0.191899 0.990286 0.144566
0.254284 0.993528 0.147996
0.316668 0.996767 0.151417
0.379053 1.000000 0.154827
0.441437 1.000000 0.158226
0.503822 1.000000 0.161611
0.566206 1.000000 0.164982
0.628591 1.000000 0.168336
0.690975 1.000000 0.171673
0.753360 1.000000 0.174992
0.815744 1.000000 0.178289
0.878129 1.000000 0.181565
0.940513 1.000000 0.184818
1.000000 1.000000 0.188045
1.000000 1.000000 0.191247
0.079654 1.000000 0.149655
0.140403 1.000000 0.152982
0.202788 1.000000 0.156387
0.265172 1.000000 0.159780
0.327557 1.000000 0.163158
0.389941 1.000000 0.166522
0.452326 1.000000 0.169869
0.514710 1.000000 0.173197
0.577095 1.000000 0.176506
0.639479 1.000000 0.179794
0.701864 1.000000 0.183059
0.764248 1.000000 0.186301
0.826633 1.000000 0.189517
0.889017 1.000000 0.192706
0.951402 1.000000 0.195867
1.000000 1.000000 0.199015
1.000000 1.000000 0.202164
0.000000 0.000000 0.044098
0.000000 0.000000 0.047163
0.018514 0.000000 0.050312
0.080899 0.000000 0.053460
0.143283 0.000000 0.056609
0.205668 0.000000 0.059757
0.268060 0.000000 0.062898
0.330487 0.000000 0.066004
0.392951 0.000000 0.069073
0.455449 0.000000 0.072108
0.517979 0.000000 0.075110
0.580541 0.000000 0.078082
0.643130 0.000000 0.081025
0.705747 0.000000 0.083941
0.768389 0.000000 0.086832
0.831053 0.000000 0.089701
0.893738 0.000000 0.092548
0.000000 0.000000 0.054970
0.000000 0.000000 0.058036
0.029387 0.000000 0.061184
0.091794 0.000000 0.064311
0.154238 0.000000 0.067399
0.216717 0.000000 0.070453
0.279230 0.000000 0.073473
0.341775 0.000000 0.076461
0.404349 0.000730 0.079419
0.466951 0.003933 0.082350
0.529580 0.007142 0.085255
0.592232 0.010357 0.088136
0.654906 0.013578 0.090994
0.717600 0.016804 0.093833
0.780313 0.020034 0.096653
0.843042 0.023269 0.099457
0.905786 0.026507 0.102246
0.000000 0.047260 0.065812
0.000000 0.050344 0.068804
0.040507 0.053520 0.071841
0.103035 0.056704 0.074846
0.165593 0.059896 0.077821
0.228181 0.063096 0.080766
0.290795 0.066301 0.083685
0.353435 0.069514 0.086578
0.416097 0.072731 0.089449
0.478781 0.075955 0.092298
0.541484 0.079183 0.095128
0.604204 0.082415 0.097940
0.666940 0.085651 0.100737
0.729690 0.088891 0.103521
0.792451 0.092134 0.106292
0.855222 0.095379 0.109054
0.918001 0.098626 0.111808
0.000000 0.119149 0.076292
0.000000 0.122260 0.079175
0.052018 0.125463 0.082108
0.114644 0.128671 0.085014
0.177294 0.131886 0.087897
0.239967 0.135107 0.090758
0.302660 0.138332 0.093598
0.365371 0.141562 0.096419
0.428099 0.144796 0.099224
0.490841 0.148034 0.102015
0.553596 0.151275 0.104793
0.616362 0.154519 0.107560
0.679137 0.157765 0.110318
0.741919 0.161013 0.113069
0.804706 0.164262 0.115815
0.867496 0.167512 0.118558
0.930287 0.170762 0.121299
0.000000 0.191127 0.086414
0.001159 0.194260 0.089211
0.063841 0.197483 0.092062
0.126542 0.200711 0.094893
0.189261 0.203943 0.097707
0.251996 0.207179 0.100505
0.314745 0.210418 0.103290
0.377505 0.213660 0.106062
0.440275 0.216905 0.108825
0.503053 0.220152 0.111580
0.565838 0.223400 0.114328
0.628626 0.226650 0.117073
0.691417 0.229900 0.119815
0.754208 0.233150 0.122556
0.816998 0.236400 0.125300
0.879784 0.239656 0.128068
0.942565 0.242919 0.130868
0.000000 0.263175 0.096259
0.013155 0.266324 0.098992
0.075897 0.269562 0.101783
0.138651 0.272802 0.104562
0.201416 0.276046 0.107330
0.264190 0.279292 0.110089
0.326971 0.282539 0.112840
0.389758 0.285788 0.115587
0.452548 0.289038 0.118330
0.515339 0.292288 0.121072
0.578130 0.295538 0.123814
0.640918 0.298790 0.126565
0.703702 0.302049 0.129347
0.766480 0.305316 0.132163
0.829249 0.308590 0.135013
0.892009 0.311869 0.137897
0.954757 0.315152 0.140816
0.000000 0.335272 0.105905
0.025329 0.338432 0.108596
0.088106 0.341679 0.111351
0.150890 0.344927 0.114100
0.213678 0.348176 0.116845
0.276469 0.351426 0.119587
0.339260 0.354676 0.122329
0.402050 0.357926 0.125072
0.464837 0.361181 0.127836
0.527618 0.364444 0.130634
0.590392 0.367714 0.133466
0.653158 0.370991 0.136331
0.715912 0.374272 0.139231
0.778654 0.377557 0.142166
0.841380 0.380846 0.145137
0.904091 0.384137 0.148143
0.966782 0.387430 0.151186
0.000000 0.407400 0.115431
0.037599 0.410564 0.118102
0.100391 0.413814 0.120844
0.163182 0.417064 0.123586
0.225970 0.420316 0.126335
0.288755 0.423574 0.129115
0.351533 0.426841 0.131928
0.414303 0.430114 0.134775
0.477064 0.433393 0.137656
0.539813 0.436676 0.140572
0.602548 0.439963 0.143524
0.665267 0.443253 0.146511
0.727969 0.446545 0.149534
0.790651 0.449838 0.152594
0.853313 0.453130 0.155691
0.915950 0.456422 0.158826
0.978563 0.459712 0.161998
0.000000 0.479538 0.124916
0.049889 0.482707 0.127606
0.112671 0.485969 0.130401
0.175446 0.489239 0.133229
0.238212 0.492515 0.136092
0.300968 0.495795 0.138989
0.363710 0.499081 0.141921
0.426438 0.502369 0.144888
0.489150 0.505660 0.147892
0.551843 0.508953 0.150932
0.614516 0.512245 0.154009
0.677167 0.515538 0.157123
0.739793 0.518829 0.160275
0.802394 0.522117 0.163466
0.864967 0.525402 0.166695
0.927509 0.528683 0.169964
0.990020 0.531958 0.173272
0.001002 0.551724 0.134612
0.062119 0.554916 0.137416
0.124869 0.558199 0.140329
0.187605 0.561486 0.143277
0.250326 0.564776 0.146261
0.313029 0.568068 0.149281
0.375713 0.571360 0.152338
0.438376 0.574653 0.155432
0.501016 0.577945 0.158564
0.563631 0.581235 0.161733
0.626219 0.584522 0.164942
0.688778 0.587805 0.168189
0.751306 0.591084 0.171476
0.813802 0.594356 0.174802
0.876263 0.597622 0.178170
0.938688 0.600881 0.181578
1.000000 0.604132 0.185024
0.013140 0.623979 0.144719
0.074209 0.627183 0.147641
0.136904 0.630475 0.150678
0.199579 0.633768 0.153752
0.262231 0.637061 0.156863
0.324860 0.640352 0.160012
0.387463 0.643640 0.163199
0.450038 0.646926 0.166425
0.512583 0.650207 0.169691
0.575097 0.653483 0.172996
0.637577 0.656753 0.176341
0.700022 0.660016 0.179727
0.762429 0.663270 0.183154
0.824814 0.666520 0.186607
0.887198 0.669770 0.190060
0.949583 0.673020 0.193513
1.000000 0.676269 0.196964
0.025081 0.696262 0.155255
0.086081 0.699468 0.158302
0.148698 0.702758 0.161468
0.211289 0.706045 0.164673
0.273850 0.709329 0.167918
0.336381 0.712608 0.171201
0.398880 0.715881 0.174524
0.461344 0.719148 0.177888
0.523772 0.722407 0.181293
0.586164 0.725658 0.184737
0.648549 0.728908 0.188190
0.710933 0.732158 0.191643
0.773318 0.735408 0.195096
0.835702 0.738657 0.198545
0.898087 0.741904 0.201991
0.960471 0.745150 0.205431
1.000000 0.748394 0.208865
0.036748 0.768535 0.166241
0.097657 0.771731 0.169418
0.160173 0.775007 0.172720
0.222656 0.778278 0.176062
0.285104 0.781541 0.179444
0.347514 0.784797 0.182868
0.409900 0.788046 0.186320
0.472284 0.791297 0.189773
0.534669 0.794546 0.193226
0.597053 0.797796 0.196677
0.659437 0.801044 0.200126
0.721822 0.804291 0.203569
0.784207 0.807536 0.207007
0.846591 0.810778 0.210436
0.908975 0.814017 0.213858
0.971360 0.817253 0.217268
1.000000 0.820485 0.220667
0.048061 0.840759 0.177696
0.108856 0.843933 0.181009
0.171250 0.847185 0.184450
0.233635 0.850435 0.187903
0.296019 0.853685 0.191356
0.358404 0.856935 0.194809
0.420788 0.860183 0.198259
0.483173 0.863431 0.201705
0.545557 0.866677 0.205146
0.607942 0.869921 0.208580
0.670326 0.873162 0.212006
0.732711 0.876399 0.215423
0.795095 0.879633 0.218828
0.857480 0.882863 0.222221
0.919864 0.886089 0.225600
0.982249 0.889309 0.228964
1.000000 0.892523 0.232311
0.059004 0.912908 0.189577
0.119754 0.916073 0.192939
0.182139 0.919322 0.196391
0.244523 0.922571 0.199839
0.306908 0.925818 0.203283
0.369292 0.929063 0.206721
0.431677 0.932305 0.210152
0.494061 0.935545 0.213574
0.556446 0.938781 0.216985
0.618830 0.942013 0.220385
0.681215 0.945241 0.223772
0.743599 0.948464 0.227144
0.805984 0.951682 0.230500
0.868368 0.954893 0.233839
0.930753 0.958099 0.237159
0.993137 0.961298 0.240459
1.000000 0.964490 0.243737
0.069893 0.985043 0.201509
0.130643 0.988204 0.204860
0.193027 0.991448 0.208295
0.255412 0.994689 0.211722
0.317796 0.997927 0.215139
0.380181 1.000000 0.218545
0.442565 1.000000 0.221939
0.504950 1.000000 0.225320
0.567334 1.000000 0.228685
0.629719 1.000000 0.232033
0.692103 1.000000 0.235364
0.754488 1.000000 0.238675
0.816872 1.000000 0.241965
0.879257 1.000000 0.245232
0.941641 1.000000 0.248476
1.000000 1.000000 0.251695
1.000000 1.000000 0.254887
0.080782 1.000000 0.213379
0.141531 1.000000 0.216702
0.203916 1.000000 0.220103
0.266300 1.000000 0.223491
0.328685 1.000000 0.226865
0.391069 1.000000 0.230222
0.453454 1.000000 0.233563
0.515838 1.000000 0.236884
0.578223 1.000000 0.240186
0.640607 1.000000 0.243466
0.702992 1.000000 0.246723
0.765376 1.000000 0.249955
0.827761 1.000000 0.253162
0.890145 1.000000 0.256341
0.952530 1.000000 0.259494
1.000000 1.000000 0.262643
1.000000 1.000000 0.265791
0.000000 0.000000 0.107725
0.000000 0.000000 0.110791
0.019642 0.000000 0.113939
0.082027 0.000000 0.117087
0.144411 0.000000 0.120236
0.206796 0.000000 0.123384
0.269199 0.000000 0.126514
0.331639 0.000000 0.129606
0.394116 0.000000 0.132663
0.456626 0.000000 0.135686
0.519167 0.000000 0.138677
0.581739 0.000000 0.141639
0.644339 0.000000 0.144572
0.706964 0.000000 0.147479
0.769614 0.000000 0.150362
0.832287 0.000000 0.153223
0.894979 0.000000 0.156063
0.000000 0.000000 0.118597
0.000000 0.000000 0.121663
0.030519 0.000000 0.124808
