assets/presets/luts/steel-blue/lut.cube
TITLE "Steel Blue"
LUT_3D_SIZE 5
0.000000 0.000000 0.000000
0.141003 0.000000 0.000000
0.390610 0.000000 0.000000
0.640699 0.000000 0.000000
0.891238 0.000000 0.000000
0.000000 0.188801 0.000000
0.186737 0.201602 0.000000
0.437715 0.214555 0.000000
0.688843 0.227546 0.000000
0.939999 0.240555 0.002519
0.000000 0.477184 0.000000
0.235657 0.490142 0.007698
0.486635 0.503277 0.019396
0.737341 0.516446 0.031671
0.987652 0.529587 0.044555
0.034332 0.766156 0.037585
0.282782 0.779179 0.050673
0.532388 0.792193 0.064408
0.781926 0.805186 0.078200
1.000000 0.818145 0.091889
0.078502 1.000000 0.084584
0.326405 1.000000 0.098105
0.575943 1.000000 0.111479
0.825481 1.000000 0.124525
1.000000 1.000000 0.137193
0.000000 0.000000 0.171352
0.145540 0.000000 0.183863
0.395285 0.000000 0.196249
0.645550 0.000000 0.208115
0.896222 0.000000 0.219575
0.000000 0.193432 0.213473
0.191767 0.206261 0.224712
0.442813 0.219232 0.235798
0.693965 0.232229 0.246778
0.945101 0.245262 0.257894
0.000000 0.481869 0.251890
0.240735 0.494865 0.263162
0.491629 0.508020 0.275065
0.742207 0.521185 0.287556
0.992347 0.534302 0.300666
0.039124 0.770887 0.293573
0.287383 0.783875 0.306892
0.536925 0.796875 0.320698
0.786463 0.809859 0.334464
1.000000 0.822798 0.348093
0.083038 1.000000 0.340824
0.330941 1.000000 0.354271
0.580479 1.000000 0.367537
0.830017 1.000000 0.380441
1.000000 1.000000 0.393045
0.000000 0.000000 0.425861
0.150063 0.000000 0.438361
0.400004 0.000000 0.450552
0.650429 0.000000 0.462258
0.901217 0.000000 0.473602
0.000000 0.198051 0.467557
0.196800 0.210904 0.478701
0.447898 0.223887 0.489735
0.699058 0.236887 0.500708
0.950159 0.249958 0.511998
0.000000 0.486544 0.505891
0.245762 0.499573 0.517358
0.496557 0.512739 0.529468
0.746992 0.525894 0.542177
0.996944 0.538978 0.555516
0.043827 0.775584 0.548300
0.291899 0.788534 0.561832
0.541437 0.801531 0.575637
0.790975 0.814502 0.589364
1.000000 0.827417 0.602922
0.087550 1.000000 0.595695
0.335454 1.000000 0.609056
0.584992 1.000000 0.622203
0.834530 1.000000 0.634961
1.000000 1.000000 0.647554
0.000000 0.000000 0.680370
0.154657 0.000000 0.692789
0.404785 0.000000 0.704792
0.655354 0.000000 0.716355
0.906242 0.000000 0.727598
0.000000 0.202680 0.721601
0.201856 0.215552 0.732666
0.452991 0.228545 0.743663
0.704144 0.241558 0.754688
0.955193 0.254664 0.766174
0.001442 0.491234 0.759960
0.250759 0.504288 0.771627
0.501439 0.517457 0.783948
0.751715 0.530594 0.796879
1.000000 0.543639 0.810445
0.048461 0.780267 0.803109
0.296412 0.793192 0.816778
0.545950 0.806183 0.830566
0.795488 0.819138 0.844243
1.000000 0.832026 0.857718
0.092063 1.000000 0.850540
0.339966 1.000000 0.863803
0.589504 1.000000 0.876819
0.839042 1.000000 0.889470
1.000000 1.000000 0.902063
0.000000 0.000000 0.934879
0.159322 0.000000 0.947145
0.409622 0.000000 0.958976
0.660320 0.000000 0.970410
0.911292 0.000000 0.981569
0.000000 0.207317 0.975612
0.206931 0.220205 0.986613
0.458086 0.233203 0.997589
0.709216 0.246243 1.000000
0.960199 0.259377 1.000000
0.006489 0.495935 1.000000
0.255719 0.509007 1.000000
0.506268 0.522171 1.000000
0.756370 0.535281 1.000000
1.000000 0.548297 1.000000
0.053020 0.784935 1.000000
0.300924 0.797849 1.000000
0.550462 0.810831 1.000000
0.800000 0.823765 1.000000
1.000000 0.836621 1.000000
0.096575 1.000000 1.000000
0.344478 1.000000 1.000000
0.594016 1.000000 1.000000
0.843554 1.000000 1.000000
1.000000 1.000000 1.000000
