assets/presets/luts/print-3513/lut.cube
TITLE "Print 3513"
LUT_3D_SIZE 9
0.023075 0.024995 0.028835
0.058921 0.025309 0.029149
0.153898 0.026143 0.029983
0.303030 0.027453 0.031293
0.487152 0.029069 0.032909
0.671274 0.030686 0.034526
0.820407 0.031996 0.035836
0.915398 0.032830 0.036670
0.952126 0.033152 0.036992
0.024174 0.062972 0.029934
0.060020 0.063287 0.030248
0.154997 0.064121 0.031082
0.304129 0.065430 0.032392
0.488251 0.067047 0.034008
0.672373 0.068663 0.035625
0.821506 0.069973 0.036935
0.916497 0.070807 0.037769
0.953225 0.071129 0.038091
0.027020 0.161332 0.032780
0.062866 0.161647 0.033095
0.157843 0.162481 0.033929
0.306976 0.163790 0.035238
0.491098 0.165407 0.036855
0.675220 0.167023 0.038471
0.824352 0.168333 0.039781
0.919343 0.169167 0.040615
0.956071 0.169490 0.040937
0.031488 0.315754 0.037248
0.067335 0.316068 0.037563
0.162312 0.316902 0.038397
0.311444 0.318212 0.039707
0.495566 0.319828 0.041323
0.679688 0.321445 0.042940
0.828821 0.322755 0.044249
0.923812 0.323589 0.045084
0.960540 0.323911 0.045406
0.037005 0.506406 0.042765
0.072852 0.506720 0.043080
0.167829 0.507554 0.043914
0.316961 0.508864 0.045224
0.501083 0.510480 0.046840
0.685205 0.512097 0.048457
0.834338 0.513407 0.049766
0.929329 0.514241 0.050601
0.966057 0.514563 0.050923
0.042522 0.697058 0.048282
0.078369 0.697372 0.048597
0.173346 0.698206 0.049431
0.322478 0.699516 0.050741
0.506600 0.701133 0.052357
0.690722 0.702749 0.053974
0.839855 0.704059 0.055283
0.934846 0.704893 0.056118
0.971574 0.705215 0.056440
0.046991 0.851479 0.052751
0.082837 0.851794 0.053066
0.177814 0.852628 0.053900
0.326947 0.853937 0.055209
0.511069 0.855554 0.056826
0.695191 0.857171 0.058443
0.844324 0.858480 0.059752
0.939314 0.859314 0.060586
0.976042 0.859637 0.060909
0.049837 0.949839 0.055597
0.085684 0.950154 0.055912
0.180661 0.950988 0.056746
0.329793 0.952297 0.058056
0.513915 0.953914 0.059672
0.698037 0.955531 0.061289
0.847170 0.956840 0.062598
0.942161 0.957674 0.063432
0.978889 0.957997 0.063755
0.050938 0.987870 0.056698
0.086784 0.988184 0.057013
0.181761 0.989018 0.057847
0.330894 0.990328 0.059156
0.515016 0.991945 0.060773
0.699138 0.993561 0.062389
0.848270 0.994871 0.063699
0.943261 0.995705 0.064533
0.979989 0.996027 0.064855
0.023189 0.025109 0.067081
0.059036 0.025424 0.067396
0.154013 0.026258 0.068230
0.303145 0.027567 0.069539
0.487267 0.029184 0.071156
0.671389 0.030801 0.072773
0.820522 0.032110 0.074082
0.915513 0.032944 0.074916
0.952241 0.033267 0.075239
0.024288 0.063087 0.068180
0.060135 0.063401 0.068495
0.155112 0.064235 0.069329
0.304244 0.065545 0.070638
0.488366 0.067161 0.072255
0.672488 0.068778 0.073872
0.821621 0.070088 0.075181
0.916612 0.070922 0.076015
0.953340 0.071244 0.076338
0.027135 0.161447 0.071027
0.062981 0.161761 0.071341
0.157958 0.162595 0.072175
0.307090 0.163905 0.073485
0.491212 0.165521 0.075101
0.675335 0.167138 0.076718
0.824467 0.168448 0.078028
0.919458 0.169282 0.078862
0.956186 0.169604 0.079184
0.031603 0.315868 0.075495
0.067449 0.316183 0.075810
0.162427 0.317017 0.076644
0.311559 0.318326 0.077953
0.495681 0.319943 0.079570
0.679803 0.321560 0.081187
0.828936 0.322869 0.082496
0.923927 0.323703 0.083330
0.960654 0.324026 0.083653
0.037120 0.506520 0.081012
0.072966 0.506835 0.081327
0.167944 0.507669 0.082161
0.317076 0.508978 0.083470
0.501198 0.510595 0.085087
0.685320 0.512212 0.086704
0.834453 0.513521 0.088013
0.929444 0.514355 0.088847
0.966172 0.514678 0.089170
0.042637 0.697172 0.086529
0.078483 0.697487 0.086844
0.173461 0.698321 0.087678
0.322593 0.699631 0.088987
0.506715 0.701247 0.090604
0.690837 0.702864 0.092221
0.839970 0.704173 0.093530
0.934961 0.705007 0.094364
0.971689 0.705330 0.094687
0.047106 0.851594 0.090998
0.082952 0.851909 0.091313
0.177929 0.852743 0.092146
0.327062 0.854052 0.093456
0.511184 0.855669 0.095073
0.695306 0.857286 0.096689
0.844438 0.858595 0.097999
0.939429 0.859429 0.098833
0.976157 0.859752 0.099155
0.049952 0.949954 0.093844
0.085798 0.950269 0.094159
0.180776 0.951103 0.094993
0.329908 0.952412 0.096302
0.514030 0.954029 0.097919
0.698152 0.955645 0.099536
0.847285 0.956955 0.100845
0.942275 0.957789 0.101679
0.979003 0.958111 0.102002
0.051053 0.987984 0.094945
0.086899 0.988299 0.095259
0.181876 0.989133 0.096093
0.331009 0.990443 0.097403
0.515131 0.992059 0.099019
0.699253 0.993676 0.100636
0.848385 0.994985 0.101946
0.943376 0.995820 0.102780
0.980104 0.996142 0.103102
0.023480 0.025400 0.163993
0.059326 0.025715 0.164308
0.154303 0.026549 0.165142
0.303436 0.027858 0.166452
0.487558 0.029475 0.168068
0.671680 0.031091 0.169685
0.820812 0.032401 0.170995
0.915803 0.033235 0.171829
0.952531 0.033558 0.172151
0.024579 0.063377 0.165092
0.060425 0.063692 0.165407
0.155402 0.064526 0.166241
0.304535 0.065835 0.167551
0.488657 0.067452 0.169167
0.672779 0.069069 0.170784
0.821911 0.070378 0.172093
0.916902 0.071212 0.172928
0.953630 0.071535 0.173250
0.027425 0.161737 0.167939
0.063271 0.162052 0.168254
0.158249 0.162886 0.169087
0.307381 0.164195 0.170397
0.491503 0.165812 0.172014
0.675625 0.167429 0.173630
0.824758 0.168738 0.174940
0.919749 0.169572 0.175774
0.956477 0.169895 0.176096
0.031894 0.316159 0.172407
0.067740 0.316474 0.172722
0.162717 0.317308 0.173556
0.311850 0.318617 0.174866
0.495972 0.320234 0.176482
0.680094 0.321850 0.178099
0.829226 0.323160 0.179408
0.924217 0.323994 0.180242
0.960945 0.324317 0.180565
0.037411 0.506811 0.177924
0.073257 0.507126 0.178239
0.168234 0.507960 0.179073
0.317367 0.509269 0.180383
0.501489 0.510886 0.181999
0.685611 0.512503 0.183616
0.834743 0.513812 0.184925
0.929734 0.514646 0.185759
0.966462 0.514969 0.186082
0.042928 0.697463 0.183441
0.078774 0.697778 0.183756
0.173751 0.698612 0.184590
0.322884 0.699921 0.185900
0.507006 0.701538 0.187516
0.691128 0.703155 0.189133
0.840260 0.704464 0.190442
0.935251 0.705298 0.191277
0.971979 0.705621 0.191599
0.047396 0.851885 0.187910
0.083243 0.852199 0.188225
0.178220 0.853033 0.189059
0.327352 0.854343 0.190368
0.511474 0.855960 0.191985
0.695596 0.857576 0.193602
0.844729 0.858886 0.194911
0.939720 0.859720 0.195745
0.976448 0.860042 0.196068
0.050243 0.950245 0.190756
0.086089 0.950559 0.191071
0.181066 0.951393 0.191905
0.330199 0.952703 0.193214
0.514321 0.954319 0.194831
0.698443 0.955936 0.196448
0.847575 0.957246 0.197757
0.942566 0.958080 0.198591
0.979294 0.958402 0.198914
0.051343 0.988275 0.191857
0.087190 0.988590 0.192172
0.182167 0.989424 0.193006
0.331299 0.990733 0.194315
0.515421 0.992350 0.195932
0.699543 0.993967 0.197548
0.848676 0.995276 0.198858
0.943667 0.996110 0.199692
0.980395 0.996433 0.200014
0.023936 0.025856 0.316157
0.059783 0.026171 0.316471
0.154760 0.027005 0.317305
0.303892 0.028314 0.318615
0.488014 0.029931 0.320231
0.672136 0.031548 0.321848
0.821269 0.032857 0.323158
0.916260 0.033691 0.323992
0.952988 0.034014 0.324314
0.025035 0.063834 0.317255
0.060882 0.064148 0.317570
0.155859 0.064982 0.318404
0.304991 0.066292 0.319714
0.489113 0.067908 0.321330
0.673235 0.069525 0.322947
0.822368 0.070835 0.324256
0.917359 0.071669 0.325091
0.954087 0.071991 0.325413
0.027882 0.162194 0.320102
0.063728 0.162508 0.320417
0.158705 0.163342 0.321250
0.307838 0.164652 0.322560
0.491960 0.166269 0.324177
0.676082 0.167885 0.325793
0.825214 0.169195 0.327103
0.920205 0.170029 0.327937
0.956933 0.170351 0.328259
0.032350 0.316615 0.324570
0.068196 0.316930 0.324885
0.163174 0.317764 0.325719
0.312306 0.319073 0.327029
0.496428 0.320690 0.328645
0.680550 0.322307 0.330262
0.829683 0.323616 0.331571
0.924674 0.324450 0.332405
0.961402 0.324773 0.332728
0.037867 0.507267 0.330087
0.073714 0.507582 0.330402
0.168691 0.508416 0.331236
0.317823 0.509726 0.332546
0.501945 0.511342 0.334162
0.686067 0.512959 0.335779
0.835200 0.514268 0.337088
0.930191 0.515102 0.337923
0.966919 0.515425 0.338245
0.043384 0.697919 0.335604
0.079231 0.698234 0.335919
0.174208 0.699068 0.336753
0.323340 0.700378 0.338063
0.507462 0.701994 0.339679
0.691584 0.703611 0.341296
0.840717 0.704920 0.342605
0.935708 0.705755 0.343440
0.972436 0.706077 0.343762
0.047853 0.852341 0.340073
0.083699 0.852656 0.340388
0.178676 0.853490 0.341222
0.327809 0.854799 0.342531
0.511931 0.856416 0.344148
0.696053 0.858033 0.345765
0.845185 0.859342 0.347074
0.940176 0.860176 0.347908
0.976904 0.860499 0.348231
0.050699 0.950701 0.342919
0.086545 0.951016 0.343234
0.181523 0.951850 0.344068
0.330655 0.953159 0.345378
0.514777 0.954776 0.346994
0.698899 0.956392 0.348611
0.848032 0.957702 0.349920
0.943023 0.958536 0.350754
0.979751 0.958858 0.351077
0.051800 0.988732 0.344020
0.087646 0.989046 0.344335
0.182623 0.989880 0.345169
0.331756 0.991190 0.346478
0.515878 0.992806 0.348095
0.700000 0.994423 0.349711
0.849132 0.995732 0.351021
0.944123 0.996567 0.351855
0.980851 0.996889 0.352177
0.024500 0.026420 0.504020
0.060346 0.026735 0.504335
0.155323 0.027568 0.505169
0.304456 0.028878 0.506478
0.488578 0.030495 0.508095
0.672700 0.032111 0.509712
0.821832 0.033421 0.511021
0.916823 0.034255 0.511855
0.953551 0.034577 0.512178
0.025599 0.064397 0.505119
0.061445 0.064712 0.505434
0.156422 0.065546 0.506268
0.305555 0.066855 0.507577
0.489677 0.068472 0.509194
0.673799 0.070089 0.510811
0.822931 0.071398 0.512120
0.917922 0.072232 0.512954
0.954650 0.072555 0.513277
0.028445 0.162757 0.507965
0.064291 0.163072 0.508280
0.159268 0.163906 0.509114
0.308401 0.165215 0.510423
0.492523 0.166832 0.512040
0.676645 0.168449 0.513657
0.825778 0.169758 0.514966
0.920768 0.170592 0.515800
0.957496 0.170915 0.516123
0.032914 0.317179 0.512434
0.068760 0.317494 0.512749
0.163737 0.318327 0.513583
0.312870 0.319637 0.514892
0.496992 0.321254 0.516509
0.681114 0.322870 0.518125
0.830246 0.324180 0.519435
0.925237 0.325014 0.520269
0.961965 0.325336 0.520591
0.038431 0.507831 0.517951
0.074277 0.508146 0.518266
0.169254 0.508980 0.519100
0.318387 0.510289 0.520409
0.502509 0.511906 0.522026
0.686631 0.513522 0.523642
0.835763 0.514832 0.524952
0.930754 0.515666 0.525786
0.967482 0.515988 0.526109
0.043948 0.698483 0.523468
0.079794 0.698798 0.523783
0.174771 0.699632 0.524617
0.323904 0.700941 0.525926
0.508026 0.702558 0.527543
0.692148 0.704174 0.529160
0.841280 0.705484 0.530469
0.936271 0.706318 0.531303
0.972999 0.706640 0.531626
0.048416 0.852905 0.527937
0.084263 0.853219 0.528251
0.179240 0.854053 0.529085
0.328372 0.855363 0.530395
0.512494 0.856979 0.532011
0.696616 0.858596 0.533628
0.845749 0.859906 0.534938
0.940740 0.860740 0.535772
0.977468 0.861062 0.536094
0.051263 0.951264 0.530783
0.087109 0.951579 0.531098
0.182086 0.952413 0.531932
0.331219 0.953723 0.533241
0.515341 0.955339 0.534858
0.699463 0.956956 0.536474
0.848595 0.958265 0.537784
0.943586 0.959099 0.538618
0.980314 0.959422 0.538940
0.052363 0.989295 0.531883
0.088209 0.989610 0.532198
0.183187 0.990444 0.533032
0.332319 0.991753 0.534342
0.516441 0.993370 0.535958
0.700563 0.994987 0.537575
0.849696 0.996296 0.538884
0.944687 0.997130 0.539719
0.981414 0.997453 0.540041
0.025063 0.026983 0.691884
0.060910 0.027298 0.692198
0.155887 0.028132 0.693032
0.305019 0.029441 0.694342
0.489141 0.031058 0.695958
0.673263 0.032675 0.697575
0.822396 0.033984 0.698885
0.917387 0.034818 0.699719
0.954115 0.035141 0.700041
0.026162 0.064961 0.692983
0.062008 0.065275 0.693297
0.156986 0.066109 0.694131
0.306118 0.067419 0.695441
0.490240 0.069035 0.697057
0.674362 0.070652 0.698674
0.823495 0.071962 0.699984
0.918486 0.072796 0.700818
0.955214 0.073118 0.701140
0.029009 0.163321 0.695829
0.064855 0.163635 0.696144
0.159832 0.164469 0.696978
0.308964 0.165779 0.698287
0.493086 0.167395 0.699904
0.677208 0.169012 0.701520
0.826341 0.170322 0.702830
0.921332 0.171156 0.703664
0.958060 0.171478 0.703986
0.033477 0.317742 0.700297
0.069323 0.318057 0.700612
0.164301 0.318891 0.701446
0.313433 0.320200 0.702756
0.497555 0.321817 0.704372
0.681677 0.323434 0.705989
0.830810 0.324743 0.707298
0.925801 0.325577 0.708133
0.962529 0.325900 0.708455
0.038994 0.508394 0.705814
0.074840 0.508709 0.706129
0.169818 0.509543 0.706963
0.318950 0.510852 0.708273
0.503072 0.512469 0.709889
0.687194 0.514086 0.711506
0.836327 0.515395 0.712816
0.931318 0.516229 0.713650
0.968046 0.516552 0.713972
0.044511 0.699046 0.711331
0.080357 0.699361 0.711646
0.175335 0.700195 0.712480
0.324467 0.701505 0.713790
0.508589 0.703121 0.715406
0.692711 0.704738 0.717023
0.841844 0.706047 0.718333
0.936835 0.706881 0.719167
0.973563 0.707204 0.719489
0.048980 0.853468 0.715800
0.084826 0.853783 0.716115
0.179803 0.854617 0.716949
0.328936 0.855926 0.718258
0.513058 0.857543 0.719875
0.697180 0.859160 0.721492
0.846312 0.860469 0.722801
0.941303 0.861303 0.723635
0.978031 0.861626 0.723958
0.051826 0.951828 0.718646
0.087672 0.952143 0.718961
0.182649 0.952977 0.719795
0.331782 0.954286 0.721105
0.515904 0.955903 0.722721
0.700026 0.957519 0.724338
0.849159 0.958829 0.725647
0.944149 0.959663 0.726481
0.980877 0.959985 0.726804
0.052927 0.989858 0.719747
0.088773 0.990173 0.720062
0.183750 0.991007 0.720896
0.332883 0.992317 0.722205
0.517005 0.993933 0.723822
0.701127 0.995550 0.725438
0.850259 0.996859 0.726748
0.945250 0.997693 0.727582
0.981978 0.998016 0.727904
0.025520 0.027440 0.844047
0.061366 0.027754 0.844361
0.156343 0.028588 0.845195
0.305476 0.029898 0.846505
0.489598 0.031514 0.848121
0.673720 0.033131 0.849738
0.822852 0.034441 0.851048
0.917843 0.035275 0.851882
0.954571 0.035597 0.852204
0.026619 0.065417 0.845146
0.062465 0.065732 0.845460
0.157442 0.066566 0.846294
0.306575 0.067875 0.847604
0.490697 0.069492 0.849220
0.674819 0.071108 0.850837
0.823951 0.072418 0.852147
0.918942 0.073252 0.852981
0.955670 0.073575 0.853303
0.029465 0.163777 0.847992
0.065311 0.164092 0.848307
0.160288 0.164926 0.849141
0.309421 0.166235 0.850450
0.493543 0.167852 0.852067
0.677665 0.169469 0.853683
0.826797 0.170778 0.854993
0.921788 0.171612 0.855827
0.958516 0.171935 0.856149
0.033934 0.318199 0.852461
0.069780 0.318513 0.852775
0.164757 0.319347 0.853609
0.313889 0.320657 0.854919
0.498011 0.322273 0.856535
0.682133 0.323890 0.858152
0.831266 0.325200 0.859461
0.926257 0.326034 0.860296
0.962985 0.326356 0.860618
0.039451 0.508851 0.857978
0.075297 0.509165 0.858292
0.170274 0.509999 0.859126
0.319406 0.511309 0.860436
0.503528 0.512926 0.862052
0.687651 0.514542 0.863669
0.836783 0.515852 0.864978
0.931774 0.516686 0.865813
0.968502 0.517008 0.866135
0.044968 0.699503 0.863495
0.080814 0.699817 0.863809
0.175791 0.700651 0.864643
0.324923 0.701961 0.865953
0.509045 0.703578 0.867569
0.693168 0.705194 0.869186
0.842300 0.706504 0.870496
0.937291 0.707338 0.871330
0.974019 0.707660 0.871652
0.049436 0.853924 0.867963
0.085282 0.854239 0.868278
0.180260 0.855073 0.869112
0.329392 0.856383 0.870421
0.513514 0.857999 0.872038
0.697636 0.859616 0.873655
0.846769 0.860925 0.874964
0.941760 0.861759 0.875798
0.978488 0.862082 0.876121
0.052282 0.952284 0.870809
0.088129 0.952599 0.871124
0.183106 0.953433 0.871958
0.332238 0.954742 0.873268
0.516360 0.956359 0.874884
0.700482 0.957976 0.876501
0.849615 0.959285 0.877810
0.944606 0.960119 0.878645
0.981334 0.960442 0.878967
0.053383 0.990315 0.871910
0.089229 0.990630 0.872225
0.184206 0.991463 0.873059
0.333339 0.992773 0.874368
0.517461 0.994390 0.875985
0.701583 0.996006 0.877602
0.850715 0.997316 0.878911
0.945706 0.998150 0.879745
0.982434 0.998472 0.880068
0.025810 0.027730 0.940968
0.061657 0.028045 0.941283
0.156634 0.028879 0.942116
0.305766 0.030188 0.943426
0.489888 0.031805 0.945043
0.674010 0.033422 0.946659
0.823143 0.034731 0.947969
0.918134 0.035565 0.948803
0.954862 0.035888 0.949125
0.026909 0.065708 0.942067
0.062756 0.066022 0.942382
0.157733 0.066856 0.943215
0.306865 0.068166 0.944525
0.490987 0.069782 0.946142
0.675109 0.071399 0.947758
0.824242 0.072709 0.949068
0.919233 0.073543 0.949902
0.955961 0.073865 0.950224
0.029756 0.164068 0.944913
0.065602 0.164382 0.945228
0.160579 0.165216 0.946062
0.309712 0.166526 0.947371
0.493834 0.168143 0.948988
0.677956 0.169759 0.950605
0.827088 0.171069 0.951914
0.922079 0.171903 0.952748
0.958807 0.172225 0.953071
0.034224 0.318489 0.949382
0.070070 0.318804 0.949696
0.165048 0.319638 0.950530
0.314180 0.320947 0.951840
0.498302 0.322564 0.953457
0.682424 0.324181 0.955073
0.831557 0.325490 0.956383
0.926548 0.326324 0.957217
0.963276 0.326647 0.957539
0.039741 0.509141 0.954899
0.075588 0.509456 0.955213
0.170565 0.510290 0.956047
0.319697 0.511600 0.957357
0.503819 0.513216 0.958974
0.687941 0.514833 0.960590
0.837074 0.516142 0.961900
0.932065 0.516976 0.962734
0.968793 0.517299 0.963056
0.045258 0.699793 0.960416
0.081105 0.700108 0.960730
0.176082 0.700942 0.961564
0.325214 0.702252 0.962874
0.509336 0.703868 0.964491
0.693458 0.705485 0.966107
0.842591 0.706794 0.967417
0.937582 0.707629 0.968251
0.974310 0.707951 0.968573
0.049727 0.854215 0.964884
0.085573 0.854530 0.965199
0.180550 0.855364 0.966033
0.329683 0.856673 0.967342
0.513805 0.858290 0.968959
0.697927 0.859907 0.970576
0.847059 0.861216 0.971885
0.942050 0.862050 0.972719
0.978778 0.862373 0.973042
0.052573 0.952575 0.967731
0.088419 0.952890 0.968045
0.183397 0.953724 0.968879
0.332529 0.955033 0.970189
0.516651 0.956650 0.971806
0.700773 0.958266 0.973422
0.849906 0.959576 0.974732
0.944897 0.960410 0.975566
0.981625 0.960733 0.975888
0.053674 0.990605 0.968831
0.089520 0.990920 0.969146
0.184497 0.991754 0.969980
0.333630 0.993064 0.971289
0.517752 0.994680 0.972906
0.701874 0.996297 0.974523
0.851006 0.997607 0.975832
0.945997 0.998441 0.976666
0.982725 0.998763 0.976989
0.025923 0.027843 0.978442
0.061769 0.028157 0.978757
0.156746 0.028991 0.979591
0.305879 0.030301 0.980900
0.490001 0.031918 0.982517
0.674123 0.033534 0.984134
0.823255 0.034844 0.985443
0.918246 0.035678 0.986277
0.954974 0.036000 0.986600
0.027022 0.065820 0.979541
0.062868 0.066135 0.979856
0.157845 0.066969 0.980690
0.306978 0.068278 0.981999
0.491100 0.069895 0.983616
0.675222 0.071512 0.985233
0.824354 0.072821 0.986542
0.919345 0.073655 0.987376
0.956073 0.073978 0.987699
0.029868 0.164180 0.982387
0.065714 0.164495 0.982702
0.160691 0.165329 0.983536
0.309824 0.166638 0.984846
0.493946 0.168255 0.986462
0.678068 0.169872 0.988079
0.827200 0.171181 0.989388
0.922191 0.172015 0.990223
0.958919 0.172338 0.990545
0.034337 0.318602 0.986856
0.070183 0.318916 0.987171
0.165160 0.319750 0.988005
0.314293 0.321060 0.989314
0.498415 0.322677 0.990931
0.682537 0.324293 0.992548
0.831669 0.325603 0.993857
0.926660 0.326437 0.994691
0.963388 0.326759 0.995014
0.039854 0.509254 0.992373
0.075700 0.509569 0.992688
0.170677 0.510403 0.993522
0.319810 0.511712 0.994831
0.503932 0.513329 0.996448
0.688054 0.514945 0.998065
0.837186 0.516255 0.999374
0.932177 0.517089 1.000000
0.968905 0.517411 1.000000
0.045371 0.699906 0.997890
0.081217 0.700221 0.998205
0.176194 0.701055 0.999039
0.325327 0.702364 1.000000
0.509449 0.703981 1.000000
0.693571 0.705597 1.000000
0.842703 0.706907 1.000000
0.937694 0.707741 1.000000
0.974422 0.708063 1.000000
0.049839 0.854327 1.000000
0.085686 0.854642 1.000000
0.180663 0.855476 1.000000
0.329795 0.856786 1.000000
0.513917 0.858402 1.000000
0.698039 0.860019 1.000000
0.847172 0.861328 1.000000
0.942163 0.862163 1.000000
0.978891 0.862485 1.000000
0.052686 0.952687 1.000000
0.088532 0.953002 1.000000
0.183509 0.953836 1.000000
0.332641 0.955145 1.000000
0.516764 0.956762 1.000000
0.700886 0.958379 1.000000
0.850018 0.959688 1.000000
0.945009 0.960522 1.000000
0.981737 0.960845 1.000000
0.053786 0.990718 1.000000
0.089632 0.991033 1.000000
0.184609 0.991867 1.000000
0.333742 0.993176 1.000000
0.517864 0.994793 1.000000
0.701986 0.996409 1.000000
0.851119 0.997719 1.000000
0.946109 0.998553 1.000000
0.982837 0.998875 1.000000
