assets/presets/luts/print-3513/lut.cube
TITLE "Print 3513"
LUT_3D_SIZE 17
0.023075 0.024995 0.028835
0.033643 0.025087 0.028927
0.058921 0.025309 0.029149
0.099186 0.025663 0.029503
0.153898 0.026143 0.029983
0.222428 0.026745 0.030585
0.303030 0.027453 0.031293
0.392666 0.028240 0.032080
0.487152 0.029069 0.032909
0.581639 0.029899 0.033739
0.671274 0.030686 0.034526
0.751877 0.031394 0.035234
0.820407 0.031996 0.035836
0.875119 0.032476 0.036316
0.915398 0.032830 0.036670
0.941297 0.033057 0.036897
0.952126 0.033152 0.036992
0.023399 0.036192 0.029159
0.033967 0.036285 0.029251
0.059245 0.036506 0.029473
0.099510 0.036860 0.029827
0.154222 0.037340 0.030307
0.222752 0.037942 0.030909
0.303355 0.038650 0.031617
0.392990 0.039437 0.032404
0.487477 0.040267 0.033233
0.581963 0.041096 0.034063
0.671599 0.041883 0.034850
0.752201 0.042591 0.035558
0.820731 0.043193 0.036160
0.875443 0.043673 0.036640
0.915722 0.044027 0.036994
0.941621 0.044254 0.037221
0.952450 0.044349 0.037316
0.024174 0.062972 0.029934
0.034742 0.063065 0.030026
0.060020 0.063287 0.030248
0.100285 0.063640 0.030602
0.154997 0.064121 0.031082
0.223527 0.064722 0.031684
0.304129 0.065430 0.032392
0.393765 0.066217 0.033179
0.488251 0.067047 0.034008
0.582738 0.067876 0.034838
0.672373 0.068663 0.035625
0.752976 0.069371 0.036333
0.821506 0.069973 0.036935
0.876218 0.070453 0.037415
0.916497 0.070807 0.037769
0.942396 0.071034 0.037996
0.953225 0.071129 0.038091
0.025380 0.104680 0.031140
0.035949 0.104772 0.031233
0.061227 0.104994 0.031455
0.101492 0.105348 0.031809
0.156204 0.105828 0.032289
0.224734 0.106430 0.032891
0.305336 0.107138 0.033599
0.394971 0.107925 0.034386
0.489458 0.108754 0.035215
0.583945 0.109584 0.036045
0.673580 0.110371 0.036832
0.754183 0.111079 0.037540
0.822713 0.111681 0.038141
0.877425 0.112161 0.038622
0.917704 0.112515 0.038976
0.943603 0.112742 0.039203
0.954432 0.112837 0.039298
0.027020 0.161332 0.032780
0.037589 0.161425 0.032873
0.062866 0.161647 0.033095
0.103131 0.162000 0.033448
0.157843 0.162481 0.033929
0.226373 0.163082 0.034530
0.306976 0.163790 0.035238
0.396611 0.164577 0.036025
0.491098 0.165407 0.036855
0.585585 0.166236 0.037684
0.675220 0.167023 0.038471
0.755822 0.167731 0.039179
0.824352 0.168333 0.039781
0.879064 0.168813 0.040261
0.919343 0.169167 0.040615
0.945242 0.169394 0.040842
0.956071 0.169490 0.040937
0.029073 0.232292 0.034833
0.039642 0.232385 0.034926
0.064920 0.232607 0.035148
0.105185 0.232961 0.035502
0.159897 0.233441 0.035982
0.228427 0.234043 0.036584
0.309029 0.234750 0.037291
0.398664 0.235538 0.038078
0.493151 0.236367 0.038908
0.587638 0.237197 0.039738
0.677273 0.237984 0.040525
0.757876 0.238692 0.041233
0.826406 0.239293 0.041834
0.881118 0.239774 0.042315
0.921397 0.240127 0.042668
0.947296 0.240355 0.042896
0.958125 0.240450 0.042991
0.031488 0.315754 0.037248
0.042057 0.315846 0.037341
0.067335 0.316068 0.037563
0.107600 0.316422 0.037917
0.162312 0.316902 0.038397
0.230842 0.317504 0.038999
0.311444 0.318212 0.039707
0.401079 0.318999 0.040494
0.495566 0.319828 0.041323
0.590053 0.320658 0.042153
0.679688 0.321445 0.042940
0.760291 0.322153 0.043648
0.828821 0.322755 0.044249
0.883533 0.323235 0.044730
0.923812 0.323589 0.045084
0.949711 0.323816 0.045311
0.960540 0.323911 0.045406
0.034174 0.408568 0.039934
0.044743 0.408660 0.040027
0.070021 0.408882 0.040249
0.110286 0.409236 0.040603
0.164998 0.409716 0.041083
0.233528 0.410318 0.041685
0.314130 0.411026 0.042392
0.403765 0.411813 0.043179
0.498252 0.412642 0.044009
0.592739 0.413472 0.044839
0.682374 0.414259 0.045626
0.762977 0.414967 0.046334
0.831507 0.415569 0.046935
0.886219 0.416049 0.047416
0.926498 0.416403 0.047769
0.952397 0.416630 0.047997
0.963226 0.416725 0.048092
0.037005 0.506406 0.042765
0.047574 0.506498 0.042858
0.072852 0.506720 0.043080
0.113117 0.507074 0.043434
0.167829 0.507554 0.043914
0.236359 0.508156 0.044516
0.316961 0.508864 0.045224
0.406596 0.509651 0.046011
0.501083 0.510480 0.046840
0.595570 0.511310 0.047670
0.685205 0.512097 0.048457
0.765808 0.512805 0.049165
0.834338 0.513407 0.049766
0.889050 0.513887 0.050247
0.929329 0.514241 0.050601
0.955228 0.514468 0.050828
0.966057 0.514563 0.050923
0.039837 0.604244 0.045597
0.050406 0.604336 0.045689
0.075683 0.604558 0.045911
0.115948 0.604912 0.046265
0.170660 0.605392 0.046745
0.239190 0.605994 0.047347
0.319793 0.606702 0.048055
0.409428 0.607489 0.048842
0.503915 0.608318 0.049672
0.598402 0.609148 0.050501
0.688037 0.609935 0.051288
0.768639 0.610643 0.051996
0.837169 0.611245 0.052598
0.891881 0.611725 0.053078
0.932160 0.612079 0.053432
0.958059 0.612306 0.053659
0.968888 0.612401 0.053754
0.042522 0.697058 0.048282
0.053091 0.697150 0.048375
0.078369 0.697372 0.048597
0.118634 0.697726 0.048951
0.173346 0.698206 0.049431
0.241876 0.698808 0.050033
0.322478 0.699516 0.050741
0.412113 0.700303 0.051528
0.506600 0.701133 0.052357
0.601087 0.701962 0.053187
0.690722 0.702749 0.053974
0.771325 0.703457 0.054682
0.839855 0.704059 0.055283
0.894567 0.704539 0.055764
0.934846 0.704893 0.056118
0.960745 0.705120 0.056345
0.971574 0.705215 0.056440
0.044938 0.780519 0.050698
0.055507 0.780612 0.050790
0.080784 0.780834 0.051012
0.121049 0.781187 0.051366
0.175761 0.781668 0.051846
0.244291 0.782269 0.052448
0.324894 0.782977 0.053156
0.414529 0.783764 0.053943
0.509016 0.784594 0.054773
0.603503 0.785423 0.055602
0.693138 0.786210 0.056389
0.773740 0.786918 0.057097
0.842270 0.787520 0.057699
0.896982 0.788000 0.058179
0.937261 0.788354 0.058533
0.963160 0.788581 0.058760
0.973989 0.788677 0.058855
0.046991 0.851479 0.052751
0.057560 0.851572 0.052844
0.082837 0.851794 0.053066
0.123103 0.852148 0.053419
0.177814 0.852628 0.053900
0.246344 0.853230 0.054502
0.326947 0.853937 0.055209
0.416582 0.854725 0.055996
0.511069 0.855554 0.056826
0.605556 0.856384 0.057656
0.695191 0.857171 0.058443
0.775794 0.857879 0.059150
0.844324 0.858480 0.059752
0.899035 0.858961 0.060232
0.939314 0.859314 0.060586
0.965214 0.859542 0.060814
0.976042 0.859637 0.060909
0.048630 0.908132 0.054390
0.059199 0.908224 0.054483
0.084477 0.908446 0.054705
0.124742 0.908800 0.055059
0.179454 0.909280 0.055539
0.247984 0.909882 0.056141
0.328586 0.910590 0.056849
0.418221 0.911377 0.057636
0.512708 0.912206 0.058465
0.607195 0.913036 0.059295
0.696830 0.913823 0.060082
0.777433 0.914531 0.060790
0.845963 0.915133 0.061391
0.900675 0.915613 0.061872
0.940954 0.915967 0.062226
0.966853 0.916194 0.062453
0.977682 0.916289 0.062548
0.049837 0.949839 0.055597
0.060406 0.949932 0.055690
0.085684 0.950154 0.055912
0.125949 0.950507 0.056266
0.180661 0.950988 0.056746
0.249191 0.951590 0.057348
0.329793 0.952297 0.058056
0.419428 0.953084 0.058843
0.513915 0.953914 0.059672
0.608402 0.954744 0.060502
0.698037 0.955531 0.061289
0.778640 0.956238 0.061997
0.847170 0.956840 0.062598
0.901882 0.957321 0.063079
0.942161 0.957674 0.063432
0.968060 0.957902 0.063660
0.978889 0.957997 0.063755
0.050613 0.976657 0.056373
0.061182 0.976750 0.056466
0.086460 0.976972 0.056688
0.126725 0.977325 0.057042
0.181437 0.977806 0.057522
0.249967 0.978407 0.058124
0.330569 0.979115 0.058832
0.420204 0.979902 0.059619
0.514691 0.980732 0.060448
0.609178 0.981561 0.061278
0.698813 0.982348 0.062065
0.779416 0.983056 0.062773
0.847946 0.983658 0.063374
0.902658 0.984138 0.063855
0.942937 0.984492 0.064209
0.968836 0.984719 0.064436
0.979665 0.984814 0.064531
0.050938 0.987870 0.056698
0.061507 0.987963 0.056791
0.086784 0.988184 0.057013
0.127049 0.988538 0.057366
0.181761 0.989018 0.057847
0.250291 0.989620 0.058448
0.330894 0.990328 0.059156
0.420529 0.991115 0.059943
0.515016 0.991945 0.060773
0.609503 0.992774 0.061602
0.699138 0.993561 0.062389
0.779740 0.994269 0.063097
0.848270 0.994871 0.063699
0.902982 0.995351 0.064179
0.943261 0.995705 0.064533
0.969160 0.995932 0.064760
0.979989 0.996027 0.064855
0.023108 0.025028 0.040114
0.033677 0.025121 0.040207
0.058955 0.025343 0.040428
0.099220 0.025697 0.040782
0.153932 0.026177 0.041262
0.222462 0.026779 0.041864
0.303064 0.027487 0.042572
0.392699 0.028274 0.043359
0.487186 0.029103 0.044189
0.581673 0.029933 0.045018
0.671308 0.030720 0.045805
0.751911 0.031428 0.046513
0.820441 0.032029 0.047115
0.875153 0.032510 0.047595
0.915432 0.032863 0.047949
0.941331 0.033091 0.048176
0.952160 0.033186 0.048271
0.023432 0.036226 0.040438
0.034001 0.036318 0.040531
0.059279 0.036540 0.040753
0.099544 0.036894 0.041106
0.154256 0.037374 0.041586
0.222786 0.037976 0.042188
0.303388 0.038684 0.042896
0.393023 0.039471 0.043683
0.487510 0.040300 0.044513
0.581997 0.041130 0.045342
0.671632 0.041917 0.046129
0.752235 0.042625 0.046837
0.820765 0.043227 0.047439
0.875477 0.043707 0.047919
0.915756 0.044061 0.048273
0.941655 0.044288 0.048500
0.952484 0.044383 0.048595
0.024207 0.063006 0.041213
0.034776 0.063098 0.041306
0.060054 0.063320 0.041527
0.100319 0.063674 0.041881
0.155031 0.064154 0.042361
0.223561 0.064756 0.042963
0.304163 0.065464 0.043671
0.393798 0.066251 0.044458
0.488285 0.067081 0.045288
0.582772 0.067910 0.046117
0.672407 0.068697 0.046904
0.753010 0.069405 0.047612
0.821540 0.070007 0.048214
0.876252 0.070487 0.048694
0.916531 0.070841 0.049048
0.942430 0.071068 0.049275
0.953259 0.071163 0.049370
0.025414 0.104713 0.042420
0.035983 0.104806 0.042512
0.061261 0.105028 0.042734
0.101526 0.105382 0.043088
0.156238 0.105862 0.043568
0.224768 0.106464 0.044170
0.305370 0.107172 0.044878
0.395005 0.107959 0.045665
0.489492 0.108788 0.046495
0.583979 0.109618 0.047324
0.673614 0.110405 0.048111
0.754217 0.111113 0.048819
0.822747 0.111714 0.049421
0.877459 0.112195 0.049901
0.917738 0.112549 0.050255
0.943637 0.112776 0.050482
0.954466 0.112871 0.050577
0.027054 0.161366 0.044059
0.037623 0.161459 0.044152
0.062900 0.161680 0.044374
0.103165 0.162034 0.044727
0.157877 0.162514 0.045208
0.226407 0.163116 0.045809
0.307010 0.163824 0.046517
0.396645 0.164611 0.047304
0.491132 0.165441 0.048134
0.585619 0.166270 0.048964
0.675254 0.167057 0.049751
0.755856 0.167765 0.050458
0.824386 0.168367 0.051060
0.879098 0.168847 0.051540
0.919377 0.169201 0.051894
0.945276 0.169428 0.052122
0.956105 0.169523 0.052217
0.029107 0.232326 0.046112
0.039676 0.232419 0.046205
0.064953 0.232641 0.046427
0.105219 0.232994 0.046781
0.159930 0.233475 0.047261
0.228460 0.234077 0.047863
0.309063 0.234784 0.048571
0.398698 0.235571 0.049358
0.493185 0.236401 0.050187
0.587672 0.237231 0.051017
0.677307 0.238018 0.051804
0.757910 0.238725 0.052512
0.826440 0.239327 0.053113
0.881151 0.239808 0.053594
0.921430 0.240161 0.053948
0.947330 0.240389 0.054175
0.958158 0.240484 0.054270
0.031522 0.315787 0.048528
0.042091 0.315880 0.048620
0.067369 0.316102 0.048842
0.107634 0.316456 0.049196
0.162346 0.316936 0.049676
0.230876 0.317538 0.050278
0.311478 0.318246 0.050986
0.401113 0.319033 0.051773
0.495600 0.319862 0.052602
0.590087 0.320692 0.053432
0.679722 0.321479 0.054219
0.760325 0.322187 0.054927
0.828855 0.322788 0.055529
0.883567 0.323269 0.056009
0.923846 0.323622 0.056363
0.949745 0.323850 0.056590
0.960574 0.323945 0.056685
0.034208 0.408601 0.051213
0.044777 0.408694 0.051306
0.070054 0.408916 0.051528
0.110320 0.409270 0.051882
0.165031 0.409750 0.052362
0.233561 0.410352 0.052964
0.314164 0.411060 0.053672
0.403799 0.411847 0.054459
0.498286 0.412676 0.055288
0.592773 0.413506 0.056118
0.682408 0.414293 0.056905
0.763011 0.415001 0.057613
0.831541 0.415602 0.058214
0.886252 0.416083 0.058695
0.926531 0.416437 0.059049
0.952431 0.416664 0.059276
0.963259 0.416759 0.059371
0.037039 0.506439 0.054045
0.047608 0.506532 0.054137
0.072886 0.506754 0.054359
0.113151 0.507108 0.054713
0.167863 0.507588 0.055193
0.236393 0.508190 0.055795
0.316995 0.508898 0.056503
0.406630 0.509685 0.057290
0.501117 0.510514 0.058120
0.595604 0.511344 0.058949
0.685239 0.512131 0.059736
0.765842 0.512839 0.060444
0.834372 0.513440 0.061046
0.889084 0.513921 0.061526
0.929363 0.514275 0.061880
0.955262 0.514502 0.062107
0.966091 0.514597 0.062202
0.039870 0.604277 0.056876
0.050439 0.604370 0.056969
0.075717 0.604592 0.057191
0.115982 0.604946 0.057544
0.170694 0.605426 0.058025
0.239224 0.606028 0.058626
0.319826 0.606736 0.059334
0.409461 0.607523 0.060121
0.503948 0.608352 0.060951
0.598435 0.609182 0.061780
0.688070 0.609969 0.062567
0.768673 0.610677 0.063275
0.837203 0.611278 0.063877
0.891915 0.611759 0.064357
0.932194 0.612113 0.064711
0.958093 0.612340 0.064938
0.968922 0.612435 0.065033
0.042556 0.697092 0.059562
0.053125 0.697184 0.059654
0.078403 0.697406 0.059876
0.118668 0.697760 0.060230
0.173380 0.698240 0.060710
0.241910 0.698842 0.061312
0.322512 0.699550 0.062020
0.412147 0.700337 0.062807
0.506634 0.701166 0.063637
0.601121 0.701996 0.064466
0.690756 0.702783 0.065253
0.771359 0.703491 0.065961
0.839889 0.704093 0.066563
0.894601 0.704573 0.067043
0.934880 0.704927 0.067397
0.960779 0.705154 0.067624
0.971608 0.705249 0.067719
0.044971 0.780553 0.061977
0.055540 0.780646 0.062070
0.080818 0.780867 0.062292
0.121083 0.781221 0.062645
0.175795 0.781701 0.063126
0.244325 0.782303 0.063727
0.324927 0.783011 0.064435
0.414562 0.783798 0.065222
0.509049 0.784628 0.066052
0.603536 0.785457 0.066881
0.693171 0.786244 0.067668
0.773774 0.786952 0.068376
0.842304 0.787554 0.068978
0.897016 0.788034 0.069458
0.937295 0.788388 0.069812
0.963194 0.788615 0.070039
0.974023 0.788710 0.070134
0.047025 0.851513 0.064030
0.057594 0.851606 0.064123
0.082871 0.851828 0.064345
0.123136 0.852181 0.064699
0.177848 0.852662 0.065179
0.246378 0.853264 0.065781
0.326981 0.853971 0.066488
0.416616 0.854758 0.067275
0.511103 0.855588 0.068105
0.605590 0.856418 0.068935
0.695225 0.857205 0.069722
0.775827 0.857912 0.070430
0.844357 0.858514 0.071031
0.899069 0.858995 0.071512
0.939348 0.859348 0.071865
0.965247 0.859576 0.072093
0.976076 0.859671 0.072188
0.048664 0.908165 0.065670
0.059233 0.908258 0.065762
0.084511 0.908480 0.065984
0.124776 0.908834 0.066338
0.179488 0.909314 0.066818
0.248018 0.909916 0.067420
0.328620 0.910624 0.068128
0.418255 0.911411 0.068915
0.512742 0.912240 0.069745
0.607229 0.913070 0.070574
0.696864 0.913857 0.071361
0.777467 0.914565 0.072069
0.845997 0.915166 0.072671
0.900709 0.915647 0.073151
0.940988 0.916001 0.073505
0.966887 0.916228 0.073732
0.977716 0.916323 0.073827
0.049871 0.949873 0.066877
0.060440 0.949966 0.066969
0.085717 0.950188 0.067191
0.125983 0.950541 0.067545
0.180695 0.951022 0.068025
0.249225 0.951623 0.068627
0.329827 0.952331 0.069335
0.419462 0.953118 0.070122
0.513949 0.953948 0.070951
0.608436 0.954777 0.071781
0.698071 0.955565 0.072568
0.778674 0.956272 0.073276
0.847204 0.956874 0.073878
0.901916 0.957354 0.074358
0.942195 0.957708 0.074712
0.968094 0.957935 0.074939
0.978923 0.958031 0.075034
0.050647 0.976691 0.067653
0.061216 0.976783 0.067745
0.086494 0.977005 0.067967
0.126759 0.977359 0.068321
0.181471 0.977839 0.068801
0.250001 0.978441 0.069403
0.330603 0.979149 0.070111
0.420238 0.979936 0.070898
0.514725 0.980766 0.071727
0.609212 0.981595 0.072557
0.698847 0.982382 0.073344
0.779450 0.983090 0.074052
0.847980 0.983692 0.074654
0.902692 0.984172 0.075134
0.942971 0.984526 0.075488
0.968870 0.984753 0.075715
0.979699 0.984848 0.075810
0.050972 0.987904 0.067977
0.061541 0.987996 0.068070
0.086818 0.988218 0.068292
0.127083 0.988572 0.068645
0.181795 0.989052 0.069126
0.250325 0.989654 0.069728
0.330928 0.990362 0.070435
0.420563 0.991149 0.071222
0.515050 0.991978 0.072052
0.609537 0.992808 0.072882
0.699172 0.993595 0.073669
0.779774 0.994303 0.074376
0.848304 0.994905 0.074978
0.903016 0.995385 0.075459
0.943295 0.995739 0.075812
0.969194 0.995966 0.076040
0.980023 0.996061 0.076135
0.023189 0.025109 0.067081
0.033758 0.025202 0.067174
0.059036 0.025424 0.067396
0.099301 0.025778 0.067750
0.154013 0.026258 0.068230
0.222543 0.026860 0.068832
0.303145 0.027567 0.069539
0.392780 0.028354 0.070326
0.487267 0.029184 0.071156
0.581754 0.030014 0.071986
0.671389 0.030801 0.072773
0.751992 0.031509 0.073481
0.820522 0.032110 0.074082
0.875234 0.032591 0.074563
0.915513 0.032944 0.074916
0.941412 0.033172 0.075144
0.952241 0.033267 0.075239
0.023513 0.036306 0.067405
0.034082 0.036399 0.067498
0.059360 0.036621 0.067720
0.099625 0.036975 0.068074
0.154337 0.037455 0.068554
0.222867 0.038057 0.069156
0.303469 0.038765 0.069863
0.393104 0.039552 0.070650
0.487591 0.040381 0.071480
0.582078 0.041211 0.072310
0.671713 0.041998 0.073097
0.752316 0.042706 0.073805
0.820846 0.043307 0.074406
0.875558 0.043788 0.074887
0.915837 0.044142 0.075240
0.941736 0.044369 0.075468
0.952565 0.044464 0.075563
0.024288 0.063087 0.068180
0.034857 0.063179 0.068273
0.060135 0.063401 0.068495
0.100400 0.063755 0.068849
0.155112 0.064235 0.069329
0.223642 0.064837 0.069931
0.304244 0.065545 0.070638
0.393879 0.066332 0.071425
0.488366 0.067161 0.072255
0.582853 0.067991 0.073085
0.672488 0.068778 0.073872
0.753091 0.069486 0.074580
0.821621 0.070088 0.075181
0.876333 0.070568 0.075662
0.916612 0.070922 0.076015
0.942511 0.071149 0.076243
0.953340 0.071244 0.076338
0.025495 0.104794 0.069387
0.036064 0.104887 0.069480
0.061341 0.105109 0.069702
0.101607 0.105463 0.070055
0.156319 0.105943 0.070536
0.224848 0.106545 0.071138
0.305451 0.107252 0.071845
0.395086 0.108040 0.072632
0.489573 0.108869 0.073462
0.584060 0.109699 0.074292
0.673695 0.110486 0.075079
0.754298 0.111194 0.075786
0.822828 0.111795 0.076388
0.877540 0.112276 0.076869
0.917819 0.112629 0.077222
0.943718 0.112857 0.077450
0.954547 0.112952 0.077545
0.027135 0.161447 0.071027
0.037703 0.161539 0.071119
0.062981 0.161761 0.071341
0.103246 0.162115 0.071695
0.157958 0.162595 0.072175
0.226488 0.163197 0.072777
0.307090 0.163905 0.073485
0.396726 0.164692 0.074272
0.491212 0.165521 0.075101
0.585699 0.166351 0.075931
0.675335 0.167138 0.076718
0.755937 0.167846 0.077426
0.824467 0.168448 0.078028
0.879179 0.168928 0.078508
0.919458 0.169282 0.078862
0.945357 0.169509 0.079089
0.956186 0.169604 0.079184
0.029188 0.232407 0.073080
0.039757 0.232500 0.073173
0.065034 0.232722 0.073395
0.105299 0.233075 0.073748
0.160011 0.233556 0.074229
0.228541 0.234157 0.074830
0.309144 0.234865 0.075538
0.398779 0.235652 0.076325
0.493266 0.236482 0.077155
0.587753 0.237312 0.077984
0.677388 0.238099 0.078772
0.757991 0.238806 0.079479
0.826520 0.239408 0.080081
0.881232 0.239888 0.080561
0.921511 0.240242 0.080915
0.947411 0.240470 0.081142
0.958239 0.240565 0.081238
0.031603 0.315868 0.075495
0.042172 0.315961 0.075588
0.067449 0.316183 0.075810
0.107715 0.316537 0.076163
0.162427 0.317017 0.076644
0.230956 0.317619 0.077246
0.311559 0.318326 0.077953
0.401194 0.319113 0.078740
0.495681 0.319943 0.079570
0.590168 0.320773 0.080400
0.679803 0.321560 0.081187
0.760406 0.322268 0.081894
0.828936 0.322869 0.082496
0.883648 0.323350 0.082977
0.923927 0.323703 0.083330
0.949826 0.323931 0.083558
0.960654 0.324026 0.083653
0.034289 0.408682 0.078181
0.044858 0.408775 0.078274
0.070135 0.408997 0.078496
0.110400 0.409351 0.078849
0.165112 0.409831 0.079330
0.233642 0.410433 0.079931
0.314245 0.411141 0.080639
0.403880 0.411928 0.081426
0.498367 0.412757 0.082256
0.592854 0.413587 0.083085
0.682489 0.414374 0.083873
0.763092 0.415082 0.084580
0.831621 0.415683 0.085182
0.886333 0.416164 0.085662
0.926612 0.416517 0.086016
0.952511 0.416745 0.086243
0.963340 0.416840 0.086339
0.037120 0.506520 0.081012
0.047689 0.506613 0.081105
0.072966 0.506835 0.081327
0.113232 0.507189 0.081680
0.167944 0.507669 0.082161
0.236474 0.508271 0.082763
0.317076 0.508978 0.083470
0.406711 0.509766 0.084257
0.501198 0.510595 0.085087
0.595685 0.511425 0.085917
0.685320 0.512212 0.086704
0.765923 0.512920 0.087411
0.834453 0.513521 0.088013
0.889165 0.514002 0.088494
0.929444 0.514355 0.088847
0.955343 0.514583 0.089075
0.966172 0.514678 0.089170
0.039951 0.604358 0.083843
0.050520 0.604451 0.083936
0.075798 0.604673 0.084158
0.116063 0.605027 0.084512
0.170775 0.605507 0.084992
0.239305 0.606109 0.085594
0.319907 0.606816 0.086302
0.409542 0.607604 0.087089
0.504029 0.608433 0.087918
0.598516 0.609263 0.088748
0.688151 0.610050 0.089535
0.768754 0.610758 0.090243
0.837284 0.611359 0.090844
0.891996 0.611840 0.091325
0.932275 0.612193 0.091678
0.958174 0.612421 0.091906
0.969003 0.612516 0.092001
0.042637 0.697172 0.086529
0.053206 0.697265 0.086622
0.078483 0.697487 0.086844
0.118749 0.697841 0.087197
0.173461 0.698321 0.087678
0.241991 0.698923 0.088280
0.322593 0.699631 0.088987
0.412228 0.700418 0.089774
0.506715 0.701247 0.090604
0.601202 0.702077 0.091434
0.690837 0.702864 0.092221
0.771440 0.703572 0.092928
0.839970 0.704173 0.093530
0.894682 0.704654 0.094011
0.934961 0.705007 0.094364
0.960860 0.705235 0.094592
0.971689 0.705330 0.094687
0.045052 0.780634 0.088944
0.055621 0.780726 0.089037
0.080899 0.780948 0.089259
0.121164 0.781302 0.089613
0.175876 0.781782 0.090093
0.244406 0.782384 0.090695
0.325008 0.783092 0.091403
0.414643 0.783879 0.092190
0.509130 0.784708 0.093019
0.603617 0.785538 0.093849
0.693252 0.786325 0.094636
0.773855 0.787033 0.095344
0.842385 0.787635 0.095945
0.897097 0.788115 0.096426
0.937376 0.788469 0.096779
0.963275 0.788696 0.097007
0.974104 0.788791 0.097102
0.047106 0.851594 0.090998
0.057675 0.851687 0.091091
0.082952 0.851909 0.091313
0.123217 0.852262 0.091666
0.177929 0.852743 0.092146
0.246459 0.853344 0.092748
0.327062 0.854052 0.093456
0.416697 0.854839 0.094243
0.511184 0.855669 0.095073
0.605671 0.856499 0.095902
0.695306 0.857286 0.096689
0.775908 0.857993 0.097397
0.844438 0.858595 0.097999
0.899150 0.859075 0.098479
0.939429 0.859429 0.098833
0.965328 0.859657 0.099060
0.976157 0.859752 0.099155
0.048745 0.908246 0.092637
0.059314 0.908339 0.092730
0.084591 0.908561 0.092952
0.124857 0.908915 0.093305
0.179569 0.909395 0.093786
0.248099 0.909997 0.094388
0.328701 0.910704 0.095095
0.418336 0.911492 0.095882
0.512823 0.912321 0.096712
0.607310 0.913151 0.097542
0.696945 0.913938 0.098329
0.777548 0.914646 0.099036
0.846078 0.915247 0.099638
0.900790 0.915728 0.100119
0.941069 0.916081 0.100472
0.966968 0.916309 0.100700
0.977797 0.916404 0.100795
0.049952 0.949954 0.093844
0.060521 0.950047 0.093937
0.085798 0.950269 0.094159
0.126064 0.950622 0.094512
0.180776 0.951103 0.094993
0.249305 0.951704 0.095595
0.329908 0.952412 0.096302
0.419543 0.953199 0.097089
0.514030 0.954029 0.097919
0.608517 0.954858 0.098749
0.698152 0.955645 0.099536
0.778755 0.956353 0.100243
0.847285 0.956955 0.100845
0.901996 0.957435 0.101326
0.942275 0.957789 0.101679
0.968175 0.958016 0.101907
0.979003 0.958111 0.102002
0.050728 0.976772 0.094620
0.061297 0.976864 0.094713
0.086574 0.977086 0.094935
0.126840 0.977440 0.095288
0.181552 0.977920 0.095769
0.250081 0.978522 0.096371
0.330684 0.979230 0.097078
0.420319 0.980017 0.097865
0.514806 0.980846 0.098695
0.609293 0.981676 0.099525
0.698928 0.982463 0.100312
0.779531 0.983171 0.101019
0.848061 0.983773 0.101621
0.902773 0.984253 0.102102
0.943052 0.984607 0.102455
0.968951 0.984834 0.102683
0.979780 0.984929 0.102778
0.051053 0.987984 0.094945
0.061621 0.988077 0.095037
0.086899 0.988299 0.095259
0.127164 0.988653 0.095613
0.181876 0.989133 0.096093
0.250406 0.989735 0.096695
0.331009 0.990443 0.097403
0.420644 0.991230 0.098190
0.515131 0.992059 0.099019
0.609617 0.992889 0.099849
0.699253 0.993676 0.100636
0.779855 0.994384 0.101344
0.848385 0.994985 0.101946
0.903097 0.995466 0.102426
0.943376 0.995820 0.102780
0.969275 0.996047 0.103007
0.980104 0.996142 0.103102
0.023312 0.025232 0.108170
0.033881 0.025325 0.108263
0.059159 0.025547 0.108485
0.099424 0.025901 0.108838
0.154136 0.026381 0.109318
0.222666 0.026983 0.109920
0.303268 0.027691 0.110628
0.392904 0.028478 0.111415
0.487390 0.029307 0.112245
0.581877 0.030137 0.113074
0.671512 0.030924 0.113861
0.752115 0.031632 0.114569
0.820645 0.032234 0.115171
0.875357 0.032714 0.115651
0.915636 0.033068 0.116005
0.941535 0.033295 0.116232
0.952364 0.033390 0.116327
0.023637 0.036430 0.108494
0.034205 0.036522 0.108587
0.059483 0.036744 0.108809
