assets/presets/luts/print-3513/lut.cube
TITLE "Print 3513"
LUT_3D_SIZE 5
0.023075 0.024995 0.028835
0.153898 0.026143 0.029983
0.487152 0.029069 0.032909
0.820407 0.031996 0.035836
0.952126 0.033152 0.036992
0.027020 0.161332 0.032780
0.157843 0.162481 0.033929
0.491098 0.165407 0.036855
0.824352 0.168333 0.039781
0.956071 0.169490 0.040937
0.037005 0.506406 0.042765
0.167829 0.507554 0.043914
0.501083 0.510480 0.046840
0.834338 0.513407 0.049766
0.966057 0.514563 0.050923
0.046991 0.851479 0.052751
0.177814 0.852628 0.053900
0.511069 0.855554 0.056826
0.844324 0.858480 0.059752
0.976042 0.859637 0.060909
0.050938 0.987870 0.056698
0.181761 0.989018 0.057847
0.515016 0.991945 0.060773
0.848270 0.994871 0.063699
0.979989 0.996027 0.064855
0.023480 0.025400 0.163993
0.154303 0.026549 0.165142
0.487558 0.029475 0.168068
0.820812 0.032401 0.170995
0.952531 0.033558 0.172151
0.027425 0.161737 0.167939
0.158249 0.162886 0.169087
0.491503 0.165812 0.172014
0.824758 0.168738 0.174940
0.956477 0.169895 0.176096
0.037411 0.506811 0.177924
0.168234 0.507960 0.179073
0.501489 0.510886 0.181999
0.834743 0.513812 0.184925
0.966462 0.514969 0.186082
0.047396 0.851885 0.187910
0.178220 0.853033 0.189059
0.511474 0.855960 0.191985
0.844729 0.858886 0.194911
0.976448 0.860042 0.196068
0.051343 0.988275 0.191857
0.182167 0.989424 0.193006
0.515421 0.992350 0.195932
0.848676 0.995276 0.198858
0.980395 0.996433 0.200014
0.024500 0.026420 0.504020
0.155323 0.027568 0.505169
0.488578 0.030495 0.508095
0.821832 0.033421 0.511021
0.953551 0.034577 0.512178
0.028445 0.162757 0.507965
0.159268 0.163906 0.509114
0.492523 0.166832 0.512040
0.825778 0.169758 0.514966
0.957496 0.170915 0.516123
0.038431 0.507831 0.517951
0.169254 0.508980 0.519100
0.502509 0.511906 0.522026
0.835763 0.514832 0.524952
0.967482 0.515988 0.526109
0.048416 0.852905 0.527937
0.179240 0.854053 0.529085
0.512494 0.856979 0.532011
0.845749 0.859906 0.534938
0.977468 0.861062 0.536094
0.052363 0.989295 0.531883
0.183187 0.990444 0.533032
0.516441 0.993370 0.535958
0.849696 0.996296 0.538884
0.981414 0.997453 0.540041
0.025520 0.027440 0.844047
0.156343 0.028588 0.845195
0.489598 0.031514 0.848121
0.822852 0.034441 0.851048
0.954571 0.035597 0.852204
0.029465 0.163777 0.847992
0.160288 0.164926 0.849141
0.493543 0.167852 0.852067
0.826797 0.170778 0.854993
0.958516 0.171935 0.856149
0.039451 0.508851 0.857978
0.170274 0.509999 0.859126
0.503528 0.512926 0.862052
0.836783 0.515852 0.864978
0.968502 0.517008 0.866135
0.049436 0.853924 0.867963
0.180260 0.855073 0.869112
0.513514 0.857999 0.872038
0.846769 0.860925 0.874964
0.978488 0.862082 0.876121
0.053383 0.990315 0.871910
0.184206 0.991463 0.873059
0.517461 0.994390 0.875985
0.850715 0.997316 0.878911
0.982434 0.998472 0.880068
0.025923 0.027843 0.978442
0.156746 0.028991 0.979591
0.490001 0.031918 0.982517
0.823255 0.034844 0.985443
0.954974 0.036000 0.986600
0.029868 0.164180 0.982387
0.160691 0.165329 0.983536
0.493946 0.168255 0.986462
0.827200 0.171181 0.989388
0.958919 0.172338 0.990545
0.039854 0.509254 0.992373
0.170677 0.510403 0.993522
0.503932 0.513329 0.996448
0.837186 0.516255 0.999374
0.968905 0.517411 1.000000
0.049839 0.854327 1.000000
0.180663 0.855476 1.000000
0.513917 0.858402 1.000000
0.847172 0.861328 1.000000
0.978891 0.862485 1.000000
0.053786 0.990718 1.000000
0.184609 0.991867 1.000000
0.517864 0.994793 1.000000
0.851119 0.997719 1.000000
0.982837 0.998875 1.000000
