assets/presets/luts/tungsten-warm/lut.cube
TITLE "Tungsten Warm"
LUT_3D_SIZE 17
0.000000 0.000000 0.000000
0.049629 0.000000 0.000000
0.118314 0.000000 0.000000
0.186999 0.000000 0.000000
0.255685 0.000000 0.000000
0.324370 0.000000 0.000000
0.393056 0.000000 0.000000
0.461741 0.000000 0.000000
0.530427 0.000000 0.000000
0.599112 0.000000 0.000000
0.667797 0.000000 0.000000
0.736483 0.000000 0.000000
0.805168 0.000000 0.000000
0.873854 0.000000 0.000000
0.942539 0.000000 0.000000
1.000000 0.000000 0.000000
1.000000 0.000000 0.000000
0.000000 0.044224 0.000000
0.049629 0.044224 0.000000
0.118314 0.044224 0.000000
0.186999 0.044224 0.000000
0.255685 0.044224 0.000000
0.324370 0.044224 0.000000
0.393056 0.044224 0.000000
0.461741 0.044224 0.000000
0.530427 0.044224 0.000000
0.599112 0.044224 0.000000
0.667797 0.044224 0.000000
0.736483 0.044224 0.000000
0.805168 0.044224 0.000000
0.873854 0.044224 0.000000
0.942539 0.044224 0.000000
1.000000 0.044224 0.000000
1.000000 0.044224 0.000000
0.000000 0.110034 0.000000
0.049629 0.110034 0.000000
0.118314 0.110034 0.000000
0.186999 0.110034 0.000000
0.255685 0.110034 0.000000
0.324370 0.110034 0.000000
0.393056 0.110034 0.000000
0.461741 0.110034 0.000000
0.530427 0.110034 0.000000
0.599112 0.110034 0.000000
0.667797 0.110034 0.000000
0.736483 0.110034 0.000000
0.805168 0.110034 0.000000
0.873854 0.110034 0.000000
0.942539 0.110034 0.000000
1.000000 0.110034 0.000000
1.000000 0.110034 0.000000
0.000000 0.175845 0.000000
0.049629 0.175845 0.000000
0.118314 0.175845 0.000000
0.186999 0.175845 0.000000
0.255685 0.175845 0.000000
0.324370 0.175845 0.000000
0.393056 0.175845 0.000000
0.461741 0.175845 0.000000
0.530427 0.175845 0.000000
0.599112 0.175845 0.000000
0.667797 0.175845 0.000000
0.736483 0.175845 0.000000
0.805168 0.175845 0.000000
0.873854 0.175845 0.000000
0.942539 0.175845 0.000000
1.000000 0.175845 0.000000
1.000000 0.175845 0.000000
0.000000 0.241656 0.000000
0.049629 0.241656 0.000000
0.118314 0.241656 0.000000
0.186999 0.241656 0.000000
0.255685 0.241656 0.000000
0.324370 0.241656 0.000000
0.393056 0.241656 0.000000
0.461741 0.241656 0.000000
0.530427 0.241656 0.000000
0.599112 0.241656 0.000000
0.667797 0.241656 0.000000
0.736483 0.241656 0.000000
0.805168 0.241656 0.000000
0.873854 0.241656 0.000000
0.942539 0.241656 0.000000
1.000000 0.241656 0.000000
1.000000 0.241656 0.000000
0.000000 0.307466 0.000000
0.049629 0.307466 0.000000
0.118314 0.307466 0.000000
0.186999 0.307466 0.000000
0.255685 0.307466 0.000000
0.324370 0.307466 0.000000
0.393056 0.307466 0.000000
0.461741 0.307466 0.000000
0.530427 0.307466 0.000000
0.599112 0.307466 0.000000
0.667797 0.307466 0.000000
0.736483 0.307466 0.000000
0.805168 0.307466 0.000000
0.873854 0.307466 0.000000
0.942539 0.307466 0.000000
1.000000 0.307466 0.000000
1.000000 0.307466 0.000000
0.000000 0.373277 0.000000
0.049629 0.373277 0.000000
0.118314 0.373277 0.000000
0.186999 0.373277 0.000000
0.255685 0.373277 0.000000
0.324370 0.373277 0.000000
0.393056 0.373277 0.000000
0.461741 0.373277 0.000000
0.530427 0.373277 0.000000
0.599112 0.373277 0.000000
0.667797 0.373277 0.000000
0.736483 0.373277 0.000000
0.805168 0.373277 0.000000
0.873854 0.373277 0.000000
0.942539 0.373277 0.000000
1.000000 0.373277 0.000000
1.000000 0.373277 0.000000
0.000000 0.439087 0.000000
0.049629 0.439087 0.000000
0.118314 0.439087 0.000000
0.186999 0.439087 0.000000
0.255685 0.439087 0.000000
0.324370 0.439087 0.000000
0.393056 0.439087 0.000000
0.461741 0.439087 0.000000
0.530427 0.439087 0.000000
0.599112 0.439087 0.000000
0.667797 0.439087 0.000000
0.736483 0.439087 0.000000
0.805168 0.439087 0.000000
0.873854 0.439087 0.000000
0.942539 0.439087 0.000000
1.000000 0.439087 0.000000
1.000000 0.439087 0.000000
0.000000 0.504898 0.000000
0.049629 0.504898 0.000000
0.118314 0.504898 0.000000
0.186999 0.504898 0.000000
0.255685 0.504898 0.000000
0.324370 0.504898 0.000000
0.393056 0.504898 0.000000
0.461741 0.504898 0.000000
0.530427 0.504898 0.000000
0.599112 0.504898 0.000000
0.667797 0.504898 0.000000
0.736483 0.504898 0.000000
0.805168 0.504898 0.000000
0.873854 0.504898 0.000000
0.942539 0.504898 0.000000
1.000000 0.504898 0.000000
1.000000 0.504898 0.000000
0.000000 0.570708 0.000000
0.049629 0.570708 0.000000
0.118314 0.570708 0.000000
0.186999 0.570708 0.000000
0.255685 0.570708 0.000000
0.324370 0.570708 0.000000
0.393056 0.570708 0.000000
0.461741 0.570708 0.000000
0.530427 0.570708 0.000000
0.599112 0.570708 0.000000
0.667797 0.570708 0.000000
0.736483 0.570708 0.000000
0.805168 0.570708 0.000000
0.873854 0.570708 0.000000
0.942539 0.570708 0.000000
1.000000 0.570708 0.000000
1.000000 0.570708 0.000000
0.000000 0.636519 0.000000
0.049629 0.636519 0.000000
0.118314 0.636519 0.000000
0.186999 0.636519 0.000000
0.255685 0.636519 0.000000
0.324370 0.636519 0.000000
0.393056 0.636519 0.000000
0.461741 0.636519 0.000000
0.530427 0.636519 0.000000
0.599112 0.636519 0.000000
0.667797 0.636519 0.000000
0.736483 0.636519 0.000000
0.805168 0.636519 0.000000
0.873854 0.636519 0.000000
0.942539 0.636519 0.000000
1.000000 0.636519 0.000000
1.000000 0.636519 0.000000
0.000000 0.702330 0.000000
0.049629 0.702330 0.000000
0.118314 0.702330 0.000000
0.186999 0.702330 0.000000
0.255685 0.702330 0.000000
0.324370 0.702330 0.000000
0.393056 0.702330 0.000000
0.461741 0.702330 0.000000
0.530427 0.702330 0.000000
0.599112 0.702330 0.000000
0.667797 0.702330 0.000000
0.736483 0.702330 0.000000
0.805168 0.702330 0.000000
0.873854 0.702330 0.000000
0.942539 0.702330 0.000000
1.000000 0.702330 0.000000
1.000000 0.702330 0.000000
0.000000 0.768140 0.000000
0.049629 0.768140 0.000000
0.118314 0.768140 0.000000
0.186999 0.768140 0.000000
0.255685 0.768140 0.000000
0.324370 0.768140 0.000000
0.393056 0.768140 0.000000
0.461741 0.768140 0.000000
0.530427 0.768140 0.000000
0.599112 0.768140 0.000000
0.667797 0.768140 0.000000
0.736483 0.768140 0.000000
0.805168 0.768140 0.000000
0.873854 0.768140 0.000000
0.942539 0.768140 0.000000
1.000000 0.768140 0.000000
1.000000 0.768140 0.000000
0.000000 0.833951 0.000000
0.049629 0.833951 0.000000
0.118314 0.833951 0.000000
0.186999 0.833951 0.000000
0.255685 0.833951 0.000000
0.324370 0.833951 0.000000
0.393056 0.833951 0.000000
0.461741 0.833951 0.000000
0.530427 0.833951 0.000000
0.599112 0.833951 0.000000
0.667797 0.833951 0.000000
0.736483 0.833951 0.000000
0.805168 0.833951 0.000000
0.873854 0.833951 0.000000
0.942539 0.833951 0.000000
1.000000 0.833951 0.000000
1.000000 0.833951 0.000000
0.000000 0.899761 0.000000
0.049629 0.899761 0.000000
0.118314 0.899761 0.000000
0.186999 0.899761 0.000000
0.255685 0.899761 0.000000
0.324370 0.899761 0.000000
0.393056 0.899761 0.000000
0.461741 0.899761 0.000000
0.530427 0.899761 0.000000
0.599112 0.899761 0.000000
0.667797 0.899761 0.000000
0.736483 0.899761 0.000000
0.805168 0.899761 0.000000
0.873854 0.899761 0.000000
0.942539 0.899761 0.000000
1.000000 0.899761 0.000000
1.000000 0.899761 0.000000
0.000000 0.965572 0.000000
0.049629 0.965572 0.000000
0.118314 0.965572 0.000000
0.186999 0.965572 0.000000
0.255685 0.965572 0.000000
0.324370 0.965572 0.000000
0.393056 0.965572 0.000000
0.461741 0.965572 0.000000
0.530427 0.965572 0.000000
0.599112 0.965572 0.000000
0.667797 0.965572 0.000000
0.736483 0.965572 0.000000
0.805168 0.965572 0.000000
0.873854 0.965572 0.000000
0.942539 0.965572 0.000000
1.000000 0.965572 0.000000
1.000000 0.965572 0.000000
0.000000 1.000000 0.000000
0.049629 1.000000 0.000000
0.118314 1.000000 0.000000
0.186999 1.000000 0.000000
0.255685 1.000000 0.000000
0.324370 1.000000 0.000000
0.393056 1.000000 0.000000
0.461741 1.000000 0.000000
0.530427 1.000000 0.000000
0.599112 1.000000 0.000000
0.667797 1.000000 0.000000
0.736483 1.000000 0.000000
0.805168 1.000000 0.000000
0.873854 1.000000 0.000000
0.942539 1.000000 0.000000
1.000000 1.000000 0.000000
1.000000 1.000000 0.000000
0.000000 0.000000 0.051085
0.049629 0.000000 0.038467
0.118314 0.000000 0.038467
0.186999 0.000000 0.038467
0.255685 0.000000 0.038467
0.324370 0.000000 0.038467
0.393056 0.000000 0.038467
0.461741 0.000000 0.038467
0.530427 0.000000 0.038467
0.599112 0.000000 0.038467
0.667797 0.000000 0.038467
0.736483 0.000000 0.038467
0.805168 0.000000 0.038467
0.873854 0.000000 0.038467
0.942539 0.000000 0.038467
1.000000 0.000000 0.038467
1.000000 0.000000 0.038467
0.000000 0.045453 0.039206
0.049629 0.044224 0.038467
0.118314 0.044224 0.038467
0.186999 0.044224 0.038467
0.255685 0.044224 0.038467
0.324370 0.044224 0.038467
0.393056 0.044224 0.038467
0.461741 0.044224 0.038467
0.530427 0.044224 0.038467
0.599112 0.044224 0.038467
0.667797 0.044224 0.038467
0.736483 0.044224 0.038467
0.805168 0.044224 0.038467
0.873854 0.044224 0.038467
0.942539 0.044224 0.038467
1.000000 0.044224 0.038467
1.000000 0.044224 0.038467
0.000000 0.110034 0.038467
0.049629 0.110034 0.038467
0.118314 0.110034 0.038467
0.186999 0.110034 0.038467
0.255685 0.110034 0.038467
0.324370 0.110034 0.038467
0.393056 0.110034 0.038467
0.461741 0.110034 0.038467
0.530427 0.110034 0.038467
0.599112 0.110034 0.038467
0.667797 0.110034 0.038467
0.736483 0.110034 0.038467
0.805168 0.110034 0.038467
0.873854 0.110034 0.038467
0.942539 0.110034 0.038467
1.000000 0.110034 0.038467
1.000000 0.110034 0.038467
0.000000 0.175845 0.038467
0.049629 0.175845 0.038467
0.118314 0.175845 0.038467
0.186999 0.175845 0.038467
0.255685 0.175845 0.038467
0.324370 0.175845 0.038467
0.393056 0.175845 0.038467
0.461741 0.175845 0.038467
0.530427 0.175845 0.038467
0.599112 0.175845 0.038467
0.667797 0.175845 0.038467
0.736483 0.175845 0.038467
0.805168 0.175845 0.038467
0.873854 0.175845 0.038467
0.942539 0.175845 0.038467
1.000000 0.175845 0.038467
1.000000 0.175845 0.038467
0.000000 0.241656 0.038467
0.049629 0.241656 0.038467
0.118314 0.241656 0.038467
0.186999 0.241656 0.038467
0.255685 0.241656 0.038467
0.324370 0.241656 0.038467
0.393056 0.241656 0.038467
0.461741 0.241656 0.038467
0.530427 0.241656 0.038467
0.599112 0.241656 0.038467
0.667797 0.241656 0.038467
0.736483 0.241656 0.038467
0.805168 0.241656 0.038467
0.873854 0.241656 0.038467
0.942539 0.241656 0.038467
1.000000 0.241656 0.038467
1.000000 0.241656 0.038467
0.000000 0.307466 0.038467
0.049629 0.307466 0.038467
0.118314 0.307466 0.038467
0.186999 0.307466 0.038467
0.255685 0.307466 0.038467
0.324370 0.307466 0.038467
0.393056 0.307466 0.038467
0.461741 0.307466 0.038467
0.530427 0.307466 0.038467
0.599112 0.307466 0.038467
0.667797 0.307466 0.038467
0.736483 0.307466 0.038467
0.805168 0.307466 0.038467
0.873854 0.307466 0.038467
0.942539 0.307466 0.038467
1.000000 0.307466 0.038467
1.000000 0.307466 0.038467
0.000000 0.373277 0.038467
0.049629 0.373277 0.038467
0.118314 0.373277 0.038467
0.186999 0.373277 0.038467
0.255685 0.373277 0.038467
0.324370 0.373277 0.038467
0.393056 0.373277 0.038467
0.461741 0.373277 0.038467
0.530427 0.373277 0.038467
0.599112 0.373277 0.038467
0.667797 0.373277 0.038467
0.736483 0.373277 0.038467
0.805168 0.373277 0.038467
0.873854 0.373277 0.038467
0.942539 0.373277 0.038467
1.000000 0.373277 0.038467
1.000000 0.373277 0.038467
0.000000 0.439087 0.038467
0.049629 0.439087 0.038467
0.118314 0.439087 0.038467
0.186999 0.439087 0.038467
0.255685 0.439087 0.038467
0.324370 0.439087 0.038467
0.393056 0.439087 0.038467
0.461741 0.439087 0.038467
0.530427 0.439087 0.038467
0.599112 0.439087 0.038467
0.667797 0.439087 0.038467
0.736483 0.439087 0.038467
0.805168 0.439087 0.038467
0.873854 0.439087 0.038467
0.942539 0.439087 0.038467
1.000000 0.439087 0.038467
1.000000 0.439087 0.038467
0.000000 0.504898 0.038467
0.049629 0.504898 0.038467
0.118314 0.504898 0.038467
0.186999 0.504898 0.038467
0.255685 0.504898 0.038467
0.324370 0.504898 0.038467
0.393056 0.504898 0.038467
0.461741 0.504898 0.038467
0.530427 0.504898 0.038467
0.599112 0.504898 0.038467
0.667797 0.504898 0.038467
0.736483 0.504898 0.038467
0.805168 0.504898 0.038467
0.873854 0.504898 0.038467
0.942539 0.504898 0.038467
1.000000 0.504898 0.038467
1.000000 0.504898 0.038467
0.000000 0.570708 0.038467
0.049629 0.570708 0.038467
0.118314 0.570708 0.038467
0.186999 0.570708 0.038467
0.255685 0.570708 0.038467
0.324370 0.570708 0.038467
0.393056 0.570708 0.038467
0.461741 0.570708 0.038467
0.530427 0.570708 0.038467
0.599112 0.570708 0.038467
0.667797 0.570708 0.038467
0.736483 0.570708 0.038467
0.805168 0.570708 0.038467
0.873854 0.570708 0.038467
0.942539 0.570708 0.038467
1.000000 0.570708 0.038467
1.000000 0.570708 0.038467
0.000000 0.636519 0.038467
0.049629 0.636519 0.038467
0.118314 0.636519 0.038467
0.186999 0.636519 0.038467
0.255685 0.636519 0.038467
0.324370 0.636519 0.038467
0.393056 0.636519 0.038467
0.461741 0.636519 0.038467
0.530427 0.636519 0.038467
0.599112 0.636519 0.038467
0.667797 0.636519 0.038467
0.736483 0.636519 0.038467
0.805168 0.636519 0.038467
0.873854 0.636519 0.038467
0.942539 0.636519 0.038467
1.000000 0.636519 0.038467
1.000000 0.636519 0.038467
0.000000 0.702330 0.038467
0.049629 0.702330 0.038467
0.118314 0.702330 0.038467
0.186999 0.702330 0.038467
0.255685 0.702330 0.038467
0.324370 0.702330 0.038467
0.393056 0.702330 0.038467
0.461741 0.702330 0.038467
0.530427 0.702330 0.038467
0.599112 0.702330 0.038467
0.667797 0.702330 0.038467
0.736483 0.702330 0.038467
0.805168 0.702330 0.038467
0.873854 0.702330 0.038467
0.942539 0.702330 0.038467
1.000000 0.702330 0.038467
1.000000 0.702330 0.038467
0.000000 0.768140 0.038467
0.049629 0.768140 0.038467
0.118314 0.768140 0.038467
0.186999 0.768140 0.038467
0.255685 0.768140 0.038467
0.324370 0.768140 0.038467
0.393056 0.768140 0.038467
0.461741 0.768140 0.038467
0.530427 0.768140 0.038467
0.599112 0.768140 0.038467
0.667797 0.768140 0.038467
0.736483 0.768140 0.038467
0.805168 0.768140 0.038467
0.873854 0.768140 0.038467
0.942539 0.768140 0.038467
1.000000 0.768140 0.038467
1.000000 0.768140 0.038467
0.000000 0.833951 0.038467
0.049629 0.833951 0.038467
0.118314 0.833951 0.038467
0.186999 0.833951 0.038467
0.255685 0.833951 0.038467
0.324370 0.833951 0.038467
0.393056 0.833951 0.038467
0.461741 0.833951 0.038467
0.530427 0.833951 0.038467
0.599112 0.833951 0.038467
0.667797 0.833951 0.038467
0.736483 0.833951 0.038467
0.805168 0.833951 0.038467
0.873854 0.833951 0.038467
0.942539 0.833951 0.038467
1.000000 0.833951 0.038467
1.000000 0.833951 0.038467
0.000000 0.899761 0.038467
0.049629 0.899761 0.038467
0.118314 0.899761 0.038467
0.186999 0.899761 0.038467
0.255685 0.899761 0.038467
0.324370 0.899761 0.038467
0.393056 0.899761 0.038467
0.461741 0.899761 0.038467
0.530427 0.899761 0.038467
0.599112 0.899761 0.038467
0.667797 0.899761 0.038467
0.736483 0.899761 0.038467
0.805168 0.899761 0.038467
0.873854 0.899761 0.038467
0.942539 0.899761 0.038467
1.000000 0.899761 0.038467
1.000000 0.899761 0.038467
0.000000 0.965572 0.038467
0.049629 0.965572 0.038467
0.118314 0.965572 0.038467
0.186999 0.965572 0.038467
0.255685 0.965572 0.038467
0.324370 0.965572 0.038467
0.393056 0.965572 0.038467
0.461741 0.965572 0.038467
0.530427 0.965572 0.038467
0.599112 0.965572 0.038467
0.667797 0.965572 0.038467
0.736483 0.965572 0.038467
0.805168 0.965572 0.038467
0.873854 0.965572 0.038467
0.942539 0.965572 0.038467
1.000000 0.965572 0.038467
1.000000 0.965572 0.038467
0.000000 1.000000 0.038467
0.049629 1.000000 0.038467
0.118314 1.000000 0.038467
0.186999 1.000000 0.038467
0.255685 1.000000 0.038467
0.324370 1.000000 0.038467
0.393056 1.000000 0.038467
0.461741 1.000000 0.038467
0.530427 1.000000 0.038467
0.599112 1.000000 0.038467
0.667797 1.000000 0.038467
0.736483 1.000000 0.038467
0.805168 1.000000 0.038467
0.873854 1.000000 0.038467
0.942539 1.000000 0.038467
1.000000 1.000000 0.038467
1.000000 1.000000 0.038467
0.000000 0.000000 0.133229
0.051625 0.000000 0.105388
0.118314 0.000000 0.101215
0.186999 0.000000 0.101215
0.255685 0.000000 0.101215
0.324370 0.000000 0.101215
0.393056 0.000000 0.101215
0.461741 0.000000 0.101215
0.530427 0.000000 0.101215
0.599112 0.000000 0.101215
0.667797 0.000000 0.101215
0.736483 0.000000 0.101215
0.805168 0.000000 0.101215
0.873854 0.000000 0.101215
0.942539 0.000000 0.101215
1.000000 0.000000 0.101215
1.000000 0.000000 0.101215
0.000000 0.047414 0.122747
0.049653 0.043307 0.110227
0.118314 0.044224 0.101215
0.186999 0.044224 0.101215
0.255685 0.044224 0.101215
0.324370 0.044224 0.101215
0.393056 0.044224 0.101215
0.461741 0.044224 0.101215
0.530427 0.044224 0.101215
0.599112 0.044224 0.101215
0.667797 0.044224 0.101215
0.736483 0.044224 0.101215
0.805168 0.044224 0.101215
0.873854 0.044224 0.101215
0.942539 0.044224 0.101215
1.000000 0.044224 0.101215
1.000000 0.044224 0.101215
0.000000 0.113154 0.103374
0.046919 0.110813 0.101484
0.118314 0.110034 0.101215
0.186999 0.110034 0.101215
0.255685 0.110034 0.101215
0.324370 0.110034 0.101215
0.393056 0.110034 0.101215
0.461741 0.110034 0.101215
0.530427 0.110034 0.101215
0.599112 0.110034 0.101215
0.667797 0.110034 0.101215
0.736483 0.110034 0.101215
0.805168 0.110034 0.101215
0.873854 0.110034 0.101215
0.942539 0.110034 0.101215
1.000000 0.110034 0.101215
1.000000 0.110034 0.101215
0.000000 0.176354 0.100922
0.049629 0.175845 0.101215
0.118314 0.175845 0.101215
0.186999 0.175845 0.101215
0.255685 0.175845 0.101215
0.324370 0.175845 0.101215
0.393056 0.175845 0.101215
0.461741 0.175845 0.101215
0.530427 0.175845 0.101215
0.599112 0.175845 0.101215
0.667797 0.175845 0.101215
0.736483 0.175845 0.101215
0.805168 0.175845 0.101215
0.873854 0.175845 0.101215
0.942539 0.175845 0.101215
1.000000 0.175845 0.101215
1.000000 0.175845 0.101215
0.000000 0.241656 0.101215
0.049629 0.241656 0.101215
0.118314 0.241656 0.101215
0.186999 0.241656 0.101215
0.255685 0.241656 0.101215
0.324370 0.241656 0.101215
0.393056 0.241656 0.101215
0.461741 0.241656 0.101215
0.530427 0.241656 0.101215
0.599112 0.241656 0.101215
0.667797 0.241656 0.101215
0.736483 0.241656 0.101215
0.805168 0.241656 0.101215
0.873854 0.241656 0.101215
0.942539 0.241656 0.101215
1.000000 0.241656 0.101215
1.000000 0.241656 0.101215
0.000000 0.307466 0.101215
0.049629 0.307466 0.101215
0.118314 0.307466 0.101215
0.186999 0.307466 0.101215
0.255685 0.307466 0.101215
0.324370 0.307466 0.101215
0.393056 0.307466 0.101215
0.461741 0.307466 0.101215
0.530427 0.307466 0.101215
0.599112 0.307466 0.101215
0.667797 0.307466 0.101215
0.736483 0.307466 0.101215
0.805168 0.307466 0.101215
0.873854 0.307466 0.101215
0.942539 0.307466 0.101215
1.000000 0.307466 0.101215
1.000000 0.307466 0.101215
0.000000 0.373277 0.101215
0.049629 0.373277 0.101215
0.118314 0.373277 0.101215
0.186999 0.373277 0.101215
0.255685 0.373277 0.101215
0.324370 0.373277 0.101215
0.393056 0.373277 0.101215
0.461741 0.373277 0.101215
0.530427 0.373277 0.101215
0.599112 0.373277 0.101215
0.667797 0.373277 0.101215
0.736483 0.373277 0.101215
0.805168 0.373277 0.101215
0.873854 0.373277 0.101215
0.942539 0.373277 0.101215
1.000000 0.373277 0.101215
1.000000 0.373277 0.101215
0.000000 0.439087 0.101215
0.049629 0.439087 0.101215
0.118314 0.439087 0.101215
0.186999 0.439087 0.101215
0.255685 0.439087 0.101215
0.324370 0.439087 0.101215
0.393056 0.439087 0.101215
0.461741 0.439087 0.101215
0.530427 0.439087 0.101215
0.599112 0.439087 0.101215
0.667797 0.439087 0.101215
0.736483 0.439087 0.101215
0.805168 0.439087 0.101215
0.873854 0.439087 0.101215
0.942539 0.439087 0.101215
1.000000 0.439087 0.101215
1.000000 0.439087 0.101215
0.000000 0.504898 0.101215
0.049629 0.504898 0.101215
0.118314 0.504898 0.101215
0.186999 0.504898 0.101215
0.255685 0.504898 0.101215
0.324370 0.504898 0.101215
0.393056 0.504898 0.101215
0.461741 0.504898 0.101215
0.530427 0.504898 0.101215
0.599112 0.504898 0.101215
0.667797 0.504898 0.101215
0.736483 0.504898 0.101215
0.805168 0.504898 0.101215
0.873854 0.504898 0.101215
0.942539 0.504898 0.101215
1.000000 0.504898 0.101215
1.000000 0.504898 0.101215
0.000000 0.570708 0.101215
0.049629 0.570708 0.101215
0.118314 0.570708 0.101215
0.186999 0.570708 0.101215
0.255685 0.570708 0.101215
0.324370 0.570708 0.101215
0.393056 0.570708 0.101215
0.461741 0.570708 0.101215
0.530427 0.570708 0.101215
0.599112 0.570708 0.101215
0.667797 0.570708 0.101215
0.736483 0.570708 0.101215
0.805168 0.570708 0.101215
0.873854 0.570708 0.101215
0.942539 0.570708 0.101215
1.000000 0.570708 0.101215
1.000000 0.570708 0.101215
0.000000 0.636519 0.101215
0.049629 0.636519 0.101215
0.118314 0.636519 0.101215
0.186999 0.636519 0.101215
0.255685 0.636519 0.101215
0.324370 0.636519 0.101215
0.393056 0.636519 0.101215
0.461741 0.636519 0.101215
0.530427 0.636519 0.101215
0.599112 0.636519 0.101215
0.667797 0.636519 0.101215
0.736483 0.636519 0.101215
0.805168 0.636519 0.101215
0.873854 0.636519 0.101215
0.942539 0.636519 0.101215
1.000000 0.636519 0.101215
1.000000 0.636519 0.101215
0.000000 0.702330 0.101215
0.049629 0.702330 0.101215
0.118314 0.702330 0.101215
0.186999 0.702330 0.101215
0.255685 0.702330 0.101215
0.324370 0.702330 0.101215
0.393056 0.702330 0.101215
0.461741 0.702330 0.101215
0.530427 0.702330 0.101215
0.599112 0.702330 0.101215
0.667797 0.702330 0.101215
0.736483 0.702330 0.101215
0.805168 0.702330 0.101215
0.873854 0.702330 0.101215
0.942539 0.702330 0.101215
1.000000 0.702330 0.101215
1.000000 0.702330 0.101215
0.000000 0.768140 0.101215
0.049629 0.768140 0.101215
0.118314 0.768140 0.101215
0.186999 0.768140 0.101215
0.255685 0.768140 0.101215
0.324370 0.768140 0.101215
0.393056 0.768140 0.101215
0.461741 0.768140 0.101215
0.530427 0.768140 0.101215
0.599112 0.768140 0.101215
0.667797 0.768140 0.101215
0.736483 0.768140 0.101215
0.805168 0.768140 0.101215
0.873854 0.768140 0.101215
0.942539 0.768140 0.101215
1.000000 0.768140 0.101215
1.000000 0.768140 0.101215
0.000000 0.833951 0.101215
0.049629 0.833951 0.101215
0.118314 0.833951 0.101215
0.186999 0.833951 0.101215
0.255685 0.833951 0.101215
0.324370 0.833951 0.101215
0.393056 0.833951 0.101215
0.461741 0.833951 0.101215
0.530427 0.833951 0.101215
0.599112 0.833951 0.101215
0.667797 0.833951 0.101215
0.736483 0.833951 0.101215
0.805168 0.833951 0.101215
0.873854 0.833951 0.101215
0.942539 0.833951 0.101215
1.000000 0.833951 0.101215
1.000000 0.833951 0.101215
0.000000 0.899761 0.101215
0.049629 0.899761 0.101215
0.118314 0.899761 0.101215
0.186999 0.899761 0.101215
0.255685 0.899761 0.101215
0.324370 0.899761 0.101215
0.393056 0.899761 0.101215
0.461741 0.899761 0.101215
0.530427 0.899761 0.101215
0.599112 0.899761 0.101215
0.667797 0.899761 0.101215
0.736483 0.899761 0.101215
0.805168 0.899761 0.101215
0.873854 0.899761 0.101215
0.942539 0.899761 0.101215
1.000000 0.899761 0.101215
1.000000 0.899761 0.101215
0.000000 0.965572 0.101215
0.049629 0.965572 0.101215
0.118314 0.965572 0.101215
0.186999 0.965572 0.101215
0.255685 0.965572 0.101215
0.324370 0.965572 0.101215
0.393056 0.965572 0.101215
0.461741 0.965572 0.101215
0.530427 0.965572 0.101215
0.599112 0.965572 0.101215
0.667797 0.965572 0.101215
0.736483 0.965572 0.101215
0.805168 0.965572 0.101215
0.873854 0.965572 0.101215
0.942539 0.965572 0.101215
1.000000 0.965572 0.101215
1.000000 0.965572 0.101215
0.000000 1.000000 0.101215
0.049629 1.000000 0.101215
0.118314 1.000000 0.101215
0.186999 1.000000 0.101215
0.255685 1.000000 0.101215
0.324370 1.000000 0.101215
0.393056 1.000000 0.101215
0.461741 1.000000 0.101215
0.530427 1.000000 0.101215
0.599112 1.000000 0.101215
0.667797 1.000000 0.101215
0.736483 1.000000 0.101215
0.805168 1.000000 0.101215
0.873854 1.000000 0.101215
0.942539 1.000000 0.101215
1.000000 1.000000 0.101215
1.000000 1.000000 0.101215
0.000000 0.000000 0.212314
0.054576 0.000000 0.182129
0.118761 0.000000 0.164620
0.186999 0.000000 0.163963
0.255685 0.000000 0.163963
0.324370 0.000000 0.163963
0.393056 0.000000 0.163963
0.461741 0.000000 0.163963
0.530427 0.000000 0.163963
0.599112 0.000000 0.163963
0.667797 0.000000 0.163963
0.736483 0.000000 0.163963
0.805168 0.000000 0.163963
0.873854 0.000000 0.163963
0.942539 0.000000 0.163963
1.000000 0.000000 0.163963
1.000000 0.000000 0.163963
0.000000 0.046105 0.207709
0.048472 0.041644 0.192922
0.119863 0.043464 0.166934
