assets/presets/luts/tungsten-warm/lut.cube
TITLE "Tungsten Warm"
LUT_3D_SIZE 9
0.000000 0.000000 0.000000
0.118314 0.000000 0.000000
0.255685 0.000000 0.000000
0.393056 0.000000 0.000000
0.530427 0.000000 0.000000
0.667797 0.000000 0.000000
0.805168 0.000000 0.000000
0.942539 0.000000 0.000000
1.000000 0.000000 0.000000
0.000000 0.110034 0.000000
0.118314 0.110034 0.000000
0.255685 0.110034 0.000000
0.393056 0.110034 0.000000
0.530427 0.110034 0.000000
0.667797 0.110034 0.000000
0.805168 0.110034 0.000000
0.942539 0.110034 0.000000
1.000000 0.110034 0.000000
0.000000 0.241656 0.000000
0.118314 0.241656 0.000000
0.255685 0.241656 0.000000
0.393056 0.241656 0.000000
0.530427 0.241656 0.000000
0.667797 0.241656 0.000000
0.805168 0.241656 0.000000
0.942539 0.241656 0.000000
1.000000 0.241656 0.000000
0.000000 0.373277 0.000000
0.118314 0.373277 0.000000
0.255685 0.373277 0.000000
0.393056 0.373277 0.000000
0.530427 0.373277 0.000000
0.667797 0.373277 0.000000
0.805168 0.373277 0.000000
0.942539 0.373277 0.000000
1.000000 0.373277 0.000000
0.000000 0.504898 0.000000
0.118314 0.504898 0.000000
0.255685 0.504898 0.000000
0.393056 0.504898 0.000000
0.530427 0.504898 0.000000
0.667797 0.504898 0.000000
0.805168 0.504898 0.000000
0.942539 0.504898 0.000000
1.000000 0.504898 0.000000
0.000000 0.636519 0.000000
0.118314 0.636519 0.000000
0.255685 0.636519 0.000000
0.393056 0.636519 0.000000
0.530427 0.636519 0.000000
0.667797 0.636519 0.000000
0.805168 0.636519 0.000000
0.942539 0.636519 0.000000
1.000000 0.636519 0.000000
0.000000 0.768140 0.000000
0.118314 0.768140 0.000000
0.255685 0.768140 0.000000
0.393056 0.768140 0.000000
0.530427 0.768140 0.000000
0.667797 0.768140 0.000000
0.805168 0.768140 0.000000
0.942539 0.768140 0.000000
1.000000 0.768140 0.000000
0.000000 0.899761 0.000000
0.118314 0.899761 0.000000
0.255685 0.899761 0.000000
0.393056 0.899761 0.000000
0.530427 0.899761 0.000000
0.667797 0.899761 0.000000
0.805168 0.899761 0.000000
0.942539 0.899761 0.000000
1.000000 0.899761 0.000000
0.000000 1.000000 0.000000
0.118314 1.000000 0.000000
0.255685 1.000000 0.000000
0.393056 1.000000 0.000000
0.530427 1.000000 0.000000
0.667797 1.000000 0.000000
0.805168 1.000000 0.000000
0.942539 1.000000 0.000000
1.000000 1.000000 0.000000
0.000000 0.000000 0.133229
0.118314 0.000000 0.101215
0.255685 0.000000 0.101215
0.393056 0.000000 0.101215
0.530427 0.000000 0.101215
0.667797 0.000000 0.101215
0.805168 0.000000 0.101215
0.942539 0.000000 0.101215
1.000000 0.000000 0.101215
0.000000 0.113154 0.103374
0.118314 0.110034 0.101215
0.255685 0.110034 0.101215
0.393056 0.110034 0.101215
0.530427 0.110034 0.101215
0.667797 0.110034 0.101215
0.805168 0.110034 0.101215
0.942539 0.110034 0.101215
1.000000 0.110034 0.101215
0.000000 0.241656 0.101215
0.118314 0.241656 0.101215
0.255685 0.241656 0.101215
0.393056 0.241656 0.101215
0.530427 0.241656 0.101215
0.667797 0.241656 0.101215
0.805168 0.241656 0.101215
0.942539 0.241656 0.101215
1.000000 0.241656 0.101215
0.000000 0.373277 0.101215
0.118314 0.373277 0.101215
0.255685 0.373277 0.101215
0.393056 0.373277 0.101215
0.530427 0.373277 0.101215
0.667797 0.373277 0.101215
0.805168 0.373277 0.101215
0.942539 0.373277 0.101215
1.000000 0.373277 0.101215
0.000000 0.504898 0.101215
0.118314 0.504898 0.101215
0.255685 0.504898 0.101215
0.393056 0.504898 0.101215
0.530427 0.504898 0.101215
0.667797 0.504898 0.101215
0.805168 0.504898 0.101215
0.942539 0.504898 0.101215
1.000000 0.504898 0.101215
0.000000 0.636519 0.101215
0.118314 0.636519 0.101215
0.255685 0.636519 0.101215
0.393056 0.636519 0.101215
0.530427 0.636519 0.101215
0.667797 0.636519 0.101215
0.805168 0.636519 0.101215
0.942539 0.636519 0.101215
1.000000 0.636519 0.101215
0.000000 0.768140 0.101215
0.118314 0.768140 0.101215
0.255685 0.768140 0.101215
0.393056 0.768140 0.101215
0.530427 0.768140 0.101215
0.667797 0.768140 0.101215
0.805168 0.768140 0.101215
0.942539 0.768140 0.101215
1.000000 0.768140 0.101215
0.000000 0.899761 0.101215
0.118314 0.899761 0.101215
0.255685 0.899761 0.101215
0.393056 0.899761 0.101215
0.530427 0.899761 0.101215
0.667797 0.899761 0.101215
0.805168 0.899761 0.101215
0.942539 0.899761 0.101215
1.000000 0.899761 0.101215
0.000000 1.000000 0.101215
0.118314 1.000000 0.101215
0.255685 1.000000 0.101215
0.393056 1.000000 0.101215
0.530427 1.000000 0.101215
0.667797 1.000000 0.101215
0.805168 1.000000 0.101215
0.942539 1.000000 0.101215
1.000000 1.000000 0.101215
0.000000 0.000000 0.291398
0.122694 0.000000 0.236233
0.255685 0.000000 0.226711
0.393056 0.000000 0.226711
0.530427 0.000000 0.226711
0.667797 0.000000 0.226711
0.805168 0.000000 0.226711
0.942539 0.000000 0.226711
1.000000 0.000000 0.226711
0.000000 0.116371 0.270783
0.117832 0.107457 0.253658
0.255685 0.110034 0.226711
0.393056 0.110034 0.226711
0.530427 0.110034 0.226711
0.667797 0.110034 0.226711
0.805168 0.110034 0.226711
0.942539 0.110034 0.226711
1.000000 0.110034 0.226711
0.000000 0.248116 0.231480
0.109983 0.244024 0.227783
0.255685 0.241656 0.226711
0.393056 0.241656 0.226711
0.530427 0.241656 0.226711
0.667797 0.241656 0.226711
0.805168 0.241656 0.226711
0.942539 0.241656 0.226711
1.000000 0.241656 0.226711
0.000000 0.374401 0.226093
0.118314 0.373277 0.226711
0.255685 0.373277 0.226711
0.393056 0.373277 0.226711
0.530427 0.373277 0.226711
0.667797 0.373277 0.226711
0.805168 0.373277 0.226711
0.942539 0.373277 0.226711
1.000000 0.373277 0.226711
0.000000 0.504898 0.226711
0.118314 0.504898 0.226711
0.255685 0.504898 0.226711
0.393056 0.504898 0.226711
0.530427 0.504898 0.226711
0.667797 0.504898 0.226711
0.805168 0.504898 0.226711
0.942539 0.504898 0.226711
1.000000 0.504898 0.226711
0.000000 0.636519 0.226711
0.118314 0.636519 0.226711
0.255685 0.636519 0.226711
0.393056 0.636519 0.226711
0.530427 0.636519 0.226711
0.667797 0.636519 0.226711
0.805168 0.636519 0.226711
0.942539 0.636519 0.226711
1.000000 0.636519 0.226711
0.000000 0.768140 0.226711
0.118314 0.768140 0.226711
0.255685 0.768140 0.226711
0.393056 0.768140 0.226711
0.530427 0.768140 0.226711
0.667797 0.768140 0.226711
0.805168 0.768140 0.226711
0.942539 0.768140 0.226711
1.000000 0.768140 0.226711
0.000000 0.899761 0.226711
0.118314 0.899761 0.226711
0.255685 0.899761 0.226711
0.393056 0.899761 0.226711
0.530427 0.899761 0.226711
0.667797 0.899761 0.226711
0.805168 0.899761 0.226711
0.942539 0.899761 0.226711
1.000000 0.899761 0.226711
0.000000 1.000000 0.226711
0.118314 1.000000 0.226711
0.255685 1.000000 0.226711
0.393056 1.000000 0.226711
0.530427 1.000000 0.226711
0.667797 1.000000 0.226711
0.805168 1.000000 0.226711
0.942539 1.000000 0.226711
1.000000 1.000000 0.226711
0.000000 0.000000 0.449568
0.128292 0.000000 0.390208
0.256855 0.000000 0.353968
0.393056 0.000000 0.352207
0.530427 0.000000 0.352207
0.667797 0.000000 0.352207
0.805168 0.000000 0.352207
0.942539 0.000000 0.352207
1.000000 0.000000 0.352207
0.000000 0.113718 0.440584
0.115379 0.104883 0.411882
0.259183 0.108291 0.359179
0.393056 0.110034 0.352207
0.530427 0.110034 0.352207
0.667797 0.110034 0.352207
0.805168 0.110034 0.352207
0.942539 0.110034 0.352207
1.000000 0.110034 0.352207
0.000000 0.254444 0.394437
0.084242 0.247569 0.393960
0.256388 0.239138 0.375070
0.393056 0.241656 0.352207
0.530427 0.241656 0.352207
0.667797 0.241656 0.352207
0.805168 0.241656 0.352207
0.942539 0.241656 0.352207
1.000000 0.241656 0.352207
0.000000 0.383078 0.359593
0.097926 0.378979 0.355754
0.249779 0.374997 0.352561
0.393056 0.373277 0.352207
0.530427 0.373277 0.352207
0.667797 0.373277 0.352207
0.805168 0.373277 0.352207
0.942539 0.373277 0.352207
1.000000 0.373277 0.352207
0.000000 0.508582 0.351318
0.115967 0.505643 0.351732
0.255685 0.504898 0.352207
0.393056 0.504898 0.352207
0.530427 0.504898 0.352207
0.667797 0.504898 0.352207
0.805168 0.504898 0.352207
0.942539 0.504898 0.352207
1.000000 0.504898 0.352207
0.000000 0.637071 0.351782
0.118314 0.636519 0.352207
0.255685 0.636519 0.352207
0.393056 0.636519 0.352207
0.530427 0.636519 0.352207
0.667797 0.636519 0.352207
0.805168 0.636519 0.352207
0.942539 0.636519 0.352207
1.000000 0.636519 0.352207
0.000000 0.768140 0.352207
0.118314 0.768140 0.352207
0.255685 0.768140 0.352207
0.393056 0.768140 0.352207
0.530427 0.768140 0.352207
0.667797 0.768140 0.352207
0.805168 0.768140 0.352207
0.942539 0.768140 0.352207
1.000000 0.768140 0.352207
0.000000 0.899761 0.352207
0.118314 0.899761 0.352207
0.255685 0.899761 0.352207
0.393056 0.899761 0.352207
0.530427 0.899761 0.352207
0.667797 0.899761 0.352207
0.805168 0.899761 0.352207
0.942539 0.899761 0.352207
1.000000 0.899761 0.352207
0.000000 1.000000 0.352207
0.118314 1.000000 0.352207
0.255685 1.000000 0.352207
0.393056 1.000000 0.352207
0.530427 1.000000 0.352207
0.667797 1.000000 0.352207
0.805168 1.000000 0.352207
0.942539 1.000000 0.352207
1.000000 1.000000 0.352207
0.000000 0.000000 0.607738
0.130288 0.000000 0.547653
0.264823 0.000000 0.497965
0.393057 0.000000 0.477706
0.530427 0.000000 0.477704
0.667797 0.000000 0.477704
0.805168 0.000000 0.477704
0.942539 0.000000 0.477704
1.000000 0.000000 0.477704
0.000000 0.110544 0.605583
0.112863 0.102330 0.570071
0.265434 0.103673 0.512011
0.393645 0.109774 0.478548
0.530427 0.110034 0.477704
0.667797 0.110034 0.477704
0.805168 0.110034 0.477704
0.942539 0.110034 0.477704
1.000000 0.110034 0.477704
0.000000 0.254284 0.566853
0.078366 0.244868 0.563515
0.254140 0.236495 0.533374
0.395641 0.240410 0.482431
0.530427 0.241656 0.477704
0.667797 0.241656 0.477704
0.805168 0.241656 0.477704
0.942539 0.241656 0.477704
1.000000 0.241656 0.477704
0.000000 0.390913 0.519432
0.063254 0.385612 0.517642
0.223282 0.378927 0.517147
0.394680 0.370902 0.496441
0.530427 0.373277 0.477704
0.667797 0.373277 0.477704
0.805168 0.373277 0.477704
0.942539 0.373277 0.477704
1.000000 0.373277 0.477704
0.000000 0.518039 0.487708
0.085819 0.513939 0.483824
0.237902 0.509928 0.480244
0.389317 0.506016 0.477641
0.530427 0.504898 0.477704
0.667797 0.504898 0.477704
0.805168 0.504898 0.477704
0.942539 0.504898 0.477704
1.000000 0.504898 0.477704
0.000000 0.643182 0.477378
0.108123 0.639645 0.476748
0.254225 0.636987 0.477368
0.393056 0.636519 0.477704
0.530427 0.636519 0.477704
0.667797 0.636519 0.477704
0.805168 0.636519 0.477704
0.942539 0.636519 0.477704
1.000000 0.636519 0.477704
0.000000 0.770498 0.476436
0.117281 0.768475 0.477427
0.255685 0.768140 0.477704
0.393056 0.768140 0.477704
0.530427 0.768140 0.477704
0.667797 0.768140 0.477704
0.805168 0.768140 0.477704
0.942539 0.768140 0.477704
1.000000 0.768140 0.477704
0.000000 0.900062 0.477444
0.118314 0.899761 0.477704
0.255685 0.899761 0.477704
0.393056 0.899761 0.477704
0.530427 0.899761 0.477704
0.667797 0.899761 0.477704
0.805168 0.899761 0.477704
0.942539 0.899761 0.477704
1.000000 0.899761 0.477704
0.000000 1.000000 0.477704
0.118314 1.000000 0.477704
0.255685 1.000000 0.477704
0.393056 1.000000 0.477704
0.530427 1.000000 0.477704
0.667797 1.000000 0.477704
0.805168 1.000000 0.477704
0.942539 1.000000 0.477704
1.000000 1.000000 0.477704
0.000000 0.000000 0.765907
0.130476 0.000000 0.705861
0.271449 0.000000 0.650569
0.398696 0.000000 0.613051
0.530427 0.000000 0.603200
0.667797 0.000000 0.603200
0.805168 0.000000 0.603200
0.942539 0.000000 0.603200
1.000000 0.000000 0.603200
0.000000 0.107460 0.767927
0.110334 0.099783 0.728250
0.267913 0.099740 0.669168
0.401337 0.105798 0.620776
0.530427 0.110034 0.603200
0.667797 0.110034 0.603200
0.805168 0.110034 0.603200
0.942539 0.110034 0.603200
1.000000 0.110034 0.603200
0.000000 0.251949 0.737976
0.075752 0.241697 0.728121
0.251681 0.233922 0.691596
0.402476 0.235758 0.633882
0.530609 0.241576 0.603449
0.667797 0.241656 0.603200
0.805168 0.241656 0.603200
0.942539 0.241656 0.603200
1.000000 0.241656 0.603200
0.000000 0.393013 0.690281
0.047768 0.385482 0.690030
0.217470 0.376216 0.686609
0.392802 0.368141 0.654820
0.532123 0.372485 0.606050
0.667797 0.373277 0.603200
0.805168 0.373277 0.603200
0.942539 0.373277 0.603200
1.000000 0.373277 0.603200
0.000000 0.526721 0.645481
0.047300 0.522017 0.642730
0.202557 0.516887 0.640875
0.362323 0.510285 0.640334
0.532645 0.502761 0.617837
0.667797 0.504898 0.603200
0.805168 0.504898 0.603200
0.942539 0.504898 0.603200
1.000000 0.504898 0.603200
0.000000 0.653001 0.615824
0.073701 0.648901 0.611917
0.225841 0.644883 0.608222
0.377794 0.640886 0.604881
0.528492 0.637114 0.603001
0.667797 0.636519 0.603200
0.805168 0.636519 0.603200
0.942539 0.636519 0.603200
1.000000 0.636519 0.603200
0.000000 0.777946 0.604013
0.098236 0.774169 0.602602
0.247074 0.770798 0.602231
0.392289 0.768388 0.603002
0.530427 0.768140 0.603200
0.667797 0.768140 0.603200
0.805168 0.768140 0.603200
0.942539 0.768140 0.603200
1.000000 0.768140 0.603200
0.000000 0.904542 0.601457
0.112120 0.901717 0.602063
0.255112 0.899948 0.603037
0.393056 0.899761 0.603200
0.530427 0.899761 0.603200
0.667797 0.899761 0.603200
0.805168 0.899761 0.603200
0.942539 0.899761 0.603200
1.000000 0.899761 0.603200
0.000000 1.000000 0.602054
0.117751 1.000000 0.603034
0.255685 1.000000 0.603200
0.393056 1.000000 0.603200
0.530427 1.000000 0.603200
0.667797 1.000000 0.603200
0.805168 1.000000 0.603200
0.942539 1.000000 0.603200
1.000000 1.000000 0.603200
0.000000 0.000000 0.924077
0.129726 0.000000 0.864260
0.275708 0.000000 0.806377
0.406949 0.000000 0.759706
0.533064 0.000000 0.732708
0.667797 0.000000 0.728697
0.805168 0.000000 0.728697
0.942539 0.000000 0.728697
1.000000 0.000000 0.728697
0.000000 0.104498 0.928889
0.107799 0.097237 0.886426
0.268397 0.096303 0.827287
0.408304 0.101063 0.772667
0.535193 0.107803 0.736764
0.667797 0.110034 0.728697
0.805168 0.110034 0.728697
0.942539 0.110034 0.728697
1.000000 0.110034 0.728697
0.000000 0.248943 0.906332
0.073641 0.238636 0.890153
0.249179 0.231365 0.849793
0.405471 0.231707 0.790690
0.537820 0.237941 0.743717
0.667797 0.241656 0.728697
0.805168 0.241656 0.728697
0.942539 0.241656 0.728697
1.000000 0.241656 0.728697
0.000000 0.392197 0.862923
0.040251 0.383118 0.861077
0.214919 0.373049 0.850992
0.390441 0.365535 0.813087
0.539416 0.367862 0.755859
0.667801 0.373275 0.728701
0.805168 0.373277 0.728697
0.942539 0.373277 0.728697
1.000000 0.373277 0.728697
0.000000 0.530510 0.814135
0.024562 0.524209 0.813462
0.186807 0.516840 0.813217
0.356578 0.507565 0.809693
0.531353 0.499824 0.776229
0.668701 0.504488 0.730091
0.805168 0.504898 0.728697
0.942539 0.504898 0.728697
1.000000 0.504898 0.728697
0.000000 0.662211 0.772155
0.033170 0.657773 0.768876
0.186845 0.653208 0.766087
0.341880 0.648156 0.764115
0.501365 0.641642 0.763521
0.670218 0.634727 0.739319
0.805168 0.636519 0.728697
0.942539 0.636519 0.728697
1.000000 0.636519 0.728697
0.000000 0.787963 0.743941
0.061579 0.783862 0.740020
0.213744 0.779843 0.736270
0.365816 0.775832 0.732715
0.517586 0.771859 0.729668
0.667167 0.768340 0.728570
0.805168 0.768140 0.728697
0.942539 0.768140 0.728697
1.000000 0.768140 0.728697
0.000000 0.912786 0.731023
0.087465 0.908893 0.729076
0.237522 0.905241 0.727897
0.385920 0.901978 0.727755
0.530141 0.899854 0.728614
0.667797 0.899761 0.728697
0.805168 0.899761 0.728697
0.942539 0.899761 0.728697
1.000000 0.899761 0.728697
0.000000 1.000000 0.726920
0.104158 1.000000 0.726936
0.250327 1.000000 0.727642
0.392761 1.000000 0.728608
0.530427 1.000000 0.728697
0.667797 1.000000 0.728697
0.805168 1.000000 0.728697
0.942539 1.000000 0.728697
1.000000 1.000000 0.728697
0.000000 0.000000 1.000000
0.128439 0.000000 1.000000
0.278206 0.000000 0.963560
0.413948 0.000000 0.911665
0.540863 0.000000 0.873724
0.668564 0.000000 0.855257
0.805168 0.000000 0.854193
0.942539 0.000000 0.854193
1.000000 0.000000 0.854193
0.000000 0.101630 1.000000
0.105261 0.094693 1.000000
0.267837 0.093151 0.985659
0.412899 0.096671 0.928141
0.543474 0.103301 0.882474
0.669786 0.109145 0.857143
0.805168 0.110034 0.854193
0.942539 0.110034 0.854193
1.000000 0.110034 0.854193
0.000000 0.245767 1.000000
0.071554 0.235700 1.000000
0.246659 0.228814 1.000000
0.406274 0.228186 0.948698
0.545105 0.233191 0.894818
0.671720 0.239840 0.860625
0.805168 0.241656 0.854193
0.942539 0.241656 0.854193
1.000000 0.241656 0.854193
0.000000 0.390027 1.000000
0.035927 0.380093 1.000000
0.212821 0.370003 1.000000
0.387982 0.362962 0.971309
0.542947 0.363694 0.912252
0.674284 0.370075 0.866811
0.805168 0.373277 0.854193
0.942539 0.373277 0.854193
1.000000 0.373277 0.854193
0.000000 0.531191 0.986361
0.011294 0.523395 0.986099
0.179300 0.514474 0.984252
0.354089 0.504402 0.973844
0.529136 0.497170 0.934547
0.676258 0.499984 0.877956
0.805168 0.504898 0.854193
0.942539 0.504898 0.854193
1.000000 0.504898 0.854193
0.000000 0.667247 0.938760
0.005434 0.661680 0.937338
0.163708 0.655536 0.936650
0.325846 0.648198 0.936405
0.495690 0.638913 0.932767
0.669779 0.631547 0.897611
0.805467 0.636387 0.854618
0.942539 0.636519 0.854193
1.000000 0.636519 0.854193
0.000000 0.797525 0.899214
0.019861 0.793223 0.895635
0.172879 0.788903 0.892347
0.326415 0.784389 0.889459
0.481223 0.779418 0.887364
0.640408 0.772999 0.886708
0.807307 0.766827 0.860901
0.942539 0.768140 0.854193
1.000000 0.768140 0.854193
0.000000 0.922925 0.872057
0.049454 0.918824 0.868128
0.201634 0.914803 0.864347
0.353754 0.910788 0.860693
0.505736 0.906787 0.857305
0.657259 0.902852 0.854606
0.805150 0.899767 0.854187
0.942539 0.899761 0.854193
1.000000 0.899761 0.854193
0.000000 1.000000 0.858341
0.075555 1.000000 0.855993
0.226338 1.000000 0.854218
0.376251 1.000000 0.853209
0.524342 1.000000 0.853270
0.667736 1.000000 0.854173
0.805168 1.000000 0.854193
0.942539 1.000000 0.854193
1.000000 1.000000 0.854193
0.000000 0.000000 1.000000
0.126821 0.000000 1.000000
0.279484 0.000000 1.000000
0.419265 0.000000 1.000000
0.549074 0.000000 1.000000
0.674778 0.000000 0.991296
0.805194 0.000000 0.979723
0.942539 0.000000 0.979689
1.000000 0.000000 0.979689
0.000000 0.098830 1.000000
0.102722 0.092149 1.000000
0.266681 0.090169 1.000000
0.415663 0.092668 1.000000
0.550698 0.098535 1.000000
0.677324 0.105444 0.997110
0.805592 0.109850 0.980266
0.942539 0.110034 0.979689
1.000000 0.110034 0.979689
0.000000 0.242596 1.000000
0.069411 0.232856 1.000000
0.244132 0.226265 1.000000
0.405921 0.224976 1.000000
0.550042 0.228735 1.000000
0.679974 0.235448 1.000000
0.806577 0.241031 0.981728
0.942539 0.241656 0.979689
1.000000 0.241656 0.979689
0.000000 0.387235 1.000000
0.032982 0.376913 1.000000
0.210727 0.367085 1.000000
0.385487 0.360402 1.000000
0.544090 0.360086 1.000000
0.681853 0.365327 1.000000
0.808289 0.371848 0.984649
0.942539 0.373277 0.979689
1.000000 0.373277 0.979689
0.000000 0.530110 1.000000
0.003031 0.521205 1.000000
0.175027 0.511442 1.000000
0.352000 0.501374 1.000000
0.526740 0.494575 1.000000
0.680341 0.495701 1.000000
0.810740 0.502193 0.990072
0.942539 0.504898 0.979689
1.000000 0.504898 0.979689
0.000000 0.669229 1.000000
0.000000 0.662393 1.000000
0.150333 0.654753 1.000000
0.318350 0.645831 1.000000
0.493262 0.635757 1.000000
0.667761 0.628828 1.000000
0.813005 0.632120 1.000000
0.942539 0.636519 0.979689
1.000000 0.636519 0.979689
0.000000 0.803501 1.000000
0.000000 0.798385 1.000000
0.144720 0.792961 1.000000
0.302859 0.786861 1.000000
0.464886 0.779556 1.000000
0.634808 0.770260 1.000000
0.808063 0.763313 1.000000
0.942546 0.768137 0.979699
1.000000 0.768140 0.979689
0.000000 0.932735 1.000000
0.006981 0.928508 1.000000
0.159682 0.924310 1.000000
0.312613 0.920024 1.000000
0.466012 0.915562 1.000000
0.620591 0.910671 1.000000
0.779454 0.904356 1.000000
0.943998 0.898984 0.983089
1.000000 0.899761 0.979689
0.000000 1.000000 1.000000
0.036342 1.000000 0.996440
0.188550 1.000000 0.992623
0.340725 1.000000 0.988894
0.492834 1.000000 0.985322
0.644784 1.000000 0.982079
0.796175 1.000000 0.979696
0.942539 1.000000 0.979689
1.000000 1.000000 0.979689
