assets/presets/luts/tungsten-warm/lut.cube
TITLE "Tungsten Warm"
LUT_3D_SIZE 5
0.000000 0.000000 0.000000
0.255685 0.000000 0.000000
0.530427 0.000000 0.000000
0.805168 0.000000 0.000000
1.000000 0.000000 0.000000
0.000000 0.241656 0.000000
0.255685 0.241656 0.000000
0.530427 0.241656 0.000000
0.805168 0.241656 0.000000
1.000000 0.241656 0.000000
0.000000 0.504898 0.000000
0.255685 0.504898 0.000000
0.530427 0.504898 0.000000
0.805168 0.504898 0.000000
1.000000 0.504898 0.000000
0.000000 0.768140 0.000000
0.255685 0.768140 0.000000
0.530427 0.768140 0.000000
0.805168 0.768140 0.000000
1.000000 0.768140 0.000000
0.000000 1.000000 0.000000
0.255685 1.000000 0.000000
0.530427 1.000000 0.000000
0.805168 1.000000 0.000000
1.000000 1.000000 0.000000
0.000000 0.000000 0.291398
0.255685 0.000000 0.226711
0.530427 0.000000 0.226711
0.805168 0.000000 0.226711
1.000000 0.000000 0.226711
0.000000 0.248116 0.231480
0.255685 0.241656 0.226711
0.530427 0.241656 0.226711
0.805168 0.241656 0.226711
1.000000 0.241656 0.226711
0.000000 0.504898 0.226711
0.255685 0.504898 0.226711
0.530427 0.504898 0.226711
0.805168 0.504898 0.226711
1.000000 0.504898 0.226711
0.000000 0.768140 0.226711
0.255685 0.768140 0.226711
0.530427 0.768140 0.226711
0.805168 0.768140 0.226711
1.000000 0.768140 0.226711
0.000000 1.000000 0.226711
0.255685 1.000000 0.226711
0.530427 1.000000 0.226711
0.805168 1.000000 0.226711
1.000000 1.000000 0.226711
0.000000 0.000000 0.607738
0.264823 0.000000 0.497965
0.530427 0.000000 0.477704
0.805168 0.000000 0.477704
1.000000 0.000000 0.477704
0.000000 0.254284 0.566853
0.254140 0.236495 0.533374
0.530427 0.241656 0.477704
0.805168 0.241656 0.477704
1.000000 0.241656 0.477704
0.000000 0.518039 0.487708
0.237902 0.509928 0.480244
0.530427 0.504898 0.477704
0.805168 0.504898 0.477704
1.000000 0.504898 0.477704
0.000000 0.770498 0.476436
0.255685 0.768140 0.477704
0.530427 0.768140 0.477704
0.805168 0.768140 0.477704
1.000000 0.768140 0.477704
0.000000 1.000000 0.477704
0.255685 1.000000 0.477704
0.530427 1.000000 0.477704
0.805168 1.000000 0.477704
1.000000 1.000000 0.477704
0.000000 0.000000 0.924077
0.275708 0.000000 0.806377
0.533064 0.000000 0.732708
0.805168 0.000000 0.728697
1.000000 0.000000 0.728697
0.000000 0.248943 0.906332
0.249179 0.231365 0.849793
0.537820 0.237941 0.743717
0.805168 0.241656 0.728697
1.000000 0.241656 0.728697
0.000000 0.530510 0.814135
0.186807 0.516840 0.813217
0.531353 0.499824 0.776229
0.805168 0.504898 0.728697
1.000000 0.504898 0.728697
0.000000 0.787963 0.743941
0.213744 0.779843 0.736270
0.517586 0.771859 0.729668
0.805168 0.768140 0.728697
1.000000 0.768140 0.728697
0.000000 1.000000 0.726920
0.250327 1.000000 0.727642
0.530427 1.000000 0.728697
0.805168 1.000000 0.728697
1.000000 1.000000 0.728697
0.000000 0.000000 1.000000
0.279484 0.000000 1.000000
0.549074 0.000000 1.000000
0.805194 0.000000 0.979723
1.000000 0.000000 0.979689
0.000000 0.242596 1.000000
0.244132 0.226265 1.000000
0.550042 0.228735 1.000000
0.806577 0.241031 0.981728
1.000000 0.241656 0.979689
0.000000 0.530110 1.000000
0.175027 0.511442 1.000000
0.526740 0.494575 1.000000
0.810740 0.502193 0.990072
1.000000 0.504898 0.979689
0.000000 0.803501 1.000000
0.144720 0.792961 1.000000
0.464886 0.779556 1.000000
0.808063 0.763313 1.000000
1.000000 0.768140 0.979689
0.000000 1.000000 1.000000
0.188550 1.000000 0.992623
0.492834 1.000000 0.985322
0.796175 1.000000 0.979696
1.000000 1.000000 0.979689
