assets/presets/luts/golden-hour/lut.cube
TITLE "Golden Hour"
LUT_3D_SIZE 9
0.007642 0.007207 0.006363
0.097471 0.006638 0.005772
0.239227 0.006145 0.005302
0.415564 0.005664 0.004844
0.603420 0.005195 0.004398
0.777192 0.004739 0.003966
0.914327 0.004296 0.003548
0.995523 0.003867 0.003144
1.000000 0.003449 0.002753
0.007641 0.086597 0.006364
0.094296 0.087675 0.000922
0.251476 0.083610 0.000000
0.437122 0.080864 0.000013
0.627880 0.078956 0.000059
0.799376 0.077391 0.000055
0.930353 0.075993 0.000020
0.999992 0.074686 0.000000
1.000000 0.073039 0.000000
0.007641 0.213520 0.006364
0.090908 0.214591 0.004884
0.230765 0.216514 0.000000
0.428207 0.210910 0.000000
0.631153 0.205328 0.000000
0.808190 0.201108 0.000000
0.938846 0.197780 0.000000
1.000000 0.194993 0.000000
1.000000 0.191674 0.000000
0.007641 0.373387 0.006364
0.092213 0.373428 0.006325
0.221251 0.377658 0.000871
0.401118 0.378638 0.000000
0.611624 0.372582 0.000000
0.800801 0.365281 0.000000
0.938455 0.359029 0.000000
1.000000 0.353860 0.000000
1.000000 0.348506 0.000000
0.007641 0.548258 0.006364
0.092266 0.548258 0.006364
0.222280 0.550613 0.003785
0.386855 0.555337 0.000000
0.584283 0.555444 0.000000
0.780017 0.549685 0.000000
0.929227 0.542051 0.000000
1.000000 0.534826 0.000000
1.000000 0.527869 0.000000
0.007641 0.717370 0.006364
0.092266 0.717370 0.006364
0.224513 0.718045 0.005622
0.384802 0.722375 0.000483
0.567865 0.725937 0.000000
0.756514 0.725501 0.000000
0.913279 0.720618 0.000000
0.999381 0.713829 0.000000
1.000000 0.706800 0.000000
0.007641 0.861117 0.006364
0.092266 0.861117 0.006364
0.225678 0.861146 0.006326
0.386868 0.863559 0.002774
0.562698 0.867197 0.000000
0.740851 0.869382 0.000000
0.896377 0.868756 0.000000
0.993933 0.865144 0.000000
1.000000 0.860020 0.000000
0.007641 0.963708 0.006364
0.092266 0.963708 0.006364
0.225750 0.963708 0.006364
0.389575 0.964448 0.004660
0.563005 0.966561 0.000093
0.734002 0.968589 0.000000
0.884046 0.969583 0.000000
0.986397 0.969089 0.000000
1.000000 0.966804 0.000000
0.007641 1.000000 0.006364
0.092266 1.000000 0.006364
0.225750 1.000000 0.006364
0.390998 1.000000 0.005518
0.563729 1.000000 0.001146
0.730706 1.000000 0.000000
0.876561 1.000000 0.000000
0.979805 1.000000 0.000000
1.000000 1.000000 0.000000
0.007641 0.007207 0.079984
0.092266 0.007207 0.079984
0.225750 0.007207 0.079984
0.392952 0.007191 0.079995
0.576641 0.006948 0.079984
0.751988 0.006576 0.079712
0.895198 0.006158 0.079215
0.987017 0.005723 0.078562
1.000000 0.005412 0.077952
0.007641 0.086597 0.079984
0.092332 0.086588 0.079890
0.234370 0.085003 0.078002
0.410000 0.083809 0.076892
0.597889 0.082626 0.075762
0.772438 0.081450 0.074632
0.910941 0.080281 0.073506
0.994227 0.079119 0.072384
1.000000 0.077932 0.071237
0.007641 0.213520 0.079984
0.092266 0.213520 0.079984
0.229274 0.214957 0.063556
0.423020 0.209258 0.058252
0.618335 0.205403 0.059270
0.792729 0.202698 0.059754
0.926238 0.200472 0.059744
0.999361 0.198479 0.059428
1.000000 0.195966 0.058147
0.007641 0.373387 0.079984
0.092266 0.373387 0.079984
0.223601 0.374871 0.075579
0.399372 0.376834 0.050364
0.609551 0.370187 0.040526
0.795356 0.363639 0.040205
0.932205 0.358649 0.041152
1.000000 0.354688 0.041984
1.000000 0.350276 0.040894
0.007641 0.548258 0.079984
0.092266 0.548258 0.079984
0.225563 0.548366 0.079740
0.387501 0.552850 0.063320
0.582518 0.553600 0.038333
0.778803 0.547280 0.026909
0.927105 0.539757 0.024450
1.000000 0.533282 0.024660
1.000000 0.526998 0.023568
0.007641 0.717370 0.079984
0.092266 0.717370 0.079984
0.225750 0.717370 0.079984
0.388389 0.719718 0.072776
0.567464 0.723925 0.050504
0.754962 0.723840 0.027512
0.912478 0.718535 0.016154
0.999065 0.711583 0.012373
1.000000 0.704690 0.010598
0.007641 0.861117 0.079984
0.092266 0.861117 0.079984
0.225750 0.861117 0.079984
0.391031 0.861759 0.077807
0.564974 0.865215 0.061796
0.740015 0.867918 0.038475
0.895226 0.867463 0.017996
0.993603 0.863575 0.007728
1.000000 0.858266 0.004527
0.007641 0.963708 0.079984
0.092266 0.963708 0.079984
0.225750 0.963708 0.079984
0.392574 0.963746 0.079794
0.566937 0.965302 0.069976
0.735060 0.967494 0.049987
0.883210 0.968752 0.027577
0.985829 0.968321 0.009931
1.000000 0.965944 0.004365
0.007641 1.000000 0.079984
0.092266 1.000000 0.079984
0.225750 1.000000 0.079984
0.392748 1.000000 0.079984
0.568476 1.000000 0.073728
0.733393 1.000000 0.056162
0.876685 1.000000 0.033830
0.979236 1.000000 0.013637
1.000000 1.000000 0.006026
0.007641 0.007207 0.199974
0.092266 0.007207 0.199974
0.225750 0.007207 0.199974
0.392748 0.007207 0.199974
0.573244 0.007207 0.199974
0.744492 0.007207 0.199974
0.885869 0.007185 0.199997
0.980929 0.007007 0.200066
1.000000 0.006867 0.199988
0.007641 0.086597 0.199974
0.092266 0.086597 0.199974
0.225750 0.086597 0.199974
0.392748 0.086597 0.199974
0.573739 0.086506 0.200003
0.748204 0.085848 0.199925
0.892010 0.084924 0.199460
0.985370 0.083894 0.198694
1.000000 0.083156 0.197927
0.007641 0.213520 0.199974
0.092266 0.213520 0.199974
0.226049 0.213476 0.199559
0.403973 0.211055 0.196582
0.591910 0.209382 0.195085
0.767280 0.207729 0.193521
0.907243 0.206085 0.191941
0.992724 0.204447 0.190358
1.000000 0.202739 0.188697
0.007641 0.373387 0.199974
0.092266 0.373387 0.199974
0.225750 0.373387 0.199974
0.397699 0.374993 0.175164
0.604380 0.368263 0.167999
0.784550 0.363702 0.169506
0.921567 0.360476 0.170253
0.998288 0.357818 0.170279
1.000000 0.354552 0.168399
0.007641 0.548258 0.199974
0.092266 0.548258 0.199974
0.225750 0.548258 0.199974
0.389951 0.550028 0.192586
0.580787 0.551740 0.155600
0.776982 0.544819 0.141018
0.923300 0.538065 0.140552
0.999710 0.532877 0.142043
1.000000 0.527617 0.140322
0.007641 0.717370 0.199974
0.092266 0.717370 0.199974
0.225750 0.717370 0.199974
0.392345 0.717554 0.199320
0.567929 0.721719 0.174678
0.753427 0.722167 0.136958
0.911596 0.716348 0.118678
0.998496 0.709496 0.114554
1.000000 0.702997 0.111808
0.007641 0.861117 0.199974
0.092266 0.861117 0.199974
0.225750 0.861117 0.199974
0.392748 0.861117 0.199974
0.568487 0.863136 0.188733
0.739557 0.866370 0.155635
0.894081 0.866162 0.119217
0.993271 0.861934 0.099348
1.000000 0.856457 0.092413
0.007641 0.963708 0.199974
0.092266 0.963708 0.199974
0.225750 0.963708 0.199974
0.392748 0.963708 0.199974
0.571196 0.964176 0.196318
0.736968 0.966310 0.172653
0.882527 0.967887 0.137008
0.985258 0.967545 0.102405
1.000000 0.965053 0.089151
0.007641 1.000000 0.199974
0.092266 1.000000 0.199974
0.225750 1.000000 0.199974
0.392748 1.000000 0.199974
0.572508 1.000000 0.198855
0.736985 1.000000 0.180787
0.877253 1.000000 0.147786
0.978694 1.000000 0.110470
1.000000 1.000000 0.093051
0.007641 0.007207 0.352347
0.092266 0.007207 0.352347
0.225750 0.007207 0.352347
0.392748 0.007207 0.352347
0.573244 0.007207 0.352347
0.744492 0.007207 0.352347
0.885676 0.007207 0.352347
0.980006 0.007207 0.352347
1.000000 0.007207 0.352347
0.007641 0.086597 0.352347
0.092266 0.086597 0.352347
0.225750 0.086597 0.352347
0.392748 0.086597 0.352347
0.573244 0.086597 0.352347
0.744492 0.086597 0.352347
0.885676 0.086597 0.352347
0.980190 0.086503 0.352390
1.000000 0.086308 0.352401
0.007641 0.213520 0.352347
0.092266 0.213520 0.352347
0.225750 0.213520 0.352347
0.392748 0.213520 0.352347
0.573244 0.213520 0.352347
0.745203 0.213316 0.352391
0.888914 0.212323 0.352230
0.983630 0.211003 0.351604
1.000000 0.210062 0.350858
0.007641 0.373387 0.352347
0.092266 0.373387 0.352347
0.225750 0.373387 0.352347
0.393530 0.373268 0.351259
0.585821 0.370215 0.347554
0.762060 0.368232 0.345863
0.903479 0.366284 0.344040
0.991113 0.364347 0.342180
1.000000 0.362274 0.340151
0.007641 0.548258 0.352347
0.092266 0.548258 0.352347
0.225750 0.548258 0.352347
0.392748 0.548258 0.352347
0.579150 0.549819 0.320991
0.772480 0.542844 0.312926
0.915710 0.538102 0.314771
0.996776 0.534724 0.315725
1.000000 0.530882 0.313481
0.007641 0.717370 0.352347
0.092266 0.717370 0.352347
0.225750 0.717370 0.352347
0.392748 0.717370 0.352347
0.570126 0.719200 0.342053
0.751927 0.720468 0.296962
0.910254 0.714110 0.279460
0.997325 0.707952 0.278922
1.000000 0.702278 0.276404
0.007641 0.861117 0.352347
0.092266 0.861117 0.352347
0.225750 0.861117 0.352347
0.392748 0.861117 0.352347
0.572602 0.861348 0.351091
0.739806 0.864674 0.320133
0.892949 0.864845 0.273619
0.992897 0.860207 0.250807
1.000000 0.854658 0.243495
0.007641 0.963708 0.352347
0.092266 0.963708 0.352347
0.225750 0.963708 0.352347
0.392748 0.963708 0.352347
0.573244 0.963708 0.352347
0.739975 0.965050 0.337621
0.882105 0.966969 0.296737
0.984686 0.966758 0.250893
1.000000 0.964118 0.233336
0.007641 1.000000 0.352347
0.092266 1.000000 0.352347
0.225750 1.000000 0.352347
0.392748 1.000000 0.352347
0.573244 1.000000 0.352347
0.741293 1.000000 0.344579
0.878482 1.000000 0.310054
0.978198 1.000000 0.261951
1.000000 1.000000 0.237821
0.007641 0.007207 0.521143
0.092266 0.007207 0.521143
0.225750 0.007207 0.521143
0.392748 0.007207 0.521143
0.573244 0.007207 0.521143
0.744492 0.007207 0.521143
0.885676 0.007207 0.521143
0.980006 0.007207 0.521143
1.000000 0.007207 0.521143
0.007641 0.086597 0.521143
0.092266 0.086597 0.521143
0.225750 0.086597 0.521143
0.392748 0.086597 0.521143
0.573244 0.086597 0.521143
0.744492 0.086597 0.521143
0.885676 0.086597 0.521143
0.980006 0.086597 0.521143
1.000000 0.086597 0.521143
0.007641 0.213520 0.521143
0.092266 0.213520 0.521143
0.225750 0.213520 0.521143
0.392748 0.213520 0.521143
0.573244 0.213520 0.521143
0.744492 0.213520 0.521143
0.885676 0.213520 0.521143
0.980006 0.213520 0.521143
1.000000 0.213509 0.521147
0.007641 0.373387 0.521143
0.092266 0.373387 0.521143
0.225750 0.373387 0.521143
0.392748 0.373387 0.521143
0.573244 0.373387 0.521143
0.744492 0.373387 0.521143
0.886464 0.373040 0.521193
0.981974 0.371790 0.520946
1.000000 0.370842 0.520399
0.007641 0.548258 0.521143
0.092266 0.548258 0.521143
0.225750 0.548258 0.521143
0.392748 0.548258 0.521143
0.574700 0.548030 0.519078
0.756674 0.544708 0.515273
0.899633 0.542636 0.513599
0.989398 0.540616 0.511726
1.000000 0.538381 0.509527
0.007641 0.717370 0.521143
0.092266 0.717370 0.521143
0.225750 0.717370 0.521143
0.392748 0.717370 0.521143
0.573244 0.717370 0.521143
0.750527 0.718696 0.486280
0.906965 0.712318 0.478257
0.994577 0.707962 0.480248
1.000000 0.703760 0.477922
0.007641 0.861117 0.521143
0.092266 0.861117 0.521143
0.225750 0.861117 0.521143
0.392748 0.861117 0.521143
0.573244 0.861117 0.521143
0.741503 0.862731 0.508651
0.891848 0.863500 0.460236
0.992312 0.858442 0.441785
1.000000 0.853127 0.436682
0.007641 0.963708 0.521143
0.092266 0.963708 0.521143
0.225750 0.963708 0.521143
0.392748 0.963708 0.521143
0.573244 0.963708 0.521143
0.743684 0.963913 0.519217
0.882176 0.965962 0.484985
0.984117 0.965957 0.434566
1.000000 0.963120 0.415950
0.007641 1.000000 0.521143
0.092266 1.000000 0.521143
0.225750 1.000000 0.521143
0.392748 1.000000 0.521143
0.573244 1.000000 0.521143
0.744469 1.000000 0.521100
0.880688 1.000000 0.497916
0.977790 1.000000 0.447175
1.000000 1.000000 0.419369
0.007641 0.007207 0.687562
0.092266 0.007207 0.687562
0.225750 0.007207 0.687562
0.392748 0.007207 0.687562
0.573244 0.007207 0.687562
0.744492 0.007207 0.687562
0.885676 0.007207 0.687562
0.980006 0.007207 0.687562
1.000000 0.007207 0.687562
0.007641 0.086597 0.687562
0.092266 0.086597 0.687562
0.225750 0.086597 0.687562
0.392748 0.086597 0.687562
0.573244 0.086597 0.687562
0.744492 0.086597 0.687562
0.885676 0.086597 0.687562
0.980006 0.086597 0.687562
1.000000 0.086597 0.687562
0.007641 0.213520 0.687562
0.092266 0.213520 0.687562
0.225750 0.213520 0.687562
0.392748 0.213520 0.687562
0.573244 0.213520 0.687562
0.744492 0.213520 0.687562
0.885676 0.213520 0.687562
0.980006 0.213520 0.687562
1.000000 0.213520 0.687562
0.007641 0.373387 0.687562
0.092266 0.373387 0.687562
0.225750 0.373387 0.687562
0.392748 0.373387 0.687562
0.573244 0.373387 0.687562
0.744492 0.373387 0.687562
0.885676 0.373387 0.687562
0.980006 0.373387 0.687562
1.000000 0.373387 0.687562
0.007641 0.548258 0.687562
0.092266 0.548258 0.687562
0.225750 0.548258 0.687562
0.392748 0.548258 0.687562
0.573244 0.548258 0.687562
0.744492 0.548258 0.687562
0.885676 0.548258 0.687562
0.980585 0.547771 0.687604
1.000000 0.547065 0.687389
0.007641 0.717370 0.687562
0.092266 0.717370 0.687562
0.225750 0.717370 0.687562
0.392748 0.717370 0.687562
0.573244 0.717370 0.687562
0.746572 0.717033 0.684487
0.895600 0.713891 0.681260
0.987569 0.711974 0.679795
1.000000 0.709790 0.677657
0.007641 0.861117 0.687562
0.092266 0.861117 0.687562
0.225750 0.861117 0.687562
0.392748 0.861117 0.687562
0.573244 0.861117 0.687562
0.744492 0.861117 0.687562
0.890832 0.862083 0.653136
0.990853 0.857030 0.646002
1.000000 0.852713 0.643482
0.007641 0.963708 0.687562
0.092266 0.963708 0.687562
0.225750 0.963708 0.687562
0.392748 0.963708 0.687562
0.573244 0.963708 0.687562
0.744492 0.963708 0.687562
0.883270 0.964803 0.674223
0.983563 0.965131 0.627921
1.000000 0.962029 0.612179
0.007641 1.000000 0.687562
0.092266 1.000000 0.687562
0.225750 1.000000 0.687562
0.392748 1.000000 0.687562
0.573244 1.000000 0.687562
0.744492 1.000000 0.687562
0.884027 1.000000 0.682550
0.977567 1.000000 0.640225
1.000000 1.000000 0.612555
0.007641 0.007207 0.833257
0.092266 0.007207 0.833257
0.225750 0.007207 0.833257
0.392748 0.007207 0.833257
0.573244 0.007207 0.833257
0.744492 0.007207 0.833257
0.885676 0.007207 0.833257
0.980006 0.007207 0.833257
1.000000 0.007207 0.833257
0.007641 0.086597 0.833257
0.092266 0.086597 0.833257
0.225750 0.086597 0.833257
0.392748 0.086597 0.833257
0.573244 0.086597 0.833257
0.744492 0.086597 0.833257
0.885676 0.086597 0.833257
0.980006 0.086597 0.833257
1.000000 0.086597 0.833257
0.007641 0.213520 0.833257
0.092266 0.213520 0.833257
0.225750 0.213520 0.833257
0.392748 0.213520 0.833257
0.573244 0.213520 0.833257
0.744492 0.213520 0.833257
0.885676 0.213520 0.833257
0.980006 0.213520 0.833257
1.000000 0.213520 0.833257
0.007641 0.373387 0.833257
0.092266 0.373387 0.833257
0.225750 0.373387 0.833257
0.392748 0.373387 0.833257
0.573244 0.373387 0.833257
0.744492 0.373387 0.833257
0.885676 0.373387 0.833257
0.980006 0.373387 0.833257
1.000000 0.373387 0.833257
0.007641 0.548258 0.833257
0.092266 0.548258 0.833257
0.225750 0.548258 0.833257
0.392748 0.548258 0.833257
0.573244 0.548258 0.833257
0.744492 0.548258 0.833257
0.885676 0.548258 0.833257
0.980006 0.548258 0.833257
1.000000 0.548258 0.833257
0.007641 0.717370 0.833257
0.092266 0.717370 0.833257
0.225750 0.717370 0.833257
0.392748 0.717370 0.833257
0.573244 0.717370 0.833257
0.744492 0.717370 0.833257
0.885676 0.717370 0.833257
0.980006 0.717370 0.833257
1.000000 0.717246 0.833262
0.007641 0.861117 0.833257
0.092266 0.861117 0.833257
0.225750 0.861117 0.833257
0.392748 0.861117 0.833257
0.573244 0.861117 0.833257
0.744492 0.861117 0.833257
0.887978 0.860726 0.829576
0.985562 0.858182 0.827380
1.000000 0.856192 0.825560
0.007641 0.963708 0.833257
0.092266 0.963708 0.833257
0.225750 0.963708 0.833257
0.392748 0.963708 0.833257
0.573244 0.963708 0.833257
0.744492 0.963708 0.833257
0.885672 0.963710 0.833249
0.983054 0.964250 0.803342
1.000000 0.960894 0.794524
0.007641 1.000000 0.833257
0.092266 1.000000 0.833257
0.225750 1.000000 0.833257
0.392748 1.000000 0.833257
0.573244 1.000000 0.833257
0.744492 1.000000 0.833257
0.885676 1.000000 0.833257
0.977808 1.000000 0.813239
1.000000 1.000000 0.789546
0.007641 0.007207 0.943178
0.092266 0.007207 0.943178
0.225750 0.007207 0.943178
0.392748 0.007207 0.943178
0.573244 0.007207 0.943178
0.744492 0.007207 0.943178
0.885676 0.007207 0.943178
0.980006 0.007207 0.943178
1.000000 0.007207 0.943178
0.007641 0.086597 0.943178
0.092266 0.086597 0.943178
0.225750 0.086597 0.943178
0.392748 0.086597 0.943178
0.573244 0.086597 0.943178
0.744492 0.086597 0.943178
0.885676 0.086597 0.943178
0.980006 0.086597 0.943178
1.000000 0.086597 0.943178
0.007641 0.213520 0.943178
0.092266 0.213520 0.943178
0.225750 0.213520 0.943178
0.392748 0.213520 0.943178
0.573244 0.213520 0.943178
0.744492 0.213520 0.943178
0.885676 0.213520 0.943178
0.980006 0.213520 0.943178
1.000000 0.213520 0.943178
0.007641 0.373387 0.943178
0.092266 0.373387 0.943178
0.225750 0.373387 0.943178
0.392748 0.373387 0.943178
0.573244 0.373387 0.943178
0.744492 0.373387 0.943178
0.885676 0.373387 0.943178
0.980006 0.373387 0.943178
1.000000 0.373387 0.943178
0.007641 0.548258 0.943178
0.092266 0.548258 0.943178
0.225750 0.548258 0.943178
0.392748 0.548258 0.943178
0.573244 0.548258 0.943178
0.744492 0.548258 0.943178
0.885676 0.548258 0.943178
0.980006 0.548258 0.943178
1.000000 0.548258 0.943178
0.007641 0.717370 0.943178
0.092266 0.717370 0.943178
0.225750 0.717370 0.943178
0.392748 0.717370 0.943178
0.573244 0.717370 0.943178
0.744492 0.717370 0.943178
0.885676 0.717370 0.943178
0.980006 0.717370 0.943178
1.000000 0.717370 0.943178
0.007641 0.861117 0.943178
0.092266 0.861117 0.943178
0.225750 0.861117 0.943178
0.392748 0.861117 0.943178
0.573244 0.861117 0.943178
0.744492 0.861117 0.943178
0.885676 0.861117 0.943178
0.980006 0.861117 0.943178
1.000000 0.861117 0.943178
0.007641 0.963708 0.943178
0.092266 0.963708 0.943178
0.225750 0.963708 0.943178
0.392748 0.963708 0.943178
0.573244 0.963708 0.943178
0.744492 0.963708 0.943178
0.885676 0.963708 0.943178
0.981679 0.963378 0.939774
1.000000 0.961211 0.937351
0.007641 1.000000 0.943178
0.092266 1.000000 0.943178
0.225750 1.000000 0.943178
0.392748 1.000000 0.943178
0.573244 1.000000 0.943178
0.744492 1.000000 0.943178
0.885676 1.000000 0.943178
0.979486 1.000000 0.941734
1.000000 1.000000 0.926133
0.007641 0.007207 1.000000
0.092266 0.007207 1.000000
0.225750 0.007207 1.000000
0.392748 0.007207 1.000000
0.573244 0.007207 1.000000
0.744492 0.007207 1.000000
0.885676 0.007207 1.000000
0.980006 0.007207 1.000000
1.000000 0.007207 1.000000
0.007641 0.086597 1.000000
0.092266 0.086597 1.000000
0.225750 0.086597 1.000000
0.392748 0.086597 1.000000
0.573244 0.086597 1.000000
0.744492 0.086597 1.000000
0.885676 0.086597 1.000000
0.980006 0.086597 1.000000
1.000000 0.086597 1.000000
0.007641 0.213520 1.000000
0.092266 0.213520 1.000000
0.225750 0.213520 1.000000
0.392748 0.213520 1.000000
0.573244 0.213520 1.000000
0.744492 0.213520 1.000000
0.885676 0.213520 1.000000
0.980006 0.213520 1.000000
1.000000 0.213520 1.000000
0.007641 0.373387 1.000000
0.092266 0.373387 1.000000
0.225750 0.373387 1.000000
0.392748 0.373387 1.000000
0.573244 0.373387 1.000000
0.744492 0.373387 1.000000
0.885676 0.373387 1.000000
0.980006 0.373387 1.000000
1.000000 0.373387 1.000000
0.007641 0.548258 1.000000
0.092266 0.548258 1.000000
0.225750 0.548258 1.000000
0.392748 0.548258 1.000000
0.573244 0.548258 1.000000
0.744492 0.548258 1.000000
0.885676 0.548258 1.000000
0.980006 0.548258 1.000000
1.000000 0.548258 1.000000
0.007641 0.717370 1.000000
0.092266 0.717370 1.000000
0.225750 0.717370 1.000000
0.392748 0.717370 1.000000
0.573244 0.717370 1.000000
0.744492 0.717370 1.000000
0.885676 0.717370 1.000000
0.980006 0.717370 1.000000
1.000000 0.717370 1.000000
0.007641 0.861117 1.000000
0.092266 0.861117 1.000000
0.225750 0.861117 1.000000
0.392748 0.861117 1.000000
0.573244 0.861117 1.000000
0.744492 0.861117 1.000000
0.885676 0.861117 1.000000
0.980006 0.861117 1.000000
1.000000 0.861117 1.000000
0.007641 0.963708 1.000000
0.092266 0.963708 1.000000
0.225750 0.963708 1.000000
0.392748 0.963708 1.000000
0.573244 0.963708 1.000000
0.744492 0.963708 1.000000
0.885676 0.963708 1.000000
0.980006 0.963708 1.000000
1.000000 0.963708 1.000000
0.007641 1.000000 1.000000
0.092266 1.000000 1.000000
0.225750 1.000000 1.000000
0.392748 1.000000 1.000000
0.573244 1.000000 1.000000
0.744492 1.000000 1.000000
0.885676 1.000000 1.000000
0.980006 1.000000 1.000000
1.000000 1.000000 1.000000
