assets/presets/luts/golden-hour/lut.cube
TITLE "Golden Hour"
LUT_3D_SIZE 17
0.007642 0.007207 0.006363
0.045292 0.006901 0.006022
0.097471 0.006638 0.005772
0.162802 0.006390 0.005536
0.239227 0.006145 0.005302
0.324393 0.005903 0.005071
0.415564 0.005664 0.004844
0.509660 0.005428 0.004619
0.603420 0.005195 0.004398
0.693603 0.004966 0.004180
0.777192 0.004739 0.003966
0.851528 0.004516 0.003755
0.914327 0.004296 0.003548
0.963436 0.004080 0.003344
0.995523 0.003867 0.003144
1.000000 0.003658 0.002947
1.000000 0.003449 0.002753
0.007641 0.040079 0.006364
0.044056 0.040464 0.003228
0.101852 0.038927 0.002124
0.171071 0.037871 0.002299
0.250144 0.037134 0.002385
0.337149 0.036530 0.002385
0.429473 0.035990 0.002332
0.524080 0.035486 0.002245
0.617736 0.035005 0.002137
0.707244 0.034538 0.002017
0.789652 0.034082 0.001888
0.862375 0.033633 0.001754
0.923184 0.033191 0.001618
0.969890 0.032753 0.001482
0.998458 0.032320 0.001345
1.000000 0.031876 0.001203
1.000000 0.031305 0.001004
0.007641 0.086597 0.006364
0.042578 0.087051 0.005456
0.094296 0.087675 0.000922
0.167549 0.085629 0.000000
0.251476 0.083610 0.000000
0.342185 0.082076 0.000000
0.437122 0.080864 0.000013
0.533393 0.079848 0.000042
0.627880 0.078956 0.000059
0.717491 0.078146 0.000063
0.799376 0.077391 0.000055
0.871049 0.076677 0.000039
0.930353 0.075993 0.000020
0.975067 0.075331 0.000003
0.999992 0.074686 0.000000
1.000000 0.074020 0.000000
1.000000 0.073039 0.000000
0.007641 0.144991 0.006364
0.043116 0.145028 0.006315
0.090620 0.146658 0.003061
0.157178 0.146950 0.000000
0.242736 0.144659 0.000000
0.337761 0.141938 0.000000
0.436659 0.139611 0.000000
0.535997 0.137687 0.000000
0.632597 0.136066 0.000000
0.723430 0.134661 0.000000
0.805748 0.133412 0.000000
0.877180 0.132278 0.000000
0.935660 0.131228 0.000000
0.978951 0.130243 0.000000
1.000000 0.129308 0.000000
1.000000 0.128354 0.000000
1.000000 0.126895 0.000000
0.007641 0.213520 0.006364
0.043166 0.213520 0.006364
0.090908 0.214591 0.004884
0.151591 0.216537 0.000945
0.230765 0.216514 0.000000
0.325863 0.214080 0.000000
0.428207 0.210910 0.000000
0.531344 0.207928 0.000000
0.631153 0.205328 0.000000
0.724358 0.203077 0.000000
0.808190 0.201108 0.000000
0.880345 0.199359 0.000000
0.938846 0.197780 0.000000
0.981461 0.196334 0.000000
1.000000 0.194993 0.000000
1.000000 0.193659 0.000000
1.000000 0.191674 0.000000
0.007641 0.290355 0.006364
0.043166 0.290355 0.006364
0.091734 0.290762 0.005912
0.150689 0.292988 0.002781
0.223578 0.294756 0.000000
0.312909 0.294474 0.000000
0.414581 0.291962 0.000000
0.520404 0.288537 0.000000
0.623760 0.285084 0.000000
0.720167 0.281922 0.000000
0.806495 0.279101 0.000000
0.880353 0.276589 0.000000
0.939788 0.274336 0.000000
0.982592 0.272297 0.000000
1.000000 0.270431 0.000000
1.000000 0.268623 0.000000
1.000000 0.266105 0.000000
0.007641 0.373387 0.006364
0.043166 0.373387 0.006364
0.092213 0.373428 0.006325
0.151421 0.375159 0.004325
0.221251 0.377658 0.000871
0.304452 0.379128 0.000000
0.401118 0.378638 0.000000
0.506107 0.376108 0.000000
0.611624 0.372582 0.000000
0.711332 0.368847 0.000000
0.800801 0.365281 0.000000
0.877201 0.362005 0.000000
0.938455 0.359029 0.000000
0.982353 0.356326 0.000000
1.000000 0.353860 0.000000
1.000000 0.351514 0.000000
1.000000 0.348506 0.000000
0.007641 0.460221 0.006364
0.043166 0.460221 0.006364
0.092266 0.460221 0.006364
0.152448 0.461153 0.005398
0.221301 0.463633 0.002406
0.300747 0.466015 0.000000
0.391748 0.467169 0.000000
0.492578 0.466524 0.000000
0.597450 0.464035 0.000000
0.699055 0.460533 0.000000
0.791606 0.456694 0.000000
0.871074 0.452899 0.000000
0.934888 0.449319 0.000000
0.980741 0.446003 0.000000
1.000000 0.442948 0.000000
1.000000 0.440066 0.000000
1.000000 0.436668 0.000000
0.007641 0.548258 0.006364
0.043166 0.548258 0.006364
0.092266 0.548258 0.006364
0.153262 0.548591 0.006038
0.222280 0.550613 0.003785
0.299846 0.553233 0.000695
0.386855 0.555337 0.000000
0.482681 0.556194 0.000000
0.584283 0.555444 0.000000
0.685617 0.553055 0.000000
0.780017 0.549685 0.000000
0.862399 0.545900 0.000000
0.929227 0.542051 0.000000
0.977743 0.538334 0.000000
1.000000 0.534826 0.000000
1.000000 0.531504 0.000000
1.000000 0.527869 0.000000
0.007641 0.634836 0.006364
0.043166 0.634836 0.006364
0.092266 0.634836 0.006364
0.153697 0.634874 0.006327
0.223465 0.636231 0.004861
0.300375 0.638641 0.002011
0.384946 0.641098 0.000000
0.476875 0.642862 0.000000
0.574258 0.643458 0.000000
0.673213 0.642653 0.000000
0.767797 0.640418 0.000000
0.852118 0.637270 0.000000
0.921785 0.633673 0.000000
0.973382 0.629934 0.000000
1.000000 0.626245 0.000000
1.000000 0.622683 0.000000
1.000000 0.619003 0.000000
0.007641 0.717370 0.006364
0.043166 0.717370 0.006364
0.092266 0.717370 0.006364
0.153759 0.717370 0.006364
0.224513 0.718045 0.005622
0.301520 0.719991 0.003268
0.384802 0.722375 0.000483
0.474041 0.724520 0.000000
0.567865 0.725937 0.000000
0.663451 0.726315 0.000000
0.756514 0.725501 0.000000
0.841493 0.723469 0.000000
0.913279 0.720618 0.000000
0.967830 0.717319 0.000000
0.999381 0.713829 0.000000
1.000000 0.710318 0.000000
1.000000 0.706800 0.000000
0.007641 0.793490 0.006364
0.043166 0.793490 0.006364
0.092266 0.793490 0.006364
0.153759 0.793490 0.006364
0.225270 0.793720 0.006096
0.302825 0.795103 0.004327
0.385613 0.797150 0.001620
0.473152 0.799284 0.000000
0.564288 0.801057 0.000000
0.656818 0.802146 0.000000
0.747379 0.802351 0.000000
0.831635 0.801573 0.000000
0.904553 0.799784 0.000000
0.961528 0.797287 0.000000
0.997122 0.794371 0.000000
1.000000 0.791245 0.000000
1.000000 0.788086 0.000000
0.007641 0.861117 0.006364
0.043166 0.861117 0.006364
0.092266 0.861117 0.006364
0.153759 0.861117 0.006364
0.225678 0.861146 0.006326
0.304039 0.861977 0.005151
0.386868 0.863559 0.002774
0.473456 0.865425 0.000273
0.562698 0.867197 0.000000
0.652744 0.868585 0.000000
0.740851 0.869382 0.000000
0.823448 0.869460 0.000000
0.896377 0.868756 0.000000
0.955000 0.867242 0.000000
0.993933 0.865144 0.000000
1.000000 0.862668 0.000000
1.000000 0.860020 0.000000
0.007641 0.918441 0.006364
0.043166 0.918441 0.006364
0.092266 0.918441 0.006364
0.153759 0.918441 0.006364
0.225750 0.918441 0.006364
0.305029 0.918813 0.005746
0.388252 0.919900 0.003803
0.474436 0.921357 0.001247
0.562431 0.922885 0.000000
0.650580 0.924248 0.000000
0.736554 0.925265 0.000000
0.817350 0.925809 0.000000
0.889420 0.925804 0.000000
0.948765 0.925209 0.000000
0.990224 0.924000 0.000000
1.000000 0.922312 0.000000
1.000000 0.920270 0.000000
0.007641 0.963708 0.006364
0.043166 0.963708 0.006364
0.092266 0.963708 0.006364
0.153759 0.963708 0.006364
0.225750 0.963708 0.006364
0.305730 0.963817 0.006129
0.389575 0.964448 0.004660
0.475749 0.965433 0.002305
0.563005 0.966561 0.000093
0.649773 0.967658 0.000000
0.734002 0.968589 0.000000
0.813111 0.969253 0.000000
0.884046 0.969583 0.000000
0.943306 0.969536 0.000000
0.986397 0.969089 0.000000
1.000000 0.968186 0.000000
1.000000 0.966804 0.000000
0.007641 0.994208 0.006364
0.043166 0.994208 0.006364
0.092266 0.994208 0.006364
0.153759 0.994208 0.006364
0.225750 0.994208 0.006364
0.306119 0.994218 0.006325
0.390725 0.994457 0.005332
0.477169 0.994918 0.003297
0.564072 0.995485 0.000899
0.649892 0.996062 0.000000
0.732754 0.996581 0.000000
0.810388 0.996993 0.000000
0.880138 0.997270 0.000000
0.938934 0.997394 0.000000
0.982833 0.997355 0.000000
1.000000 0.997116 0.000000
1.000000 0.996522 0.000000
0.007641 1.000000 0.006364
0.043166 1.000000 0.006364
0.092266 1.000000 0.006364
0.153759 1.000000 0.006364
0.225750 1.000000 0.006364
0.306183 1.000000 0.006356
0.390998 1.000000 0.005518
0.477310 1.000000 0.003569
0.563729 1.000000 0.001146
0.648774 1.000000 0.000000
0.730706 1.000000 0.000000
0.807447 1.000000 0.000000
0.876561 1.000000 0.000000
0.935221 1.000000 0.000000
0.979805 1.000000 0.000000
1.000000 1.000000 0.000000
1.000000 1.000000 0.000000
0.007641 0.007207 0.036275
0.043166 0.007207 0.036275
0.092266 0.007207 0.036275
0.153894 0.007193 0.036281
0.227391 0.007061 0.036268
0.310449 0.006868 0.036154
0.400218 0.006653 0.035958
0.493604 0.006427 0.035704
0.587333 0.006197 0.035411
0.678133 0.005966 0.035091
0.762922 0.005734 0.034752
0.838967 0.005504 0.034398
0.903916 0.005275 0.034033
0.955628 0.005049 0.033660
0.991249 0.004824 0.033282
1.000000 0.004609 0.032908
1.000000 0.004453 0.032610
0.007641 0.040079 0.036275
0.043186 0.040077 0.036244
0.095741 0.039418 0.035367
0.160830 0.038947 0.034946
0.236983 0.038497 0.034527
0.321945 0.038050 0.034105
0.412992 0.037605 0.033681
0.507051 0.037163 0.033258
0.600865 0.036722 0.032837
0.691190 0.036283 0.032416
0.774999 0.035847 0.031998
0.849622 0.035412 0.031581
0.912768 0.034979 0.031166
0.962287 0.034548 0.030752
0.994937 0.034118 0.030341
1.000000 0.033690 0.029930
1.000000 0.033250 0.029507
0.007641 0.086597 0.036275
0.043166 0.086597 0.036275
0.093728 0.087093 0.029844
0.165563 0.085029 0.027753
0.245789 0.083621 0.028147
0.333228 0.082629 0.028346
0.425771 0.081815 0.028355
0.520558 0.081088 0.028244
0.614427 0.080409 0.028058
0.704209 0.079759 0.027822
0.786955 0.079128 0.027552
0.860077 0.078511 0.027258
0.921342 0.077903 0.026948
0.968577 0.077303 0.026624
0.997927 0.076710 0.026292
1.000000 0.076099 0.025932
1.000000 0.075296 0.025386
0.007641 0.144991 0.036275
0.043166 0.144991 0.036275
0.091399 0.145625 0.034324
0.156521 0.146270 0.024600
0.241809 0.143764 0.020832
0.334601 0.141323 0.020703
0.430933 0.139460 0.021079
0.528172 0.137980 0.021412
0.623410 0.136737 0.021631
0.713670 0.135644 0.021742
0.796162 0.134651 0.021767
0.868429 0.133725 0.021725
0.928336 0.132848 0.021631
0.973698 0.132007 0.021495
0.999745 0.131193 0.021327
1.000000 0.130354 0.021088
1.000000 0.129102 0.020437
0.007641 0.213520 0.036275
0.043166 0.213520 0.036275
0.092146 0.213600 0.036108
0.151775 0.215512 0.029579
0.230009 0.215739 0.019860
0.325176 0.213077 0.015311
0.426322 0.209960 0.014299
0.527673 0.207289 0.014385
0.625891 0.205075 0.014713
0.718038 0.203204 0.015049
0.801463 0.201580 0.015328
0.873862 0.200134 0.015536
0.933225 0.198819 0.015676
0.977392 0.197601 0.015756
1.000000 0.196457 0.015784
1.000000 0.195301 0.015701
1.000000 0.193534 0.014982
0.007641 0.290355 0.036275
0.043166 0.290355 0.036275
0.092266 0.290355 0.036275
0.152000 0.291640 0.033289
0.223367 0.293740 0.024621
0.312078 0.293623 0.015477
0.413921 0.290904 0.010737
0.519188 0.287412 0.009074
0.621371 0.284130 0.008742
0.716669 0.281262 0.008873
0.802272 0.278774 0.009148
0.875926 0.276593 0.009447
0.935727 0.274652 0.009722
0.979564 0.272899 0.009955
1.000000 0.271291 0.010141
1.000000 0.269713 0.010197
1.000000 0.267405 0.009466
0.007641 0.373387 0.036275
0.043166 0.373387 0.036275
0.092266 0.373387 0.036275
0.153006 0.373898 0.035307
0.222164 0.376296 0.029039
0.303985 0.378116 0.019883
0.400239 0.377737 0.011472
0.505433 0.375026 0.006887
0.610750 0.371379 0.004935
0.709754 0.367707 0.004269
0.798503 0.364341 0.004167
0.874468 0.361332 0.004294
0.935722 0.358647 0.004510
0.980195 0.356237 0.004752
1.000000 0.354052 0.004988
1.000000 0.351962 0.005115
1.000000 0.349140 0.004450
0.007641 0.460221 0.036275
0.043166 0.460221 0.036275
0.092266 0.460221 0.036275
0.153651 0.460291 0.036157
0.222938 0.462159 0.032238
0.301252 0.464717 0.024450
0.391116 0.466170 0.015473
0.491680 0.465598 0.007878
0.596768 0.462955 0.003703
0.698361 0.459315 0.001829
0.790550 0.455465 0.001082
0.869590 0.451789 0.000851
0.933209 0.448407 0.000838
0.979285 0.445329 0.000925
1.000000 0.442530 0.001062
1.000000 0.439894 0.001156
1.000000 0.436644 0.000706
0.007641 0.548258 0.036275
0.043166 0.548258 0.036275
0.092266 0.548258 0.036275
0.153759 0.548258 0.036275
0.224115 0.549281 0.034341
0.301206 0.551782 0.028258
0.387022 0.554128 0.019914
0.481949 0.555224 0.011439
0.583397 0.554523 0.004743
0.684950 0.552003 0.001249
0.779437 0.548495 0.000010
0.861680 0.544658 0.000000
0.928303 0.540863 0.000000
0.976832 0.537280 0.000000
1.000000 0.533956 0.000000
1.000000 0.530832 0.000000
1.000000 0.527297 0.000000
0.007641 0.634836 0.036275
0.043166 0.634836 0.036275
0.092266 0.634836 0.036275
0.153759 0.634836 0.036275
0.225086 0.635216 0.035584
0.302241 0.637225 0.031191
0.385951 0.639758 0.023965
0.476783 0.641757 0.015602
0.573481 0.642537 0.007821
0.672367 0.641763 0.002156
0.767169 0.639420 0.000000
0.851629 0.636146 0.000000
0.921291 0.632476 0.000000
0.972861 0.628744 0.000000
1.000000 0.625136 0.000000
1.000000 0.621696 0.000000
1.000000 0.618067 0.000000
0.007641 0.717370 0.036275
0.043166 0.717370 0.036275
0.092266 0.717370 0.036275
0.153759 0.717370 0.036275
0.225639 0.717427 0.036170
0.303541 0.718767 0.033329
0.386445 0.721044 0.027388
0.474706 0.723330 0.019658
0.567588 0.724948 0.011605
0.662673 0.725465 0.004674
0.755735 0.724671 0.000318
0.840929 0.722550 0.000000
0.912880 0.719588 0.000000
0.967508 0.716210 0.000000
0.999243 0.712698 0.000000
1.000000 0.709221 0.000000
1.000000 0.705712 0.000000
0.007641 0.793490 0.036275
0.043166 0.793490 0.036275
0.092266 0.793490 0.036275
0.153759 0.793490 0.036275
0.225750 0.793490 0.036275
0.304716 0.794163 0.034797
0.387630 0.795957 0.030153
0.474479 0.798114 0.023319
0.564662 0.800034 0.015504
0.656424 0.801284 0.007991
0.746638 0.801592 0.002085
0.830947 0.800824 0.000000
0.904074 0.798964 0.000000
0.961228 0.796374 0.000000
0.996984 0.793382 0.000000
1.000000 0.790219 0.000000
1.000000 0.787041 0.000000
0.007641 0.861117 0.036275
0.043166 0.861117 0.036275
0.092266 0.861117 0.036275
0.153759 0.861117 0.036275
0.225750 0.861117 0.036275
0.305586 0.861351 0.035712
0.389011 0.862590 0.032304
0.475264 0.864379 0.026481
0.563695 0.866222 0.019216
0.652886 0.867739 0.011610
0.740397 0.868658 0.004825
0.822777 0.868809 0.000270
0.895800 0.868110 0.000000
0.954629 0.866541 0.000000
0.993767 0.864366 0.000000
1.000000 0.861827 0.000000
1.000000 0.859150 0.000000
0.007641 0.918441 0.036275
0.043166 0.918441 0.036275
0.092266 0.918441 0.036275
0.153759 0.918441 0.036275
0.225750 0.918441 0.036275
0.306084 0.918477 0.036174
0.390313 0.919197 0.033912
0.476530 0.920512 0.029125
0.563941 0.922043 0.022589
0.651276 0.923484 0.015227
0.736527 0.924602 0.008055
0.816886 0.925233 0.002205
0.888845 0.925277 0.000000
0.948318 0.924683 0.000000
0.989999 0.923433 0.000000
1.000000 0.921690 0.000000
1.000000 0.919622 0.000000
0.007641 0.963708 0.036275
0.043166 0.963708 0.036275
0.092266 0.963708 0.036275
0.153759 0.963708 0.036275
0.225750 0.963708 0.036275
0.306202 0.963708 0.036275
0.391390 0.964013 0.035049
0.477946 0.964841 0.031277
0.564881 0.965928 0.025558
0.650960 0.967056 0.018661
0.734442 0.968051 0.011458
0.812975 0.968785 0.004917
0.883612 0.969170 0.000335
0.942851 0.969154 0.000000
0.986113 0.968705 0.000000
1.000000 0.967776 0.000000
1.000000 0.966377 0.000000
0.007641 0.994208 0.036275
0.043166 0.994208 0.036275
0.092266 0.994208 0.036275
0.153759 0.994208 0.036275
0.225750 0.994208 0.036275
0.306202 0.994208 0.036275
0.392170 0.994277 0.035784
0.479313 0.994630 0.032977
0.566168 0.995159 0.028110
0.651470 0.995745 0.021811
0.733634 0.996296 0.014827
0.810628 0.996747 0.007992
0.879944 0.997058 0.002298
0.938568 0.997207 0.000000
0.982530 0.997180 0.000000
1.000000 0.996936 0.000000
1.000000 0.996331 0.000000
0.007641 1.000000 0.036275
0.043166 1.000000 0.036275
0.092266 1.000000 0.036275
0.153759 1.000000 0.036275
0.225750 1.000000 0.036275
0.306202 1.000000 0.036275
0.392362 1.000000 0.035964
0.479572 1.000000 0.033431
0.566091 1.000000 0.028744
0.650700 1.000000 0.022522
0.731943 1.000000 0.015506
0.807990 1.000000 0.008537
0.876578 1.000000 0.002617
0.934960 1.000000 0.000000
0.979518 1.000000 0.000000
1.000000 1.000000 0.000000
1.000000 1.000000 0.000000
0.007641 0.007207 0.079984
0.043166 0.007207 0.079984
0.092266 0.007207 0.079984
0.153759 0.007207 0.079984
0.225750 0.007207 0.079984
0.306202 0.007207 0.079984
0.392952 0.007191 0.079995
0.484179 0.007095 0.080017
0.576641 0.006948 0.079984
0.666967 0.006771 0.079880
0.751988 0.006576 0.079712
0.828876 0.006370 0.079487
0.895198 0.006158 0.079215
0.948781 0.005941 0.078905
0.987017 0.005723 0.078562
1.000000 0.005515 0.078205
1.000000 0.005412 0.077952
0.007641 0.040079 0.079984
0.043166 0.040079 0.079984
0.092266 0.040079 0.079984
0.153759 0.040079 0.079984
0.226097 0.040023 0.079997
0.308484 0.039751 0.079948
0.397904 0.039390 0.079756
0.491128 0.038994 0.079462
0.584834 0.038580 0.079097
0.675724 0.038157 0.078686
0.760701 0.037730 0.078241
0.837011 0.037301 0.077773
0.902291 0.036870 0.077287
0.954397 0.036439 0.076789
0.990530 0.036009 0.076281
1.000000 0.035591 0.075776
1.000000 0.035285 0.075375
0.007641 0.086597 0.079984
0.043166 0.086597 0.079984
0.092332 0.086588 0.079890
0.158474 0.085623 0.078521
0.234370 0.085003 0.078002
0.319099 0.084404 0.077452
0.410000 0.083809 0.076892
0.504015 0.083216 0.076328
0.597889 0.082626 0.075762
0.688376 0.082037 0.075197
0.772438 0.081450 0.074632
0.847394 0.080865 0.074068
0.910941 0.080281 0.073506
0.960935 0.079699 0.072944
0.994227 0.079119 0.072384
1.000000 0.078537 0.071822
1.000000 0.077932 0.071237
0.007641 0.144991 0.079984
0.043166 0.144991 0.079984
0.092266 0.144991 0.079984
0.155882 0.145568 0.070692
0.239540 0.143045 0.068149
0.328491 0.141329 0.068694
0.421677 0.140113 0.068980
0.516838 0.139114 0.069007
0.611018 0.138223 0.068867
0.701124 0.137391 0.068622
0.784235 0.136596 0.068306
0.857768 0.135823 0.067941
0.919494 0.135068 0.067542
0.967255 0.134324 0.067118
0.997359 0.133589 0.066675
1.000000 0.132832 0.066186
1.000000 0.131816 0.065400
0.007641 0.213520 0.079984
0.043166 0.213520 0.079984
0.092266 0.213520 0.079984
0.152606 0.214349 0.076920
0.229274 0.214957 0.063556
0.324147 0.212055 0.058422
0.423020 0.209258 0.058252
0.521936 0.207113 0.058790
0.618335 0.205403 0.059270
0.709486 0.203964 0.059588
0.792729 0.202698 0.059754
0.865678 0.201545 0.059798
0.926238 0.200472 0.059744
0.972277 0.199455 0.059616
0.999361 0.198479 0.059428
1.000000 0.197477 0.059121
1.000000 0.195966 0.058147
0.007641 0.290355 0.079984
0.043166 0.290355 0.079984
0.092266 0.290355 0.079984
0.153528 0.290498 0.079618
0.223498 0.292636 0.070383
0.311263 0.292770 0.056816
0.413194 0.289801 0.050287
0.517272 0.286372 0.048796
0.617803 0.283429 0.048930
0.711757 0.280981 0.049427
0.796614 0.278908 0.049937
0.870193 0.277106 0.050361
0.930577 0.275499 0.050677
0.975707 0.274037 0.050892
1.000000 0.272681 0.051016
1.000000 0.271327 0.050949
1.000000 0.269272 0.049818
0.007641 0.373387 0.079984
0.043166 0.373387 0.079984
0.092266 0.373387 0.079984
0.153759 0.373387 0.079984
0.223601 0.374871 0.075579
0.303704 0.377055 0.063511
0.399372 0.376834 0.050364
0.504764 0.373902 0.043176
0.609551 0.370187 0.040526
0.707505 0.366696 0.039986
0.795356 0.363639 0.040205
0.870859 0.360982 0.040660
0.932205 0.358649 0.041152
0.977428 0.356569 0.041603
1.000000 0.354688 0.041984
1.000000 0.352869 0.042138
1.000000 0.350276 0.040894
0.007641 0.460221 0.079984
0.043166 0.460221 0.079984
0.092266 0.460221 0.079984
0.153759 0.460221 0.079984
0.224755 0.460836 0.078458
0.302188 0.463333 0.069714
0.390589 0.465143 0.056778
0.490792 0.464672 0.044201
0.596110 0.461841 0.036750
0.697530 0.458079 0.033294
0.789116 0.454295 0.032052
0.867613 0.450823 0.031859
0.931026 0.447713 0.032104
0.977414 0.444934 0.032518
1.000000 0.442435 0.032976
1.000000 0.440079 0.033246
1.000000 0.437015 0.031946
0.007641 0.548258 0.079984
0.043166 0.548258 0.079984
0.092266 0.548258 0.079984
0.153759 0.548258 0.079984
0.225563 0.548366 0.079740
0.302961 0.550314 0.074182
0.387501 0.552850 0.063320
0.481281 0.554238 0.050293
0.582518 0.553600 0.038333
0.684307 0.550925 0.030859
0.778803 0.547280 0.026909
0.860761 0.543433 0.025077
0.927105 0.539757 0.024450
0.975663 0.536369 0.024413
1.000000 0.533282 0.024660
1.000000 0.530400 0.024863
1.000000 0.526998 0.023568
0.007641 0.634836 0.079984
0.043166 0.634836 0.079984
0.092266 0.634836 0.079984
0.153759 0.634836 0.079984
0.225750 0.634836 0.079984
0.304250 0.635922 0.077130
0.387341 0.638364 0.068683
0.476911 0.640602 0.056853
0.572742 0.641607 0.044090
0.671528 0.640874 0.032766
0.766562 0.638403 0.025430
0.851123 0.634996 0.021224
0.920703 0.631276 0.018978
0.972202 0.627596 0.017964
1.000000 0.624117 0.017639
1.000000 0.620842 0.017542
1.000000 0.617288 0.016310
0.007641 0.717370 0.079984
0.043166 0.717370 0.079984
0.092266 0.717370 0.079984
0.153759 0.717370 0.079984
0.225750 0.717370 0.079984
0.305355 0.717786 0.078901
0.388389 0.719718 0.072776
0.475689 0.722087 0.062677
0.567464 0.723925 0.050504
0.661919 0.724610 0.038184
0.754962 0.723840 0.027512
0.840381 0.721616 0.020431
0.912478 0.718535 0.016154
0.967147 0.715089 0.013678
0.999065 0.711583 0.012373
1.000000 0.708174 0.011719
1.000000 0.704690 0.010598
0.007641 0.793490 0.079984
0.043166 0.793490 0.079984
0.092266 0.793490 0.079984
0.153759 0.793490 0.079984
0.225750 0.793490 0.079984
0.306024 0.793566 0.079778
0.389763 0.794841 0.075754
0.476123 0.796916 0.067511
0.565282 0.798969 0.056514
0.656135 0.800399 0.044362
0.745913 0.800829 0.032588
0.830263 0.800075 0.022584
0.903608 0.798134 0.015852
0.960931 0.795443 0.011657
0.996833 0.792379 0.009117
1.000000 0.789194 0.007666
1.000000 0.786003 0.006680
0.007641 0.861117 0.079984
0.043166 0.861117 0.079984
0.092266 0.861117 0.079984
0.153759 0.861117 0.079984
0.225750 0.861117 0.079984
0.306202 0.861117 0.079984
0.391031 0.861759 0.077807
0.477305 0.863344 0.071373
0.564974 0.865215 0.061796
0.653213 0.866862 0.050382
0.740015 0.867918 0.038475
0.822116 0.868156 0.027311
0.895226 0.867463 0.017996
0.954267 0.865831 0.011701
0.993603 0.863575 0.007728
1.000000 0.860972 0.005388
1.000000 0.858266 0.004527
0.007641 0.918441 0.079984
0.043166 0.918441 0.079984
0.092266 0.918441 0.079984
0.153759 0.918441 0.079984
0.225750 0.918441 0.079984
0.306202 0.918441 0.079984
0.391995 0.918665 0.079107
0.478716 0.919714 0.074362
0.565704 0.921190 0.066275
0.652201 0.922693 0.055899
0.736634 0.923918 0.044387
0.816469 0.924647 0.032873
0.888276 0.924749 0.022367
0.947873 0.924157 0.013769
0.989777 0.922860 0.007997
1.000000 0.921058 0.004595
1.000000 0.918962 0.003815
0.007641 0.963708 0.079984
0.043166 0.963708 0.079984
0.092266 0.963708 0.079984
0.153759 0.963708 0.079984
0.225750 0.963708 0.079984
0.306202 0.963708 0.079984
0.392574 0.963746 0.079794
0.480066 0.964311 0.076595
0.566937 0.965302 0.069976
0.652380 0.966438 0.060784
0.735060 0.967494 0.049987
0.812932 0.968304 0.038597
0.883210 0.968752 0.027577
0.942398 0.968770 0.017771
0.985829 0.968321 0.009931
1.000000 0.967361 0.005115
1.000000 0.965944 0.004365
0.007641 0.994208 0.079984
0.043166 0.994208 0.079984
0.092266 0.994208 0.079984
0.153759 0.994208 0.079984
0.225750 0.994208 0.079984
0.306202 0.994208 0.079984
0.392748 0.994208 0.079984
0.481198 0.994390 0.078183
0.568338 0.994845 0.072966
0.653248 0.995420 0.065006
0.734709 0.995997 0.055112
0.811000 0.996488 0.044166
0.879814 0.996838 0.033054
0.938220 0.997015 0.022607
0.982227 0.997001 0.013543
1.000000 0.996753 0.007020
1.000000 0.996136 0.006270
0.007641 1.000000 0.079984
0.043166 1.000000 0.079984
0.092266 1.000000 0.079984
0.153759 1.000000 0.079984
0.225750 1.000000 0.079984
0.306202 1.000000 0.079984
0.392748 1.000000 0.079984
0.481472 1.000000 0.078599
0.568476 1.000000 0.073728
0.652816 1.000000 0.065983
0.733393 1.000000 0.056162
0.808695 1.000000 0.045145
0.876685 1.000000 0.033830
0.934733 1.000000 0.023074
0.979236 1.000000 0.013637
1.000000 1.000000 0.006730
1.000000 1.000000 0.006026
0.007641 0.007207 0.135085
0.043166 0.007207 0.135085
0.092266 0.007207 0.135085
0.153759 0.007207 0.135085
0.225750 0.007207 0.135085
0.306202 0.007207 0.135085
0.392748 0.007207 0.135085
0.482718 0.007207 0.135085
0.573244 0.007207 0.135085
0.661658 0.007188 0.135102
0.745620 0.007108 0.135138
0.822226 0.006985 0.135141
0.888931 0.006835 0.135093
0.943495 0.006665 0.134988
0.983407 0.006481 0.134828
1.000000 0.006301 0.134625
1.000000 0.006246 0.134466
0.007641 0.040079 0.135085
0.043166 0.040079 0.135085
0.092266 0.040079 0.135085
