assets/presets/luts/golden-hour/lut.cube
TITLE "Golden Hour"
LUT_3D_SIZE 5
0.007642 0.007207 0.006363
0.239227 0.006145 0.005302
0.603420 0.005195 0.004398
0.914327 0.004296 0.003548
1.000000 0.003449 0.002753
0.007641 0.213520 0.006364
0.230765 0.216514 0.000000
0.631153 0.205328 0.000000
0.938846 0.197780 0.000000
1.000000 0.191674 0.000000
0.007641 0.548258 0.006364
0.222280 0.550613 0.003785
0.584283 0.555444 0.000000
0.929227 0.542051 0.000000
1.000000 0.527869 0.000000
0.007641 0.861117 0.006364
0.225678 0.861146 0.006326
0.562698 0.867197 0.000000
0.896377 0.868756 0.000000
1.000000 0.860020 0.000000
0.007641 1.000000 0.006364
0.225750 1.000000 0.006364
0.563729 1.000000 0.001146
0.876561 1.000000 0.000000
1.000000 1.000000 0.000000
0.007641 0.007207 0.199974
0.225750 0.007207 0.199974
0.573244 0.007207 0.199974
0.885869 0.007185 0.199997
1.000000 0.006867 0.199988
0.007641 0.213520 0.199974
0.226049 0.213476 0.199559
0.591910 0.209382 0.195085
0.907243 0.206085 0.191941
1.000000 0.202739 0.188697
0.007641 0.548258 0.199974
0.225750 0.548258 0.199974
0.580787 0.551740 0.155600
0.923300 0.538065 0.140552
1.000000 0.527617 0.140322
0.007641 0.861117 0.199974
0.225750 0.861117 0.199974
0.568487 0.863136 0.188733
0.894081 0.866162 0.119217
1.000000 0.856457 0.092413
0.007641 1.000000 0.199974
0.225750 1.000000 0.199974
0.572508 1.000000 0.198855
0.877253 1.000000 0.147786
1.000000 1.000000 0.093051
0.007641 0.007207 0.521143
0.225750 0.007207 0.521143
0.573244 0.007207 0.521143
0.885676 0.007207 0.521143
1.000000 0.007207 0.521143
0.007641 0.213520 0.521143
0.225750 0.213520 0.521143
0.573244 0.213520 0.521143
0.885676 0.213520 0.521143
1.000000 0.213509 0.521147
0.007641 0.548258 0.521143
0.225750 0.548258 0.521143
0.574700 0.548030 0.519078
0.899633 0.542636 0.513599
1.000000 0.538381 0.509527
0.007641 0.861117 0.521143
0.225750 0.861117 0.521143
0.573244 0.861117 0.521143
0.891848 0.863500 0.460236
1.000000 0.853127 0.436682
0.007641 1.000000 0.521143
0.225750 1.000000 0.521143
0.573244 1.000000 0.521143
0.880688 1.000000 0.497916
1.000000 1.000000 0.419369
0.007641 0.007207 0.833257
0.225750 0.007207 0.833257
0.573244 0.007207 0.833257
0.885676 0.007207 0.833257
1.000000 0.007207 0.833257
0.007641 0.213520 0.833257
0.225750 0.213520 0.833257
0.573244 0.213520 0.833257
0.885676 0.213520 0.833257
1.000000 0.213520 0.833257
0.007641 0.548258 0.833257
0.225750 0.548258 0.833257
0.573244 0.548258 0.833257
0.885676 0.548258 0.833257
1.000000 0.548258 0.833257
0.007641 0.861117 0.833257
0.225750 0.861117 0.833257
0.573244 0.861117 0.833257
0.887978 0.860726 0.829576
1.000000 0.856192 0.825560
0.007641 1.000000 0.833257
0.225750 1.000000 0.833257
0.573244 1.000000 0.833257
0.885676 1.000000 0.833257
1.000000 1.000000 0.789546
0.007641 0.007207 1.000000
0.225750 0.007207 1.000000
0.573244 0.007207 1.000000
0.885676 0.007207 1.000000
1.000000 0.007207 1.000000
0.007641 0.213520 1.000000
0.225750 0.213520 1.000000
0.573244 0.213520 1.000000
0.885676 0.213520 1.000000
1.000000 0.213520 1.000000
0.007641 0.548258 1.000000
0.225750 0.548258 1.000000
0.573244 0.548258 1.000000
0.885676 0.548258 1.000000
1.000000 0.548258 1.000000
0.007641 0.861117 1.000000
0.225750 0.861117 1.000000
0.573244 0.861117 1.000000
0.885676 0.861117 1.000000
1.000000 0.861117 1.000000
0.007641 1.000000 1.000000
0.225750 1.000000 1.000000
0.573244 1.000000 1.000000
0.885676 1.000000 1.000000
1.000000 1.000000 1.000000
