assets/presets/luts/summer-skin/lut.cube
TITLE "Summer Skin"
LUT_3D_SIZE 17
0.000000 0.000000 0.000000
0.069788 0.000000 0.000000
0.138948 0.000000 0.000000
0.207416 0.000000 0.000000
0.275884 0.000000 0.000000
0.344352 0.000000 0.000000
0.412819 0.000000 0.000000
0.481287 0.000000 0.000000
0.549755 0.000000 0.000000
0.618223 0.000000 0.000000
0.686690 0.000000 0.000000
0.755158 0.000000 0.000000
0.823626 0.000000 0.000000
0.892094 0.000000 0.000000
0.960561 0.000000 0.000000
1.000000 0.000000 0.000000
1.000000 0.000000 0.000000
0.000000 0.063386 0.000000
0.066409 0.064851 0.000000
0.143921 0.065717 0.000000
0.216906 0.063624 0.000000
0.287376 0.061828 0.000000
0.356922 0.060309 0.000000
0.426049 0.058955 0.000000
0.494955 0.057702 0.000000
0.563734 0.056514 0.000000
0.632431 0.055369 0.000000
0.701076 0.054256 0.000000
0.769684 0.053165 0.000000
0.838264 0.052090 0.000000
0.906825 0.051029 0.000000
0.975371 0.049978 0.000000
1.000000 0.048935 0.000000
1.000000 0.047899 0.000000
0.000000 0.125480 0.000000
0.064925 0.125480 0.000000
0.131222 0.128820 0.000000
0.208819 0.131435 0.000000
0.285830 0.130141 0.000000
0.359838 0.128025 0.000000
0.431798 0.125955 0.000000
0.502612 0.124073 0.000000
0.572739 0.122364 0.000000
0.642430 0.120793 0.000000
0.711831 0.119326 0.000000
0.781030 0.117941 0.000000
0.850084 0.116618 0.000000
0.919032 0.115345 0.000000
0.987897 0.114112 0.000000
1.000000 0.112910 0.000000
1.000000 0.111735 0.000000
0.000000 0.187574 0.000000
0.064925 0.187574 0.000000
0.127856 0.187704 0.000000
0.195826 0.192583 0.000000
0.272984 0.196237 0.000000
0.351205 0.196175 0.000000
0.427739 0.194566 0.000000
0.502183 0.192470 0.000000
0.574986 0.190328 0.000000
0.646691 0.188286 0.000000
0.717644 0.186373 0.000000
0.788066 0.184583 0.000000
0.858101 0.182900 0.000000
0.927850 0.181309 0.000000
0.997379 0.179794 0.000000
1.000000 0.178343 0.000000
1.000000 0.176946 0.000000
0.000000 0.249667 0.000000
0.064925 0.249667 0.000000
0.127838 0.249667 0.000000
0.191129 0.250790 0.000000
0.260430 0.256347 0.000000
0.337179 0.260608 0.000000
0.415626 0.261577 0.000000
0.493372 0.260716 0.000000
0.569647 0.258990 0.000000
0.644332 0.256914 0.000000
0.717663 0.254758 0.000000
0.789994 0.252644 0.000000
0.861584 0.250617 0.000000
0.932613 0.248688 0.000000
1.000000 0.246853 0.000000
1.000000 0.245106 0.000000
1.000000 0.243436 0.000000
0.000000 0.311761 0.000000
0.064925 0.311761 0.000000
0.127838 0.311761 0.000000
0.190750 0.311761 0.000000
0.254812 0.314257 0.000000
0.325034 0.320110 0.000000
0.401459 0.324763 0.000000
0.479807 0.326531 0.000000
0.558089 0.326409 0.000000
0.635440 0.325200 0.000000
0.711556 0.323415 0.000000
0.786392 0.321355 0.000000
0.860082 0.319201 0.000000
0.932870 0.317056 0.000000
1.000000 0.314965 0.000000
1.000000 0.312948 0.000000
1.000000 0.311009 0.000000
0.000000 0.373855 0.000000
0.064925 0.373855 0.000000
0.127838 0.373855 0.000000
0.190750 0.373855 0.000000
0.253700 0.374116 0.000000
0.318764 0.377867 0.000000
0.389639 0.383874 0.000000
0.465810 0.388795 0.000000
0.543954 0.391182 0.000000
0.622432 0.391719 0.000000
0.700396 0.391057 0.000000
0.777456 0.389661 0.000000
0.853464 0.387839 0.000000
0.928404 0.385792 0.000000
1.000000 0.383648 0.000000
1.000000 0.381490 0.000000
1.000000 0.379363 0.000000
0.000000 0.435948 0.000000
0.064925 0.435948 0.000000
0.127838 0.435948 0.000000
0.190750 0.435948 0.000000
0.253663 0.435948 0.000000
0.316852 0.437047 0.000000
0.382888 0.441542 0.000000
0.454243 0.447638 0.000000
0.530214 0.452755 0.000000
0.608128 0.455626 0.000000
0.686628 0.456733 0.000000
0.764926 0.456594 0.000000
0.842599 0.455621 0.000000
0.919441 0.454109 0.000000
0.995373 0.452263 0.000000
1.000000 0.450226 0.000000
1.000000 0.448093 0.000000
0.000000 0.498042 0.000000
0.064925 0.498042 0.000000
0.127838 0.498042 0.000000
0.190750 0.498042 0.000000
0.253663 0.498042 0.000000
0.316575 0.498052 0.000000
0.380244 0.500288 0.000000
0.447125 0.505250 0.000000
0.518847 0.511401 0.000000
0.594656 0.516666 0.000000
0.672344 0.519925 0.000000
0.750777 0.521518 0.000000
0.829238 0.521862 0.000000
0.907302 0.521311 0.000000
0.984732 0.520140 0.000000
1.000000 0.518550 0.000000
1.000000 0.516688 0.000000
0.000000 0.560136 0.000000
0.064925 0.560136 0.000000
0.127838 0.560136 0.000000
0.190750 0.560136 0.000000
0.253663 0.560136 0.000000
0.316575 0.560136 0.000000
0.379543 0.560528 0.000000
0.443844 0.563702 0.000000
0.511441 0.568977 0.000000
0.583452 0.575165 0.000000
0.659127 0.580545 0.000000
0.736605 0.584118 0.000000
0.814925 0.586127 0.000000
0.893443 0.586907 0.000000
0.971748 0.586761 0.000000
1.000000 0.585939 0.000000
1.000000 0.584633 0.000000
0.000000 0.622230 0.000000
0.064925 0.622230 0.000000
0.127838 0.622230 0.000000
0.190750 0.622230 0.000000
0.253663 0.622230 0.000000
0.316575 0.622230 0.000000
0.379487 0.622230 0.000000
0.442654 0.623393 0.000000
0.507611 0.627222 0.000000
0.575813 0.632715 0.000000
0.648056 0.638928 0.000000
0.723620 0.644402 0.000000
0.800905 0.648233 0.000000
0.879092 0.650599 0.000000
0.957602 0.651769 0.000000
1.000000 0.652004 0.000000
1.000000 0.651525 0.000000
0.000000 0.684323 0.000000
0.064925 0.684323 0.000000
0.127838 0.684323 0.000000
0.190750 0.684323 0.000000
0.253663 0.684323 0.000000
0.316575 0.684323 0.000000
0.379487 0.684323 0.000000
0.442405 0.684400 0.000000
0.505929 0.686506 0.000000
0.571510 0.690810 0.000000
0.640226 0.696461 0.000000
0.712660 0.702692 0.000000
0.788130 0.708241 0.000000
0.865241 0.712288 0.000000
0.943286 0.714963 0.000000
1.000000 0.716482 0.000000
1.000000 0.717068 0.000000
0.000000 0.746417 0.000000
0.064925 0.746417 0.000000
0.127838 0.746417 0.000000
0.190750 0.746417 0.000000
0.253663 0.746417 0.000000
0.316575 0.746417 0.000000
0.379487 0.746417 0.000000
0.442400 0.746417 0.000000
0.505387 0.746939 0.000000
0.569360 0.749785 0.000000
0.635515 0.754442 0.000000
0.704671 0.760211 0.000000
0.777265 0.766456 0.000000
0.852654 0.772068 0.000000
0.929608 0.776298 0.000000
1.000000 0.779241 0.000000
1.000000 0.781072 0.000000
0.000000 0.808511 0.000000
0.064925 0.808511 0.000000
0.127838 0.808511 0.000000
0.190750 0.808511 0.000000
0.253663 0.808511 0.000000
0.316575 0.808511 0.000000
0.379487 0.808511 0.000000
0.442400 0.808511 0.000000
0.505312 0.808511 0.000000
0.568477 0.809768 0.000000
0.632929 0.813179 0.000000
0.699604 0.818106 0.000000
0.769139 0.823965 0.000000
0.841869 0.830219 0.000000
0.917188 0.835885 0.000000
0.994000 0.840272 0.000000
1.000000 0.843448 0.000000
0.000000 0.870604 0.000000
0.064925 0.870604 0.000000
0.127838 0.870604 0.000000
0.190750 0.870604 0.000000
0.253663 0.870604 0.000000
0.316575 0.870604 0.000000
0.379487 0.870604 0.000000
0.442400 0.870604 0.000000
0.505312 0.870604 0.000000
0.568240 0.870776 0.000000
0.631691 0.872802 0.000000
0.696618 0.876653 0.000000
0.763762 0.881792 0.000000
0.833627 0.887721 0.000000
0.906473 0.893983 0.000000
0.981732 0.899694 0.000000
1.000000 0.904217 0.000000
0.000000 0.932698 0.000000
0.064925 0.932698 0.000000
0.127838 0.932698 0.000000
0.190750 0.932698 0.000000
0.253663 0.932698 0.000000
0.316575 0.932698 0.000000
0.379487 0.932698 0.000000
0.442400 0.932698 0.000000
0.505312 0.932698 0.000000
0.568225 0.932698 0.000000
0.631230 0.933351 0.000000
0.695026 0.935986 0.000000
0.760409 0.940187 0.000000
0.827977 0.945494 0.000000
0.898131 0.951478 0.000000
0.971077 0.957746 0.000000
1.000000 0.963497 0.000000
0.000000 0.994792 0.000000
0.064925 0.994792 0.000000
0.127838 0.994792 0.000000
0.190750 0.994792 0.000000
0.253663 0.994792 0.000000
0.316575 0.994792 0.000000
0.379487 0.994792 0.000000
0.442400 0.994792 0.000000
0.505312 0.994792 0.000000
0.568225 0.994792 0.000000
0.631138 0.994812 0.000000
0.694308 0.996156 0.000000
0.758476 0.999283 0.000000
0.824289 1.000000 0.000000
0.892237 1.000000 0.000000
0.962646 1.000000 0.000000
1.000000 1.000000 0.000000
0.000000 0.000000 0.061818
0.064925 0.000000 0.061818
0.127838 0.000000 0.061818
0.192217 0.000000 0.062100
0.259075 0.000000 0.062354
0.326752 0.000000 0.062260
0.394767 0.000000 0.061917
0.462949 0.000000 0.061411
0.531223 0.000000 0.060796
0.599552 0.000000 0.060104
0.667917 0.000000 0.059357
0.736306 0.000000 0.058569
0.804711 0.000000 0.057750
0.873129 0.000000 0.056907
0.941555 0.000000 0.056046
1.000000 0.000000 0.055169
1.000000 0.000000 0.054279
0.000000 0.063386 0.061818
0.064925 0.063386 0.061818
0.134311 0.064109 0.062532
0.203697 0.063216 0.061650
0.272164 0.062225 0.060672
0.340632 0.061233 0.059694
0.409100 0.060242 0.058716
0.477568 0.059251 0.057739
0.546035 0.058260 0.056761
0.614503 0.057269 0.055783
0.682971 0.056277 0.054805
0.751439 0.055286 0.053827
0.819907 0.054295 0.052849
0.888374 0.053304 0.051871
0.956842 0.052313 0.050893
1.000000 0.051322 0.049916
1.000000 0.050330 0.048938
0.000000 0.125480 0.061818
0.064925 0.125480 0.061818
0.130575 0.128181 0.060152
0.210594 0.131522 0.054417
0.283376 0.129229 0.052900
0.353530 0.127122 0.051983
0.422837 0.125366 0.051125
0.491788 0.123839 0.050257
0.560562 0.122455 0.049370
0.629238 0.121166 0.048467
0.697855 0.119942 0.047551
0.766434 0.118764 0.046624
0.834988 0.117619 0.045690
0.903523 0.116500 0.044749
0.972045 0.115401 0.043803
1.000000 0.114317 0.042853
1.000000 0.113245 0.041899
0.000000 0.187574 0.061818
0.064925 0.187574 0.061818
0.127838 0.187574 0.061818
0.195562 0.192323 0.056611
0.275046 0.196799 0.047481
0.352503 0.195946 0.043355
0.426468 0.193788 0.041539
0.498269 0.191560 0.040517
0.568916 0.189514 0.039732
0.638893 0.187658 0.038997
0.708455 0.185959 0.038254
0.777746 0.184383 0.037493
0.846850 0.182904 0.036710
0.915823 0.181502 0.035905
0.984700 0.180159 0.035080
1.000000 0.178865 0.034236
1.000000 0.177610 0.033377
0.000000 0.249667 0.061818
0.064925 0.249667 0.061818
0.127838 0.249667 0.061818
0.190801 0.249830 0.061646
0.260166 0.256087 0.053312
0.338812 0.261209 0.042406
0.417675 0.261781 0.035878
0.494411 0.260371 0.032200
0.568851 0.258271 0.030147
0.641567 0.256043 0.028892
0.713162 0.253891 0.027981
0.784002 0.251867 0.027216
0.854318 0.249972 0.026508
0.924256 0.248194 0.025815
0.993916 0.246515 0.025118
1.000000 0.244922 0.024406
1.000000 0.243400 0.023677
0.000000 0.311761 0.061818
0.064925 0.311761 0.061818
0.127838 0.311761 0.061818
0.190750 0.311761 0.061818
0.254257 0.313097 0.060180
0.324771 0.319850 0.050013
0.402731 0.325308 0.038104
0.481852 0.326942 0.029789
0.559923 0.326401 0.024412
0.636320 0.324795 0.020975
0.711012 0.322727 0.018784
0.784293 0.320521 0.017332
0.856549 0.318332 0.016271
0.928055 0.316223 0.015416
0.998999 0.314210 0.014668
1.000000 0.312295 0.013974
1.000000 0.310471 0.013301
0.000000 0.373855 0.061818
0.064925 0.373855 0.061818
0.127838 0.373855 0.061818
0.190750 0.373855 0.061818
0.253663 0.373855 0.061818
0.318117 0.376739 0.057944
0.389375 0.383614 0.046714
0.466818 0.389270 0.034124
0.545817 0.391681 0.024569
0.624477 0.391933 0.017787
0.702028 0.390921 0.013047
0.778228 0.389220 0.009750
0.853077 0.387172 0.007463
0.926736 0.384989 0.005850
0.999472 0.382791 0.004641
1.000000 0.380638 0.003674
1.000000 0.378554 0.002851
0.000000 0.435948 0.061818
0.064925 0.435948 0.061818
0.127838 0.435948 0.061818
0.190750 0.435948 0.061818
0.253663 0.435948 0.061818
0.316645 0.436242 0.061443
0.382209 0.440487 0.055332
0.453979 0.447377 0.043415
0.531026 0.453163 0.030348
0.609782 0.456154 0.019884
0.688658 0.457084 0.011967
0.766867 0.456663 0.006081
0.844064 0.455402 0.001731
0.920137 0.453644 0.000000
0.995090 0.451611 0.000000
1.000000 0.449448 0.000000
1.000000 0.447253 0.000000
0.000000 0.498042 0.061818
0.064925 0.498042 0.061818
0.127838 0.498042 0.061818
0.190750 0.498042 0.061818
0.253663 0.498042 0.061818
0.316575 0.498042 0.061818
0.379884 0.499259 0.060168
0.446443 0.504270 0.052510
0.518584 0.511141 0.040117
0.595321 0.517015 0.026694
0.673806 0.520449 0.015545
0.752706 0.521951 0.006712
0.831273 0.522078 0.000000
0.909118 0.521275 0.000000
0.986062 0.519863 0.000000
1.000000 0.518068 0.000000
1.000000 0.516045 0.000000
0.000000 0.560136 0.061818
0.064925 0.560136 0.061818
0.127838 0.560136 0.061818
0.190750 0.560136 0.061818
0.253663 0.560136 0.061818
0.316575 0.560136 0.061818
0.379489 0.560147 0.061804
0.443373 0.562595 0.058331
0.510768 0.568065 0.049561
0.583188 0.574905 0.036791
0.659678 0.580842 0.023118
0.737897 0.584624 0.011439
0.816722 0.586605 0.001861
0.895465 0.587226 0.000000
0.973724 0.586868 0.000000
1.000000 0.585825 0.000000
1.000000 0.584313 0.000000
0.000000 0.622230 0.061818
0.064925 0.622230 0.061818
0.127838 0.622230 0.061818
0.190750 0.622230 0.061818
0.253663 0.622230 0.061818
0.316575 0.622230 0.061818
0.379487 0.622230 0.061818
0.442488 0.622653 0.061240
0.507065 0.626101 0.056132
0.575154 0.631861 0.046529
0.647792 0.638668 0.033443
0.724081 0.644654 0.019593
0.802052 0.648714 0.007496
0.880753 0.651098 0.000000
0.959557 0.652160 0.000000
1.000000 0.652221 0.000000
1.000000 0.651545 0.000000
0.000000 0.684323 0.061818
0.064925 0.684323 0.061818
0.127838 0.684323 0.061818
0.190750 0.684323 0.061818
0.253663 0.684323 0.061818
0.316575 0.684323 0.061818
0.379487 0.684323 0.061818
0.442400 0.684323 0.061818
0.505655 0.685573 0.060052
0.570916 0.689704 0.053687
0.639584 0.695657 0.043440
0.712397 0.702432 0.030096
0.788518 0.708455 0.016105
0.866264 0.712741 0.003671
0.944817 0.715469 0.000000
1.000000 0.716920 0.000000
1.000000 0.717368 0.000000
0.000000 0.746417 0.061818
0.064925 0.746417 0.061818
0.127838 0.746417 0.061818
0.190750 0.746417 0.061818
0.253663 0.746417 0.061818
0.316575 0.746417 0.061818
0.379487 0.746417 0.061818
0.442400 0.746417 0.061818
0.505323 0.746499 0.061706
0.568993 0.748750 0.058426
0.634889 0.753365 0.051070
0.704046 0.759450 0.040311
0.777001 0.766195 0.026748
0.852982 0.772249 0.012643
0.930523 0.776721 0.000000
1.000000 0.779742 0.000000
1.000000 0.781539 0.000000
0.000000 0.808511 0.061818
0.064925 0.808511 0.061818
0.127838 0.808511 0.061818
0.190750 0.808511 0.061818
0.253663 0.808511 0.061818
0.316575 0.808511 0.061818
0.379487 0.808511 0.061818
0.442400 0.808511 0.061818
0.505312 0.808511 0.061818
0.568331 0.809065 0.061037
0.632489 0.812093 0.056482
0.698960 0.817062 0.048326
0.768531 0.823241 0.037130
0.841605 0.829959 0.023401
0.917466 0.836036 0.009201
0.994824 0.840665 0.000000
1.000000 0.843940 0.000000
0.000000 0.870604 0.061818
0.064925 0.870604 0.061818
0.127838 0.870604 0.061818
0.190750 0.870604 0.061818
0.253663 0.870604 0.061818
0.316575 0.870604 0.061818
0.379487 0.870604 0.061818
0.442400 0.870604 0.061818
0.505312 0.870604 0.061818
0.568225 0.870604 0.061818
0.631462 0.871933 0.059898
0.696120 0.875548 0.054300
0.763108 0.880783 0.045487
0.833035 0.887029 0.033901
0.906209 0.893723 0.020053
0.981966 0.899820 0.005774
1.000000 0.904582 0.000000
0.000000 0.932698 0.061818
0.064925 0.932698 0.061818
0.127838 0.932698 0.061818
0.190750 0.932698 0.061818
0.253663 0.932698 0.061818
0.316575 0.932698 0.061818
0.379487 0.932698 0.061818
0.442400 0.932698 0.061818
0.505312 0.932698 0.061818
0.568225 0.932698 0.061818
0.631161 0.932879 0.061564
0.694723 0.935013 0.058402
0.759868 0.939080 0.051936
0.827318 0.944520 0.042576
0.897553 0.950815 0.030655
0.970814 0.957486 0.016706
1.000000 0.963600 0.002358
0.000000 0.994792 0.061818
0.064925 0.994792 0.061818
0.127838 0.994792 0.061818
0.190750 0.994792 0.061818
0.253663 0.994792 0.061818
0.316575 0.994792 0.061818
0.379487 0.994792 0.061818
0.442400 0.994792 0.061818
0.505312 0.994792 0.061818
0.568225 0.994792 0.061818
0.631137 0.994792 0.061818
0.694175 0.995477 0.060833
0.758107 0.998246 0.056628
0.823714 1.000000 0.049431
0.891578 1.000000 0.039614
0.962083 1.000000 0.027394
1.000000 1.000000 0.013359
0.000000 0.000000 0.123078
0.064925 0.000000 0.123078
0.127838 0.000000 0.123078
0.190750 0.000000 0.123078
0.253663 0.000000 0.123078
0.317045 0.000000 0.123204
0.382422 0.000000 0.123642
0.448961 0.000000 0.123989
0.516138 0.000000 0.124150
0.583694 0.000000 0.124131
0.651492 0.000000 0.123961
0.719451 0.000000 0.123668
0.787522 0.000000 0.123276
0.855674 0.000000 0.122803
0.923886 0.000000 0.122264
0.992142 0.000000 0.121671
1.000000 0.000000 0.121033
0.000000 0.063386 0.123078
0.064925 0.063386 0.123078
0.127838 0.063386 0.123078
0.190750 0.063386 0.123078
0.255298 0.063257 0.123523
0.322448 0.062784 0.124062
0.390354 0.062115 0.124191
0.458539 0.061338 0.124013
0.526849 0.060499 0.123632
0.595222 0.059621 0.123114
0.663631 0.058717 0.122499
0.732060 0.057795 0.121815
0.800502 0.056860 0.121079
0.868952 0.055915 0.120304
0.937408 0.054963 0.119498
1.000000 0.054005 0.118668
1.000000 0.053042 0.117819
0.000000 0.125480 0.123078
0.064925 0.125480 0.123078
0.127838 0.125480 0.123078
0.198835 0.127793 0.125360
0.268445 0.127122 0.124697
0.336913 0.126130 0.123719
0.405381 0.125139 0.122742
0.473848 0.124148 0.121764
0.542316 0.123157 0.120786
0.610784 0.122166 0.119808
0.679252 0.121174 0.118830
0.747719 0.120183 0.117852
0.816187 0.119192 0.116874
0.884655 0.118201 0.115896
0.953123 0.117210 0.114919
1.000000 0.116218 0.113941
1.000000 0.115227 0.112963
0.000000 0.187574 0.123078
0.064925 0.187574 0.123078
0.127838 0.187574 0.123078
0.194740 0.191512 0.122631
0.277267 0.197327 0.119338
0.349847 0.194835 0.117625
0.419684 0.192415 0.116399
0.488751 0.190423 0.115308
0.557526 0.188722 0.114269
0.626169 0.187208 0.113254
0.694743 0.185819 0.112251
0.763279 0.184515 0.111256
0.831793 0.183272 0.110266
0.900292 0.182074 0.109279
0.968782 0.180910 0.108293
1.000000 0.179772 0.107310
1.000000 0.178656 0.106327
0.000000 0.249667 0.123078
0.064925 0.249667 0.123078
0.127838 0.249667 0.123078
0.190750 0.249667 0.123078
0.259903 0.255826 0.119261
0.341272 0.262164 0.111968
0.419175 0.261751 0.108276
0.493098 0.259551 0.106419
0.564740 0.257166 0.105242
0.635220 0.254955 0.104287
0.705047 0.252951 0.103408
0.774480 0.251124 0.102549
0.843660 0.249440 0.101692
0.912671 0.247868 0.100829
0.981562 0.246385 0.099956
1.000000 0.244973 0.099074
1.000000 0.243618 0.098182
0.000000 0.311761 0.123078
0.064925 0.311761 0.123078
0.127838 0.311761 0.123078
0.190750 0.311761 0.123078
0.253746 0.311956 0.122938
0.324507 0.319590 0.115962
0.404640 0.326180 0.106505
0.484146 0.327386 0.100642
0.561084 0.326176 0.097213
0.635519 0.324071 0.095186
0.708149 0.321758 0.093865
0.779633 0.319497 0.092859
0.850361 0.317362 0.091995
0.920569 0.315362 0.091194
0.990410 0.313487 0.090416
1.000000 0.311721 0.089643
1.000000 0.310049 0.088864
0.000000 0.373855 0.123078
0.064925 0.373855 0.123078
0.127838 0.373855 0.123078
0.190750 0.373855 0.123078
0.253663 0.373855 0.123078
0.317386 0.375405 0.121650
0.389111 0.383354 0.112663
0.468284 0.390008 0.101941
0.548079 0.392306 0.094403
0.626473 0.392085 0.089419
0.702992 0.390600 0.086151
0.777693 0.388540 0.083999
0.850923 0.386284 0.082519
0.923104 0.384021 0.081400
0.994526 0.381828 0.080476
1.000000 0.379732 0.079657
1.000000 0.377736 0.078892
0.000000 0.435948 0.123078
0.064925 0.435948 0.123078
0.127838 0.435948 0.123078
0.190750 0.435948 0.123078
0.253663 0.435948 0.123078
0.316575 0.435948 0.123078
0.381422 0.439220 0.119586
0.453716 0.447117 0.109364
0.532176 0.453778 0.097830
0.611827 0.456832 0.089047
0.690866 0.457457 0.082732
0.768615 0.456642 0.078255
0.844901 0.455024 0.075088
0.919762 0.452989 0.072847
0.993391 0.450776 0.071227
1.000000 0.448526 0.069984
1.000000 0.446310 0.068969
0.000000 0.498042 0.123078
0.064925 0.498042 0.123078
0.127838 0.498042 0.123078
0.190750 0.498042 0.123078
0.253663 0.498042 0.123078
0.316575 0.498042 0.123078
0.379589 0.498367 0.122734
0.445655 0.503107 0.117110
0.518320 0.510881 0.106065
0.596242 0.517530 0.093970
0.675611 0.521125 0.084254
0.754885 0.522449 0.076839
0.833338 0.522269 0.071276
0.910672 0.521144 0.067123
0.986809 0.519449 0.064026
1.000000 0.517429 0.061717
1.000000 0.515249 0.059980
0.000000 0.560136 0.123078
0.064925 0.560136 0.123078
0.127838 0.560136 0.123078
0.190750 0.560136 0.123078
0.253663 0.560136 0.123078
0.316575 0.560136 0.123078
0.379487 0.560136 0.123078
0.442915 0.561470 0.121544
0.509999 0.566999 0.114396
0.582924 0.574644 0.102766
0.660429 0.581275 0.090263
0.739484 0.585273 0.079831
0.818784 0.587169 0.071515
0.897620 0.587561 0.065004
0.975637 0.586928 0.059940
1.000000 0.585618 0.056010
1.000000 0.583873 0.052964
0.000000 0.622230 0.123078
0.064925 0.622230 0.123078
0.127838 0.622230 0.123078
0.190750 0.622230 0.123078
0.253663 0.622230 0.123078
0.316575 0.622230 0.123078
0.379487 0.622230 0.123078
0.442402 0.622242 0.123064
0.506502 0.624902 0.119801
0.574411 0.630879 0.111532
0.647529 0.638408 0.099467
0.724701 0.645019 0.086656
0.803450 0.649324 0.075663
0.882668 0.651692 0.066606
0.961691 0.652591 0.059275
1.000000 0.652425 0.053388
1.000000 0.651509 0.048676
0.000000 0.684323 0.123078
0.064925 0.684323 0.123078
0.127838 0.684323 0.123078
0.190750 0.684323 0.123078
0.253663 0.684323 0.123078
0.316575 0.684323 0.123078
0.379487 0.684323 0.123078
0.442400 0.684323 0.123078
0.505433 0.684779 0.122531
0.570286 0.688499 0.117692
0.638868 0.694745 0.108569
0.712133 0.702172 0.096168
0.789035 0.708763 0.083115
0.867500 0.713310 0.071675
0.946581 0.716070 0.062003
1.000000 0.717413 0.053966
1.000000 0.717680 0.047344
0.000000 0.746417 0.123078
0.064925 0.746417 0.123078
0.127838 0.746417 0.123078
0.190750 0.746417 0.123078
0.253663 0.746417 0.123078
0.316575 0.746417 0.123078
0.379487 0.746417 0.123078
0.442400 0.746417 0.123078
0.505312 0.746417 0.123078
0.568655 0.747754 0.121397
0.634221 0.752185 0.115329
0.703355 0.758598 0.105536
0.776737 0.765935 0.092869
0.853416 0.772509 0.079623
0.931622 0.777248 0.067818
1.000000 0.780338 0.057631
1.000000 0.782071 0.048985
0.000000 0.808511 0.123078
0.064925 0.808511 0.123078
0.127838 0.808511 0.123078
0.190750 0.808511 0.123078
0.253663 0.808511 0.123078
0.316575 0.808511 0.123078
0.379487 0.808511 0.123078
0.442400 0.808511 0.123078
0.505312 0.808511 0.123078
0.568241 0.808598 0.122970
0.632057 0.810993 0.119833
0.698269 0.815919 0.112784
0.767865 0.822439 0.102454
0.841342 0.829699 0.089570
0.917833 0.836256 0.076166
0.995805 0.841153 0.064059
1.000000 0.844522 0.053438
0.000000 0.870604 0.123078
0.064925 0.870604 0.123078
0.127838 0.870604 0.123078
0.190750 0.870604 0.123078
0.253663 0.870604 0.123078
0.316575 0.870604 0.123078
0.379487 0.870604 0.123078
0.442400 0.870604 0.123078
0.505312 0.870604 0.123078
0.568225 0.870604 0.123078
0.631276 0.871191 0.122328
0.695617 0.874400 0.117952
0.762406 0.879682 0.110105
0.832392 0.886270 0.099334
0.905946 0.893462 0.086271
0.982277 0.900004 0.072735
1.000000 0.905033 0.060376
0.000000 0.932698 0.123078
0.064925 0.932698 0.123078
0.127838 0.932698 0.123078
0.190750 0.932698 0.123078
0.253663 0.932698 0.123078
0.316575 0.932698 0.123078
0.379487 0.932698 0.123078
0.442400 0.932698 0.123078
0.505312 0.932698 0.123078
0.568225 0.932698 0.123078
0.631137 0.932698 0.123078
0.694448 0.934099 0.121229
0.759311 0.937916 0.115831
0.826612 0.943461 0.107323
0.896931 0.950093 0.096186
0.970550 0.957226 0.082972
1.000000 0.963754 0.069324
0.000000 0.994792 0.123078
0.064925 0.994792 0.123078
0.127838 0.994792 0.123078
0.190750 0.994792 0.123078
0.253663 0.994792 0.123078
0.316575 0.994792 0.123078
0.379487 0.994792 0.123078
0.442400 0.994792 0.123078
0.505312 0.994792 0.123078
0.568225 0.994792 0.123078
0.631137 0.994792 0.123078
0.694083 0.994982 0.122832
0.757754 0.997225 0.119778
0.823118 1.000000 0.113525
0.890873 1.000000 0.104462
0.961479 1.000000 0.093016
1.000000 1.000000 0.079673
0.000000 0.000000 0.184337
0.064925 0.000000 0.184337
0.127838 0.000000 0.184337
0.190750 0.000000 0.184337
0.253663 0.000000 0.184337
0.316575 0.000000 0.184337
0.379487 0.000000 0.184337
0.442523 0.000000 0.184374
0.506977 0.000000 0.184736
0.572626 0.000000 0.185184
0.639032 0.000000 0.185561
0.705942 0.000000 0.185817
0.773200 0.000000 0.185945
0.840708 0.000000 0.185954
0.908400 0.000000 0.185855
0.976231 0.000000 0.185663
1.000000 0.000000 0.185388
0.000000 0.063386 0.184337
0.064925 0.063386 0.184337
0.127838 0.063386 0.184337
