assets/presets/luts/summer-skin/lut.cube
TITLE "Summer Skin"
LUT_3D_SIZE 5
0.000000 0.000000 0.000000
0.275884 0.000000 0.000000
0.549755 0.000000 0.000000
0.823626 0.000000 0.000000
1.000000 0.000000 0.000000
0.000000 0.249667 0.000000
0.260430 0.256347 0.000000
0.569647 0.258990 0.000000
0.861584 0.250617 0.000000
1.000000 0.243436 0.000000
0.000000 0.498042 0.000000
0.253663 0.498042 0.000000
0.518847 0.511401 0.000000
0.829238 0.521862 0.000000
1.000000 0.516688 0.000000
0.000000 0.746417 0.000000
0.253663 0.746417 0.000000
0.505387 0.746939 0.000000
0.777265 0.766456 0.000000
1.000000 0.781072 0.000000
0.000000 0.994792 0.000000
0.253663 0.994792 0.000000
0.505312 0.994792 0.000000
0.758476 0.999283 0.000000
1.000000 1.000000 0.000000
0.000000 0.000000 0.245597
0.253663 0.000000 0.245597
0.505312 0.000000 0.245597
0.762831 0.000000 0.246726
1.000000 0.000000 0.247741
0.000000 0.249667 0.245597
0.253663 0.249667 0.245597
0.534877 0.252951 0.248836
0.808748 0.248986 0.244925
1.000000 0.245021 0.241013
0.000000 0.498042 0.245597
0.253663 0.498042 0.245597
0.517793 0.510360 0.237964
0.836337 0.522210 0.215993
1.000000 0.513040 0.209925
0.000000 0.746417 0.245597
0.253663 0.746417 0.245597
0.505312 0.746417 0.245597
0.776210 0.765415 0.224768
1.000000 0.783320 0.188248
0.000000 0.994792 0.245597
0.253663 0.994792 0.245597
0.505312 0.994792 0.245597
0.757166 0.995442 0.244910
1.000000 1.000000 0.211572
0.000000 0.000000 0.490635
0.253663 0.000000 0.490635
0.505312 0.000000 0.490635
0.756962 0.000000 0.490635
1.000000 0.000000 0.490635
0.000000 0.249667 0.490635
0.253663 0.249667 0.490635
0.505312 0.249667 0.490635
0.756962 0.249667 0.490635
1.000000 0.249151 0.492418
0.000000 0.498042 0.490635
0.253663 0.498042 0.490635
0.505312 0.498042 0.490635
0.793870 0.508574 0.501025
1.000000 0.504609 0.497114
0.000000 0.746417 0.490635
0.253663 0.746417 0.490635
0.505312 0.746417 0.490635
0.775155 0.764374 0.488565
1.000000 0.785429 0.475677
0.000000 0.994792 0.490635
0.253663 0.994792 0.490635
0.505312 0.994792 0.490635
0.756962 0.994792 0.490635
1.000000 1.000000 0.475369
0.000000 0.000000 0.735674
0.253663 0.000000 0.735674
0.505312 0.000000 0.735674
0.756962 0.000000 0.735674
1.000000 0.000000 0.735674
0.000000 0.249667 0.735674
0.253663 0.249667 0.735674
0.505312 0.249667 0.735674
0.756962 0.249667 0.735674
1.000000 0.249667 0.735674
0.000000 0.498042 0.735674
0.253663 0.498042 0.735674
0.505312 0.498042 0.735674
0.756962 0.498042 0.735674
1.000000 0.498042 0.735674
0.000000 0.746417 0.735674
0.253663 0.746417 0.735674
0.505312 0.746417 0.735674
0.756962 0.746417 0.735674
1.000000 0.764196 0.753214
0.000000 0.994792 0.735674
0.253663 0.994792 0.735674
0.505312 0.994792 0.735674
0.756962 0.994792 0.735674
1.000000 1.000000 0.739167
0.000000 0.000000 0.980712
0.253663 0.000000 0.980712
0.505312 0.000000 0.980712
0.756962 0.000000 0.980712
1.000000 0.000000 0.980712
0.000000 0.249667 0.980712
0.253663 0.249667 0.980712
0.505312 0.249667 0.980712
0.756962 0.249667 0.980712
1.000000 0.249667 0.980712
0.000000 0.498042 0.980712
0.253663 0.498042 0.980712
0.505312 0.498042 0.980712
0.756962 0.498042 0.980712
1.000000 0.498042 0.980712
0.000000 0.746417 0.980712
0.253663 0.746417 0.980712
0.505312 0.746417 0.980712
0.756962 0.746417 0.980712
1.000000 0.746417 0.980712
0.000000 0.994792 0.980712
0.253663 0.994792 0.980712
0.505312 0.994792 0.980712
0.756962 0.994792 0.980712
1.000000 0.994792 0.980712
