assets/presets/luts/summer-skin/lut.cube
TITLE "Summer Skin"
LUT_3D_SIZE 9
0.000000 0.000000 0.000000
0.138948 0.000000 0.000000
0.275884 0.000000 0.000000
0.412819 0.000000 0.000000
0.549755 0.000000 0.000000
0.686690 0.000000 0.000000
0.823626 0.000000 0.000000
0.960561 0.000000 0.000000
1.000000 0.000000 0.000000
0.000000 0.125480 0.000000
0.131222 0.128820 0.000000
0.285830 0.130141 0.000000
0.431798 0.125955 0.000000
0.572739 0.122364 0.000000
0.711831 0.119326 0.000000
0.850084 0.116618 0.000000
0.987897 0.114112 0.000000
1.000000 0.111735 0.000000
0.000000 0.249667 0.000000
0.127838 0.249667 0.000000
0.260430 0.256347 0.000000
0.415626 0.261577 0.000000
0.569647 0.258990 0.000000
0.717663 0.254758 0.000000
0.861584 0.250617 0.000000
1.000000 0.246853 0.000000
1.000000 0.243436 0.000000
0.000000 0.373855 0.000000
0.127838 0.373855 0.000000
0.253700 0.374116 0.000000
0.389639 0.383874 0.000000
0.543954 0.391182 0.000000
0.700396 0.391057 0.000000
0.853464 0.387839 0.000000
1.000000 0.383648 0.000000
1.000000 0.379363 0.000000
0.000000 0.498042 0.000000
0.127838 0.498042 0.000000
0.253663 0.498042 0.000000
0.380244 0.500288 0.000000
0.518847 0.511401 0.000000
0.672344 0.519925 0.000000
0.829238 0.521862 0.000000
0.984732 0.520140 0.000000
1.000000 0.516688 0.000000
0.000000 0.622230 0.000000
0.127838 0.622230 0.000000
0.253663 0.622230 0.000000
0.379487 0.622230 0.000000
0.507611 0.627222 0.000000
0.648056 0.638928 0.000000
0.800905 0.648233 0.000000
0.957602 0.651769 0.000000
1.000000 0.651525 0.000000
0.000000 0.746417 0.000000
0.127838 0.746417 0.000000
0.253663 0.746417 0.000000
0.379487 0.746417 0.000000
0.505387 0.746939 0.000000
0.635515 0.754442 0.000000
0.777265 0.766456 0.000000
0.929608 0.776298 0.000000
1.000000 0.781072 0.000000
0.000000 0.870604 0.000000
0.127838 0.870604 0.000000
0.253663 0.870604 0.000000
0.379487 0.870604 0.000000
0.505312 0.870604 0.000000
0.631691 0.872802 0.000000
0.763762 0.881792 0.000000
0.906473 0.893983 0.000000
1.000000 0.904217 0.000000
0.000000 0.994792 0.000000
0.127838 0.994792 0.000000
0.253663 0.994792 0.000000
0.379487 0.994792 0.000000
0.505312 0.994792 0.000000
0.631138 0.994812 0.000000
0.758476 0.999283 0.000000
0.892237 1.000000 0.000000
1.000000 1.000000 0.000000
0.000000 0.000000 0.123078
0.127838 0.000000 0.123078
0.253663 0.000000 0.123078
0.382422 0.000000 0.123642
0.516138 0.000000 0.124150
0.651492 0.000000 0.123961
0.787522 0.000000 0.123276
0.923886 0.000000 0.122264
1.000000 0.000000 0.121033
0.000000 0.125480 0.123078
0.127838 0.125480 0.123078
0.268445 0.127122 0.124697
0.405381 0.125139 0.122742
0.542316 0.123157 0.120786
0.679252 0.121174 0.118830
0.816187 0.119192 0.116874
0.953123 0.117210 0.114919
1.000000 0.115227 0.112963
0.000000 0.249667 0.123078
0.127838 0.249667 0.123078
0.259903 0.255826 0.119261
0.419175 0.261751 0.108276
0.564740 0.257166 0.105242
0.705047 0.252951 0.103408
0.843660 0.249440 0.101692
0.981562 0.246385 0.099956
1.000000 0.243618 0.098182
0.000000 0.373855 0.123078
0.127838 0.373855 0.123078
0.253663 0.373855 0.123078
0.389111 0.383354 0.112663
0.548079 0.392306 0.094403
0.702992 0.390600 0.086151
0.850923 0.386284 0.082519
0.994526 0.381828 0.080476
1.000000 0.377736 0.078892
0.000000 0.498042 0.123078
0.127838 0.498042 0.123078
0.253663 0.498042 0.123078
0.379589 0.498367 0.122734
0.518320 0.510881 0.106065
0.675611 0.521125 0.084254
0.833338 0.522269 0.071276
0.986809 0.519449 0.064026
1.000000 0.515249 0.059980
0.000000 0.622230 0.123078
0.127838 0.622230 0.123078
0.253663 0.622230 0.123078
0.379487 0.622230 0.123078
0.506502 0.624902 0.119801
0.647529 0.638408 0.099467
0.803450 0.649324 0.075663
0.961691 0.652591 0.059275
1.000000 0.651509 0.048676
0.000000 0.746417 0.123078
0.127838 0.746417 0.123078
0.253663 0.746417 0.123078
0.379487 0.746417 0.123078
0.505312 0.746417 0.123078
0.634221 0.752185 0.115329
0.776737 0.765935 0.092869
0.931622 0.777248 0.067818
1.000000 0.782071 0.048985
0.000000 0.870604 0.123078
0.127838 0.870604 0.123078
0.253663 0.870604 0.123078
0.379487 0.870604 0.123078
0.505312 0.870604 0.123078
0.631276 0.871191 0.122328
0.762406 0.879682 0.110105
0.905946 0.893462 0.086271
1.000000 0.905033 0.060376
0.000000 0.994792 0.123078
0.127838 0.994792 0.123078
0.253663 0.994792 0.123078
0.379487 0.994792 0.123078
0.505312 0.994792 0.123078
0.631137 0.994792 0.123078
0.757754 0.997225 0.119778
0.890873 1.000000 0.104462
1.000000 1.000000 0.079673
0.000000 0.000000 0.245597
0.127838 0.000000 0.245597
0.253663 0.000000 0.245597
0.379487 0.000000 0.245597
0.505312 0.000000 0.245597
0.632078 0.000000 0.245849
0.762831 0.000000 0.246726
0.895909 0.000000 0.247420
1.000000 0.000000 0.247741
0.000000 0.125480 0.245597
0.127838 0.125480 0.245597
0.253663 0.125480 0.245597
0.379487 0.125480 0.245597
0.508582 0.125222 0.246488
0.642884 0.124276 0.247566
0.778695 0.122937 0.247823
0.915065 0.121384 0.247468
1.000000 0.119706 0.246706
0.000000 0.249667 0.245597
0.127838 0.249667 0.245597
0.253663 0.249667 0.245597
0.397942 0.254933 0.250792
0.534877 0.252951 0.248836
0.671813 0.250968 0.246880
0.808748 0.248986 0.244925
0.945684 0.247003 0.242969
1.000000 0.245021 0.241013
0.000000 0.373855 0.245597
0.127838 0.373855 0.245597
0.253663 0.373855 0.245597
0.388584 0.382833 0.244562
0.552520 0.393361 0.238118
0.697682 0.388378 0.234691
0.837355 0.383538 0.232240
0.975490 0.379554 0.230058
1.000000 0.376152 0.227979
0.000000 0.498042 0.245597
0.127838 0.498042 0.245597
0.253663 0.498042 0.245597
0.379487 0.498042 0.245597
0.517793 0.510360 0.237964
0.680532 0.523036 0.223377
0.836337 0.522210 0.215993
0.984183 0.517810 0.212279
1.000000 0.513040 0.209925
0.000000 0.622230 0.245597
0.127838 0.622230 0.245597
0.253663 0.622230 0.245597
0.379487 0.622230 0.245597
0.505479 0.622619 0.245317
0.647001 0.637887 0.231366
0.807267 0.651068 0.212451
0.966279 0.653480 0.200725
1.000000 0.651059 0.193868
0.000000 0.746417 0.245597
0.127838 0.746417 0.245597
0.253663 0.746417 0.245597
0.379487 0.746417 0.245597
0.505312 0.746417 0.245597
0.632759 0.749517 0.242742
0.776210 0.765415 0.224768
0.934555 0.778723 0.203324
1.000000 0.783320 0.188248
0.000000 0.870604 0.245597
0.127838 0.870604 0.245597
0.253663 0.870604 0.245597
0.379487 0.870604 0.245597
0.505312 0.870604 0.245597
0.631137 0.870604 0.245597
0.760831 0.877147 0.238613
0.905419 0.892942 0.218170
1.000000 0.906264 0.195101
0.000000 0.994792 0.245597
0.127838 0.994792 0.245597
0.253663 0.994792 0.245597
0.379487 0.994792 0.245597
0.505312 0.994792 0.245597
0.631137 0.994792 0.245597
0.757166 0.995442 0.244910
0.889296 1.000000 0.233662
1.000000 1.000000 0.211572
0.000000 0.000000 0.368116
0.127838 0.000000 0.368116
0.253663 0.000000 0.368116
0.379487 0.000000 0.368116
0.505312 0.000000 0.368116
0.631137 0.000000 0.368116
0.756962 0.000000 0.368116
0.883033 0.000000 0.368190
1.000000 0.000000 0.368913
0.000000 0.125480 0.368116
0.127838 0.125480 0.368116
0.253663 0.125480 0.368116
0.379487 0.125480 0.368116
0.505312 0.125480 0.368116
0.631137 0.125480 0.368116
0.757967 0.125350 0.368431
0.888991 0.124632 0.369572
1.000000 0.123519 0.370563
0.000000 0.249667 0.368116
0.127838 0.249667 0.368116
0.253663 0.249667 0.368116
0.379487 0.249667 0.368116
0.505312 0.249667 0.368116
0.634743 0.249740 0.369335
0.769630 0.249373 0.370982
0.905898 0.248485 0.371684
1.000000 0.247267 0.371660
0.000000 0.373855 0.368116
0.127838 0.373855 0.368116
0.253663 0.373855 0.368116
0.379487 0.373855 0.368116
0.527438 0.382744 0.376886
0.664374 0.380762 0.374931
0.801309 0.378780 0.372975
0.938245 0.376797 0.371019
1.000000 0.374815 0.369063
0.000000 0.498042 0.368116
0.127838 0.498042 0.368116
0.253663 0.498042 0.368116
0.379487 0.498042 0.368116
0.517265 0.509840 0.369862
0.685865 0.524971 0.367959
0.830623 0.519589 0.364140
0.969664 0.514124 0.361073
1.000000 0.509668 0.358424
0.000000 0.622230 0.368116
0.127838 0.622230 0.368116
0.253663 0.622230 0.368116
0.379487 0.622230 0.368116
0.505312 0.622230 0.368116
0.646474 0.637367 0.363264
0.812985 0.653765 0.352350
0.969682 0.653820 0.345835
1.000000 0.649336 0.342038
0.000000 0.746417 0.368116
0.127838 0.746417 0.368116
0.253663 0.746417 0.368116
0.379487 0.746417 0.368116
0.505312 0.746417 0.368116
0.631369 0.746870 0.367899
0.775683 0.764894 0.356666
0.938923 0.781011 0.340649
1.000000 0.784692 0.330174
0.000000 0.870604 0.368116
0.127838 0.870604 0.368116
0.253663 0.870604 0.368116
0.379487 0.870604 0.368116
0.505312 0.870604 0.368116
0.631137 0.870604 0.368116
0.759017 0.874131 0.365682
0.904891 0.892421 0.350068
1.000000 0.908123 0.330985
0.000000 0.994792 0.368116
0.127838 0.994792 0.368116
0.253663 0.994792 0.368116
0.379487 0.994792 0.368116
0.505312 0.994792 0.368116
0.631137 0.994792 0.368116
0.756962 0.994792 0.368116
0.887440 1.000000 0.361897
1.000000 1.000000 0.343470
0.000000 0.000000 0.490635
0.127838 0.000000 0.490635
0.253663 0.000000 0.490635
0.379487 0.000000 0.490635
0.505312 0.000000 0.490635
0.631137 0.000000 0.490635
0.756962 0.000000 0.490635
0.882787 0.000000 0.490635
1.000000 0.000000 0.490635
0.000000 0.125480 0.490635
0.127838 0.125480 0.490635
0.253663 0.125480 0.490635
0.379487 0.125480 0.490635
0.505312 0.125480 0.490635
0.631137 0.125480 0.490635
0.756962 0.125480 0.490635
0.882787 0.125480 0.490635
1.000000 0.125441 0.490721
0.000000 0.249667 0.490635
0.127838 0.249667 0.490635
0.253663 0.249667 0.490635
0.379487 0.249667 0.490635
0.505312 0.249667 0.490635
0.631137 0.249667 0.490635
0.756962 0.249667 0.490635
0.883857 0.249602 0.491014
1.000000 0.249151 0.492418
0.000000 0.373855 0.490635
0.127838 0.373855 0.490635
0.253663 0.373855 0.490635
0.379487 0.373855 0.490635
0.505312 0.373855 0.490635
0.631137 0.373855 0.490635
0.760903 0.374259 0.492181
0.896376 0.374470 0.494399
1.000000 0.374033 0.495545
0.000000 0.498042 0.490635
0.127838 0.498042 0.490635
0.253663 0.498042 0.490635
0.379487 0.498042 0.490635
0.505312 0.498042 0.490635
0.656935 0.510556 0.502981
0.793870 0.508574 0.501025
0.930806 0.506591 0.499070
1.000000 0.504609 0.497114
0.000000 0.622230 0.490635
0.127838 0.622230 0.490635
0.253663 0.622230 0.490635
0.379487 0.622230 0.490635
0.505312 0.622230 0.490635
0.645947 0.636847 0.495163
0.819210 0.656581 0.497801
0.963565 0.650801 0.493589
1.000000 0.644711 0.489905
0.000000 0.746417 0.490635
0.127838 0.746417 0.490635
0.253663 0.746417 0.490635
0.379487 0.746417 0.490635
0.505312 0.746417 0.490635
0.631137 0.746417 0.490635
0.775155 0.764374 0.488565
0.945437 0.784494 0.481323
1.000000 0.785429 0.475677
0.000000 0.870604 0.490635
0.127838 0.870604 0.490635
0.253663 0.870604 0.490635
0.379487 0.870604 0.490635
0.505312 0.870604 0.490635
0.631137 0.870604 0.490635
0.757259 0.871122 0.490482
0.904364 0.891901 0.481967
1.000000 0.910955 0.468847
0.000000 0.994792 0.490635
0.127838 0.994792 0.490635
0.253663 0.994792 0.490635
0.379487 0.994792 0.490635
0.505312 0.994792 0.490635
0.631137 0.994792 0.490635
0.756962 0.994792 0.490635
0.885274 0.998746 0.488623
1.000000 1.000000 0.475369
0.000000 0.000000 0.613155
0.127838 0.000000 0.613155
0.253663 0.000000 0.613155
0.379487 0.000000 0.613155
0.505312 0.000000 0.613155
0.631137 0.000000 0.613155
0.756962 0.000000 0.613155
0.882787 0.000000 0.613155
1.000000 0.000000 0.613155
0.000000 0.125480 0.613155
0.127838 0.125480 0.613155
0.253663 0.125480 0.613155
0.379487 0.125480 0.613155
0.505312 0.125480 0.613155
0.631137 0.125480 0.613155
0.756962 0.125480 0.613155
0.882787 0.125480 0.613155
1.000000 0.125480 0.613155
0.000000 0.249667 0.613155
0.127838 0.249667 0.613155
0.253663 0.249667 0.613155
0.379487 0.249667 0.613155
0.505312 0.249667 0.613155
0.631137 0.249667 0.613155
0.756962 0.249667 0.613155
0.882787 0.249667 0.613155
1.000000 0.249667 0.613155
0.000000 0.373855 0.613155
0.127838 0.373855 0.613155
0.253663 0.373855 0.613155
0.379487 0.373855 0.613155
0.505312 0.373855 0.613155
0.631137 0.373855 0.613155
0.756962 0.373855 0.613155
0.882787 0.373855 0.613155
1.000000 0.373853 0.613596
0.000000 0.498042 0.613155
0.127838 0.498042 0.613155
0.253663 0.498042 0.613155
0.379487 0.498042 0.613155
0.505312 0.498042 0.613155
0.631137 0.498042 0.613155
0.756962 0.498042 0.613155
0.887064 0.498778 0.615027
1.000000 0.499567 0.617815
0.000000 0.622230 0.613155
0.127838 0.622230 0.613155
0.253663 0.622230 0.613155
0.379487 0.622230 0.613155
0.505312 0.622230 0.613155
0.631137 0.622230 0.613155
0.786432 0.638367 0.629076
0.923367 0.636385 0.627120
1.000000 0.634403 0.625164
0.000000 0.746417 0.613155
0.127838 0.746417 0.613155
0.253663 0.746417 0.613155
0.379487 0.746417 0.613155
0.505312 0.746417 0.613155
0.631137 0.746417 0.613155
0.774628 0.763853 0.620464
0.952555 0.788190 0.627643
1.000000 0.782013 0.623038
0.000000 0.870604 0.613155
0.127838 0.870604 0.613155
0.253663 0.870604 0.613155
0.379487 0.870604 0.613155
0.505312 0.870604 0.613155
0.631137 0.870604 0.613155
0.756962 0.870604 0.613155
0.903837 0.891381 0.613866
1.000000 0.915224 0.610296
0.000000 0.994792 0.613155
0.127838 0.994792 0.613155
0.253663 0.994792 0.613155
0.379487 0.994792 0.613155
0.505312 0.994792 0.613155
0.631137 0.994792 0.613155
0.756962 0.994792 0.613155
0.883148 0.995373 0.613064
1.000000 1.000000 0.607268
0.000000 0.000000 0.735674
0.127838 0.000000 0.735674
0.253663 0.000000 0.735674
0.379487 0.000000 0.735674
0.505312 0.000000 0.735674
0.631137 0.000000 0.735674
0.756962 0.000000 0.735674
0.882787 0.000000 0.735674
1.000000 0.000000 0.735674
0.000000 0.125480 0.735674
0.127838 0.125480 0.735674
0.253663 0.125480 0.735674
0.379487 0.125480 0.735674
0.505312 0.125480 0.735674
0.631137 0.125480 0.735674
0.756962 0.125480 0.735674
0.882787 0.125480 0.735674
1.000000 0.125480 0.735674
0.000000 0.249667 0.735674
0.127838 0.249667 0.735674
0.253663 0.249667 0.735674
0.379487 0.249667 0.735674
0.505312 0.249667 0.735674
0.631137 0.249667 0.735674
0.756962 0.249667 0.735674
0.882787 0.249667 0.735674
1.000000 0.249667 0.735674
0.000000 0.373855 0.735674
0.127838 0.373855 0.735674
0.253663 0.373855 0.735674
0.379487 0.373855 0.735674
0.505312 0.373855 0.735674
0.631137 0.373855 0.735674
0.756962 0.373855 0.735674
0.882787 0.373855 0.735674
1.000000 0.373855 0.735674
0.000000 0.498042 0.735674
0.127838 0.498042 0.735674
0.253663 0.498042 0.735674
0.379487 0.498042 0.735674
0.505312 0.498042 0.735674
0.631137 0.498042 0.735674
0.756962 0.498042 0.735674
0.882787 0.498042 0.735674
1.000000 0.498042 0.735674
0.000000 0.622230 0.735674
0.127838 0.622230 0.735674
0.253663 0.622230 0.735674
0.379487 0.622230 0.735674
0.505312 0.622230 0.735674
0.631137 0.622230 0.735674
0.756962 0.622230 0.735674
0.882787 0.622230 0.735674
1.000000 0.623297 0.737873
0.000000 0.746417 0.735674
0.127838 0.746417 0.735674
0.253663 0.746417 0.735674
0.379487 0.746417 0.735674
0.505312 0.746417 0.735674
0.631137 0.746417 0.735674
0.756962 0.746417 0.735674
0.915928 0.766179 0.755170
1.000000 0.764196 0.753214
0.000000 0.870604 0.735674
0.127838 0.870604 0.735674
0.253663 0.870604 0.735674
0.379487 0.870604 0.735674
0.505312 0.870604 0.735674
0.631137 0.870604 0.735674
0.756962 0.870604 0.735674
0.903309 0.890860 0.745765
1.000000 0.919800 0.757485
0.000000 0.994792 0.735674
0.127838 0.994792 0.735674
0.253663 0.994792 0.735674
0.379487 0.994792 0.735674
0.505312 0.994792 0.735674
0.631137 0.994792 0.735674
0.756962 0.994792 0.735674
0.882787 0.994792 0.735674
1.000000 1.000000 0.739167
0.000000 0.000000 0.858193
0.127838 0.000000 0.858193
0.253663 0.000000 0.858193
0.379487 0.000000 0.858193
0.505312 0.000000 0.858193
0.631137 0.000000 0.858193
0.756962 0.000000 0.858193
0.882787 0.000000 0.858193
1.000000 0.000000 0.858193
0.000000 0.125480 0.858193
0.127838 0.125480 0.858193
0.253663 0.125480 0.858193
0.379487 0.125480 0.858193
0.505312 0.125480 0.858193
0.631137 0.125480 0.858193
0.756962 0.125480 0.858193
0.882787 0.125480 0.858193
1.000000 0.125480 0.858193
0.000000 0.249667 0.858193
0.127838 0.249667 0.858193
0.253663 0.249667 0.858193
0.379487 0.249667 0.858193
0.505312 0.249667 0.858193
0.631137 0.249667 0.858193
0.756962 0.249667 0.858193
0.882787 0.249667 0.858193
1.000000 0.249667 0.858193
0.000000 0.373855 0.858193
0.127838 0.373855 0.858193
0.253663 0.373855 0.858193
0.379487 0.373855 0.858193
0.505312 0.373855 0.858193
0.631137 0.373855 0.858193
0.756962 0.373855 0.858193
0.882787 0.373855 0.858193
1.000000 0.373855 0.858193
0.000000 0.498042 0.858193
0.127838 0.498042 0.858193
0.253663 0.498042 0.858193
0.379487 0.498042 0.858193
0.505312 0.498042 0.858193
0.631137 0.498042 0.858193
0.756962 0.498042 0.858193
0.882787 0.498042 0.858193
1.000000 0.498042 0.858193
0.000000 0.622230 0.858193
0.127838 0.622230 0.858193
0.253663 0.622230 0.858193
0.379487 0.622230 0.858193
0.505312 0.622230 0.858193
0.631137 0.622230 0.858193
0.756962 0.622230 0.858193
0.882787 0.622230 0.858193
1.000000 0.622230 0.858193
0.000000 0.746417 0.858193
0.127838 0.746417 0.858193
0.253663 0.746417 0.858193
0.379487 0.746417 0.858193
0.505312 0.746417 0.858193
0.631137 0.746417 0.858193
0.756962 0.746417 0.858193
0.882787 0.746417 0.858193
1.000000 0.746417 0.858193
0.000000 0.870604 0.858193
0.127838 0.870604 0.858193
0.253663 0.870604 0.858193
0.379487 0.870604 0.858193
0.505312 0.870604 0.858193
0.631137 0.870604 0.858193
0.756962 0.870604 0.858193
0.882787 0.870604 0.858193
1.000000 0.893990 0.881265
0.000000 0.994792 0.858193
0.127838 0.994792 0.858193
0.253663 0.994792 0.858193
0.379487 0.994792 0.858193
0.505312 0.994792 0.858193
0.631137 0.994792 0.858193
0.756962 0.994792 0.858193
0.882787 0.994792 0.858193
1.000000 1.000000 0.871065
0.000000 0.000000 0.980712
0.127838 0.000000 0.980712
0.253663 0.000000 0.980712
0.379487 0.000000 0.980712
0.505312 0.000000 0.980712
0.631137 0.000000 0.980712
0.756962 0.000000 0.980712
0.882787 0.000000 0.980712
1.000000 0.000000 0.980712
0.000000 0.125480 0.980712
0.127838 0.125480 0.980712
0.253663 0.125480 0.980712
0.379487 0.125480 0.980712
0.505312 0.125480 0.980712
0.631137 0.125480 0.980712
0.756962 0.125480 0.980712
0.882787 0.125480 0.980712
1.000000 0.125480 0.980712
0.000000 0.249667 0.980712
0.127838 0.249667 0.980712
0.253663 0.249667 0.980712
0.379487 0.249667 0.980712
0.505312 0.249667 0.980712
0.631137 0.249667 0.980712
0.756962 0.249667 0.980712
0.882787 0.249667 0.980712
1.000000 0.249667 0.980712
0.000000 0.373855 0.980712
0.127838 0.373855 0.980712
0.253663 0.373855 0.980712
0.379487 0.373855 0.980712
0.505312 0.373855 0.980712
0.631137 0.373855 0.980712
0.756962 0.373855 0.980712
0.882787 0.373855 0.980712
1.000000 0.373855 0.980712
0.000000 0.498042 0.980712
0.127838 0.498042 0.980712
0.253663 0.498042 0.980712
0.379487 0.498042 0.980712
0.505312 0.498042 0.980712
0.631137 0.498042 0.980712
0.756962 0.498042 0.980712
0.882787 0.498042 0.980712
1.000000 0.498042 0.980712
0.000000 0.622230 0.980712
0.127838 0.622230 0.980712
0.253663 0.622230 0.980712
0.379487 0.622230 0.980712
0.505312 0.622230 0.980712
0.631137 0.622230 0.980712
0.756962 0.622230 0.980712
0.882787 0.622230 0.980712
1.000000 0.622230 0.980712
0.000000 0.746417 0.980712
0.127838 0.746417 0.980712
0.253663 0.746417 0.980712
0.379487 0.746417 0.980712
0.505312 0.746417 0.980712
0.631137 0.746417 0.980712
0.756962 0.746417 0.980712
0.882787 0.746417 0.980712
1.000000 0.746417 0.980712
0.000000 0.870604 0.980712
0.127838 0.870604 0.980712
0.253663 0.870604 0.980712
0.379487 0.870604 0.980712
0.505312 0.870604 0.980712
0.631137 0.870604 0.980712
0.756962 0.870604 0.980712
0.882787 0.870604 0.980712
1.000000 0.870604 0.980712
0.000000 0.994792 0.980712
0.127838 0.994792 0.980712
0.253663 0.994792 0.980712
0.379487 0.994792 0.980712
0.505312 0.994792 0.980712
0.631137 0.994792 0.980712
0.756962 0.994792 0.980712
0.882787 0.994792 0.980712
1.000000 0.994792 0.980712
