assets/presets/luts/sunset-glow/lut.cube
TITLE "Sunset Glow"
LUT_3D_SIZE 17
0.000000 0.000000 0.019926
0.069409 0.000000 0.020883
0.145197 0.000000 0.019595
0.220360 0.000000 0.016994
0.295423 0.000000 0.014040
0.370445 0.000000 0.010915
0.445447 0.000000 0.007680
0.520441 0.000000 0.004362
0.595432 0.000000 0.000976
0.670424 0.000000 0.000000
0.745418 0.000000 0.000000
0.820415 0.000000 0.000000
0.895416 0.000000 0.000000
0.970420 0.000000 0.000000
1.000000 0.000000 0.000000
1.000000 0.000000 0.000000
1.000000 0.000000 0.000000
0.000000 0.052366 0.019657
0.066015 0.052434 0.016138
0.147139 0.048460 0.005177
0.224169 0.044966 0.001680
0.300105 0.041796 0.000000
0.375643 0.038763 0.000000
0.451000 0.035806 0.000000
0.526263 0.032895 0.000000
0.601474 0.030018 0.000000
0.676654 0.027166 0.000000
0.751815 0.024335 0.000000
0.826966 0.021520 0.000000
0.902109 0.018719 0.000000
0.977249 0.015930 0.000000
1.000000 0.013151 0.000000
1.000000 0.010381 0.000000
1.000000 0.007552 0.000000
0.000000 0.115334 0.018899
0.064799 0.115495 0.018592
0.130708 0.116222 0.006376
0.209728 0.113486 0.000000
0.290506 0.109418 0.000000
0.369879 0.105485 0.000000
0.447923 0.101848 0.000000
0.525116 0.098436 0.000000
0.601769 0.095180 0.000000
0.678063 0.092035 0.000000
0.754110 0.088972 0.000000
0.829980 0.085970 0.000000
0.905718 0.083015 0.000000
0.981357 0.080097 0.000000
1.000000 0.077208 0.000000
1.000000 0.074342 0.000000
1.000000 0.071364 0.000000
0.000000 0.178517 0.017732
0.064799 0.178734 0.017317
0.128509 0.178974 0.016815
0.194641 0.180186 0.000000
0.271551 0.178501 0.000000
0.352263 0.174958 0.000000
0.433154 0.170956 0.000000
0.513278 0.166969 0.000000
0.592487 0.163139 0.000000
0.670872 0.159489 0.000000
0.748625 0.155994 0.000000
0.825905 0.152622 0.000000
0.902825 0.149350 0.000000
0.979465 0.146156 0.000000
1.000000 0.143025 0.000000
1.000000 0.139945 0.000000
1.000000 0.136762 0.000000
0.000000 0.241874 0.016233
0.064799 0.242134 0.015734
0.128522 0.242405 0.015216
0.192001 0.242970 0.012577
0.258644 0.244351 0.000000
0.334043 0.243335 0.000000
0.413740 0.240445 0.000000
0.494691 0.236754 0.000000
0.575624 0.232795 0.000000
0.656065 0.228810 0.000000
0.735870 0.224900 0.000000
0.815030 0.221106 0.000000
0.893595 0.217436 0.000000
0.971661 0.213878 0.000000
1.000000 0.210412 0.000000
1.000000 0.207022 0.000000
1.000000 0.203581 0.000000
0.000000 0.305363 0.014479
0.064799 0.305655 0.013920
0.128522 0.305954 0.013348
0.192244 0.306259 0.012764
0.255578 0.307239 0.006677
0.322670 0.308648 0.000000
0.397010 0.308066 0.000000
0.475607 0.305736 0.000000
0.556054 0.302446 0.000000
0.637072 0.298689 0.000000
0.718045 0.294740 0.000000
0.798768 0.290742 0.000000
0.879131 0.286770 0.000000
0.959095 0.282863 0.000000
1.000000 0.279037 0.000000
1.000000 0.275296 0.000000
1.000000 0.271589 0.000000
0.000000 0.368944 0.012548
0.064799 0.369256 0.011952
0.128522 0.369571 0.011349
0.192244 0.369889 0.010741
0.255953 0.370219 0.010060
0.319284 0.371599 0.000096
0.386710 0.372992 0.000000
0.460328 0.372697 0.000000
0.538094 0.370801 0.000000
0.618119 0.367883 0.000000
0.699225 0.364371 0.000000
0.780734 0.360535 0.000000
0.862269 0.356541 0.000000
0.943628 0.352489 0.000000
1.000000 0.348436 0.000000
1.000000 0.344416 0.000000
1.000000 0.340506 0.000000
0.000000 0.432577 0.010519
0.064799 0.432897 0.009909
0.128522 0.433216 0.009298
0.192246 0.433534 0.008688
0.256034 0.433849 0.008023
0.319690 0.434366 0.005901
0.383552 0.435956 0.000000
0.451628 0.437307 0.000000
0.525164 0.437176 0.000000
0.602567 0.435583 0.000000
0.682328 0.432967 0.000000
0.763407 0.429686 0.000000
0.845141 0.425993 0.000000
0.927163 0.422050 0.000000
1.000000 0.417968 0.000000
1.000000 0.413823 0.000000
1.000000 0.409835 0.000000
0.000016 0.496222 0.008455
0.064911 0.496536 0.007761
0.128819 0.496847 0.006993
0.192809 0.497153 0.006156
0.256879 0.497454 0.005255
0.321025 0.497747 0.004296
0.384749 0.498587 0.000000
0.449419 0.500245 0.000000
0.518193 0.501514 0.000000
0.591778 0.501447 0.000000
0.668946 0.500051 0.000000
0.748486 0.497655 0.000000
0.829491 0.494559 0.000000
0.911333 0.490987 0.000000
0.993589 0.487105 0.000000
1.000000 0.483026 0.000000
1.000000 0.479102 0.000000
0.000701 0.559836 0.005835
0.065856 0.560134 0.004912
0.130028 0.560425 0.003933
0.194271 0.560707 0.002905
0.258581 0.560980 0.001831
0.322953 0.561242 0.000719
0.387338 0.561530 0.000000
0.451160 0.562725 0.000000
0.516643 0.564360 0.000000
0.586065 0.565523 0.000000
0.659801 0.565457 0.000000
0.736830 0.564167 0.000000
0.816155 0.561915 0.000000
0.896989 0.558953 0.000000
0.978759 0.555482 0.000000
1.000000 0.551654 0.000000
1.000000 0.547918 0.000000
0.002294 0.623380 0.002519
0.067642 0.623650 0.001430
0.132036 0.623908 0.000305
0.196488 0.624154 0.000000
0.260993 0.624388 0.000000
0.325549 0.624607 0.000000
0.390151 0.624811 0.000000
0.454511 0.625262 0.000000
0.518666 0.626643 0.000000
0.584904 0.628206 0.000000
0.654904 0.629238 0.000000
0.728789 0.629119 0.000000
0.805700 0.627867 0.000000
0.884802 0.625697 0.000000
0.965414 0.622821 0.000000
1.000000 0.619416 0.000000
1.000000 0.615972 0.000000
0.004647 0.686814 0.000000
0.070123 0.687042 0.000000
0.134696 0.687256 0.000000
0.199314 0.687454 0.000000
0.263973 0.687636 0.000000
0.328669 0.687800 0.000000
0.393399 0.687946 0.000000
0.458158 0.688071 0.000000
0.522359 0.688804 0.000000
0.586961 0.690247 0.000000
0.653880 0.691692 0.000000
0.724369 0.692563 0.000000
0.798370 0.692348 0.000000
0.875151 0.691097 0.000000
0.954001 0.689001 0.000000
1.000000 0.686242 0.000000
1.000000 0.683246 0.000000
0.007609 0.750095 0.000000
0.073155 0.750271 0.000000
0.137863 0.750428 0.000000
0.202604 0.750567 0.000000
0.267374 0.750685 0.000000
0.332167 0.750782 0.000000
0.396982 0.750857 0.000000
0.461813 0.750908 0.000000
0.526529 0.751043 0.000000
0.590660 0.752020 0.000000
0.655735 0.753459 0.000000
0.723237 0.754801 0.000000
0.794101 0.755569 0.000000
0.868141 0.755342 0.000000
0.944730 0.754168 0.000000
1.000000 0.752199 0.000000
1.000000 0.749686 0.000000
0.011033 0.813185 0.000000
0.076593 0.813296 0.000000
0.141394 0.813385 0.000000
0.206215 0.813451 0.000000
0.271052 0.813493 0.000000
0.335900 0.813511 0.000000
0.400756 0.813511 0.000000
0.465616 0.813511 0.000000
0.530476 0.813511 0.000000
0.594925 0.813900 0.000000
0.659150 0.815095 0.000000
0.724658 0.816564 0.000000
0.792615 0.817855 0.000000
0.863714 0.818560 0.000000
0.937696 0.818334 0.000000
1.000000 0.817230 0.000000
1.000000 0.815197 0.000000
0.014770 0.876042 0.000000
0.080292 0.876075 0.000000
0.145143 0.876084 0.000000
0.210001 0.876084 0.000000
0.274862 0.876084 0.000000
0.339721 0.876084 0.000000
0.404575 0.876084 0.000000
0.469421 0.876084 0.000000
0.534254 0.876084 0.000000
0.599031 0.876116 0.000000
0.663152 0.876857 0.000000
0.727527 0.878187 0.000000
0.793386 0.879657 0.000000
0.861656 0.880895 0.000000
0.932848 0.881546 0.000000
1.000000 0.881325 0.000000
1.000000 0.879744 0.000000
0.018670 0.938657 0.000000
0.084107 0.938657 0.000000
0.148965 0.938657 0.000000
0.213817 0.938657 0.000000
0.278659 0.938657 0.000000
0.343486 0.938657 0.000000
0.408296 0.938657 0.000000
0.473085 0.938657 0.000000
0.537848 0.938657 0.000000
0.602582 0.938657 0.000000
0.667037 0.938875 0.000000
0.730957 0.939868 0.000000
0.795470 0.941277 0.000000
0.861569 0.942729 0.000000
0.930002 0.943916 0.000000
1.000000 0.944524 0.000000
1.000000 0.943350 0.000000
0.022586 1.000000 0.000000
0.087894 1.000000 0.000000
0.152716 1.000000 0.000000
0.217519 1.000000 0.000000
0.282298 1.000000 0.000000
0.347051 1.000000 0.000000
0.411774 1.000000 0.000000
0.476462 1.000000 0.000000
0.541111 1.000000 0.000000
0.605719 1.000000 0.000000
0.670279 1.000000 0.000000
0.734255 1.000000 0.000000
0.798035 1.000000 0.000000
0.862633 1.000000 0.000000
0.928859 1.000000 0.000000
0.997326 1.000000 0.000000
1.000000 1.000000 0.000000
0.000000 0.000000 0.080846
0.064799 0.000000 0.080804
0.128656 0.000000 0.080786
0.199285 0.000000 0.082476
0.273344 0.000000 0.082746
0.348170 0.000000 0.081706
0.423216 0.000000 0.079875
0.498328 0.000000 0.077551
0.573456 0.000000 0.074898
0.648585 0.000000 0.072012
0.723708 0.000000 0.068952
0.798825 0.000000 0.065758
0.873935 0.000000 0.062457
0.949040 0.000000 0.059066
1.000000 0.000000 0.055603
1.000000 0.000000 0.052076
1.000000 0.000000 0.048591
0.000000 0.052395 0.080516
0.064799 0.052495 0.080319
0.132083 0.051500 0.080657
0.207106 0.048404 0.079175
0.282203 0.045430 0.076414
0.357312 0.042507 0.073259
0.432415 0.039617 0.069917
0.507514 0.036754 0.066462
0.582613 0.033910 0.062925
0.657714 0.031082 0.059325
0.732819 0.028269 0.055674
0.807929 0.025468 0.051980
0.883043 0.022678 0.048247
0.958161 0.019898 0.044482
1.000000 0.017126 0.040689
1.000000 0.014360 0.036872
1.000000 0.011635 0.033066
0.000000 0.115387 0.079693
0.064799 0.115554 0.079366
0.129939 0.115731 0.074902
0.211076 0.111881 0.063353
0.288476 0.108381 0.059471
0.364646 0.105226 0.055904
0.440350 0.102222 0.052317
0.515835 0.099298 0.048679
0.591203 0.096423 0.044992
0.666501 0.093581 0.041264
0.741756 0.090762 0.037500
0.816983 0.087961 0.033706
0.892191 0.085173 0.029887
0.967385 0.082397 0.026048
1.000000 0.079628 0.022191
1.000000 0.076867 0.018322
1.000000 0.074033 0.014346
0.000000 0.178589 0.078458
0.064799 0.178811 0.078024
0.128522 0.179046 0.077561
0.194454 0.179876 0.064807
0.273288 0.177297 0.047919
0.354125 0.173314 0.039136
0.433698 0.169406 0.033400
0.511957 0.165773 0.028879
0.589332 0.162362 0.024821
0.666139 0.159108 0.020938
0.742564 0.155965 0.017121
0.818722 0.152902 0.013326
0.894687 0.149899 0.009532
0.970507 0.146941 0.005734
1.000000 0.144018 0.001930
1.000000 0.141121 0.000000
1.000000 0.138108 0.000000
0.000000 0.241961 0.076891
0.064799 0.242225 0.076373
0.128522 0.242499 0.075834
0.192220 0.242803 0.075150
0.258366 0.244087 0.057613
0.335096 0.242520 0.037205
0.415719 0.239077 0.023974
0.496647 0.235128 0.014893
0.576884 0.231160 0.008066
0.656244 0.227326 0.002515
0.734787 0.223660 0.000000
0.812682 0.220145 0.000000
0.890087 0.216750 0.000000
0.967129 0.213451 0.000000
1.000000 0.210224 0.000000
1.000000 0.207051 0.000000
1.000000 0.203777 0.000000
0.000000 0.305461 0.075071
0.064799 0.305756 0.074493
0.128522 0.306057 0.073902
0.192244 0.306364 0.073299
0.255707 0.306988 0.070359
0.322359 0.308402 0.050224
0.397611 0.307465 0.028087
0.477187 0.304653 0.011789
0.558100 0.301011 0.000000
0.639065 0.297073 0.000000
0.719621 0.293084 0.000000
0.799679 0.289149 0.000000
0.879217 0.285313 0.000000
0.958270 0.281588 0.000000
1.000000 0.277965 0.000000
1.000000 0.274428 0.000000
1.000000 0.270862 0.000000
0.000000 0.369050 0.073078
0.064799 0.369363 0.072464
0.128522 0.369679 0.071844
0.192244 0.369997 0.071219
0.255967 0.370316 0.070593
0.319294 0.371336 0.064193
0.386386 0.372752 0.042765
0.460690 0.372211 0.019601
0.539362 0.369921 0.001046
0.620041 0.366650 0.000000
0.701442 0.362888 0.000000
0.782921 0.358910 0.000000
0.864174 0.354867 0.000000
0.945067 0.350837 0.000000
1.000000 0.346861 0.000000
1.000000 0.342955 0.000000
1.000000 0.339121 0.000000
0.000000 0.432686 0.070991
0.064799 0.433005 0.070365
0.128522 0.433324 0.069739
0.192258 0.433641 0.069104
0.256076 0.433956 0.068394
0.319955 0.434288 0.067477
0.383572 0.435692 0.056840
0.451439 0.437065 0.034110
0.525505 0.436747 0.009964
0.603681 0.434833 0.000000
0.684105 0.431892 0.000000
0.765611 0.428346 0.000000
0.847524 0.424463 0.000000
0.929464 0.420411 0.000000
1.000000 0.416288 0.000000
1.000000 0.412154 0.000000
1.000000 0.408167 0.000000
0.000039 0.496329 0.068855
0.064964 0.496642 0.068117
0.128900 0.496952 0.067304
0.192918 0.497256 0.066423
0.257014 0.497554 0.065478
0.321185 0.497845 0.064476
0.385157 0.498387 0.061642
0.449476 0.499978 0.047457
0.518118 0.501260 0.023645
0.592135 0.501041 0.000000
0.669933 0.499377 0.000000
0.750040 0.496696 0.000000
0.831440 0.493350 0.000000
0.913483 0.489586 0.000000
0.995763 0.485570 0.000000
1.000000 0.481410 0.000000
1.000000 0.477426 0.000000
0.000823 0.559938 0.066086
0.066001 0.560234 0.065120
0.130197 0.560522 0.064098
0.194463 0.560801 0.063027
0.258794 0.561070 0.061912
0.323187 0.561329 0.060760
0.387637 0.561576 0.059574
0.451588 0.562470 0.053445
0.516730 0.564090 0.036614
0.586076 0.565245 0.011977
0.660134 0.565042 0.000000
0.737644 0.563526 0.000000
0.817427 0.561030 0.000000
0.898612 0.557843 0.000000
0.980597 0.554185 0.000000
1.000000 0.550214 0.000000
1.000000 0.546381 0.000000
0.002500 0.623473 0.062626
0.067863 0.623739 0.061497
0.132277 0.623993 0.060331
0.196748 0.624235 0.059136
0.261271 0.624464 0.057916
0.325843 0.624678 0.056677
0.390460 0.624877 0.055426
0.455014 0.625146 0.053616
0.519062 0.626373 0.043737
0.585016 0.627927 0.024922
0.654973 0.628927 0.000000
0.729099 0.628678 0.000000
0.806374 0.627232 0.000000
0.885838 0.624849 0.000000
0.966746 0.621771 0.000000
1.000000 0.618191 0.000000
1.000000 0.614644 0.000000
0.004920 0.686893 0.058694
0.070406 0.687116 0.057467
0.134995 0.687325 0.056223
0.199627 0.687518 0.054968
0.264299 0.687694 0.053708
0.329007 0.687852 0.052449
0.393748 0.687991 0.051196
0.458516 0.688110 0.049956
0.522902 0.688602 0.046016
0.587312 0.689962 0.033278
0.654003 0.691391 0.012994
0.724468 0.692210 0.000000
0.798650 0.691872 0.000000
0.875703 0.690458 0.000000
0.954832 0.688184 0.000000
1.000000 0.685256 0.000000
1.000000 0.682162 0.000000
0.007936 0.750157 0.054510
0.073486 0.750327 0.053249
0.138206 0.750478 0.051992
0.202957 0.750609 0.050743
0.267735 0.750720 0.049509
0.332536 0.750810 0.048294
0.397357 0.750877 0.047105
0.462193 0.750920 0.045948
0.527011 0.750961 0.044686
0.591168 0.751772 0.037625
0.656036 0.753166 0.022695
0.723355 0.754489 0.001255
0.794199 0.755201 0.000000
0.868366 0.754863 0.000000
0.945153 0.753546 0.000000
1.000000 0.751422 0.000000
1.000000 0.748823 0.000000
0.011399 0.813225 0.050292
0.076957 0.813328 0.049064
0.141765 0.813410 0.047858
0.206592 0.813468 0.046680
0.271433 0.813502 0.045536
0.336284 0.813511 0.044431
0.401142 0.813511 0.043338
0.466002 0.813511 0.042241
0.530862 0.813511 0.041146
0.595447 0.813749 0.038488
0.659588 0.814847 0.028599
0.724899 0.816283 0.011925
0.792706 0.817543 0.000000
0.863780 0.818184 0.000000
0.937845 0.817852 0.000000
1.000000 0.816619 0.000000
1.000000 0.814520 0.000000
0.015159 0.876056 0.046260
0.080674 0.876081 0.045129
0.145528 0.876084 0.044033
0.210387 0.876084 0.042939
0.275248 0.876084 0.041842
0.340106 0.876084 0.040749
0.404958 0.876084 0.039652
0.469800 0.876084 0.038579
0.534628 0.876084 0.037541
0.599436 0.876086 0.036509
0.663630 0.876679 0.031383
0.727877 0.877946 0.019375
0.793557 0.879382 0.001415
0.861695 0.880580 0.000000
0.932853 0.881161 0.000000
1.000000 0.880841 0.000000
1.000000 0.879214 0.000000
0.019067 0.938657 0.042539
0.084493 0.938657 0.041444
0.149350 0.938657 0.040350
0.214198 0.938657 0.039257
0.279036 0.938657 0.038199
0.343858 0.938657 0.037167
0.408661 0.938657 0.036152
0.473441 0.938657 0.035158
0.538195 0.938657 0.034189
0.602918 0.938657 0.033249
0.667454 0.938784 0.031533
0.731349 0.939681 0.023997
0.795718 0.941042 0.010397
0.861653 0.942457 0.000000
0.929965 0.943597 0.000000
1.000000 0.944133 0.000000
1.000000 0.942931 0.000000
0.022976 1.000000 0.038866
0.088270 1.000000 0.037822
0.153085 1.000000 0.036795
0.217880 1.000000 0.035787
0.282651 1.000000 0.034802
0.347394 1.000000 0.033844
0.412105 1.000000 0.032915
0.476781 1.000000 0.032020
0.541417 1.000000 0.031162
0.606010 1.000000 0.030344
0.670556 1.000000 0.029571
0.734610 1.000000 0.026171
0.798313 1.000000 0.016743
0.862763 1.000000 0.001931
0.928835 1.000000 0.000000
0.997186 1.000000 0.000000
1.000000 1.000000 0.000000
0.000000 0.000000 0.142230
0.064799 0.000000 0.142171
0.128522 0.000000 0.142065
0.192244 0.000000 0.141913
0.258078 0.000000 0.142613
0.329252 0.000000 0.144190
0.402592 0.000000 0.144835
0.476849 0.000000 0.144520
0.551537 0.000000 0.143459
0.626444 0.000000 0.141843
0.701468 0.000000 0.139809
0.776554 0.000000 0.137456
0.851675 0.000000 0.134853
0.926814 0.000000 0.132051
1.000000 0.000000 0.129089
1.000000 0.000000 0.125994
1.000000 0.000000 0.122895
0.000000 0.052426 0.141846
0.064799 0.052534 0.141635
0.128522 0.052662 0.141384
0.192347 0.052775 0.141145
0.262361 0.050915 0.142362
0.336013 0.048112 0.142352
0.410649 0.045154 0.141110
0.485623 0.042186 0.139098
0.560730 0.039239 0.136599
0.635894 0.036318 0.133774
0.711083 0.033423 0.130722
0.786282 0.030550 0.127502
0.861485 0.027698 0.124155
0.936689 0.024862 0.120708
1.000000 0.022041 0.117183
1.000000 0.019232 0.113594
1.000000 0.016598 0.110056
0.000000 0.115442 0.140978
0.064799 0.115615 0.140639
0.128522 0.115805 0.140266
0.196937 0.114568 0.140338
0.272253 0.111515 0.138196
0.347421 0.108619 0.135056
0.422578 0.105766 0.131619
0.497722 0.102940 0.128043
0.572859 0.100133 0.124384
0.647994 0.097341 0.120668
0.723127 0.094560 0.116910
0.798261 0.091788 0.113118
0.873396 0.089024 0.109299
0.948532 0.086266 0.105458
1.000000 0.083513 0.101601
1.000000 0.080764 0.097730
1.000000 0.078044 0.093875
0.000000 0.178663 0.139706
0.064799 0.178889 0.139262
0.128522 0.179129 0.138791
0.193824 0.179409 0.133369
0.274878 0.175690 0.121278
0.352692 0.172151 0.117022
0.429119 0.168980 0.113269
0.504997 0.165977 0.109546
0.580609 0.163061 0.105794
0.656074 0.160197 0.102011
0.731450 0.157366 0.098199
0.806768 0.154558 0.094366
0.882046 0.151765 0.090516
0.957296 0.148984 0.086654
1.000000 0.146210 0.082785
1.000000 0.143442 0.078912
1.000000 0.140588 0.074915
0.000000 0.242049 0.138110
0.064799 0.242317 0.137585
0.128522 0.242595 0.137040
0.192244 0.242881 0.136477
0.258160 0.243794 0.123316
0.336781 0.241362 0.105935
0.417667 0.237443 0.096654
0.497432 0.233538 0.090571
0.575906 0.229885 0.085824
0.653460 0.226451 0.081628
0.730413 0.223175 0.077659
0.806959 0.220010 0.073790
0.883216 0.216925 0.069967
0.959302 0.213897 0.066129
1.000000 0.210906 0.062188
1.000000 0.207941 0.058143
1.000000 0.204847 0.053744
0.000000 0.305560 0.136269
0.064799 0.305857 0.135686
0.128522 0.306161 0.135091
0.192244 0.306469 0.134485
0.255930 0.306814 0.133667
0.322071 0.308145 0.115874
0.398618 0.306674 0.095206
0.479155 0.303303 0.081617
0.560117 0.299382 0.072234
0.640459 0.295409 0.065183
0.720032 0.291547 0.059398
0.798908 0.287836 0.054307
0.877232 0.284267 0.049586
0.955158 0.280810 0.045037
1.000000 0.277440 0.040559
1.000000 0.274139 0.036098
1.000000 0.270744 0.031285
0.000000 0.369156 0.134263
0.064799 0.369470 0.133646
0.128522 0.369787 0.133024
0.192244 0.370105 0.132399
0.255967 0.370424 0.131773
0.319416 0.371080 0.128616
0.386081 0.372505 0.108388
0.461313 0.371614 0.086001
0.541010 0.368841 0.069259
0.622221 0.365208 0.056715
0.703642 0.361248 0.046892
0.784752 0.357215 0.038813
0.865370 0.353220 0.031871
0.945464 0.349312 0.025686
1.000000 0.345506 0.020014
1.000000 0.341796 0.014685
1.000000 0.338087 0.009321
0.000000 0.432794 0.132171
0.064799 0.433113 0.131545
0.128522 0.433432 0.130920
0.192281 0.433748 0.130264
0.256129 0.434062 0.129528
0.320063 0.434371 0.128718
0.383678 0.435422 0.121629
0.451263 0.436814 0.099567
0.526019 0.436245 0.075911
0.605098 0.433935 0.056849
0.686180 0.430636 0.041739
0.767992 0.426833 0.029516
0.849891 0.422800 0.019340
0.931565 0.418688 0.010618
1.000000 0.414578 0.002942
1.000000 0.410511 0.000000
1.000000 0.406555 0.000000
0.000074 0.496436 0.130005
0.065027 0.496748 0.129242
0.128992 0.497056 0.128405
0.193037 0.497358 0.127502
0.257158 0.497654 0.126537
0.321353 0.497942 0.125517
0.385562 0.498267 0.124154
0.449587 0.499701 0.112409
0.518052 0.500997 0.088987
0.592615 0.500582 0.064583
0.671184 0.498591 0.043990
0.751951 0.495583 0.026997
0.833778 0.491967 0.012871
0.916002 0.488008 0.000932
0.998246 0.483869 0.000000
1.000000 0.479651 0.000000
1.000000 0.475611 0.000000
0.000954 0.560039 0.127157
0.066154 0.560332 0.126171
0.130374 0.560617 0.125132
0.194663 0.560893 0.124046
0.259015 0.561159 0.122917
0.323428 0.561414 0.121753
0.387897 0.561656 0.120558
0.452079 0.562232 0.116909
0.516848 0.563802 0.101659
0.586099 0.564961 0.077252
0.660609 0.564593 0.052435
0.738778 0.562803 0.030861
0.819180 0.560013 0.012542
0.900831 0.556563 0.000000
0.983098 0.552693 0.000000
1.000000 0.548567 0.000000
1.000000 0.544615 0.000000
0.002713 0.623564 0.123640
0.068091 0.623826 0.122497
0.132525 0.624077 0.121321
0.197014 0.624314 0.120117
0.261554 0.624538 0.118890
0.326142 0.624747 0.117646
0.390773 0.624941 0.116391
0.455444 0.625117 0.115131
0.519535 0.626072 0.107795
0.585138 0.627621 0.090039
0.655060 0.628613 0.064969
0.729576 0.628220 0.039986
0.807419 0.626537 0.017834
0.887449 0.623892 0.000000
0.968824 0.620565 0.000000
1.000000 0.616772 0.000000
1.000000 0.613083 0.000000
0.005200 0.686970 0.119672
0.070695 0.687189 0.118439
0.135299 0.687393 0.117190
0.199945 0.687580 0.115933
0.264630 0.687750 0.114673
0.329349 0.687901 0.113415
0.394100 0.688033 0.112166
0.458877 0.688145 0.110931
0.523495 0.688395 0.108672
0.587731 0.689619 0.097743
0.654123 0.691057 0.078189
0.724595 0.691859 0.052747
0.799118 0.691396 0.027786
0.876666 0.689784 0.005301
0.956304 0.687284 0.000000
1.000000 0.684134 0.000000
1.000000 0.680892 0.000000
0.008268 0.750217 0.115474
0.073821 0.750380 0.114214
0.138552 0.750525 0.112959
0.203312 0.750649 0.111715
0.268099 0.750753 0.110486
0.332907 0.750835 0.109280
0.397733 0.750894 0.108101
0.462574 0.750929 0.106956
0.527425 0.750938 0.105850
0.591771 0.751464 0.101061
0.656385 0.752801 0.087439
0.723458 0.754147 0.066497
0.794335 0.754843 0.040773
0.868803 0.754397 0.015784
0.946020 0.752906 0.000000
1.000000 0.750581 0.000000
1.000000 0.747851 0.000000
0.011767 0.813262 0.111265
0.077323 0.813358 0.110044
0.142138 0.813432 0.108847
0.206970 0.813482 0.107680
0.271815 0.813508 0.106549
0.336669 0.813511 0.105453
0.401528 0.813511 0.104358
0.466388 0.813511 0.103262
0.531247 0.813511 0.102168
0.596015 0.813580 0.100649
0.660129 0.814504 0.092554
0.725169 0.815920 0.076838
0.792775 0.817203 0.054857
0.863896 0.817824 0.029031
0.938224 0.817395 0.004120
1.000000 0.816009 0.000000
1.000000 0.813807 0.000000
0.015549 0.876067 0.107264
0.081057 0.876084 0.106147
0.145914 0.876084 0.105055
0.210774 0.876084 0.103959
0.275634 0.876084 0.102863
0.340490 0.876084 0.101771
0.405339 0.876084 0.100686
0.470177 0.876084 0.099612
0.534999 0.876084 0.098552
0.599803 0.876084 0.097511
0.664218 0.876420 0.094239
0.728322 0.877587 0.083599
0.793738 0.879024 0.066370
0.861712 0.880241 0.043711
0.932920 0.880800 0.017968
1.000000 0.880392 0.000000
1.000000 0.878697 0.000000
0.019464 0.938657 0.103560
0.084879 0.938657 0.102465
0.149733 0.938657 0.101375
0.214578 0.938657 0.100293
0.279411 0.938657 0.099224
0.344227 0.938657 0.098171
0.409023 0.938657 0.097137
0.473794 0.938657 0.096127
0.538538 0.938657 0.095143
0.603250 0.938657 0.094190
0.667903 0.938675 0.093160
0.731873 0.939373 0.087332
0.796045 0.940676 0.074825
0.861732 0.942101 0.056559
0.929905 0.943258 0.033533
1.000000 0.943771 0.008029
1.000000 0.942535 0.002567
0.023365 1.000000 0.099902
0.088643 1.000000 0.098839
0.153452 1.000000 0.097792
0.218239 1.000000 0.096766
0.283001 1.000000 0.095765
0.347734 1.000000 0.094792
0.412433 1.000000 0.093851
0.477096 1.000000 0.092946
0.541717 1.000000 0.092080
0.606295 1.000000 0.091257
0.670824 1.000000 0.090480
0.735073 1.000000 0.088505
0.798727 1.000000 0.080475
0.862955 1.000000 0.066557
0.928796 1.000000 0.047558
0.997023 1.000000 0.024347
1.000000 1.000000 0.020112
0.000000 0.000000 0.203608
0.064799 0.000000 0.203533
0.128522 0.000000 0.203411
0.192244 0.000000 0.203243
0.255967 0.000000 0.203033
0.319915 0.000000 0.202900
0.388027 0.000000 0.204271
0.459361 0.000000 0.205697
0.532310 0.000000 0.206452
0.606137 0.000000 0.206480
0.680470 0.000000 0.205874
0.755108 0.000000 0.204745
0.829937 0.000000 0.203191
0.904886 0.000000 0.201291
0.979915 0.000000 0.199109
1.000000 0.000000 0.196694
1.000000 0.000000 0.194135
0.000000 0.052461 0.203172
0.064799 0.052575 0.202947
0.128522 0.052710 0.202682
