assets/presets/luts/sunset-glow/lut.cube
TITLE "Sunset Glow"
LUT_3D_SIZE 9
0.000000 0.000000 0.019926
0.145197 0.000000 0.019595
0.295423 0.000000 0.014040
0.445447 0.000000 0.007680
0.595432 0.000000 0.000976
0.745418 0.000000 0.000000
0.895416 0.000000 0.000000
1.000000 0.000000 0.000000
1.000000 0.000000 0.000000
0.000000 0.115334 0.018899
0.130708 0.116222 0.006376
0.290506 0.109418 0.000000
0.447923 0.101848 0.000000
0.601769 0.095180 0.000000
0.754110 0.088972 0.000000
0.905718 0.083015 0.000000
1.000000 0.077208 0.000000
1.000000 0.071364 0.000000
0.000000 0.241874 0.016233
0.128522 0.242405 0.015216
0.258644 0.244351 0.000000
0.413740 0.240445 0.000000
0.575624 0.232795 0.000000
0.735870 0.224900 0.000000
0.893595 0.217436 0.000000
1.000000 0.210412 0.000000
1.000000 0.203581 0.000000
0.000000 0.368944 0.012548
0.128522 0.369571 0.011349
0.255953 0.370219 0.010060
0.386710 0.372992 0.000000
0.538094 0.370801 0.000000
0.699225 0.364371 0.000000
0.862269 0.356541 0.000000
1.000000 0.348436 0.000000
1.000000 0.340506 0.000000
0.000016 0.496222 0.008455
0.128819 0.496847 0.006993
0.256879 0.497454 0.005255
0.384749 0.498587 0.000000
0.518193 0.501514 0.000000
0.668946 0.500051 0.000000
0.829491 0.494559 0.000000
0.993589 0.487105 0.000000
1.000000 0.479102 0.000000
0.002294 0.623380 0.002519
0.132036 0.623908 0.000305
0.260993 0.624388 0.000000
0.390151 0.624811 0.000000
0.518666 0.626643 0.000000
0.654904 0.629238 0.000000
0.805700 0.627867 0.000000
0.965414 0.622821 0.000000
1.000000 0.615972 0.000000
0.007609 0.750095 0.000000
0.137863 0.750428 0.000000
0.267374 0.750685 0.000000
0.396982 0.750857 0.000000
0.526529 0.751043 0.000000
0.655735 0.753459 0.000000
0.794101 0.755569 0.000000
0.944730 0.754168 0.000000
1.000000 0.749686 0.000000
0.014770 0.876042 0.000000
0.145143 0.876084 0.000000
0.274862 0.876084 0.000000
0.404575 0.876084 0.000000
0.534254 0.876084 0.000000
0.663152 0.876857 0.000000
0.793386 0.879657 0.000000
0.932848 0.881546 0.000000
1.000000 0.879744 0.000000
0.022586 1.000000 0.000000
0.152716 1.000000 0.000000
0.282298 1.000000 0.000000
0.411774 1.000000 0.000000
0.541111 1.000000 0.000000
0.670279 1.000000 0.000000
0.798035 1.000000 0.000000
0.928859 1.000000 0.000000
1.000000 1.000000 0.000000
0.000000 0.000000 0.142230
0.128522 0.000000 0.142065
0.258078 0.000000 0.142613
0.402592 0.000000 0.144835
0.551537 0.000000 0.143459
0.701468 0.000000 0.139809
0.851675 0.000000 0.134853
1.000000 0.000000 0.129089
1.000000 0.000000 0.122895
0.000000 0.115442 0.140978
0.128522 0.115805 0.140266
0.272253 0.111515 0.138196
0.422578 0.105766 0.131619
0.572859 0.100133 0.124384
0.723127 0.094560 0.116910
0.873396 0.089024 0.109299
1.000000 0.083513 0.101601
1.000000 0.078044 0.093875
0.000000 0.242049 0.138110
0.128522 0.242595 0.137040
0.258160 0.243794 0.123316
0.417667 0.237443 0.096654
0.575906 0.229885 0.085824
0.730413 0.223175 0.077659
0.883216 0.216925 0.069967
1.000000 0.210906 0.062188
1.000000 0.204847 0.053744
0.000000 0.369156 0.134263
0.128522 0.369787 0.133024
0.255967 0.370424 0.131773
0.386081 0.372505 0.108388
0.541010 0.368841 0.069259
0.703642 0.361248 0.046892
0.865370 0.353220 0.031871
1.000000 0.345506 0.020014
1.000000 0.338087 0.009321
0.000074 0.496436 0.130005
0.128992 0.497056 0.128405
0.257158 0.497654 0.126537
0.385562 0.498267 0.124154
0.518052 0.500997 0.088987
0.671184 0.498591 0.043990
0.833778 0.491967 0.012871
0.998246 0.483869 0.000000
1.000000 0.475611 0.000000
0.002713 0.623564 0.123640
0.132525 0.624077 0.121321
0.261554 0.624538 0.118890
0.390773 0.624941 0.116391
0.519535 0.626072 0.107795
0.655060 0.628613 0.064969
0.807419 0.626537 0.017834
0.968824 0.620565 0.000000
1.000000 0.613083 0.000000
0.008268 0.750217 0.115474
0.138552 0.750525 0.112959
0.268099 0.750753 0.110486
0.397733 0.750894 0.108101
0.527425 0.750938 0.105850
0.656385 0.752801 0.087439
0.794335 0.754843 0.040773
0.946020 0.752906 0.000000
1.000000 0.747851 0.000000
0.015549 0.876067 0.107264
0.145914 0.876084 0.105055
0.275634 0.876084 0.102863
0.405339 0.876084 0.100686
0.534999 0.876084 0.098552
0.664218 0.876420 0.094239
0.793738 0.879024 0.066370
0.932920 0.880800 0.017968
1.000000 0.878697 0.000000
0.023365 1.000000 0.099902
0.153452 1.000000 0.097792
0.283001 1.000000 0.095765
0.412433 1.000000 0.093851
0.541717 1.000000 0.092080
0.670824 1.000000 0.090480
0.798727 1.000000 0.080475
0.928796 1.000000 0.047558
1.000000 1.000000 0.020112
0.000000 0.000000 0.264981
0.128522 0.000000 0.264751
0.255967 0.000000 0.264345
0.383413 0.000000 0.263779
0.518120 0.000000 0.265718
0.662251 0.000000 0.267806
0.809802 0.000000 0.267687
0.958799 0.000000 0.265694
1.000000 0.000000 0.262264
0.000000 0.115557 0.263537
0.128522 0.115943 0.262779
0.255967 0.116390 0.261902
0.386034 0.116009 0.261932
0.530797 0.111182 0.263080
0.679846 0.105457 0.260785
0.829927 0.099658 0.256403
0.980315 0.093900 0.250859
1.000000 0.088510 0.244740
0.000000 0.242230 0.260540
0.128522 0.242788 0.259445
0.255967 0.243379 0.258285
0.403279 0.238412 0.253883
0.553643 0.232863 0.246375
0.703947 0.227357 0.238665
0.854243 0.221861 0.230900
1.000000 0.216332 0.222818
1.000000 0.210759 0.214352
0.000000 0.369369 0.256630
0.128522 0.370003 0.255385
0.255967 0.370641 0.254133
0.385609 0.371973 0.239634
0.545201 0.365910 0.210740
0.705146 0.358146 0.198120
0.861649 0.351134 0.188519
1.000000 0.344560 0.179367
1.000000 0.338016 0.169837
0.000173 0.496648 0.252280
0.129202 0.497262 0.250583
0.257471 0.497850 0.248635
0.386023 0.498406 0.246480
0.517985 0.500453 0.219663
0.674607 0.496567 0.179048
0.838739 0.488759 0.155083
1.000000 0.480391 0.138849
1.000000 0.472262 0.126304
0.003161 0.623743 0.245653
0.133039 0.624240 0.243291
0.262136 0.624682 0.240832
0.391413 0.625062 0.238321
0.520641 0.625555 0.234572
0.655285 0.627965 0.195494
0.810091 0.624885 0.150909
0.973570 0.617769 0.120117
1.000000 0.609622 0.101095
0.008945 0.750330 0.237403
0.139254 0.750612 0.234897
0.268834 0.750811 0.232449
0.398491 0.750920 0.230105
0.528195 0.750938 0.227893
0.657220 0.752074 0.216501
0.794645 0.754115 0.171378
0.948137 0.751461 0.125354
1.000000 0.745629 0.098952
0.016334 0.876081 0.229286
0.146686 0.876084 0.227096
0.276405 0.876084 0.224906
0.406098 0.876084 0.222740
0.535736 0.876084 0.220628
0.665271 0.876097 0.218517
0.794161 0.878299 0.196399
0.933071 0.880064 0.148803
1.000000 0.877574 0.118104
0.024137 1.000000 0.221963
0.154177 1.000000 0.219878
0.283690 1.000000 0.217886
0.413076 1.000000 0.216018
0.542303 1.000000 0.214301
0.671342 1.000000 0.212766
0.799610 1.000000 0.207688
0.928733 1.000000 0.178347
1.000000 1.000000 0.151491
0.000000 0.000000 0.387709
0.128522 0.000000 0.387418
0.255967 0.000000 0.386955
0.383413 0.000000 0.386339
0.510858 0.000000 0.385584
0.640000 0.000000 0.385512
0.778504 0.000000 0.388101
0.922469 0.000000 0.390000
1.000000 0.000000 0.389952
0.000000 0.115681 0.386079
0.128522 0.116089 0.385279
0.255967 0.116555 0.384364
0.383413 0.117071 0.383351
0.510858 0.117629 0.382257
0.646457 0.115514 0.383882
0.790953 0.110799 0.385271
0.938734 0.105336 0.384515
1.000000 0.100232 0.381876
0.000000 0.242415 0.382962
0.128522 0.242986 0.381842
0.255967 0.243586 0.380664
0.383413 0.244207 0.379445
0.515233 0.243392 0.379672
0.661462 0.238296 0.379919
0.811065 0.232550 0.376743
0.961885 0.226714 0.371413
1.000000 0.221224 0.364868
0.000000 0.369583 0.378994
0.128522 0.370219 0.377745
0.255967 0.370857 0.376494
0.383615 0.371474 0.375107
0.535481 0.365606 0.367205
0.686921 0.359989 0.358495
0.838740 0.354317 0.349502
0.990894 0.348585 0.340296
1.000000 0.342753 0.330907
0.000314 0.496859 0.374520
0.129448 0.497465 0.372733
0.257817 0.498043 0.370709
0.386457 0.498585 0.368494
0.518119 0.499845 0.350393
0.679329 0.493612 0.319501
0.841382 0.485451 0.305090
0.999859 0.477936 0.294549
1.000000 0.470656 0.284533
0.003638 0.623917 0.367650
0.133578 0.624396 0.365249
0.262740 0.624819 0.362768
0.392070 0.625176 0.360250
0.521539 0.625460 0.357743
0.655629 0.627271 0.326070
0.813876 0.622677 0.286134
0.978773 0.614411 0.262366
1.000000 0.605857 0.247422
0.009638 0.750434 0.359334
0.139968 0.750689 0.356842
0.269578 0.750859 0.354424
0.399254 0.750935 0.352125
0.528967 0.750938 0.349934
0.658288 0.751384 0.344501
0.795041 0.753354 0.302032
0.950975 0.749689 0.258799
1.000000 0.742915 0.235330
0.017122 0.876084 0.351326
0.147459 0.876084 0.349136
0.277172 0.876084 0.346951
0.406850 0.876084 0.344800
0.536462 0.876084 0.342713
0.665978 0.876084 0.340719
0.794711 0.877566 0.326099
0.933275 0.879302 0.279701
1.000000 0.876287 0.249892
0.024902 1.000000 0.344032
0.154892 1.000000 0.341975
0.284365 1.000000 0.340021
0.413700 1.000000 0.338201
0.542867 1.000000 0.336543
0.671835 1.000000 0.335076
0.800462 1.000000 0.333245
0.928715 1.000000 0.309033
1.000000 1.000000 0.282908
0.000000 0.000000 0.510415
0.128522 0.000000 0.510064
0.255967 0.000000 0.509547
0.383413 0.000000 0.508882
0.510858 0.000000 0.508085
0.638304 0.000000 0.507173
0.765766 0.000000 0.506171
0.898974 0.000000 0.507513
1.000000 0.000000 0.509344
0.000000 0.115812 0.508606
0.128522 0.116241 0.507765
0.255967 0.116725 0.506815
0.383413 0.117256 0.505773
0.510858 0.117826 0.504655
0.638304 0.118425 0.503479
0.768012 0.118270 0.503285
0.907154 0.115072 0.505562
1.000000 0.111124 0.506514
0.000000 0.242605 0.505374
0.128522 0.243187 0.504233
0.255967 0.243795 0.503039
0.383413 0.244422 0.501810
0.510858 0.245058 0.500561
0.638415 0.245657 0.499367
0.776187 0.242942 0.501161
0.922272 0.237942 0.501668
1.000000 0.232943 0.499444
0.000000 0.369798 0.501356
0.128522 0.370436 0.500105
0.255982 0.371072 0.498843
0.383707 0.371698 0.497345
0.511766 0.372304 0.495564
0.647326 0.370545 0.495513
0.796663 0.364897 0.493671
0.948642 0.358822 0.488399
1.000000 0.353184 0.481525
0.000494 0.497067 0.496727
0.129729 0.497665 0.494855
0.258193 0.498232 0.492761
0.386919 0.498759 0.490492
0.516778 0.499062 0.487193
0.674448 0.492049 0.474421
0.827437 0.486070 0.465009
0.980469 0.480048 0.455594
1.000000 0.473847 0.446129
0.004142 0.624086 0.489632
0.134140 0.624546 0.487198
0.263362 0.624948 0.484699
0.392743 0.625281 0.482180
0.522253 0.625538 0.479688
0.656319 0.626445 0.456863
0.818889 0.619572 0.426556
0.981941 0.610912 0.412019
1.000000 0.602784 0.401230
0.010346 0.750530 0.481267
0.140694 0.750757 0.478796
0.270329 0.750896 0.476413
0.400022 0.750938 0.474164
0.529740 0.750938 0.471975
0.659451 0.750941 0.469776
0.795627 0.752524 0.432811
0.954879 0.747373 0.394471
1.000000 0.739554 0.375116
0.017914 0.876084 0.473369
0.148231 0.876084 0.471177
0.277936 0.876084 0.469000
0.407595 0.876084 0.466868
0.537178 0.876084 0.464809
0.666654 0.876084 0.462853
0.795460 0.876839 0.455113
0.933587 0.878493 0.410705
1.000000 0.874723 0.382213
0.025657 1.000000 0.466108
0.155594 1.000000 0.464083
0.285024 1.000000 0.462172
0.414305 1.000000 0.460403
0.543407 1.000000 0.458807
0.672301 1.000000 0.457412
0.800955 1.000000 0.456248
0.928784 1.000000 0.439507
1.000000 1.000000 0.414364
0.000000 0.000000 0.633101
0.128522 0.000000 0.632691
0.255967 0.000000 0.632122
0.383413 0.000000 0.631411
0.510858 0.000000 0.630572
0.638304 0.000000 0.629625
0.765750 0.000000 0.628585
0.893195 0.000000 0.627469
1.000000 0.000000 0.626820
0.000000 0.115951 0.631119
0.128522 0.116399 0.630239
0.255967 0.116900 0.629256
0.383413 0.117446 0.628186
0.510858 0.118026 0.627047
0.638304 0.118634 0.625854
0.765750 0.119261 0.624625
0.893319 0.119853 0.623442
1.000000 0.118756 0.624267
0.000000 0.242799 0.627779
0.128522 0.243391 0.626618
0.255967 0.244006 0.625410
0.383413 0.244637 0.624172
0.510858 0.245275 0.622920
0.638316 0.245911 0.621660
0.766033 0.246537 0.620171
0.897594 0.245949 0.619901
1.000000 0.242986 0.620775
0.000000 0.370015 0.623717
0.128522 0.370653 0.622465
0.256038 0.371286 0.621154
0.383880 0.371906 0.619555
0.512045 0.372505 0.617688
0.640502 0.373072 0.615599
0.770158 0.373279 0.613774
0.912238 0.369513 0.614791
1.000000 0.364850 0.613316
0.000712 0.497273 0.618904
0.130044 0.497861 0.616951
0.258600 0.498416 0.614793
0.387408 0.498928 0.612475
0.516436 0.499390 0.610044
0.645653 0.499793 0.607546
0.787406 0.496217 0.607330
0.939244 0.489971 0.603521
1.000000 0.484237 0.597258
0.004672 0.624248 0.611601
0.134724 0.624690 0.609140
0.264003 0.625069 0.606629
0.393431 0.625377 0.604114
0.522978 0.625606 0.601640
0.656567 0.625096 0.594060
0.816749 0.617218 0.580514
0.970715 0.610678 0.571710
1.000000 0.604071 0.562533
0.011067 0.750616 0.603206
0.141429 0.750814 0.600759
0.271087 0.750921 0.598417
0.400792 0.750938 0.596207
0.530512 0.750938 0.594016
0.660218 0.750938 0.591838
0.796754 0.751485 0.564046
0.959878 0.744215 0.535244
1.000000 0.735701 0.521482
0.018708 0.876084 0.595410
0.149002 0.876084 0.593220
0.278694 0.876084 0.591055
0.408331 0.876084 0.588944
0.537881 0.876084 0.586917
0.667313 0.876084 0.585002
0.796462 0.876210 0.582387
0.934147 0.877582 0.541932
1.000000 0.872657 0.515688
0.026402 1.000000 0.588195
0.156283 1.000000 0.586205
0.285665 1.000000 0.584339
0.414889 1.000000 0.582626
0.543924 1.000000 0.581094
0.672740 1.000000 0.579774
0.801305 1.000000 0.578695
0.929017 1.000000 0.569509
1.000000 1.000000 0.545859
0.000000 0.000000 0.755766
0.128522 0.000000 0.755300
0.255967 0.000000 0.754681
0.383413 0.000000 0.753924
0.510858 0.000000 0.753047
0.638304 0.000000 0.752066
0.765750 0.000000 0.750998
0.893195 0.000000 0.749860
1.000000 0.000000 0.748669
0.000000 0.116097 0.753618
0.128522 0.116564 0.752701
0.255967 0.117081 0.751687
0.383413 0.117639 0.750591
0.510858 0.118230 0.749432
0.638304 0.118845 0.748225
0.765750 0.119476 0.746987
0.893195 0.120114 0.745736
1.000000 0.120750 0.744478
0.000000 0.242997 0.750176
0.128522 0.243598 0.748997
0.255967 0.244219 0.747777
0.383413 0.244853 0.746533
0.510858 0.245492 0.745280
0.638369 0.246125 0.743974
0.766203 0.246746 0.742383
0.894360 0.247345 0.740522
1.000000 0.247876 0.738492
0.000000 0.370232 0.746077
0.128522 0.370869 0.744826
0.256134 0.371499 0.743429
0.384089 0.372112 0.741734
0.512357 0.372701 0.739787
0.640907 0.373257 0.737633
0.769708 0.373770 0.735318
0.898731 0.374234 0.732890
1.000000 0.373314 0.731931
0.000967 0.497476 0.741052
0.130391 0.498054 0.739024
0.259036 0.498595 0.736806
0.387922 0.499091 0.734445
0.517018 0.499534 0.731986
0.646293 0.499915 0.729476
0.775718 0.500225 0.726960
0.908490 0.499365 0.725785
1.000000 0.495657 0.725603
0.005227 0.624405 0.733559
0.135328 0.624826 0.731076
0.264661 0.625182 0.728558
0.394133 0.625464 0.726052
0.523713 0.625665 0.723603
0.653369 0.625774 0.721258
0.783618 0.625606 0.719293
0.931283 0.620097 0.718832
1.000000 0.614551 0.713951
0.011802 0.750693 0.725151
0.142173 0.750861 0.722735
0.271851 0.750935 0.720439
0.401564 0.750938 0.718248
0.531283 0.750938 0.716058
0.660977 0.750938 0.713892
0.799554 0.749467 0.700034
0.958927 0.741548 0.688641
1.000000 0.734467 0.679603
0.019502 0.876084 0.717450
0.149769 0.876084 0.715265
0.279446 0.876084 0.713116
0.409057 0.876084 0.711030
0.538570 0.876084 0.709038
0.667956 0.876084 0.707168
0.797185 0.876084 0.705451
0.935380 0.876396 0.673861
1.000000 0.869624 0.652214
0.027136 1.000000 0.710292
0.156956 1.000000 0.708341
0.286288 1.000000 0.706524
0.415452 1.000000 0.704869
0.544415 1.000000 0.703406
0.673150 1.000000 0.702165
0.801623 1.000000 0.701174
0.929522 1.000000 0.698290
1.000000 1.000000 0.677396
0.000000 0.000000 0.878411
0.128522 0.000000 0.877891
0.255967 0.000000 0.877224
0.383413 0.000000 0.876424
0.510858 0.000000 0.875510
0.638304 0.000000 0.874498
0.765750 0.000000 0.873404
0.893195 0.000000 0.872246
1.000000 0.000000 0.871040
0.000000 0.116249 0.876104
0.128522 0.116735 0.875152
0.255967 0.117266 0.874108
0.383413 0.117837 0.872989
0.510858 0.118437 0.871812
0.638304 0.119058 0.870592
0.765750 0.119692 0.869348
0.893195 0.120330 0.868096
1.000000 0.120964 0.866795
0.000000 0.243198 0.872566
0.128522 0.243807 0.871372
0.255967 0.244434 0.870141
0.383413 0.245070 0.868892
0.510858 0.245708 0.867641
0.638463 0.246338 0.866252
0.766410 0.246952 0.864564
0.894670 0.247542 0.862622
1.000000 0.248098 0.860473
0.000000 0.370448 0.868436
0.128538 0.371084 0.867173
0.256270 0.371709 0.865670
0.384335 0.372316 0.863884
0.512702 0.372894 0.861861
0.641341 0.373436 0.859647
0.770221 0.373934 0.857289
0.899312 0.374378 0.854832
1.000000 0.374761 0.852322
0.001258 0.497676 0.863172
0.130770 0.498242 0.861075
0.259500 0.498769 0.858803
0.388460 0.499248 0.856404
0.517621 0.499671 0.853922
0.646950 0.500028 0.851405
0.776419 0.500313 0.848898
0.905996 0.500515 0.846447
1.000000 0.500627 0.844099
0.005806 0.624555 0.855507
0.135952 0.624955 0.853007
0.265336 0.625287 0.850488
0.394847 0.625542 0.847997
0.524456 0.625712 0.845578
0.654133 0.625789 0.843278
0.783845 0.625793 0.841087
0.913564 0.625793 0.838897
1.000000 0.624868 0.837681
0.012548 0.750760 0.847105
0.142926 0.750897 0.844724
0.272619 0.750938 0.842479
0.402337 0.750938 0.840289
0.532051 0.750938 0.838104
0.661729 0.750938 0.835953
0.791341 0.750938 0.833865
0.924502 0.749743 0.832980
1.000000 0.745099 0.830816
0.020295 0.876084 0.839491
0.150533 0.876084 0.837315
0.280190 0.876084 0.835184
0.409771 0.876084 0.833126
0.539245 0.876084 0.831173
0.668581 0.876084 0.829351
0.797749 0.876084 0.827692
0.938834 0.874087 0.810330
1.000000 0.865802 0.799440
0.027856 1.000000 0.832402
0.157614 1.000000 0.830493
0.286892 1.000000 0.828727
0.415991 1.000000 0.827134
0.544880 1.000000 0.825743
0.673529 1.000000 0.824584
0.801908 1.000000 0.823685
0.929986 1.000000 0.823076
1.000000 1.000000 0.808975
0.000000 0.000000 1.000000
0.128522 0.000000 1.000000
0.255967 0.000000 0.999751
0.383413 0.000000 0.998911
0.510858 0.000000 0.997961
0.638304 0.000000 0.996920
0.765750 0.000000 0.995802
0.893195 0.000000 0.994626
1.000000 0.000000 0.993408
0.000000 0.116408 0.998577
0.128522 0.116910 0.997592
0.255967 0.117456 0.996521
0.383413 0.118038 0.995380
0.510858 0.118646 0.994186
0.638304 0.119272 0.992957
0.765750 0.119909 0.991708
0.893195 0.120547 0.990457
1.000000 0.121177 0.989075
0.000000 0.243402 0.994951
0.128522 0.244018 0.993742
0.255967 0.244649 0.992504
0.383413 0.245287 0.991252
0.510872 0.245923 0.989991
0.638596 0.246549 0.988495
0.766653 0.247155 0.986716
0.895013 0.247735 0.984698
1.000000 0.248278 0.982489
0.000000 0.370665 0.990796
0.128596 0.371298 0.989482
0.256445 0.371918 0.987878
0.384615 0.372516 0.986006
0.513078 0.373083 0.983913
0.641802 0.373611 0.981646
0.770757 0.374091 0.979248
0.899913 0.374515 0.976768
1.000000 0.374875 0.974251
0.001583 0.497872 0.985268
0.131178 0.498426 0.983106
0.259990 0.498937 0.980785
0.389022 0.499398 0.978353
0.518243 0.499800 0.975854
0.647623 0.500134 0.973335
0.777132 0.500391 0.970842
0.906739 0.500564 0.968421
1.000000 0.500643 0.966118
0.006406 0.624698 0.977448
0.136594 0.625075 0.974937
0.266024 0.625382 0.972422
0.395573 0.625610 0.969950
0.525208 0.625749 0.967566
0.654900 0.625793 0.965317
0.784618 0.625793 0.963127
0.914332 0.625793 0.960942
1.000000 0.625793 0.958790
0.013305 0.750817 0.969069
0.143684 0.750922 0.966730
0.273389 0.750938 0.964521
0.403109 0.750938 0.962330
0.532815 0.750938 0.960153
0.662474 0.750938 0.958020
0.792057 0.750938 0.955961
0.921534 0.750938 0.954004
1.000000 0.750938 0.952179
0.021087 0.876084 0.961534
0.151291 0.876084 0.959370
0.280926 0.876084 0.957260
0.410474 0.876084 0.955235
0.539904 0.876084 0.953323
0.669186 0.876084 0.951553
0.798290 0.876084 0.949956
0.927185 0.876084 0.948560
1.000000 0.875779 0.947591
0.028563 1.000000 0.954524
0.158255 1.000000 0.952661
0.287475 1.000000 0.950950
0.416506 1.000000 0.949423
0.545318 1.000000 0.948107
0.673878 1.000000 0.947033
0.802158 1.000000 0.946229
0.930126 1.000000 0.945726
1.000000 1.000000 0.940599
