assets/presets/luts/sunset-glow/lut.cube
TITLE "Sunset Glow"
LUT_3D_SIZE 5
0.000000 0.000000 0.019926
0.295423 0.000000 0.014040
0.595432 0.000000 0.000976
0.895416 0.000000 0.000000
1.000000 0.000000 0.000000
0.000000 0.241874 0.016233
0.258644 0.244351 0.000000
0.575624 0.232795 0.000000
0.893595 0.217436 0.000000
1.000000 0.203581 0.000000
0.000016 0.496222 0.008455
0.256879 0.497454 0.005255
0.518193 0.501514 0.000000
0.829491 0.494559 0.000000
1.000000 0.479102 0.000000
0.007609 0.750095 0.000000
0.267374 0.750685 0.000000
0.526529 0.751043 0.000000
0.794101 0.755569 0.000000
1.000000 0.749686 0.000000
0.022586 1.000000 0.000000
0.282298 1.000000 0.000000
0.541111 1.000000 0.000000
0.798035 1.000000 0.000000
1.000000 1.000000 0.000000
0.000000 0.000000 0.264981
0.255967 0.000000 0.264345
0.518120 0.000000 0.265718
0.809802 0.000000 0.267687
1.000000 0.000000 0.262264
0.000000 0.242230 0.260540
0.255967 0.243379 0.258285
0.553643 0.232863 0.246375
0.854243 0.221861 0.230900
1.000000 0.210759 0.214352
0.000173 0.496648 0.252280
0.257471 0.497850 0.248635
0.517985 0.500453 0.219663
0.838739 0.488759 0.155083
1.000000 0.472262 0.126304
0.008945 0.750330 0.237403
0.268834 0.750811 0.232449
0.528195 0.750938 0.227893
0.794645 0.754115 0.171378
1.000000 0.745629 0.098952
0.024137 1.000000 0.221963
0.283690 1.000000 0.217886
0.542303 1.000000 0.214301
0.799610 1.000000 0.207688
1.000000 1.000000 0.151491
0.000000 0.000000 0.510415
0.255967 0.000000 0.509547
0.510858 0.000000 0.508085
0.765766 0.000000 0.506171
1.000000 0.000000 0.509344
0.000000 0.242605 0.505374
0.255967 0.243795 0.503039
0.510858 0.245058 0.500561
0.776187 0.242942 0.501161
1.000000 0.232943 0.499444
0.000494 0.497067 0.496727
0.258193 0.498232 0.492761
0.516778 0.499062 0.487193
0.827437 0.486070 0.465009
1.000000 0.473847 0.446129
0.010346 0.750530 0.481267
0.270329 0.750896 0.476413
0.529740 0.750938 0.471975
0.795627 0.752524 0.432811
1.000000 0.739554 0.375116
0.025657 1.000000 0.466108
0.285024 1.000000 0.462172
0.543407 1.000000 0.458807
0.800955 1.000000 0.456248
1.000000 1.000000 0.414364
0.000000 0.000000 0.755766
0.255967 0.000000 0.754681
0.510858 0.000000 0.753047
0.765750 0.000000 0.750998
1.000000 0.000000 0.748669
0.000000 0.242997 0.750176
0.255967 0.244219 0.747777
0.510858 0.245492 0.745280
0.766203 0.246746 0.742383
1.000000 0.247876 0.738492
0.000967 0.497476 0.741052
0.259036 0.498595 0.736806
0.517018 0.499534 0.731986
0.775718 0.500225 0.726960
1.000000 0.495657 0.725603
0.011802 0.750693 0.725151
0.271851 0.750935 0.720439
0.531283 0.750938 0.716058
0.799554 0.749467 0.700034
1.000000 0.734467 0.679603
0.027136 1.000000 0.710292
0.286288 1.000000 0.706524
0.544415 1.000000 0.703406
0.801623 1.000000 0.701174
1.000000 1.000000 0.677396
0.000000 0.000000 1.000000
0.255967 0.000000 0.999751
0.510858 0.000000 0.997961
0.765750 0.000000 0.995802
1.000000 0.000000 0.993408
0.000000 0.243402 0.994951
0.255967 0.244649 0.992504
0.510872 0.245923 0.989991
0.766653 0.247155 0.986716
1.000000 0.248278 0.982489
0.001583 0.497872 0.985268
0.259990 0.498937 0.980785
0.518243 0.499800 0.975854
0.777132 0.500391 0.970842
1.000000 0.500643 0.966118
0.013305 0.750817 0.969069
0.273389 0.750938 0.964521
0.532815 0.750938 0.960153
0.792057 0.750938 0.955961
1.000000 0.750938 0.952179
0.028563 1.000000 0.954524
0.287475 1.000000 0.950950
0.545318 1.000000 0.948107
0.802158 1.000000 0.946229
1.000000 1.000000 0.940599
