assets/presets/luts/slog3-rec709/lut.cube
TITLE "S-Log3 to Rec.709"
LUT_3D_SIZE 17
0.000000 0.000000 0.000000
0.000000 0.000000 0.000000
0.005668 0.000000 0.000000
0.033820 0.000000 0.000000
0.095587 0.000000 0.000000
0.198412 0.000000 0.000000
0.360280 0.000000 0.000000
0.590779 0.000000 0.000000
0.856351 0.000000 0.000000
1.000000 0.000000 0.000000
1.000000 0.000000 0.000000
1.000000 0.000000 0.000000
1.000000 0.000000 0.000000
1.000000 0.000000 0.000000
1.000000 0.000000 0.000000
1.000000 0.000000 0.000000
1.000000 0.000000 0.000000
0.000000 0.000000 0.000000
0.000000 0.000000 0.000000
0.005668 0.000000 0.000000
0.033820 0.000000 0.000000
0.095587 0.000000 0.000000
0.198412 0.000000 0.000000
0.360280 0.000000 0.000000
0.590779 0.000000 0.000000
0.856351 0.000000 0.000000
1.000000 0.000000 0.000000
1.000000 0.000000 0.000000
1.000000 0.000000 0.000000
1.000000 0.000000 0.000000
1.000000 0.000000 0.000000
1.000000 0.000000 0.000000
1.000000 0.000000 0.000000
1.000000 0.000000 0.000000
0.000000 0.005531 0.000000
0.000000 0.005531 0.000000
0.005473 0.005473 0.000000
0.033625 0.005185 0.000000
0.095392 0.004553 0.000000
0.198217 0.003502 0.000000
0.360085 0.001846 0.000000
0.590584 0.000000 0.000000
0.856156 0.000000 0.000000
1.000000 0.000000 0.000000
1.000000 0.000000 0.000000
1.000000 0.000000 0.000000
1.000000 0.000000 0.000000
1.000000 0.000000 0.000000
1.000000 0.000000 0.000000
1.000000 0.000000 0.000000
1.000000 0.000000 0.000000
0.000000 0.033002 0.000000
0.000000 0.033002 0.000000
0.004505 0.032944 0.000000
0.032656 0.032656 0.000000
0.094424 0.032024 0.000000
0.197249 0.030973 0.000000
0.359117 0.029317 0.000000
0.589616 0.026960 0.000000
0.855187 0.024244 0.000000
1.000000 0.022391 0.000000
1.000000 0.022372 0.000000
1.000000 0.022372 0.000000
1.000000 0.022372 0.000000
1.000000 0.022372 0.000000
1.000000 0.022372 0.000000
1.000000 0.022372 0.000000
1.000000 0.022372 0.000000
0.000000 0.093276 0.000000
0.000000 0.093276 0.000000
0.002379 0.093218 0.000000
0.030531 0.092930 0.000000
0.092298 0.092298 0.000000
0.195124 0.091247 0.000000
0.356992 0.089591 0.000000
0.587491 0.087234 0.000000
0.853062 0.084518 0.000000
1.000000 0.082665 0.000000
1.000000 0.082646 0.000000
1.000000 0.082646 0.000000
1.000000 0.082646 0.000000
1.000000 0.082646 0.000000
1.000000 0.082646 0.000000
1.000000 0.082646 0.000000
1.000000 0.082646 0.000000
0.000000 0.193615 0.000000
0.000000 0.193615 0.000000
0.000000 0.193557 0.000000
0.026993 0.193269 0.000000
0.088761 0.192638 0.000000
0.191586 0.191586 0.000000
0.353454 0.189930 0.000000
0.583953 0.187573 0.000000
0.849524 0.184857 0.000000
1.000000 0.183004 0.000000
1.000000 0.182985 0.000000
1.000000 0.182985 0.000000
1.000000 0.182985 0.000000
1.000000 0.182985 0.000000
1.000000 0.182985 0.000000
1.000000 0.182985 0.000000
1.000000 0.182985 0.000000
0.000000 0.351569 0.000000
0.000000 0.351569 0.000000
0.000000 0.351512 0.000000
0.021424 0.351224 0.000000
0.083191 0.350592 0.000000
0.186017 0.349540 0.000000
0.347885 0.347885 0.000000
0.578384 0.345527 0.000000
0.843955 0.342811 0.000000
1.000000 0.340959 0.000000
1.000000 0.340939 0.000000
1.000000 0.340939 0.000000
1.000000 0.340939 0.000000
1.000000 0.340939 0.000000
1.000000 0.340939 0.000000
1.000000 0.340939 0.000000
1.000000 0.340939 0.000000
0.000000 0.576495 0.000000
0.000000 0.576495 0.000000
0.000000 0.576437 0.000000
0.013494 0.576149 0.000000
0.075261 0.575518 0.000000
0.178086 0.574466 0.000000
0.339954 0.572811 0.000000
0.570453 0.570453 0.000000
0.836025 0.567737 0.000000
1.000000 0.565885 0.000000
1.000000 0.565865 0.000000
1.000000 0.565865 0.000000
1.000000 0.565865 0.000000
1.000000 0.565865 0.000000
1.000000 0.565865 0.000000
1.000000 0.565865 0.000000
1.000000 0.565865 0.000000
0.000000 0.835646 0.000000
0.000000 0.835646 0.000000
0.000000 0.835588 0.000000
0.004356 0.835300 0.000000
0.066124 0.834668 0.000000
0.168949 0.833616 0.000000
0.330817 0.831961 0.000000
0.561316 0.829603 0.000000
0.826887 0.826887 0.000000
1.000000 0.825035 0.000000
1.000000 0.825016 0.000000
1.000000 0.825016 0.000000
1.000000 0.825016 0.000000
1.000000 0.825016 0.000000
1.000000 0.825016 0.000000
1.000000 0.825016 0.000000
1.000000 0.825016 0.000000
0.000000 1.000000 0.000000
0.000000 1.000000 0.000000
0.000000 1.000000 0.000000
0.000000 1.000000 0.000000
0.059892 1.000000 0.000000
0.162717 1.000000 0.000000
0.324585 1.000000 0.000000
0.555084 1.000000 0.000000
0.820656 1.000000 0.000000
1.000000 1.000000 0.000000
1.000000 1.000000 0.000000
1.000000 1.000000 0.000000
1.000000 1.000000 0.000000
1.000000 1.000000 0.000000
1.000000 1.000000 0.000000
1.000000 1.000000 0.000000
1.000000 1.000000 0.000000
0.000000 1.000000 0.000000
0.000000 1.000000 0.000000
0.000000 1.000000 0.000000
0.000000 1.000000 0.000000
0.059827 1.000000 0.000000
0.162652 1.000000 0.000000
0.324520 1.000000 0.000000
0.555019 1.000000 0.000000
0.820591 1.000000 0.000000
1.000000 1.000000 0.000000
1.000000 1.000000 0.000000
1.000000 1.000000 0.000000
1.000000 1.000000 0.000000
1.000000 1.000000 0.000000
1.000000 1.000000 0.000000
1.000000 1.000000 0.000000
1.000000 1.000000 0.000000
0.000000 1.000000 0.000000
0.000000 1.000000 0.000000
0.000000 1.000000 0.000000
0.000000 1.000000 0.000000
0.059827 1.000000 0.000000
0.162652 1.000000 0.000000
0.324520 1.000000 0.000000
0.555019 1.000000 0.000000
0.820591 1.000000 0.000000
1.000000 1.000000 0.000000
1.000000 1.000000 0.000000
1.000000 1.000000 0.000000
1.000000 1.000000 0.000000
1.000000 1.000000 0.000000
1.000000 1.000000 0.000000
1.000000 1.000000 0.000000
1.000000 1.000000 0.000000
0.000000 1.000000 0.000000
0.000000 1.000000 0.000000
0.000000 1.000000 0.000000
0.000000 1.000000 0.000000
0.059827 1.000000 0.000000
0.162652 1.000000 0.000000
0.324520 1.000000 0.000000
0.555019 1.000000 0.000000
0.820591 1.000000 0.000000
1.000000 1.000000 0.000000
1.000000 1.000000 0.000000
1.000000 1.000000 0.000000
1.000000 1.000000 0.000000
1.000000 1.000000 0.000000
1.000000 1.000000 0.000000
1.000000 1.000000 0.000000
1.000000 1.000000 0.000000
0.000000 1.000000 0.000000
0.000000 1.000000 0.000000
0.000000 1.000000 0.000000
0.000000 1.000000 0.000000
0.059827 1.000000 0.000000
0.162652 1.000000 0.000000
0.324520 1.000000 0.000000
0.555019 1.000000 0.000000
0.820591 1.000000 0.000000
1.000000 1.000000 0.000000
1.000000 1.000000 0.000000
1.000000 1.000000 0.000000
1.000000 1.000000 0.000000
1.000000 1.000000 0.000000
1.000000 1.000000 0.000000
1.000000 1.000000 0.000000
1.000000 1.000000 0.000000
0.000000 1.000000 0.000000
0.000000 1.000000 0.000000
0.000000 1.000000 0.000000
0.000000 1.000000 0.000000
0.059827 1.000000 0.000000
0.162652 1.000000 0.000000
0.324520 1.000000 0.000000
0.555019 1.000000 0.000000
0.820591 1.000000 0.000000
1.000000 1.000000 0.000000
1.000000 1.000000 0.000000
1.000000 1.000000 0.000000
1.000000 1.000000 0.000000
1.000000 1.000000 0.000000
1.000000 1.000000 0.000000
1.000000 1.000000 0.000000
1.000000 1.000000 0.000000
0.000000 1.000000 0.000000
0.000000 1.000000 0.000000
0.000000 1.000000 0.000000
0.000000 1.000000 0.000000
0.059827 1.000000 0.000000
0.162652 1.000000 0.000000
0.324520 1.000000 0.000000
0.555019 1.000000 0.000000
0.820591 1.000000 0.000000
1.000000 1.000000 0.000000
1.000000 1.000000 0.000000
1.000000 1.000000 0.000000
1.000000 1.000000 0.000000
1.000000 1.000000 0.000000
1.000000 1.000000 0.000000
1.000000 1.000000 0.000000
1.000000 1.000000 0.000000
0.000000 1.000000 0.000000
0.000000 1.000000 0.000000
0.000000 1.000000 0.000000
0.000000 1.000000 0.000000
0.059827 1.000000 0.000000
0.162652 1.000000 0.000000
0.324520 1.000000 0.000000
0.555019 1.000000 0.000000
0.820591 1.000000 0.000000
1.000000 1.000000 0.000000
1.000000 1.000000 0.000000
1.000000 1.000000 0.000000
1.000000 1.000000 0.000000
1.000000 1.000000 0.000000
1.000000 1.000000 0.000000
1.000000 1.000000 0.000000
1.000000 1.000000 0.000000
0.000000 0.000000 0.000000
0.000000 0.000000 0.000000
0.005668 0.000000 0.000000
0.033820 0.000000 0.000000
0.095587 0.000000 0.000000
0.198412 0.000000 0.000000
0.360280 0.000000 0.000000
0.590779 0.000000 0.000000
0.856351 0.000000 0.000000
1.000000 0.000000 0.000000
1.000000 0.000000 0.000000
1.000000 0.000000 0.000000
1.000000 0.000000 0.000000
1.000000 0.000000 0.000000
1.000000 0.000000 0.000000
1.000000 0.000000 0.000000
1.000000 0.000000 0.000000
0.000000 0.000000 0.000000
0.000000 0.000000 0.000000
0.005668 0.000000 0.000000
0.033820 0.000000 0.000000
0.095587 0.000000 0.000000
0.198412 0.000000 0.000000
0.360280 0.000000 0.000000
0.590779 0.000000 0.000000
0.856351 0.000000 0.000000
1.000000 0.000000 0.000000
1.000000 0.000000 0.000000
1.000000 0.000000 0.000000
1.000000 0.000000 0.000000
1.000000 0.000000 0.000000
1.000000 0.000000 0.000000
1.000000 0.000000 0.000000
1.000000 0.000000 0.000000
0.000000 0.005531 0.000000
0.000000 0.005531 0.000000
0.005473 0.005473 0.000000
0.033625 0.005185 0.000000
0.095392 0.004553 0.000000
0.198217 0.003502 0.000000
0.360085 0.001846 0.000000
0.590584 0.000000 0.000000
0.856156 0.000000 0.000000
1.000000 0.000000 0.000000
1.000000 0.000000 0.000000
1.000000 0.000000 0.000000
1.000000 0.000000 0.000000
1.000000 0.000000 0.000000
1.000000 0.000000 0.000000
1.000000 0.000000 0.000000
1.000000 0.000000 0.000000
0.000000 0.033002 0.000000
0.000000 0.033002 0.000000
0.004505 0.032944 0.000000
0.032656 0.032656 0.000000
0.094424 0.032024 0.000000
0.197249 0.030973 0.000000
0.359117 0.029317 0.000000
0.589616 0.026960 0.000000
0.855187 0.024244 0.000000
1.000000 0.022391 0.000000
1.000000 0.022372 0.000000
1.000000 0.022372 0.000000
1.000000 0.022372 0.000000
1.000000 0.022372 0.000000
1.000000 0.022372 0.000000
1.000000 0.022372 0.000000
1.000000 0.022372 0.000000
0.000000 0.093276 0.000000
0.000000 0.093276 0.000000
0.002379 0.093218 0.000000
0.030531 0.092930 0.000000
0.092298 0.092298 0.000000
0.195124 0.091247 0.000000
0.356992 0.089591 0.000000
0.587491 0.087234 0.000000
0.853062 0.084518 0.000000
1.000000 0.082665 0.000000
1.000000 0.082646 0.000000
1.000000 0.082646 0.000000
1.000000 0.082646 0.000000
1.000000 0.082646 0.000000
1.000000 0.082646 0.000000
1.000000 0.082646 0.000000
1.000000 0.082646 0.000000
0.000000 0.193615 0.000000
0.000000 0.193615 0.000000
0.000000 0.193557 0.000000
0.026993 0.193269 0.000000
0.088761 0.192638 0.000000
0.191586 0.191586 0.000000
0.353454 0.189930 0.000000
0.583953 0.187573 0.000000
0.849524 0.184857 0.000000
1.000000 0.183004 0.000000
1.000000 0.182985 0.000000
1.000000 0.182985 0.000000
1.000000 0.182985 0.000000
1.000000 0.182985 0.000000
1.000000 0.182985 0.000000
1.000000 0.182985 0.000000
1.000000 0.182985 0.000000
0.000000 0.351569 0.000000
0.000000 0.351569 0.000000
0.000000 0.351512 0.000000
0.021424 0.351224 0.000000
0.083191 0.350592 0.000000
0.186017 0.349540 0.000000
0.347885 0.347885 0.000000
0.578384 0.345527 0.000000
0.843955 0.342811 0.000000
1.000000 0.340959 0.000000
1.000000 0.340939 0.000000
1.000000 0.340939 0.000000
1.000000 0.340939 0.000000
1.000000 0.340939 0.000000
1.000000 0.340939 0.000000
1.000000 0.340939 0.000000
1.000000 0.340939 0.000000
0.000000 0.576495 0.000000
0.000000 0.576495 0.000000
0.000000 0.576437 0.000000
0.013494 0.576149 0.000000
0.075261 0.575518 0.000000
0.178086 0.574466 0.000000
0.339954 0.572811 0.000000
0.570453 0.570453 0.000000
0.836025 0.567737 0.000000
1.000000 0.565885 0.000000
1.000000 0.565865 0.000000
1.000000 0.565865 0.000000
1.000000 0.565865 0.000000
1.000000 0.565865 0.000000
1.000000 0.565865 0.000000
1.000000 0.565865 0.000000
1.000000 0.565865 0.000000
0.000000 0.835646 0.000000
0.000000 0.835646 0.000000
0.000000 0.835588 0.000000
0.004356 0.835300 0.000000
0.066124 0.834668 0.000000
0.168949 0.833616 0.000000
0.330817 0.831961 0.000000
0.561316 0.829603 0.000000
0.826887 0.826887 0.000000
1.000000 0.825035 0.000000
1.000000 0.825016 0.000000
1.000000 0.825016 0.000000
1.000000 0.825016 0.000000
1.000000 0.825016 0.000000
1.000000 0.825016 0.000000
1.000000 0.825016 0.000000
1.000000 0.825016 0.000000
0.000000 1.000000 0.000000
0.000000 1.000000 0.000000
0.000000 1.000000 0.000000
0.000000 1.000000 0.000000
0.059892 1.000000 0.000000
0.162717 1.000000 0.000000
0.324585 1.000000 0.000000
0.555084 1.000000 0.000000
0.820656 1.000000 0.000000
1.000000 1.000000 0.000000
1.000000 1.000000 0.000000
1.000000 1.000000 0.000000
1.000000 1.000000 0.000000
1.000000 1.000000 0.000000
1.000000 1.000000 0.000000
1.000000 1.000000 0.000000
1.000000 1.000000 0.000000
0.000000 1.000000 0.000000
0.000000 1.000000 0.000000
0.000000 1.000000 0.000000
0.000000 1.000000 0.000000
0.059827 1.000000 0.000000
0.162652 1.000000 0.000000
0.324520 1.000000 0.000000
0.555019 1.000000 0.000000
0.820591 1.000000 0.000000
1.000000 1.000000 0.000000
1.000000 1.000000 0.000000
1.000000 1.000000 0.000000
1.000000 1.000000 0.000000
1.000000 1.000000 0.000000
1.000000 1.000000 0.000000
1.000000 1.000000 0.000000
1.000000 1.000000 0.000000
0.000000 1.000000 0.000000
0.000000 1.000000 0.000000
0.000000 1.000000 0.000000
0.000000 1.000000 0.000000
0.059827 1.000000 0.000000
0.162652 1.000000 0.000000
0.324520 1.000000 0.000000
0.555019 1.000000 0.000000
0.820591 1.000000 0.000000
1.000000 1.000000 0.000000
1.000000 1.000000 0.000000
1.000000 1.000000 0.000000
1.000000 1.000000 0.000000
1.000000 1.000000 0.000000
1.000000 1.000000 0.000000
1.000000 1.000000 0.000000
1.000000 1.000000 0.000000
0.000000 1.000000 0.000000
0.000000 1.000000 0.000000
0.000000 1.000000 0.000000
0.000000 1.000000 0.000000
0.059827 1.000000 0.000000
0.162652 1.000000 0.000000
0.324520 1.000000 0.000000
0.555019 1.000000 0.000000
0.820591 1.000000 0.000000
1.000000 1.000000 0.000000
1.000000 1.000000 0.000000
1.000000 1.000000 0.000000
1.000000 1.000000 0.000000
1.000000 1.000000 0.000000
1.000000 1.000000 0.000000
1.000000 1.000000 0.000000
1.000000 1.000000 0.000000
0.000000 1.000000 0.000000
0.000000 1.000000 0.000000
0.000000 1.000000 0.000000
0.000000 1.000000 0.000000
0.059827 1.000000 0.000000
0.162652 1.000000 0.000000
0.324520 1.000000 0.000000
0.555019 1.000000 0.000000
0.820591 1.000000 0.000000
1.000000 1.000000 0.000000
1.000000 1.000000 0.000000
1.000000 1.000000 0.000000
1.000000 1.000000 0.000000
1.000000 1.000000 0.000000
1.000000 1.000000 0.000000
1.000000 1.000000 0.000000
1.000000 1.000000 0.000000
0.000000 1.000000 0.000000
0.000000 1.000000 0.000000
0.000000 1.000000 0.000000
0.000000 1.000000 0.000000
0.059827 1.000000 0.000000
0.162652 1.000000 0.000000
0.324520 1.000000 0.000000
0.555019 1.000000 0.000000
0.820591 1.000000 0.000000
1.000000 1.000000 0.000000
1.000000 1.000000 0.000000
1.000000 1.000000 0.000000
1.000000 1.000000 0.000000
1.000000 1.000000 0.000000
1.000000 1.000000 0.000000
1.000000 1.000000 0.000000
1.000000 1.000000 0.000000
0.000000 1.000000 0.000000
0.000000 1.000000 0.000000
0.000000 1.000000 0.000000
0.000000 1.000000 0.000000
0.059827 1.000000 0.000000
0.162652 1.000000 0.000000
0.324520 1.000000 0.000000
0.555019 1.000000 0.000000
0.820591 1.000000 0.000000
1.000000 1.000000 0.000000
1.000000 1.000000 0.000000
1.000000 1.000000 0.000000
1.000000 1.000000 0.000000
1.000000 1.000000 0.000000
1.000000 1.000000 0.000000
1.000000 1.000000 0.000000
1.000000 1.000000 0.000000
0.000000 1.000000 0.000000
0.000000 1.000000 0.000000
0.000000 1.000000 0.000000
0.000000 1.000000 0.000000
0.059827 1.000000 0.000000
0.162652 1.000000 0.000000
0.324520 1.000000 0.000000
0.555019 1.000000 0.000000
0.820591 1.000000 0.000000
1.000000 1.000000 0.000000
1.000000 1.000000 0.000000
1.000000 1.000000 0.000000
1.000000 1.000000 0.000000
1.000000 1.000000 0.000000
1.000000 1.000000 0.000000
1.000000 1.000000 0.000000
1.000000 1.000000 0.000000
0.000000 0.000000 0.005706
0.000000 0.000000 0.005706
0.005648 0.000000 0.005648
0.033800 0.000000 0.005361
0.095567 0.000000 0.004729
0.198393 0.000000 0.003677
0.360261 0.000000 0.002022
0.590760 0.000000 0.000000
0.856331 0.000000 0.000000
1.000000 0.000000 0.000000
1.000000 0.000000 0.000000
1.000000 0.000000 0.000000
1.000000 0.000000 0.000000
1.000000 0.000000 0.000000
1.000000 0.000000 0.000000
1.000000 0.000000 0.000000
1.000000 0.000000 0.000000
0.000000 0.000000 0.005706
0.000000 0.000000 0.005706
0.005648 0.000000 0.005648
0.033800 0.000000 0.005361
0.095567 0.000000 0.004729
0.198393 0.000000 0.003677
0.360261 0.000000 0.002022
0.590760 0.000000 0.000000
0.856331 0.000000 0.000000
1.000000 0.000000 0.000000
1.000000 0.000000 0.000000
1.000000 0.000000 0.000000
1.000000 0.000000 0.000000
1.000000 0.000000 0.000000
1.000000 0.000000 0.000000
1.000000 0.000000 0.000000
1.000000 0.000000 0.000000
0.000000 0.005511 0.005511
0.000000 0.005511 0.005511
0.005453 0.005453 0.005453
0.033605 0.005166 0.005166
0.095372 0.004534 0.004534
0.198198 0.003482 0.003482
0.360066 0.001827 0.001827
0.590565 0.000000 0.000000
0.856136 0.000000 0.000000
1.000000 0.000000 0.000000
1.000000 0.000000 0.000000
1.000000 0.000000 0.000000
1.000000 0.000000 0.000000
1.000000 0.000000 0.000000
1.000000 0.000000 0.000000
1.000000 0.000000 0.000000
1.000000 0.000000 0.000000
0.000000 0.032982 0.004543
0.000000 0.032982 0.004543
0.004485 0.032924 0.004485
0.032636 0.032636 0.004197
0.094404 0.032005 0.003565
0.197229 0.030953 0.002514
0.359097 0.029297 0.000858
0.589596 0.026940 0.000000
0.855167 0.024224 0.000000
1.000000 0.022372 0.000000
1.000000 0.022352 0.000000
1.000000 0.022352 0.000000
1.000000 0.022352 0.000000
1.000000 0.022352 0.000000
1.000000 0.022352 0.000000
1.000000 0.022352 0.000000
1.000000 0.022352 0.000000
0.000000 0.093256 0.002418
0.000000 0.093256 0.002418
0.002360 0.093198 0.002360
0.030511 0.092910 0.002072
0.092279 0.092279 0.001440
0.195104 0.091227 0.000388
0.356972 0.089572 0.000000
0.587471 0.087214 0.000000
0.853042 0.084498 0.000000
1.000000 0.082646 0.000000
1.000000 0.082626 0.000000
1.000000 0.082626 0.000000
1.000000 0.082626 0.000000
1.000000 0.082626 0.000000
1.000000 0.082626 0.000000
1.000000 0.082626 0.000000
1.000000 0.082626 0.000000
0.000000 0.193595 0.000000
0.000000 0.193595 0.000000
0.000000 0.193537 0.000000
0.026973 0.193250 0.000000
0.088741 0.192618 0.000000
0.191566 0.191566 0.000000
0.353434 0.189911 0.000000
0.583933 0.187553 0.000000
0.849504 0.184837 0.000000
1.000000 0.182985 0.000000
1.000000 0.182965 0.000000
1.000000 0.182965 0.000000
1.000000 0.182965 0.000000
1.000000 0.182965 0.000000
1.000000 0.182965 0.000000
1.000000 0.182965 0.000000
1.000000 0.182965 0.000000
0.000000 0.351550 0.000000
0.000000 0.351550 0.000000
0.000000 0.351492 0.000000
0.021404 0.351204 0.000000
0.083172 0.350572 0.000000
0.185997 0.349521 0.000000
0.347865 0.347865 0.000000
0.578364 0.345508 0.000000
0.843935 0.342792 0.000000
1.000000 0.340939 0.000000
1.000000 0.340920 0.000000
1.000000 0.340920 0.000000
1.000000 0.340920 0.000000
1.000000 0.340920 0.000000
1.000000 0.340920 0.000000
1.000000 0.340920 0.000000
1.000000 0.340920 0.000000
0.000000 0.576476 0.000000
0.000000 0.576476 0.000000
0.000000 0.576418 0.000000
0.013474 0.576130 0.000000
0.075241 0.575498 0.000000
0.178067 0.574446 0.000000
0.339935 0.572791 0.000000
0.570434 0.570434 0.000000
0.836005 0.567717 0.000000
1.000000 0.565865 0.000000
1.000000 0.565846 0.000000
1.000000 0.565846 0.000000
1.000000 0.565846 0.000000
1.000000 0.565846 0.000000
1.000000 0.565846 0.000000
1.000000 0.565846 0.000000
1.000000 0.565846 0.000000
0.000000 0.835626 0.000000
0.000000 0.835626 0.000000
0.000000 0.835568 0.000000
0.004337 0.835280 0.000000
0.066104 0.834648 0.000000
0.168930 0.833597 0.000000
0.330798 0.831941 0.000000
0.561296 0.829584 0.000000
0.826868 0.826868 0.000000
1.000000 0.825015 0.000000
1.000000 0.824996 0.000000
1.000000 0.824996 0.000000
1.000000 0.824996 0.000000
1.000000 0.824996 0.000000
1.000000 0.824996 0.000000
1.000000 0.824996 0.000000
1.000000 0.824996 0.000000
0.000000 1.000000 0.000000
0.000000 1.000000 0.000000
0.000000 1.000000 0.000000
0.000000 1.000000 0.000000
0.059872 1.000000 0.000000
0.162698 1.000000 0.000000
0.324566 1.000000 0.000000
0.555065 1.000000 0.000000
0.820636 1.000000 0.000000
1.000000 1.000000 0.000000
1.000000 1.000000 0.000000
1.000000 1.000000 0.000000
1.000000 1.000000 0.000000
1.000000 1.000000 0.000000
1.000000 1.000000 0.000000
1.000000 1.000000 0.000000
1.000000 1.000000 0.000000
0.000000 1.000000 0.000000
0.000000 1.000000 0.000000
0.000000 1.000000 0.000000
0.000000 1.000000 0.000000
0.059807 1.000000 0.000000
0.162633 1.000000 0.000000
0.324501 1.000000 0.000000
0.555000 1.000000 0.000000
0.820571 1.000000 0.000000
1.000000 1.000000 0.000000
1.000000 1.000000 0.000000
1.000000 1.000000 0.000000
1.000000 1.000000 0.000000
1.000000 1.000000 0.000000
1.000000 1.000000 0.000000
1.000000 1.000000 0.000000
1.000000 1.000000 0.000000
0.000000 1.000000 0.000000
0.000000 1.000000 0.000000
0.000000 1.000000 0.000000
0.000000 1.000000 0.000000
0.059807 1.000000 0.000000
0.162633 1.000000 0.000000
0.324501 1.000000 0.000000
0.555000 1.000000 0.000000
0.820571 1.000000 0.000000
1.000000 1.000000 0.000000
1.000000 1.000000 0.000000
1.000000 1.000000 0.000000
1.000000 1.000000 0.000000
1.000000 1.000000 0.000000
1.000000 1.000000 0.000000
1.000000 1.000000 0.000000
1.000000 1.000000 0.000000
0.000000 1.000000 0.000000
0.000000 1.000000 0.000000
0.000000 1.000000 0.000000
0.000000 1.000000 0.000000
0.059807 1.000000 0.000000
0.162633 1.000000 0.000000
0.324501 1.000000 0.000000
0.555000 1.000000 0.000000
0.820571 1.000000 0.000000
1.000000 1.000000 0.000000
1.000000 1.000000 0.000000
1.000000 1.000000 0.000000
1.000000 1.000000 0.000000
1.000000 1.000000 0.000000
1.000000 1.000000 0.000000
1.000000 1.000000 0.000000
1.000000 1.000000 0.000000
0.000000 1.000000 0.000000
0.000000 1.000000 0.000000
0.000000 1.000000 0.000000
0.000000 1.000000 0.000000
0.059807 1.000000 0.000000
0.162633 1.000000 0.000000
0.324501 1.000000 0.000000
0.555000 1.000000 0.000000
0.820571 1.000000 0.000000
1.000000 1.000000 0.000000
1.000000 1.000000 0.000000
1.000000 1.000000 0.000000
1.000000 1.000000 0.000000
1.000000 1.000000 0.000000
1.000000 1.000000 0.000000
1.000000 1.000000 0.000000
1.000000 1.000000 0.000000
0.000000 1.000000 0.000000
0.000000 1.000000 0.000000
0.000000 1.000000 0.000000
0.000000 1.000000 0.000000
0.059807 1.000000 0.000000
0.162633 1.000000 0.000000
0.324501 1.000000 0.000000
0.555000 1.000000 0.000000
0.820571 1.000000 0.000000
1.000000 1.000000 0.000000
1.000000 1.000000 0.000000
1.000000 1.000000 0.000000
1.000000 1.000000 0.000000
1.000000 1.000000 0.000000
1.000000 1.000000 0.000000
1.000000 1.000000 0.000000
1.000000 1.000000 0.000000
0.000000 1.000000 0.000000
0.000000 1.000000 0.000000
0.000000 1.000000 0.000000
0.000000 1.000000 0.000000
0.059807 1.000000 0.000000
0.162633 1.000000 0.000000
0.324501 1.000000 0.000000
0.555000 1.000000 0.000000
0.820571 1.000000 0.000000
1.000000 1.000000 0.000000
1.000000 1.000000 0.000000
1.000000 1.000000 0.000000
1.000000 1.000000 0.000000
1.000000 1.000000 0.000000
1.000000 1.000000 0.000000
1.000000 1.000000 0.000000
1.000000 1.000000 0.000000
0.000000 1.000000 0.000000
0.000000 1.000000 0.000000
0.000000 1.000000 0.000000
0.000000 1.000000 0.000000
0.059807 1.000000 0.000000
0.162633 1.000000 0.000000
0.324501 1.000000 0.000000
0.555000 1.000000 0.000000
0.820571 1.000000 0.000000
1.000000 1.000000 0.000000
1.000000 1.000000 0.000000
1.000000 1.000000 0.000000
1.000000 1.000000 0.000000
1.000000 1.000000 0.000000
1.000000 1.000000 0.000000
1.000000 1.000000 0.000000
1.000000 1.000000 0.000000
0.000000 0.000000 0.034048
0.000000 0.000000 0.034048
0.005551 0.000000 0.033990
0.033702 0.000000 0.033702
0.095470 0.000000 0.033070
0.198295 0.000000 0.032019
0.360163 0.000000 0.030363
0.590662 0.000000 0.028006
0.856233 0.000000 0.025290
1.000000 0.000000 0.023437
1.000000 0.000000 0.023418
1.000000 0.000000 0.023418
1.000000 0.000000 0.023418
1.000000 0.000000 0.023418
1.000000 0.000000 0.023418
1.000000 0.000000 0.023418
1.000000 0.000000 0.023418
0.000000 0.000000 0.034048
0.000000 0.000000 0.034048
0.005551 0.000000 0.033990
