assets/presets/luts/slog3-rec709/lut.cube
TITLE "S-Log3 to Rec.709"
LUT_3D_SIZE 5
0.000000 0.000000 0.000000
0.095587 0.000000 0.000000
0.856351 0.000000 0.000000
1.000000 0.000000 0.000000
1.000000 0.000000 0.000000
0.000000 0.093276 0.000000
0.092298 0.092298 0.000000
0.853062 0.084518 0.000000
1.000000 0.082646 0.000000
1.000000 0.082646 0.000000
0.000000 0.835646 0.000000
0.066124 0.834668 0.000000
0.826887 0.826887 0.000000
1.000000 0.825016 0.000000
1.000000 0.825016 0.000000
0.000000 1.000000 0.000000
0.059827 1.000000 0.000000
0.820591 1.000000 0.000000
1.000000 1.000000 0.000000
1.000000 1.000000 0.000000
0.000000 1.000000 0.000000
0.059827 1.000000 0.000000
0.820591 1.000000 0.000000
1.000000 1.000000 0.000000
1.000000 1.000000 0.000000
0.000000 0.000000 0.096233
0.095255 0.000000 0.095255
0.856019 0.000000 0.087475
1.000000 0.000000 0.085603
1.000000 0.000000 0.085603
0.000000 0.092944 0.092944
0.091966 0.091966 0.091966
0.852730 0.084186 0.084186
1.000000 0.082314 0.082314
1.000000 0.082314 0.082314
0.000000 0.835314 0.066770
0.065792 0.834336 0.065792
0.826555 0.826555 0.058011
1.000000 0.824684 0.056140
1.000000 0.824684 0.056140
0.000000 1.000000 0.060473
0.059495 1.000000 0.059495
0.820259 1.000000 0.051715
1.000000 1.000000 0.049843
1.000000 1.000000 0.049843
0.000000 1.000000 0.060473
0.059495 1.000000 0.059495
0.820259 1.000000 0.051715
1.000000 1.000000 0.049843
1.000000 1.000000 0.049843
0.000000 0.000000 0.862134
0.092613 0.000000 0.861157
0.853376 0.000000 0.853376
1.000000 0.000000 0.851504
1.000000 0.000000 0.851504
0.000000 0.090302 0.858846
0.089324 0.089324 0.857868
0.850088 0.081543 0.850088
1.000000 0.079672 0.848216
1.000000 0.079672 0.848216
0.000000 0.832671 0.832671
0.063150 0.831694 0.831694
0.823913 0.823913 0.823913
1.000000 0.822041 0.822041
1.000000 0.822041 0.822041
0.000000 1.000000 0.826374
0.056853 1.000000 0.825397
0.817616 1.000000 0.817616
1.000000 1.000000 0.815744
1.000000 1.000000 0.815744
0.000000 1.000000 0.826374
0.056853 1.000000 0.825397
0.817616 1.000000 0.817616
1.000000 1.000000 0.815744
1.000000 1.000000 0.815744
0.000000 0.000000 1.000000
0.091977 0.000000 1.000000
0.852741 0.000000 1.000000
1.000000 0.000000 1.000000
1.000000 0.000000 1.000000
0.000000 0.089666 1.000000
0.088688 0.088688 1.000000
0.849452 0.080908 1.000000
1.000000 0.079036 1.000000
1.000000 0.079036 1.000000
0.000000 0.832036 1.000000
0.062514 0.831058 1.000000
0.823277 0.823277 1.000000
1.000000 0.821406 1.000000
1.000000 0.821406 1.000000
0.000000 1.000000 1.000000
0.056217 1.000000 1.000000
0.816981 1.000000 1.000000
1.000000 1.000000 1.000000
1.000000 1.000000 1.000000
0.000000 1.000000 1.000000
0.056217 1.000000 1.000000
0.816981 1.000000 1.000000
1.000000 1.000000 1.000000
1.000000 1.000000 1.000000
0.000000 0.000000 1.000000
0.091977 0.000000 1.000000
0.852741 0.000000 1.000000
1.000000 0.000000 1.000000
1.000000 0.000000 1.000000
0.000000 0.089666 1.000000
0.088688 0.088688 1.000000
0.849452 0.080908 1.000000
1.000000 0.079036 1.000000
1.000000 0.079036 1.000000
0.000000 0.832036 1.000000
0.062514 0.831058 1.000000
0.823277 0.823277 1.000000
1.000000 0.821406 1.000000
1.000000 0.821406 1.000000
0.000000 1.000000 1.000000
0.056217 1.000000 1.000000
0.816981 1.000000 1.000000
1.000000 1.000000 1.000000
1.000000 1.000000 1.000000
0.000000 1.000000 1.000000
0.056217 1.000000 1.000000
0.816981 1.000000 1.000000
1.000000 1.000000 1.000000
1.000000 1.000000 1.000000
