assets/presets/luts/slog3-rec709/lut.cube
TITLE "S-Log3 to Rec.709"
LUT_3D_SIZE 9
0.000000 0.000000 0.000000
0.005668 0.000000 0.000000
0.095587 0.000000 0.000000
0.360280 0.000000 0.000000
0.856351 0.000000 0.000000
1.000000 0.000000 0.000000
1.000000 0.000000 0.000000
1.000000 0.000000 0.000000
1.000000 0.000000 0.000000
0.000000 0.005531 0.000000
0.005473 0.005473 0.000000
0.095392 0.004553 0.000000
0.360085 0.001846 0.000000
0.856156 0.000000 0.000000
1.000000 0.000000 0.000000
1.000000 0.000000 0.000000
1.000000 0.000000 0.000000
1.000000 0.000000 0.000000
0.000000 0.093276 0.000000
0.002379 0.093218 0.000000
0.092298 0.092298 0.000000
0.356992 0.089591 0.000000
0.853062 0.084518 0.000000
1.000000 0.082646 0.000000
1.000000 0.082646 0.000000
1.000000 0.082646 0.000000
1.000000 0.082646 0.000000
0.000000 0.351569 0.000000
0.000000 0.351512 0.000000
0.083191 0.350592 0.000000
0.347885 0.347885 0.000000
0.843955 0.342811 0.000000
1.000000 0.340939 0.000000
1.000000 0.340939 0.000000
1.000000 0.340939 0.000000
1.000000 0.340939 0.000000
0.000000 0.835646 0.000000
0.000000 0.835588 0.000000
0.066124 0.834668 0.000000
0.330817 0.831961 0.000000
0.826887 0.826887 0.000000
1.000000 0.825016 0.000000
1.000000 0.825016 0.000000
1.000000 0.825016 0.000000
1.000000 0.825016 0.000000
0.000000 1.000000 0.000000
0.000000 1.000000 0.000000
0.059827 1.000000 0.000000
0.324520 1.000000 0.000000
0.820591 1.000000 0.000000
1.000000 1.000000 0.000000
1.000000 1.000000 0.000000
1.000000 1.000000 0.000000
1.000000 1.000000 0.000000
0.000000 1.000000 0.000000
0.000000 1.000000 0.000000
0.059827 1.000000 0.000000
0.324520 1.000000 0.000000
0.820591 1.000000 0.000000
1.000000 1.000000 0.000000
1.000000 1.000000 0.000000
1.000000 1.000000 0.000000
1.000000 1.000000 0.000000
0.000000 1.000000 0.000000
0.000000 1.000000 0.000000
0.059827 1.000000 0.000000
0.324520 1.000000 0.000000
0.820591 1.000000 0.000000
1.000000 1.000000 0.000000
1.000000 1.000000 0.000000
1.000000 1.000000 0.000000
1.000000 1.000000 0.000000
0.000000 1.000000 0.000000
0.000000 1.000000 0.000000
0.059827 1.000000 0.000000
0.324520 1.000000 0.000000
0.820591 1.000000 0.000000
1.000000 1.000000 0.000000
1.000000 1.000000 0.000000
1.000000 1.000000 0.000000
1.000000 1.000000 0.000000
0.000000 0.000000 0.005706
0.005648 0.000000 0.005648
0.095567 0.000000 0.004729
0.360261 0.000000 0.002022
0.856331 0.000000 0.000000
1.000000 0.000000 0.000000
1.000000 0.000000 0.000000
1.000000 0.000000 0.000000
1.000000 0.000000 0.000000
0.000000 0.005511 0.005511
0.005453 0.005453 0.005453
0.095372 0.004534 0.004534
0.360066 0.001827 0.001827
0.856136 0.000000 0.000000
1.000000 0.000000 0.000000
1.000000 0.000000 0.000000
1.000000 0.000000 0.000000
1.000000 0.000000 0.000000
0.000000 0.093256 0.002418
0.002360 0.093198 0.002360
0.092279 0.092279 0.001440
0.356972 0.089572 0.000000
0.853042 0.084498 0.000000
1.000000 0.082626 0.000000
1.000000 0.082626 0.000000
1.000000 0.082626 0.000000
1.000000 0.082626 0.000000
0.000000 0.351550 0.000000
0.000000 0.351492 0.000000
0.083172 0.350572 0.000000
0.347865 0.347865 0.000000
0.843935 0.342792 0.000000
1.000000 0.340920 0.000000
1.000000 0.340920 0.000000
1.000000 0.340920 0.000000
1.000000 0.340920 0.000000
0.000000 0.835626 0.000000
0.000000 0.835568 0.000000
0.066104 0.834648 0.000000
0.330798 0.831941 0.000000
0.826868 0.826868 0.000000
1.000000 0.824996 0.000000
1.000000 0.824996 0.000000
1.000000 0.824996 0.000000
1.000000 0.824996 0.000000
0.000000 1.000000 0.000000
0.000000 1.000000 0.000000
0.059807 1.000000 0.000000
0.324501 1.000000 0.000000
0.820571 1.000000 0.000000
1.000000 1.000000 0.000000
1.000000 1.000000 0.000000
1.000000 1.000000 0.000000
1.000000 1.000000 0.000000
0.000000 1.000000 0.000000
0.000000 1.000000 0.000000
0.059807 1.000000 0.000000
0.324501 1.000000 0.000000
0.820571 1.000000 0.000000
1.000000 1.000000 0.000000
1.000000 1.000000 0.000000
1.000000 1.000000 0.000000
1.000000 1.000000 0.000000
0.000000 1.000000 0.000000
0.000000 1.000000 0.000000
0.059807 1.000000 0.000000
0.324501 1.000000 0.000000
0.820571 1.000000 0.000000
1.000000 1.000000 0.000000
1.000000 1.000000 0.000000
1.000000 1.000000 0.000000
1.000000 1.000000 0.000000
0.000000 1.000000 0.000000
0.000000 1.000000 0.000000
0.059807 1.000000 0.000000
0.324501 1.000000 0.000000
0.820571 1.000000 0.000000
1.000000 1.000000 0.000000
1.000000 1.000000 0.000000
1.000000 1.000000 0.000000
1.000000 1.000000 0.000000
0.000000 0.000000 0.096233
0.005336 0.000000 0.096175
0.095255 0.000000 0.095255
0.359948 0.000000 0.092548
0.856019 0.000000 0.087475
1.000000 0.000000 0.085603
1.000000 0.000000 0.085603
1.000000 0.000000 0.085603
1.000000 0.000000 0.085603
0.000000 0.005199 0.096038
0.005141 0.005141 0.095980
0.095060 0.004221 0.095060
0.359753 0.001514 0.092353
0.855824 0.000000 0.087280
1.000000 0.000000 0.085408
1.000000 0.000000 0.085408
1.000000 0.000000 0.085408
1.000000 0.000000 0.085408
0.000000 0.092944 0.092944
0.002047 0.092886 0.092886
0.091966 0.091966 0.091966
0.356660 0.089259 0.089259
0.852730 0.084186 0.084186
1.000000 0.082314 0.082314
1.000000 0.082314 0.082314
1.000000 0.082314 0.082314
1.000000 0.082314 0.082314
0.000000 0.351237 0.083837
0.000000 0.351180 0.083779
0.082860 0.350260 0.082860
0.347553 0.347553 0.080152
0.843623 0.342479 0.075079
1.000000 0.340607 0.073207
1.000000 0.340607 0.073207
1.000000 0.340607 0.073207
1.000000 0.340607 0.073207
0.000000 0.835314 0.066770
0.000000 0.835256 0.066712
0.065792 0.834336 0.065792
0.330485 0.831629 0.063085
0.826555 0.826555 0.058011
1.000000 0.824684 0.056140
1.000000 0.824684 0.056140
1.000000 0.824684 0.056140
1.000000 0.824684 0.056140
0.000000 1.000000 0.060473
0.000000 1.000000 0.060415
0.059495 1.000000 0.059495
0.324188 1.000000 0.056788
0.820259 1.000000 0.051715
1.000000 1.000000 0.049843
1.000000 1.000000 0.049843
1.000000 1.000000 0.049843
1.000000 1.000000 0.049843
0.000000 1.000000 0.060473
0.000000 1.000000 0.060415
0.059495 1.000000 0.059495
0.324188 1.000000 0.056788
0.820259 1.000000 0.051715
1.000000 1.000000 0.049843
1.000000 1.000000 0.049843
1.000000 1.000000 0.049843
1.000000 1.000000 0.049843
0.000000 1.000000 0.060473
0.000000 1.000000 0.060415
0.059495 1.000000 0.059495
0.324188 1.000000 0.056788
0.820259 1.000000 0.051715
1.000000 1.000000 0.049843
1.000000 1.000000 0.049843
1.000000 1.000000 0.049843
1.000000 1.000000 0.049843
0.000000 1.000000 0.060473
0.000000 1.000000 0.060415
0.059495 1.000000 0.059495
0.324188 1.000000 0.056788
0.820259 1.000000 0.051715
1.000000 1.000000 0.049843
1.000000 1.000000 0.049843
1.000000 1.000000 0.049843
1.000000 1.000000 0.049843
0.000000 0.000000 0.362714
0.004417 0.000000 0.362656
0.094336 0.000000 0.361736
0.359029 0.000000 0.359029
0.855099 0.000000 0.353956
1.000000 0.000000 0.352084
1.000000 0.000000 0.352084
1.000000 0.000000 0.352084
1.000000 0.000000 0.352084
0.000000 0.004280 0.362519
0.004222 0.004222 0.362461
0.094141 0.003302 0.361541
0.358834 0.000595 0.358834
0.854904 0.000000 0.353761
1.000000 0.000000 0.351889
1.000000 0.000000 0.351889
1.000000 0.000000 0.351889
1.000000 0.000000 0.351889
0.000000 0.092025 0.359425
0.001128 0.091967 0.359367
0.091047 0.091047 0.358447
0.355740 0.088340 0.355740
0.851810 0.083266 0.350667
1.000000 0.081395 0.348795
1.000000 0.081395 0.348795
1.000000 0.081395 0.348795
1.000000 0.081395 0.348795
0.000000 0.350318 0.350318
0.000000 0.350260 0.350260
0.081940 0.349341 0.349341
0.346633 0.346633 0.346633
0.842704 0.341560 0.341560
1.000000 0.339688 0.339688
1.000000 0.339688 0.339688
1.000000 0.339688 0.339688
1.000000 0.339688 0.339688
0.000000 0.834394 0.333251
0.000000 0.834336 0.333193
0.064873 0.833417 0.332273
0.329566 0.830710 0.329566
0.825636 0.825636 0.324492
1.000000 0.823764 0.322621
1.000000 0.823764 0.322621
1.000000 0.823764 0.322621
1.000000 0.823764 0.322621
0.000000 1.000000 0.326954
0.000000 1.000000 0.326896
0.058576 1.000000 0.325976
0.323269 1.000000 0.323269
0.819339 1.000000 0.318196
1.000000 1.000000 0.316324
1.000000 1.000000 0.316324
1.000000 1.000000 0.316324
1.000000 1.000000 0.316324
0.000000 1.000000 0.326954
0.000000 1.000000 0.326896
0.058576 1.000000 0.325976
0.323269 1.000000 0.323269
0.819339 1.000000 0.318196
1.000000 1.000000 0.316324
1.000000 1.000000 0.316324
1.000000 1.000000 0.316324
1.000000 1.000000 0.316324
0.000000 1.000000 0.326954
0.000000 1.000000 0.326896
0.058576 1.000000 0.325976
0.323269 1.000000 0.323269
0.819339 1.000000 0.318196
1.000000 1.000000 0.316324
1.000000 1.000000 0.316324
1.000000 1.000000 0.316324
1.000000 1.000000 0.316324
0.000000 1.000000 0.326954
0.000000 1.000000 0.326896
0.058576 1.000000 0.325976
0.323269 1.000000 0.323269
0.819339 1.000000 0.318196
1.000000 1.000000 0.316324
1.000000 1.000000 0.316324
1.000000 1.000000 0.316324
1.000000 1.000000 0.316324
0.000000 0.000000 0.862134
0.002694 0.000000 0.862076
0.092613 0.000000 0.861157
0.357306 0.000000 0.858450
0.853376 0.000000 0.853376
1.000000 0.000000 0.851504
1.000000 0.000000 0.851504
1.000000 0.000000 0.851504
1.000000 0.000000 0.851504
0.000000 0.002557 0.861939
0.002499 0.002499 0.861881
0.092418 0.001579 0.860962
0.357111 0.000000 0.858255
0.853181 0.000000 0.853181
1.000000 0.000000 0.851309
1.000000 0.000000 0.851309
1.000000 0.000000 0.851309
1.000000 0.000000 0.851309
0.000000 0.090302 0.858846
0.000000 0.090244 0.858788
0.089324 0.089324 0.857868
0.354017 0.086617 0.855161
0.850088 0.081543 0.850088
1.000000 0.079672 0.848216
1.000000 0.079672 0.848216
1.000000 0.079672 0.848216
1.000000 0.079672 0.848216
0.000000 0.348595 0.849739
0.000000 0.348537 0.849681
0.080217 0.347618 0.848761
0.344910 0.344910 0.846054
0.840981 0.339837 0.840981
1.000000 0.337965 0.839109
1.000000 0.337965 0.839109
1.000000 0.337965 0.839109
1.000000 0.337965 0.839109
0.000000 0.832671 0.832671
0.000000 0.832613 0.832613
0.063150 0.831694 0.831694
0.327843 0.828987 0.828987
0.823913 0.823913 0.823913
1.000000 0.822041 0.822041
1.000000 0.822041 0.822041
1.000000 0.822041 0.822041
1.000000 0.822041 0.822041
0.000000 1.000000 0.826374
0.000000 1.000000 0.826316
0.056853 1.000000 0.825397
0.321546 1.000000 0.822690
0.817616 1.000000 0.817616
1.000000 1.000000 0.815744
1.000000 1.000000 0.815744
1.000000 1.000000 0.815744
1.000000 1.000000 0.815744
0.000000 1.000000 0.826374
0.000000 1.000000 0.826316
0.056853 1.000000 0.825397
0.321546 1.000000 0.822690
0.817616 1.000000 0.817616
1.000000 1.000000 0.815744
1.000000 1.000000 0.815744
1.000000 1.000000 0.815744
1.000000 1.000000 0.815744
0.000000 1.000000 0.826374
0.000000 1.000000 0.826316
0.056853 1.000000 0.825397
0.321546 1.000000 0.822690
0.817616 1.000000 0.817616
1.000000 1.000000 0.815744
1.000000 1.000000 0.815744
1.000000 1.000000 0.815744
1.000000 1.000000 0.815744
0.000000 1.000000 0.826374
0.000000 1.000000 0.826316
0.056853 1.000000 0.825397
0.321546 1.000000 0.822690
0.817616 1.000000 0.817616
1.000000 1.000000 0.815744
1.000000 1.000000 0.815744
1.000000 1.000000 0.815744
1.000000 1.000000 0.815744
0.000000 0.000000 1.000000
0.002058 0.000000 1.000000
0.091977 0.000000 1.000000
0.356670 0.000000 1.000000
0.852741 0.000000 1.000000
1.000000 0.000000 1.000000
1.000000 0.000000 1.000000
1.000000 0.000000 1.000000
1.000000 0.000000 1.000000
0.000000 0.001921 1.000000
0.001863 0.001863 1.000000
0.091782 0.000943 1.000000
0.356475 0.000000 1.000000
0.852546 0.000000 1.000000
1.000000 0.000000 1.000000
1.000000 0.000000 1.000000
1.000000 0.000000 1.000000
1.000000 0.000000 1.000000
0.000000 0.089666 1.000000
0.000000 0.089608 1.000000
0.088688 0.088688 1.000000
0.353382 0.085981 1.000000
0.849452 0.080908 1.000000
1.000000 0.079036 1.000000
1.000000 0.079036 1.000000
1.000000 0.079036 1.000000
1.000000 0.079036 1.000000
0.000000 0.347959 1.000000
0.000000 0.347901 1.000000
0.079581 0.346982 1.000000
0.344275 0.344275 1.000000
0.840345 0.339201 1.000000
1.000000 0.337329 1.000000
1.000000 0.337329 1.000000
1.000000 0.337329 1.000000
1.000000 0.337329 1.000000
0.000000 0.832036 1.000000
0.000000 0.831978 1.000000
0.062514 0.831058 1.000000
0.327207 0.828351 1.000000
0.823277 0.823277 1.000000
1.000000 0.821406 1.000000
1.000000 0.821406 1.000000
1.000000 0.821406 1.000000
1.000000 0.821406 1.000000
0.000000 1.000000 1.000000
0.000000 1.000000 1.000000
0.056217 1.000000 1.000000
0.320910 1.000000 1.000000
0.816981 1.000000 1.000000
1.000000 1.000000 1.000000
1.000000 1.000000 1.000000
1.000000 1.000000 1.000000
1.000000 1.000000 1.000000
0.000000 1.000000 1.000000
0.000000 1.000000 1.000000
0.056217 1.000000 1.000000
0.320910 1.000000 1.000000
0.816981 1.000000 1.000000
1.000000 1.000000 1.000000
1.000000 1.000000 1.000000
1.000000 1.000000 1.000000
1.000000 1.000000 1.000000
0.000000 1.000000 1.000000
0.000000 1.000000 1.000000
0.056217 1.000000 1.000000
0.320910 1.000000 1.000000
0.816981 1.000000 1.000000
1.000000 1.000000 1.000000
1.000000 1.000000 1.000000
1.000000 1.000000 1.000000
1.000000 1.000000 1.000000
0.000000 1.000000 1.000000
0.000000 1.000000 1.000000
0.056217 1.000000 1.000000
0.320910 1.000000 1.000000
0.816981 1.000000 1.000000
1.000000 1.000000 1.000000
1.000000 1.000000 1.000000
1.000000 1.000000 1.000000
1.000000 1.000000 1.000000
0.000000 0.000000 1.000000
0.002058 0.000000 1.000000
0.091977 0.000000 1.000000
0.356670 0.000000 1.000000
0.852741 0.000000 1.000000
1.000000 0.000000 1.000000
1.000000 0.000000 1.000000
1.000000 0.000000 1.000000
1.000000 0.000000 1.000000
0.000000 0.001921 1.000000
0.001863 0.001863 1.000000
0.091782 0.000943 1.000000
0.356475 0.000000 1.000000
0.852546 0.000000 1.000000
1.000000 0.000000 1.000000
1.000000 0.000000 1.000000
1.000000 0.000000 1.000000
1.000000 0.000000 1.000000
0.000000 0.089666 1.000000
0.000000 0.089608 1.000000
0.088688 0.088688 1.000000
0.353382 0.085981 1.000000
0.849452 0.080908 1.000000
1.000000 0.079036 1.000000
1.000000 0.079036 1.000000
1.000000 0.079036 1.000000
1.000000 0.079036 1.000000
0.000000 0.347959 1.000000
0.000000 0.347901 1.000000
0.079581 0.346982 1.000000
0.344275 0.344275 1.000000
0.840345 0.339201 1.000000
1.000000 0.337329 1.000000
1.000000 0.337329 1.000000
1.000000 0.337329 1.000000
1.000000 0.337329 1.000000
0.000000 0.832036 1.000000
0.000000 0.831978 1.000000
0.062514 0.831058 1.000000
0.327207 0.828351 1.000000
0.823277 0.823277 1.000000
1.000000 0.821406 1.000000
1.000000 0.821406 1.000000
1.000000 0.821406 1.000000
1.000000 0.821406 1.000000
0.000000 1.000000 1.000000
0.000000 1.000000 1.000000
0.056217 1.000000 1.000000
0.320910 1.000000 1.000000
0.816981 1.000000 1.000000
1.000000 1.000000 1.000000
1.000000 1.000000 1.000000
1.000000 1.000000 1.000000
1.000000 1.000000 1.000000
0.000000 1.000000 1.000000
0.000000 1.000000 1.000000
0.056217 1.000000 1.000000
0.320910 1.000000 1.000000
0.816981 1.000000 1.000000
1.000000 1.000000 1.000000
1.000000 1.000000 1.000000
1.000000 1.000000 1.000000
1.000000 1.000000 1.000000
0.000000 1.000000 1.000000
0.000000 1.000000 1.000000
0.056217 1.000000 1.000000
0.320910 1.000000 1.000000
0.816981 1.000000 1.000000
1.000000 1.000000 1.000000
1.000000 1.000000 1.000000
1.000000 1.000000 1.000000
1.000000 1.000000 1.000000
0.000000 1.000000 1.000000
0.000000 1.000000 1.000000
0.056217 1.000000 1.000000
0.320910 1.000000 1.000000
0.816981 1.000000 1.000000
1.000000 1.000000 1.000000
1.000000 1.000000 1.000000
1.000000 1.000000 1.000000
1.000000 1.000000 1.000000
0.000000 0.000000 1.000000
0.002058 0.000000 1.000000
0.091977 0.000000 1.000000
0.356670 0.000000 1.000000
0.852741 0.000000 1.000000
1.000000 0.000000 1.000000
1.000000 0.000000 1.000000
1.000000 0.000000 1.000000
1.000000 0.000000 1.000000
0.000000 0.001921 1.000000
0.001863 0.001863 1.000000
0.091782 0.000943 1.000000
0.356475 0.000000 1.000000
0.852546 0.000000 1.000000
1.000000 0.000000 1.000000
1.000000 0.000000 1.000000
1.000000 0.000000 1.000000
1.000000 0.000000 1.000000
0.000000 0.089666 1.000000
0.000000 0.089608 1.000000
0.088688 0.088688 1.000000
0.353382 0.085981 1.000000
0.849452 0.080908 1.000000
1.000000 0.079036 1.000000
1.000000 0.079036 1.000000
1.000000 0.079036 1.000000
1.000000 0.079036 1.000000
0.000000 0.347959 1.000000
0.000000 0.347901 1.000000
0.079581 0.346982 1.000000
0.344275 0.344275 1.000000
0.840345 0.339201 1.000000
1.000000 0.337329 1.000000
1.000000 0.337329 1.000000
1.000000 0.337329 1.000000
1.000000 0.337329 1.000000
0.000000 0.832036 1.000000
0.000000 0.831978 1.000000
0.062514 0.831058 1.000000
0.327207 0.828351 1.000000
0.823277 0.823277 1.000000
1.000000 0.821406 1.000000
1.000000 0.821406 1.000000
1.000000 0.821406 1.000000
1.000000 0.821406 1.000000
0.000000 1.000000 1.000000
0.000000 1.000000 1.000000
0.056217 1.000000 1.000000
0.320910 1.000000 1.000000
0.816981 1.000000 1.000000
1.000000 1.000000 1.000000
1.000000 1.000000 1.000000
1.000000 1.000000 1.000000
1.000000 1.000000 1.000000
0.000000 1.000000 1.000000
0.000000 1.000000 1.000000
0.056217 1.000000 1.000000
0.320910 1.000000 1.000000
0.816981 1.000000 1.000000
1.000000 1.000000 1.000000
1.000000 1.000000 1.000000
1.000000 1.000000 1.000000
1.000000 1.000000 1.000000
0.000000 1.000000 1.000000
0.000000 1.000000 1.000000
0.056217 1.000000 1.000000
0.320910 1.000000 1.000000
0.816981 1.000000 1.000000
1.000000 1.000000 1.000000
1.000000 1.000000 1.000000
1.000000 1.000000 1.000000
1.000000 1.000000 1.000000
0.000000 1.000000 1.000000
0.000000 1.000000 1.000000
0.056217 1.000000 1.000000
0.320910 1.000000 1.000000
0.816981 1.000000 1.000000
1.000000 1.000000 1.000000
1.000000 1.000000 1.000000
1.000000 1.000000 1.000000
1.000000 1.000000 1.000000
0.000000 0.000000 1.000000
0.002058 0.000000 1.000000
0.091977 0.000000 1.000000
0.356670 0.000000 1.000000
0.852741 0.000000 1.000000
1.000000 0.000000 1.000000
1.000000 0.000000 1.000000
1.000000 0.000000 1.000000
1.000000 0.000000 1.000000
0.000000 0.001921 1.000000
0.001863 0.001863 1.000000
0.091782 0.000943 1.000000
0.356475 0.000000 1.000000
0.852546 0.000000 1.000000
1.000000 0.000000 1.000000
1.000000 0.000000 1.000000
1.000000 0.000000 1.000000
1.000000 0.000000 1.000000
0.000000 0.089666 1.000000
0.000000 0.089608 1.000000
0.088688 0.088688 1.000000
0.353382 0.085981 1.000000
0.849452 0.080908 1.000000
1.000000 0.079036 1.000000
1.000000 0.079036 1.000000
1.000000 0.079036 1.000000
1.000000 0.079036 1.000000
0.000000 0.347959 1.000000
0.000000 0.347901 1.000000
0.079581 0.346982 1.000000
0.344275 0.344275 1.000000
0.840345 0.339201 1.000000
1.000000 0.337329 1.000000
1.000000 0.337329 1.000000
1.000000 0.337329 1.000000
1.000000 0.337329 1.000000
0.000000 0.832036 1.000000
0.000000 0.831978 1.000000
0.062514 0.831058 1.000000
0.327207 0.828351 1.000000
0.823277 0.823277 1.000000
1.000000 0.821406 1.000000
1.000000 0.821406 1.000000
1.000000 0.821406 1.000000
1.000000 0.821406 1.000000
0.000000 1.000000 1.000000
0.000000 1.000000 1.000000
0.056217 1.000000 1.000000
0.320910 1.000000 1.000000
0.816981 1.000000 1.000000
1.000000 1.000000 1.000000
1.000000 1.000000 1.000000
1.000000 1.000000 1.000000
1.000000 1.000000 1.000000
0.000000 1.000000 1.000000
0.000000 1.000000 1.000000
0.056217 1.000000 1.000000
0.320910 1.000000 1.000000
0.816981 1.000000 1.000000
1.000000 1.000000 1.000000
1.000000 1.000000 1.000000
1.000000 1.000000 1.000000
1.000000 1.000000 1.000000
0.000000 1.000000 1.000000
0.000000 1.000000 1.000000
0.056217 1.000000 1.000000
0.320910 1.000000 1.000000
0.816981 1.000000 1.000000
1.000000 1.000000 1.000000
1.000000 1.000000 1.000000
1.000000 1.000000 1.000000
1.000000 1.000000 1.000000
0.000000 1.000000 1.000000
0.000000 1.000000 1.000000
0.056217 1.000000 1.000000
0.320910 1.000000 1.000000
0.816981 1.000000 1.000000
1.000000 1.000000 1.000000
1.000000 1.000000 1.000000
1.000000 1.000000 1.000000
1.000000 1.000000 1.000000
