assets/presets/luts/exposure-plus/lut.cube
TITLE "Exposure +"
LUT_3D_SIZE 17
0.000000 0.000000 0.000000
0.087586 0.000000 0.000000
0.163429 0.000000 0.000000
0.239272 0.000000 0.000000
0.315116 0.000000 0.000000
0.390959 0.000000 0.000000
0.466802 0.000000 0.000000
0.542646 0.000000 0.000000
0.618489 0.000000 0.000000
0.694332 0.000000 0.000000
0.770176 0.000000 0.000000
0.846019 0.000000 0.000000
0.921862 0.000000 0.000000
0.997706 0.000000 0.000000
1.000000 0.000000 0.000000
1.000000 0.000000 0.000000
1.000000 0.000000 0.000000
0.000000 0.087586 0.000000
0.087586 0.087586 0.000000
0.163429 0.087586 0.000000
0.239272 0.087586 0.000000
0.315116 0.087586 0.000000
0.390959 0.087586 0.000000
0.466802 0.087586 0.000000
0.542646 0.087586 0.000000
0.618489 0.087586 0.000000
0.694332 0.087586 0.000000
0.770176 0.087586 0.000000
0.846019 0.087586 0.000000
0.921862 0.087586 0.000000
0.997706 0.087586 0.000000
1.000000 0.087586 0.000000
1.000000 0.087586 0.000000
1.000000 0.087586 0.000000
0.000000 0.163429 0.000000
0.087586 0.163429 0.000000
0.163429 0.163429 0.000000
0.239272 0.163429 0.000000
0.315116 0.163429 0.000000
0.390959 0.163429 0.000000
0.466802 0.163429 0.000000
0.542646 0.163429 0.000000
0.618489 0.163429 0.000000
0.694332 0.163429 0.000000
0.770176 0.163429 0.000000
0.846019 0.163429 0.000000
0.921862 0.163429 0.000000
0.997706 0.163429 0.000000
1.000000 0.163429 0.000000
1.000000 0.163429 0.000000
1.000000 0.163429 0.000000
0.000000 0.239272 0.000000
0.087586 0.239272 0.000000
0.163429 0.239272 0.000000
0.239272 0.239272 0.000000
0.315116 0.239272 0.000000
0.390959 0.239272 0.000000
0.466802 0.239272 0.000000
0.542646 0.239272 0.000000
0.618489 0.239272 0.000000
0.694332 0.239272 0.000000
0.770176 0.239272 0.000000
0.846019 0.239272 0.000000
0.921862 0.239272 0.000000
0.997706 0.239272 0.000000
1.000000 0.239272 0.000000
1.000000 0.239272 0.000000
1.000000 0.239272 0.000000
0.000000 0.315116 0.000000
0.087586 0.315116 0.000000
0.163429 0.315116 0.000000
0.239272 0.315116 0.000000
0.315116 0.315116 0.000000
0.390959 0.315116 0.000000
0.466802 0.315116 0.000000
0.542646 0.315116 0.000000
0.618489 0.315116 0.000000
0.694332 0.315116 0.000000
0.770176 0.315116 0.000000
0.846019 0.315116 0.000000
0.921862 0.315116 0.000000
0.997706 0.315116 0.000000
1.000000 0.315116 0.000000
1.000000 0.315116 0.000000
1.000000 0.315116 0.000000
0.000000 0.390959 0.000000
0.087586 0.390959 0.000000
0.163429 0.390959 0.000000
0.239272 0.390959 0.000000
0.315116 0.390959 0.000000
0.390959 0.390959 0.000000
0.466802 0.390959 0.000000
0.542646 0.390959 0.000000
0.618489 0.390959 0.000000
0.694332 0.390959 0.000000
0.770176 0.390959 0.000000
0.846019 0.390959 0.000000
0.921862 0.390959 0.000000
0.997706 0.390959 0.000000
1.000000 0.390959 0.000000
1.000000 0.390959 0.000000
1.000000 0.390959 0.000000
0.000000 0.466802 0.000000
0.087586 0.466802 0.000000
0.163429 0.466802 0.000000
0.239272 0.466802 0.000000
0.315116 0.466802 0.000000
0.390959 0.466802 0.000000
0.466802 0.466802 0.000000
0.542646 0.466802 0.000000
0.618489 0.466802 0.000000
0.694332 0.466802 0.000000
0.770176 0.466802 0.000000
0.846019 0.466802 0.000000
0.921862 0.466802 0.000000
0.997706 0.466802 0.000000
1.000000 0.466802 0.000000
1.000000 0.466802 0.000000
1.000000 0.466802 0.000000
0.000000 0.542646 0.000000
0.087586 0.542646 0.000000
0.163429 0.542646 0.000000
0.239272 0.542646 0.000000
0.315116 0.542646 0.000000
0.390959 0.542646 0.000000
0.466802 0.542646 0.000000
0.542646 0.542646 0.000000
0.618489 0.542646 0.000000
0.694332 0.542646 0.000000
0.770176 0.542646 0.000000
0.846019 0.542646 0.000000
0.921862 0.542646 0.000000
0.997706 0.542646 0.000000
1.000000 0.542646 0.000000
1.000000 0.542646 0.000000
1.000000 0.542646 0.000000
0.000000 0.618489 0.000000
0.087586 0.618489 0.000000
0.163429 0.618489 0.000000
0.239272 0.618489 0.000000
0.315116 0.618489 0.000000
0.390959 0.618489 0.000000
0.466802 0.618489 0.000000
0.542646 0.618489 0.000000
0.618489 0.618489 0.000000
0.694332 0.618489 0.000000
0.770176 0.618489 0.000000
0.846019 0.618489 0.000000
0.921862 0.618489 0.000000
0.997706 0.618489 0.000000
1.000000 0.618489 0.000000
1.000000 0.618489 0.000000
1.000000 0.618489 0.000000
0.000000 0.694332 0.000000
0.087586 0.694332 0.000000
0.163429 0.694332 0.000000
0.239272 0.694332 0.000000
0.315116 0.694332 0.000000
0.390959 0.694332 0.000000
0.466802 0.694332 0.000000
0.542646 0.694332 0.000000
0.618489 0.694332 0.000000
0.694332 0.694332 0.000000
0.770176 0.694332 0.000000
0.846019 0.694332 0.000000
0.921862 0.694332 0.000000
0.997706 0.694332 0.000000
1.000000 0.694332 0.000000
1.000000 0.694332 0.000000
1.000000 0.694332 0.000000
0.000000 0.770176 0.000000
0.087586 0.770176 0.000000
0.163429 0.770176 0.000000
0.239272 0.770176 0.000000
0.315116 0.770176 0.000000
0.390959 0.770176 0.000000
0.466802 0.770176 0.000000
0.542646 0.770176 0.000000
0.618489 0.770176 0.000000
0.694332 0.770176 0.000000
0.770176 0.770176 0.000000
0.846019 0.770176 0.000000
0.921862 0.770176 0.000000
0.997706 0.770176 0.000000
1.000000 0.770176 0.000000
1.000000 0.770176 0.000000
1.000000 0.770176 0.000000
0.000000 0.846019 0.000000
0.087586 0.846019 0.000000
0.163429 0.846019 0.000000
0.239272 0.846019 0.000000
0.315116 0.846019 0.000000
0.390959 0.846019 0.000000
0.466802 0.846019 0.000000
0.542646 0.846019 0.000000
0.618489 0.846019 0.000000
0.694332 0.846019 0.000000
0.770176 0.846019 0.000000
0.846019 0.846019 0.000000
0.921862 0.846019 0.000000
0.997706 0.846019 0.000000
1.000000 0.846019 0.000000
1.000000 0.846019 0.000000
1.000000 0.846019 0.000000
0.000000 0.921862 0.000000
0.087586 0.921862 0.000000
0.163429 0.921862 0.000000
0.239272 0.921862 0.000000
0.315116 0.921862 0.000000
0.390959 0.921862 0.000000
0.466802 0.921862 0.000000
0.542646 0.921862 0.000000
0.618489 0.921862 0.000000
0.694332 0.921862 0.000000
0.770176 0.921862 0.000000
0.846019 0.921862 0.000000
0.921862 0.921862 0.000000
0.997706 0.921862 0.000000
1.000000 0.921862 0.000000
1.000000 0.921862 0.000000
1.000000 0.921862 0.000000
0.000000 0.997706 0.000000
0.087586 0.997706 0.000000
0.163429 0.997706 0.000000
0.239272 0.997706 0.000000
0.315116 0.997706 0.000000
0.390959 0.997706 0.000000
0.466802 0.997706 0.000000
0.542646 0.997706 0.000000
0.618489 0.997706 0.000000
0.694332 0.997706 0.000000
0.770176 0.997706 0.000000
0.846019 0.997706 0.000000
0.921862 0.997706 0.000000
0.997706 0.997706 0.000000
1.000000 0.997706 0.000000
1.000000 0.997706 0.000000
1.000000 0.997706 0.000000
0.000000 1.000000 0.000000
0.087586 1.000000 0.000000
0.163429 1.000000 0.000000
0.239272 1.000000 0.000000
0.315116 1.000000 0.000000
0.390959 1.000000 0.000000
0.466802 1.000000 0.000000
0.542646 1.000000 0.000000
0.618489 1.000000 0.000000
0.694332 1.000000 0.000000
0.770176 1.000000 0.000000
0.846019 1.000000 0.000000
0.921862 1.000000 0.000000
0.997706 1.000000 0.000000
1.000000 1.000000 0.000000
1.000000 1.000000 0.000000
1.000000 1.000000 0.000000
0.000000 1.000000 0.000000
0.087586 1.000000 0.000000
0.163429 1.000000 0.000000
0.239272 1.000000 0.000000
0.315116 1.000000 0.000000
0.390959 1.000000 0.000000
0.466802 1.000000 0.000000
0.542646 1.000000 0.000000
0.618489 1.000000 0.000000
0.694332 1.000000 0.000000
0.770176 1.000000 0.000000
0.846019 1.000000 0.000000
0.921862 1.000000 0.000000
0.997706 1.000000 0.000000
1.000000 1.000000 0.000000
1.000000 1.000000 0.000000
1.000000 1.000000 0.000000
0.000000 1.000000 0.000000
0.087586 1.000000 0.000000
0.163429 1.000000 0.000000
0.239272 1.000000 0.000000
0.315116 1.000000 0.000000
0.390959 1.000000 0.000000
0.466802 1.000000 0.000000
0.542646 1.000000 0.000000
0.618489 1.000000 0.000000
0.694332 1.000000 0.000000
0.770176 1.000000 0.000000
0.846019 1.000000 0.000000
0.921862 1.000000 0.000000
0.997706 1.000000 0.000000
1.000000 1.000000 0.000000
1.000000 1.000000 0.000000
1.000000 1.000000 0.000000
0.000000 0.000000 0.087586
0.087586 0.000000 0.087586
0.163429 0.000000 0.087586
0.239272 0.000000 0.087586
0.315116 0.000000 0.087586
0.390959 0.000000 0.087586
0.466802 0.000000 0.087586
0.542646 0.000000 0.087586
0.618489 0.000000 0.087586
0.694332 0.000000 0.087586
0.770176 0.000000 0.087586
0.846019 0.000000 0.087586
0.921862 0.000000 0.087586
0.997706 0.000000 0.087586
1.000000 0.000000 0.087586
1.000000 0.000000 0.087586
1.000000 0.000000 0.087586
0.000000 0.087586 0.087586
0.087586 0.087586 0.087586
0.163429 0.087586 0.087586
0.239272 0.087586 0.087586
0.315116 0.087586 0.087586
0.390959 0.087586 0.087586
0.466802 0.087586 0.087586
0.542646 0.087586 0.087586
0.618489 0.087586 0.087586
0.694332 0.087586 0.087586
0.770176 0.087586 0.087586
0.846019 0.087586 0.087586
0.921862 0.087586 0.087586
0.997706 0.087586 0.087586
1.000000 0.087586 0.087586
1.000000 0.087586 0.087586
1.000000 0.087586 0.087586
0.000000 0.163429 0.087586
0.087586 0.163429 0.087586
0.163429 0.163429 0.087586
0.239272 0.163429 0.087586
0.315116 0.163429 0.087586
0.390959 0.163429 0.087586
0.466802 0.163429 0.087586
0.542646 0.163429 0.087586
0.618489 0.163429 0.087586
0.694332 0.163429 0.087586
0.770176 0.163429 0.087586
0.846019 0.163429 0.087586
0.921862 0.163429 0.087586
0.997706 0.163429 0.087586
1.000000 0.163429 0.087586
1.000000 0.163429 0.087586
1.000000 0.163429 0.087586
0.000000 0.239272 0.087586
0.087586 0.239272 0.087586
0.163429 0.239272 0.087586
0.239272 0.239272 0.087586
0.315116 0.239272 0.087586
0.390959 0.239272 0.087586
0.466802 0.239272 0.087586
0.542646 0.239272 0.087586
0.618489 0.239272 0.087586
0.694332 0.239272 0.087586
0.770176 0.239272 0.087586
0.846019 0.239272 0.087586
0.921862 0.239272 0.087586
0.997706 0.239272 0.087586
1.000000 0.239272 0.087586
1.000000 0.239272 0.087586
1.000000 0.239272 0.087586
0.000000 0.315116 0.087586
0.087586 0.315116 0.087586
0.163429 0.315116 0.087586
0.239272 0.315116 0.087586
0.315116 0.315116 0.087586
0.390959 0.315116 0.087586
0.466802 0.315116 0.087586
0.542646 0.315116 0.087586
0.618489 0.315116 0.087586
0.694332 0.315116 0.087586
0.770176 0.315116 0.087586
0.846019 0.315116 0.087586
0.921862 0.315116 0.087586
0.997706 0.315116 0.087586
1.000000 0.315116 0.087586
1.000000 0.315116 0.087586
1.000000 0.315116 0.087586
0.000000 0.390959 0.087586
0.087586 0.390959 0.087586
0.163429 0.390959 0.087586
0.239272 0.390959 0.087586
0.315116 0.390959 0.087586
0.390959 0.390959 0.087586
0.466802 0.390959 0.087586
0.542646 0.390959 0.087586
0.618489 0.390959 0.087586
0.694332 0.390959 0.087586
0.770176 0.390959 0.087586
0.846019 0.390959 0.087586
0.921862 0.390959 0.087586
0.997706 0.390959 0.087586
1.000000 0.390959 0.087586
1.000000 0.390959 0.087586
1.000000 0.390959 0.087586
0.000000 0.466802 0.087586
0.087586 0.466802 0.087586
0.163429 0.466802 0.087586
0.239272 0.466802 0.087586
0.315116 0.466802 0.087586
0.390959 0.466802 0.087586
0.466802 0.466802 0.087586
0.542646 0.466802 0.087586
0.618489 0.466802 0.087586
0.694332 0.466802 0.087586
0.770176 0.466802 0.087586
0.846019 0.466802 0.087586
0.921862 0.466802 0.087586
0.997706 0.466802 0.087586
1.000000 0.466802 0.087586
1.000000 0.466802 0.087586
1.000000 0.466802 0.087586
0.000000 0.542646 0.087586
0.087586 0.542646 0.087586
0.163429 0.542646 0.087586
0.239272 0.542646 0.087586
0.315116 0.542646 0.087586
0.390959 0.542646 0.087586
0.466802 0.542646 0.087586
0.542646 0.542646 0.087586
0.618489 0.542646 0.087586
0.694332 0.542646 0.087586
0.770176 0.542646 0.087586
0.846019 0.542646 0.087586
0.921862 0.542646 0.087586
0.997706 0.542646 0.087586
1.000000 0.542646 0.087586
1.000000 0.542646 0.087586
1.000000 0.542646 0.087586
0.000000 0.618489 0.087586
0.087586 0.618489 0.087586
0.163429 0.618489 0.087586
0.239272 0.618489 0.087586
0.315116 0.618489 0.087586
0.390959 0.618489 0.087586
0.466802 0.618489 0.087586
0.542646 0.618489 0.087586
0.618489 0.618489 0.087586
0.694332 0.618489 0.087586
0.770176 0.618489 0.087586
0.846019 0.618489 0.087586
0.921862 0.618489 0.087586
0.997706 0.618489 0.087586
1.000000 0.618489 0.087586
1.000000 0.618489 0.087586
1.000000 0.618489 0.087586
0.000000 0.694332 0.087586
0.087586 0.694332 0.087586
0.163429 0.694332 0.087586
0.239272 0.694332 0.087586
0.315116 0.694332 0.087586
0.390959 0.694332 0.087586
0.466802 0.694332 0.087586
0.542646 0.694332 0.087586
0.618489 0.694332 0.087586
0.694332 0.694332 0.087586
0.770176 0.694332 0.087586
0.846019 0.694332 0.087586
0.921862 0.694332 0.087586
0.997706 0.694332 0.087586
1.000000 0.694332 0.087586
1.000000 0.694332 0.087586
1.000000 0.694332 0.087586
0.000000 0.770176 0.087586
0.087586 0.770176 0.087586
0.163429 0.770176 0.087586
0.239272 0.770176 0.087586
0.315116 0.770176 0.087586
0.390959 0.770176 0.087586
0.466802 0.770176 0.087586
0.542646 0.770176 0.087586
0.618489 0.770176 0.087586
0.694332 0.770176 0.087586
0.770176 0.770176 0.087586
0.846019 0.770176 0.087586
0.921862 0.770176 0.087586
0.997706 0.770176 0.087586
1.000000 0.770176 0.087586
1.000000 0.770176 0.087586
1.000000 0.770176 0.087586
0.000000 0.846019 0.087586
0.087586 0.846019 0.087586
0.163429 0.846019 0.087586
0.239272 0.846019 0.087586
0.315116 0.846019 0.087586
0.390959 0.846019 0.087586
0.466802 0.846019 0.087586
0.542646 0.846019 0.087586
0.618489 0.846019 0.087586
0.694332 0.846019 0.087586
0.770176 0.846019 0.087586
0.846019 0.846019 0.087586
0.921862 0.846019 0.087586
0.997706 0.846019 0.087586
1.000000 0.846019 0.087586
1.000000 0.846019 0.087586
1.000000 0.846019 0.087586
0.000000 0.921862 0.087586
0.087586 0.921862 0.087586
0.163429 0.921862 0.087586
0.239272 0.921862 0.087586
0.315116 0.921862 0.087586
0.390959 0.921862 0.087586
0.466802 0.921862 0.087586
0.542646 0.921862 0.087586
0.618489 0.921862 0.087586
0.694332 0.921862 0.087586
0.770176 0.921862 0.087586
0.846019 0.921862 0.087586
0.921862 0.921862 0.087586
0.997706 0.921862 0.087586
1.000000 0.921862 0.087586
1.000000 0.921862 0.087586
1.000000 0.921862 0.087586
0.000000 0.997706 0.087586
0.087586 0.997706 0.087586
0.163429 0.997706 0.087586
0.239272 0.997706 0.087586
0.315116 0.997706 0.087586
0.390959 0.997706 0.087586
0.466802 0.997706 0.087586
0.542646 0.997706 0.087586
0.618489 0.997706 0.087586
0.694332 0.997706 0.087586
0.770176 0.997706 0.087586
0.846019 0.997706 0.087586
0.921862 0.997706 0.087586
0.997706 0.997706 0.087586
1.000000 0.997706 0.087586
1.000000 0.997706 0.087586
1.000000 0.997706 0.087586
0.000000 1.000000 0.087586
0.087586 1.000000 0.087586
0.163429 1.000000 0.087586
0.239272 1.000000 0.087586
0.315116 1.000000 0.087586
0.390959 1.000000 0.087586
0.466802 1.000000 0.087586
0.542646 1.000000 0.087586
0.618489 1.000000 0.087586
0.694332 1.000000 0.087586
0.770176 1.000000 0.087586
0.846019 1.000000 0.087586
0.921862 1.000000 0.087586
0.997706 1.000000 0.087586
1.000000 1.000000 0.087586
1.000000 1.000000 0.087586
1.000000 1.000000 0.087586
0.000000 1.000000 0.087586
0.087586 1.000000 0.087586
0.163429 1.000000 0.087586
0.239272 1.000000 0.087586
0.315116 1.000000 0.087586
0.390959 1.000000 0.087586
0.466802 1.000000 0.087586
0.542646 1.000000 0.087586
0.618489 1.000000 0.087586
0.694332 1.000000 0.087586
0.770176 1.000000 0.087586
0.846019 1.000000 0.087586
0.921862 1.000000 0.087586
0.997706 1.000000 0.087586
1.000000 1.000000 0.087586
1.000000 1.000000 0.087586
1.000000 1.000000 0.087586
0.000000 1.000000 0.087586
0.087586 1.000000 0.087586
0.163429 1.000000 0.087586
0.239272 1.000000 0.087586
0.315116 1.000000 0.087586
0.390959 1.000000 0.087586
0.466802 1.000000 0.087586
0.542646 1.000000 0.087586
0.618489 1.000000 0.087586
0.694332 1.000000 0.087586
0.770176 1.000000 0.087586
0.846019 1.000000 0.087586
0.921862 1.000000 0.087586
0.997706 1.000000 0.087586
1.000000 1.000000 0.087586
1.000000 1.000000 0.087586
1.000000 1.000000 0.087586
0.000000 0.000000 0.163429
0.087586 0.000000 0.163429
0.163429 0.000000 0.163429
0.239272 0.000000 0.163429
0.315116 0.000000 0.163429
0.390959 0.000000 0.163429
0.466802 0.000000 0.163429
0.542646 0.000000 0.163429
0.618489 0.000000 0.163429
0.694332 0.000000 0.163429
0.770176 0.000000 0.163429
0.846019 0.000000 0.163429
0.921862 0.000000 0.163429
0.997706 0.000000 0.163429
1.000000 0.000000 0.163429
1.000000 0.000000 0.163429
1.000000 0.000000 0.163429
0.000000 0.087586 0.163429
0.087586 0.087586 0.163429
0.163429 0.087586 0.163429
0.239272 0.087586 0.163429
0.315116 0.087586 0.163429
0.390959 0.087586 0.163429
0.466802 0.087586 0.163429
0.542646 0.087586 0.163429
0.618489 0.087586 0.163429
0.694332 0.087586 0.163429
0.770176 0.087586 0.163429
0.846019 0.087586 0.163429
0.921862 0.087586 0.163429
0.997706 0.087586 0.163429
1.000000 0.087586 0.163429
1.000000 0.087586 0.163429
1.000000 0.087586 0.163429
0.000000 0.163429 0.163429
0.087586 0.163429 0.163429
0.163429 0.163429 0.163429
0.239272 0.163429 0.163429
0.315116 0.163429 0.163429
0.390959 0.163429 0.163429
0.466802 0.163429 0.163429
0.542646 0.163429 0.163429
0.618489 0.163429 0.163429
0.694332 0.163429 0.163429
0.770176 0.163429 0.163429
0.846019 0.163429 0.163429
0.921862 0.163429 0.163429
0.997706 0.163429 0.163429
1.000000 0.163429 0.163429
1.000000 0.163429 0.163429
1.000000 0.163429 0.163429
0.000000 0.239272 0.163429
0.087586 0.239272 0.163429
0.163429 0.239272 0.163429
0.239272 0.239272 0.163429
0.315116 0.239272 0.163429
0.390959 0.239272 0.163429
0.466802 0.239272 0.163429
0.542646 0.239272 0.163429
0.618489 0.239272 0.163429
0.694332 0.239272 0.163429
0.770176 0.239272 0.163429
0.846019 0.239272 0.163429
0.921862 0.239272 0.163429
0.997706 0.239272 0.163429
1.000000 0.239272 0.163429
1.000000 0.239272 0.163429
1.000000 0.239272 0.163429
0.000000 0.315116 0.163429
0.087586 0.315116 0.163429
0.163429 0.315116 0.163429
0.239272 0.315116 0.163429
0.315116 0.315116 0.163429
0.390959 0.315116 0.163429
0.466802 0.315116 0.163429
0.542646 0.315116 0.163429
0.618489 0.315116 0.163429
0.694332 0.315116 0.163429
0.770176 0.315116 0.163429
0.846019 0.315116 0.163429
0.921862 0.315116 0.163429
0.997706 0.315116 0.163429
1.000000 0.315116 0.163429
1.000000 0.315116 0.163429
1.000000 0.315116 0.163429
0.000000 0.390959 0.163429
0.087586 0.390959 0.163429
0.163429 0.390959 0.163429
0.239272 0.390959 0.163429
0.315116 0.390959 0.163429
0.390959 0.390959 0.163429
0.466802 0.390959 0.163429
0.542646 0.390959 0.163429
0.618489 0.390959 0.163429
0.694332 0.390959 0.163429
0.770176 0.390959 0.163429
0.846019 0.390959 0.163429
0.921862 0.390959 0.163429
0.997706 0.390959 0.163429
1.000000 0.390959 0.163429
1.000000 0.390959 0.163429
1.000000 0.390959 0.163429
0.000000 0.466802 0.163429
0.087586 0.466802 0.163429
0.163429 0.466802 0.163429
0.239272 0.466802 0.163429
0.315116 0.466802 0.163429
0.390959 0.466802 0.163429
0.466802 0.466802 0.163429
0.542646 0.466802 0.163429
0.618489 0.466802 0.163429
0.694332 0.466802 0.163429
0.770176 0.466802 0.163429
0.846019 0.466802 0.163429
0.921862 0.466802 0.163429
0.997706 0.466802 0.163429
1.000000 0.466802 0.163429
1.000000 0.466802 0.163429
1.000000 0.466802 0.163429
0.000000 0.542646 0.163429
0.087586 0.542646 0.163429
0.163429 0.542646 0.163429
0.239272 0.542646 0.163429
0.315116 0.542646 0.163429
0.390959 0.542646 0.163429
0.466802 0.542646 0.163429
0.542646 0.542646 0.163429
0.618489 0.542646 0.163429
0.694332 0.542646 0.163429
0.770176 0.542646 0.163429
0.846019 0.542646 0.163429
0.921862 0.542646 0.163429
0.997706 0.542646 0.163429
1.000000 0.542646 0.163429
1.000000 0.542646 0.163429
1.000000 0.542646 0.163429
0.000000 0.618489 0.163429
0.087586 0.618489 0.163429
0.163429 0.618489 0.163429
0.239272 0.618489 0.163429
0.315116 0.618489 0.163429
0.390959 0.618489 0.163429
0.466802 0.618489 0.163429
0.542646 0.618489 0.163429
0.618489 0.618489 0.163429
0.694332 0.618489 0.163429
0.770176 0.618489 0.163429
0.846019 0.618489 0.163429
0.921862 0.618489 0.163429
0.997706 0.618489 0.163429
1.000000 0.618489 0.163429
1.000000 0.618489 0.163429
1.000000 0.618489 0.163429
0.000000 0.694332 0.163429
0.087586 0.694332 0.163429
0.163429 0.694332 0.163429
0.239272 0.694332 0.163429
0.315116 0.694332 0.163429
0.390959 0.694332 0.163429
0.466802 0.694332 0.163429
0.542646 0.694332 0.163429
0.618489 0.694332 0.163429
0.694332 0.694332 0.163429
0.770176 0.694332 0.163429
0.846019 0.694332 0.163429
0.921862 0.694332 0.163429
0.997706 0.694332 0.163429
1.000000 0.694332 0.163429
1.000000 0.694332 0.163429
1.000000 0.694332 0.163429
0.000000 0.770176 0.163429
0.087586 0.770176 0.163429
0.163429 0.770176 0.163429
0.239272 0.770176 0.163429
0.315116 0.770176 0.163429
0.390959 0.770176 0.163429
0.466802 0.770176 0.163429
0.542646 0.770176 0.163429
0.618489 0.770176 0.163429
0.694332 0.770176 0.163429
0.770176 0.770176 0.163429
0.846019 0.770176 0.163429
0.921862 0.770176 0.163429
0.997706 0.770176 0.163429
1.000000 0.770176 0.163429
1.000000 0.770176 0.163429
1.000000 0.770176 0.163429
0.000000 0.846019 0.163429
0.087586 0.846019 0.163429
0.163429 0.846019 0.163429
0.239272 0.846019 0.163429
0.315116 0.846019 0.163429
0.390959 0.846019 0.163429
0.466802 0.846019 0.163429
0.542646 0.846019 0.163429
0.618489 0.846019 0.163429
0.694332 0.846019 0.163429
0.770176 0.846019 0.163429
0.846019 0.846019 0.163429
0.921862 0.846019 0.163429
0.997706 0.846019 0.163429
1.000000 0.846019 0.163429
1.000000 0.846019 0.163429
1.000000 0.846019 0.163429
0.000000 0.921862 0.163429
0.087586 0.921862 0.163429
0.163429 0.921862 0.163429
0.239272 0.921862 0.163429
0.315116 0.921862 0.163429
0.390959 0.921862 0.163429
0.466802 0.921862 0.163429
0.542646 0.921862 0.163429
0.618489 0.921862 0.163429
0.694332 0.921862 0.163429
0.770176 0.921862 0.163429
0.846019 0.921862 0.163429
0.921862 0.921862 0.163429
0.997706 0.921862 0.163429
1.000000 0.921862 0.163429
1.000000 0.921862 0.163429
1.000000 0.921862 0.163429
0.000000 0.997706 0.163429
0.087586 0.997706 0.163429
0.163429 0.997706 0.163429
0.239272 0.997706 0.163429
0.315116 0.997706 0.163429
0.390959 0.997706 0.163429
0.466802 0.997706 0.163429
0.542646 0.997706 0.163429
0.618489 0.997706 0.163429
0.694332 0.997706 0.163429
0.770176 0.997706 0.163429
0.846019 0.997706 0.163429
0.921862 0.997706 0.163429
0.997706 0.997706 0.163429
1.000000 0.997706 0.163429
1.000000 0.997706 0.163429
1.000000 0.997706 0.163429
0.000000 1.000000 0.163429
0.087586 1.000000 0.163429
0.163429 1.000000 0.163429
0.239272 1.000000 0.163429
0.315116 1.000000 0.163429
0.390959 1.000000 0.163429
0.466802 1.000000 0.163429
0.542646 1.000000 0.163429
0.618489 1.000000 0.163429
0.694332 1.000000 0.163429
0.770176 1.000000 0.163429
0.846019 1.000000 0.163429
0.921862 1.000000 0.163429
0.997706 1.000000 0.163429
1.000000 1.000000 0.163429
1.000000 1.000000 0.163429
1.000000 1.000000 0.163429
0.000000 1.000000 0.163429
0.087586 1.000000 0.163429
0.163429 1.000000 0.163429
0.239272 1.000000 0.163429
0.315116 1.000000 0.163429
0.390959 1.000000 0.163429
0.466802 1.000000 0.163429
0.542646 1.000000 0.163429
0.618489 1.000000 0.163429
0.694332 1.000000 0.163429
0.770176 1.000000 0.163429
0.846019 1.000000 0.163429
0.921862 1.000000 0.163429
0.997706 1.000000 0.163429
1.000000 1.000000 0.163429
1.000000 1.000000 0.163429
1.000000 1.000000 0.163429
0.000000 1.000000 0.163429
0.087586 1.000000 0.163429
0.163429 1.000000 0.163429
0.239272 1.000000 0.163429
0.315116 1.000000 0.163429
0.390959 1.000000 0.163429
0.466802 1.000000 0.163429
0.542646 1.000000 0.163429
0.618489 1.000000 0.163429
0.694332 1.000000 0.163429
0.770176 1.000000 0.163429
0.846019 1.000000 0.163429
0.921862 1.000000 0.163429
0.997706 1.000000 0.163429
1.000000 1.000000 0.163429
1.000000 1.000000 0.163429
1.000000 1.000000 0.163429
0.000000 0.000000 0.239272
0.087586 0.000000 0.239272
0.163429 0.000000 0.239272
0.239272 0.000000 0.239272
0.315116 0.000000 0.239272
0.390959 0.000000 0.239272
0.466802 0.000000 0.239272
0.542646 0.000000 0.239272
0.618489 0.000000 0.239272
0.694332 0.000000 0.239272
0.770176 0.000000 0.239272
0.846019 0.000000 0.239272
0.921862 0.000000 0.239272
0.997706 0.000000 0.239272
1.000000 0.000000 0.239272
1.000000 0.000000 0.239272
1.000000 0.000000 0.239272
0.000000 0.087586 0.239272
0.087586 0.087586 0.239272
0.163429 0.087586 0.239272
