assets/presets/luts/exposure-plus/lut.cube
TITLE "Exposure +"
LUT_3D_SIZE 5
0.000000 0.000000 0.000000
0.315116 0.000000 0.000000
0.618489 0.000000 0.000000
0.921862 0.000000 0.000000
1.000000 0.000000 0.000000
0.000000 0.315116 0.000000
0.315116 0.315116 0.000000
0.618489 0.315116 0.000000
0.921862 0.315116 0.000000
1.000000 0.315116 0.000000
0.000000 0.618489 0.000000
0.315116 0.618489 0.000000
0.618489 0.618489 0.000000
0.921862 0.618489 0.000000
1.000000 0.618489 0.000000
0.000000 0.921862 0.000000
0.315116 0.921862 0.000000
0.618489 0.921862 0.000000
0.921862 0.921862 0.000000
1.000000 0.921862 0.000000
0.000000 1.000000 0.000000
0.315116 1.000000 0.000000
0.618489 1.000000 0.000000
0.921862 1.000000 0.000000
1.000000 1.000000 0.000000
0.000000 0.000000 0.315116
0.315116 0.000000 0.315116
0.618489 0.000000 0.315116
0.921862 0.000000 0.315116
1.000000 0.000000 0.315116
0.000000 0.315116 0.315116
0.315116 0.315116 0.315116
0.618489 0.315116 0.315116
0.921862 0.315116 0.315116
1.000000 0.315116 0.315116
0.000000 0.618489 0.315116
0.315116 0.618489 0.315116
0.618489 0.618489 0.315116
0.921862 0.618489 0.315116
1.000000 0.618489 0.315116
0.000000 0.921862 0.315116
0.315116 0.921862 0.315116
0.618489 0.921862 0.315116
0.921862 0.921862 0.315116
1.000000 0.921862 0.315116
0.000000 1.000000 0.315116
0.315116 1.000000 0.315116
0.618489 1.000000 0.315116
0.921862 1.000000 0.315116
1.000000 1.000000 0.315116
0.000000 0.000000 0.618489
0.315116 0.000000 0.618489
0.618489 0.000000 0.618489
0.921862 0.000000 0.618489
1.000000 0.000000 0.618489
0.000000 0.315116 0.618489
0.315116 0.315116 0.618489
0.618489 0.315116 0.618489
0.921862 0.315116 0.618489
1.000000 0.315116 0.618489
0.000000 0.618489 0.618489
0.315116 0.618489 0.618489
0.618489 0.618489 0.618489
0.921862 0.618489 0.618489
1.000000 0.618489 0.618489
0.000000 0.921862 0.618489
0.315116 0.921862 0.618489
0.618489 0.921862 0.618489
0.921862 0.921862 0.618489
1.000000 0.921862 0.618489
0.000000 1.000000 0.618489
0.315116 1.000000 0.618489
0.618489 1.000000 0.618489
0.921862 1.000000 0.618489
1.000000 1.000000 0.618489
0.000000 0.000000 0.921862
0.315116 0.000000 0.921862
0.618489 0.000000 0.921862
0.921862 0.000000 0.921862
1.000000 0.000000 0.921862
0.000000 0.315116 0.921862
0.315116 0.315116 0.921862
0.618489 0.315116 0.921862
0.921862 0.315116 0.921862
1.000000 0.315116 0.921862
0.000000 0.618489 0.921862
0.315116 0.618489 0.921862
0.618489 0.618489 0.921862
0.921862 0.618489 0.921862
1.000000 0.618489 0.921862
0.000000 0.921862 0.921862
0.315116 0.921862 0.921862
0.618489 0.921862 0.921862
0.921862 0.921862 0.921862
1.000000 0.921862 0.921862
0.000000 1.000000 0.921862
0.315116 1.000000 0.921862
0.618489 1.000000 0.921862
0.921862 1.000000 0.921862
1.000000 1.000000 0.921862
0.000000 0.000000 1.000000
0.315116 0.000000 1.000000
0.618489 0.000000 1.000000
0.921862 0.000000 1.000000
1.000000 0.000000 1.000000
0.000000 0.315116 1.000000
0.315116 0.315116 1.000000
0.618489 0.315116 1.000000
0.921862 0.315116 1.000000
1.000000 0.315116 1.000000
0.000000 0.618489 1.000000
0.315116 0.618489 1.000000
0.618489 0.618489 1.000000
0.921862 0.618489 1.000000
1.000000 0.618489 1.000000
0.000000 0.921862 1.000000
0.315116 0.921862 1.000000
0.618489 0.921862 1.000000
0.921862 0.921862 1.000000
1.000000 0.921862 1.000000
0.000000 1.000000 1.000000
0.315116 1.000000 1.000000
0.618489 1.000000 1.000000
0.921862 1.000000 1.000000
1.000000 1.000000 1.000000
