assets/presets/luts/exposure-plus/lut.cube
TITLE "Exposure +"
LUT_3D_SIZE 9
0.000000 0.000000 0.000000
0.163429 0.000000 0.000000
0.315116 0.000000 0.000000
0.466802 0.000000 0.000000
0.618489 0.000000 0.000000
0.770176 0.000000 0.000000
0.921862 0.000000 0.000000
1.000000 0.000000 0.000000
1.000000 0.000000 0.000000
0.000000 0.163429 0.000000
0.163429 0.163429 0.000000
0.315116 0.163429 0.000000
0.466802 0.163429 0.000000
0.618489 0.163429 0.000000
0.770176 0.163429 0.000000
0.921862 0.163429 0.000000
1.000000 0.163429 0.000000
1.000000 0.163429 0.000000
0.000000 0.315116 0.000000
0.163429 0.315116 0.000000
0.315116 0.315116 0.000000
0.466802 0.315116 0.000000
0.618489 0.315116 0.000000
0.770176 0.315116 0.000000
0.921862 0.315116 0.000000
1.000000 0.315116 0.000000
1.000000 0.315116 0.000000
0.000000 0.466802 0.000000
0.163429 0.466802 0.000000
0.315116 0.466802 0.000000
0.466802 0.466802 0.000000
0.618489 0.466802 0.000000
0.770176 0.466802 0.000000
0.921862 0.466802 0.000000
1.000000 0.466802 0.000000
1.000000 0.466802 0.000000
0.000000 0.618489 0.000000
0.163429 0.618489 0.000000
0.315116 0.618489 0.000000
0.466802 0.618489 0.000000
0.618489 0.618489 0.000000
0.770176 0.618489 0.000000
0.921862 0.618489 0.000000
1.000000 0.618489 0.000000
1.000000 0.618489 0.000000
0.000000 0.770176 0.000000
0.163429 0.770176 0.000000
0.315116 0.770176 0.000000
0.466802 0.770176 0.000000
0.618489 0.770176 0.000000
0.770176 0.770176 0.000000
0.921862 0.770176 0.000000
1.000000 0.770176 0.000000
1.000000 0.770176 0.000000
0.000000 0.921862 0.000000
0.163429 0.921862 0.000000
0.315116 0.921862 0.000000
0.466802 0.921862 0.000000
0.618489 0.921862 0.000000
0.770176 0.921862 0.000000
0.921862 0.921862 0.000000
1.000000 0.921862 0.000000
1.000000 0.921862 0.000000
0.000000 1.000000 0.000000
0.163429 1.000000 0.000000
0.315116 1.000000 0.000000
0.466802 1.000000 0.000000
0.618489 1.000000 0.000000
0.770176 1.000000 0.000000
0.921862 1.000000 0.000000
1.000000 1.000000 0.000000
1.000000 1.000000 0.000000
0.000000 1.000000 0.000000
0.163429 1.000000 0.000000
0.315116 1.000000 0.000000
0.466802 1.000000 0.000000
0.618489 1.000000 0.000000
0.770176 1.000000 0.000000
0.921862 1.000000 0.000000
1.000000 1.000000 0.000000
1.000000 1.000000 0.000000
0.000000 0.000000 0.163429
0.163429 0.000000 0.163429
0.315116 0.000000 0.163429
0.466802 0.000000 0.163429
0.618489 0.000000 0.163429
0.770176 0.000000 0.163429
0.921862 0.000000 0.163429
1.000000 0.000000 0.163429
1.000000 0.000000 0.163429
0.000000 0.163429 0.163429
0.163429 0.163429 0.163429
0.315116 0.163429 0.163429
0.466802 0.163429 0.163429
0.618489 0.163429 0.163429
0.770176 0.163429 0.163429
0.921862 0.163429 0.163429
1.000000 0.163429 0.163429
1.000000 0.163429 0.163429
0.000000 0.315116 0.163429
0.163429 0.315116 0.163429
0.315116 0.315116 0.163429
0.466802 0.315116 0.163429
0.618489 0.315116 0.163429
0.770176 0.315116 0.163429
0.921862 0.315116 0.163429
1.000000 0.315116 0.163429
1.000000 0.315116 0.163429
0.000000 0.466802 0.163429
0.163429 0.466802 0.163429
0.315116 0.466802 0.163429
0.466802 0.466802 0.163429
0.618489 0.466802 0.163429
0.770176 0.466802 0.163429
0.921862 0.466802 0.163429
1.000000 0.466802 0.163429
1.000000 0.466802 0.163429
0.000000 0.618489 0.163429
0.163429 0.618489 0.163429
0.315116 0.618489 0.163429
0.466802 0.618489 0.163429
0.618489 0.618489 0.163429
0.770176 0.618489 0.163429
0.921862 0.618489 0.163429
1.000000 0.618489 0.163429
1.000000 0.618489 0.163429
0.000000 0.770176 0.163429
0.163429 0.770176 0.163429
0.315116 0.770176 0.163429
0.466802 0.770176 0.163429
0.618489 0.770176 0.163429
0.770176 0.770176 0.163429
0.921862 0.770176 0.163429
1.000000 0.770176 0.163429
1.000000 0.770176 0.163429
0.000000 0.921862 0.163429
0.163429 0.921862 0.163429
0.315116 0.921862 0.163429
0.466802 0.921862 0.163429
0.618489 0.921862 0.163429
0.770176 0.921862 0.163429
0.921862 0.921862 0.163429
1.000000 0.921862 0.163429
1.000000 0.921862 0.163429
0.000000 1.000000 0.163429
0.163429 1.000000 0.163429
0.315116 1.000000 0.163429
0.466802 1.000000 0.163429
0.618489 1.000000 0.163429
0.770176 1.000000 0.163429
0.921862 1.000000 0.163429
1.000000 1.000000 0.163429
1.000000 1.000000 0.163429
0.000000 1.000000 0.163429
0.163429 1.000000 0.163429
0.315116 1.000000 0.163429
0.466802 1.000000 0.163429
0.618489 1.000000 0.163429
0.770176 1.000000 0.163429
0.921862 1.000000 0.163429
1.000000 1.000000 0.163429
1.000000 1.000000 0.163429
0.000000 0.000000 0.315116
0.163429 0.000000 0.315116
0.315116 0.000000 0.315116
0.466802 0.000000 0.315116
0.618489 0.000000 0.315116
0.770176 0.000000 0.315116
0.921862 0.000000 0.315116
1.000000 0.000000 0.315116
1.000000 0.000000 0.315116
0.000000 0.163429 0.315116
0.163429 0.163429 0.315116
0.315116 0.163429 0.315116
0.466802 0.163429 0.315116
0.618489 0.163429 0.315116
0.770176 0.163429 0.315116
0.921862 0.163429 0.315116
1.000000 0.163429 0.315116
1.000000 0.163429 0.315116
0.000000 0.315116 0.315116
0.163429 0.315116 0.315116
0.315116 0.315116 0.315116
0.466802 0.315116 0.315116
0.618489 0.315116 0.315116
0.770176 0.315116 0.315116
0.921862 0.315116 0.315116
1.000000 0.315116 0.315116
1.000000 0.315116 0.315116
0.000000 0.466802 0.315116
0.163429 0.466802 0.315116
0.315116 0.466802 0.315116
0.466802 0.466802 0.315116
0.618489 0.466802 0.315116
0.770176 0.466802 0.315116
0.921862 0.466802 0.315116
1.000000 0.466802 0.315116
1.000000 0.466802 0.315116
0.000000 0.618489 0.315116
0.163429 0.618489 0.315116
0.315116 0.618489 0.315116
0.466802 0.618489 0.315116
0.618489 0.618489 0.315116
0.770176 0.618489 0.315116
0.921862 0.618489 0.315116
1.000000 0.618489 0.315116
1.000000 0.618489 0.315116
0.000000 0.770176 0.315116
0.163429 0.770176 0.315116
0.315116 0.770176 0.315116
0.466802 0.770176 0.315116
0.618489 0.770176 0.315116
0.770176 0.770176 0.315116
0.921862 0.770176 0.315116
1.000000 0.770176 0.315116
1.000000 0.770176 0.315116
0.000000 0.921862 0.315116
0.163429 0.921862 0.315116
0.315116 0.921862 0.315116
0.466802 0.921862 0.315116
0.618489 0.921862 0.315116
0.770176 0.921862 0.315116
0.921862 0.921862 0.315116
1.000000 0.921862 0.315116
1.000000 0.921862 0.315116
0.000000 1.000000 0.315116
0.163429 1.000000 0.315116
0.315116 1.000000 0.315116
0.466802 1.000000 0.315116
0.618489 1.000000 0.315116
0.770176 1.000000 0.315116
0.921862 1.000000 0.315116
1.000000 1.000000 0.315116
1.000000 1.000000 0.315116
0.000000 1.000000 0.315116
0.163429 1.000000 0.315116
0.315116 1.000000 0.315116
0.466802 1.000000 0.315116
0.618489 1.000000 0.315116
0.770176 1.000000 0.315116
0.921862 1.000000 0.315116
1.000000 1.000000 0.315116
1.000000 1.000000 0.315116
0.000000 0.000000 0.466802
0.163429 0.000000 0.466802
0.315116 0.000000 0.466802
0.466802 0.000000 0.466802
0.618489 0.000000 0.466802
0.770176 0.000000 0.466802
0.921862 0.000000 0.466802
1.000000 0.000000 0.466802
1.000000 0.000000 0.466802
0.000000 0.163429 0.466802
0.163429 0.163429 0.466802
0.315116 0.163429 0.466802
0.466802 0.163429 0.466802
0.618489 0.163429 0.466802
0.770176 0.163429 0.466802
0.921862 0.163429 0.466802
1.000000 0.163429 0.466802
1.000000 0.163429 0.466802
0.000000 0.315116 0.466802
0.163429 0.315116 0.466802
0.315116 0.315116 0.466802
0.466802 0.315116 0.466802
0.618489 0.315116 0.466802
0.770176 0.315116 0.466802
0.921862 0.315116 0.466802
1.000000 0.315116 0.466802
1.000000 0.315116 0.466802
0.000000 0.466802 0.466802
0.163429 0.466802 0.466802
0.315116 0.466802 0.466802
0.466802 0.466802 0.466802
0.618489 0.466802 0.466802
0.770176 0.466802 0.466802
0.921862 0.466802 0.466802
1.000000 0.466802 0.466802
1.000000 0.466802 0.466802
0.000000 0.618489 0.466802
0.163429 0.618489 0.466802
0.315116 0.618489 0.466802
0.466802 0.618489 0.466802
0.618489 0.618489 0.466802
0.770176 0.618489 0.466802
0.921862 0.618489 0.466802
1.000000 0.618489 0.466802
1.000000 0.618489 0.466802
0.000000 0.770176 0.466802
0.163429 0.770176 0.466802
0.315116 0.770176 0.466802
0.466802 0.770176 0.466802
0.618489 0.770176 0.466802
0.770176 0.770176 0.466802
0.921862 0.770176 0.466802
1.000000 0.770176 0.466802
1.000000 0.770176 0.466802
0.000000 0.921862 0.466802
0.163429 0.921862 0.466802
0.315116 0.921862 0.466802
0.466802 0.921862 0.466802
0.618489 0.921862 0.466802
0.770176 0.921862 0.466802
0.921862 0.921862 0.466802
1.000000 0.921862 0.466802
1.000000 0.921862 0.466802
0.000000 1.000000 0.466802
0.163429 1.000000 0.466802
0.315116 1.000000 0.466802
0.466802 1.000000 0.466802
0.618489 1.000000 0.466802
0.770176 1.000000 0.466802
0.921862 1.000000 0.466802
1.000000 1.000000 0.466802
1.000000 1.000000 0.466802
0.000000 1.000000 0.466802
0.163429 1.000000 0.466802
0.315116 1.000000 0.466802
0.466802 1.000000 0.466802
0.618489 1.000000 0.466802
0.770176 1.000000 0.466802
0.921862 1.000000 0.466802
1.000000 1.000000 0.466802
1.000000 1.000000 0.466802
0.000000 0.000000 0.618489
0.163429 0.000000 0.618489
0.315116 0.000000 0.618489
0.466802 0.000000 0.618489
0.618489 0.000000 0.618489
0.770176 0.000000 0.618489
0.921862 0.000000 0.618489
1.000000 0.000000 0.618489
1.000000 0.000000 0.618489
0.000000 0.163429 0.618489
0.163429 0.163429 0.618489
0.315116 0.163429 0.618489
0.466802 0.163429 0.618489
0.618489 0.163429 0.618489
0.770176 0.163429 0.618489
0.921862 0.163429 0.618489
1.000000 0.163429 0.618489
1.000000 0.163429 0.618489
0.000000 0.315116 0.618489
0.163429 0.315116 0.618489
0.315116 0.315116 0.618489
0.466802 0.315116 0.618489
0.618489 0.315116 0.618489
0.770176 0.315116 0.618489
0.921862 0.315116 0.618489
1.000000 0.315116 0.618489
1.000000 0.315116 0.618489
0.000000 0.466802 0.618489
0.163429 0.466802 0.618489
0.315116 0.466802 0.618489
0.466802 0.466802 0.618489
0.618489 0.466802 0.618489
0.770176 0.466802 0.618489
0.921862 0.466802 0.618489
1.000000 0.466802 0.618489
1.000000 0.466802 0.618489
0.000000 0.618489 0.618489
0.163429 0.618489 0.618489
0.315116 0.618489 0.618489
0.466802 0.618489 0.618489
0.618489 0.618489 0.618489
0.770176 0.618489 0.618489
0.921862 0.618489 0.618489
1.000000 0.618489 0.618489
1.000000 0.618489 0.618489
0.000000 0.770176 0.618489
0.163429 0.770176 0.618489
0.315116 0.770176 0.618489
0.466802 0.770176 0.618489
0.618489 0.770176 0.618489
0.770176 0.770176 0.618489
0.921862 0.770176 0.618489
1.000000 0.770176 0.618489
1.000000 0.770176 0.618489
0.000000 0.921862 0.618489
0.163429 0.921862 0.618489
0.315116 0.921862 0.618489
0.466802 0.921862 0.618489
0.618489 0.921862 0.618489
0.770176 0.921862 0.618489
0.921862 0.921862 0.618489
1.000000 0.921862 0.618489
1.000000 0.921862 0.618489
0.000000 1.000000 0.618489
0.163429 1.000000 0.618489
0.315116 1.000000 0.618489
0.466802 1.000000 0.618489
0.618489 1.000000 0.618489
0.770176 1.000000 0.618489
0.921862 1.000000 0.618489
1.000000 1.000000 0.618489
1.000000 1.000000 0.618489
0.000000 1.000000 0.618489
0.163429 1.000000 0.618489
0.315116 1.000000 0.618489
0.466802 1.000000 0.618489
0.618489 1.000000 0.618489
0.770176 1.000000 0.618489
0.921862 1.000000 0.618489
1.000000 1.000000 0.618489
1.000000 1.000000 0.618489
0.000000 0.000000 0.770176
0.163429 0.000000 0.770176
0.315116 0.000000 0.770176
0.466802 0.000000 0.770176
0.618489 0.000000 0.770176
0.770176 0.000000 0.770176
0.921862 0.000000 0.770176
1.000000 0.000000 0.770176
1.000000 0.000000 0.770176
0.000000 0.163429 0.770176
0.163429 0.163429 0.770176
0.315116 0.163429 0.770176
0.466802 0.163429 0.770176
0.618489 0.163429 0.770176
0.770176 0.163429 0.770176
0.921862 0.163429 0.770176
1.000000 0.163429 0.770176
1.000000 0.163429 0.770176
0.000000 0.315116 0.770176
0.163429 0.315116 0.770176
0.315116 0.315116 0.770176
0.466802 0.315116 0.770176
0.618489 0.315116 0.770176
0.770176 0.315116 0.770176
0.921862 0.315116 0.770176
1.000000 0.315116 0.770176
1.000000 0.315116 0.770176
0.000000 0.466802 0.770176
0.163429 0.466802 0.770176
0.315116 0.466802 0.770176
0.466802 0.466802 0.770176
0.618489 0.466802 0.770176
0.770176 0.466802 0.770176
0.921862 0.466802 0.770176
1.000000 0.466802 0.770176
1.000000 0.466802 0.770176
0.000000 0.618489 0.770176
0.163429 0.618489 0.770176
0.315116 0.618489 0.770176
0.466802 0.618489 0.770176
0.618489 0.618489 0.770176
0.770176 0.618489 0.770176
0.921862 0.618489 0.770176
1.000000 0.618489 0.770176
1.000000 0.618489 0.770176
0.000000 0.770176 0.770176
0.163429 0.770176 0.770176
0.315116 0.770176 0.770176
0.466802 0.770176 0.770176
0.618489 0.770176 0.770176
0.770176 0.770176 0.770176
0.921862 0.770176 0.770176
1.000000 0.770176 0.770176
1.000000 0.770176 0.770176
0.000000 0.921862 0.770176
0.163429 0.921862 0.770176
0.315116 0.921862 0.770176
0.466802 0.921862 0.770176
0.618489 0.921862 0.770176
0.770176 0.921862 0.770176
0.921862 0.921862 0.770176
1.000000 0.921862 0.770176
1.000000 0.921862 0.770176
0.000000 1.000000 0.770176
0.163429 1.000000 0.770176
0.315116 1.000000 0.770176
0.466802 1.000000 0.770176
0.618489 1.000000 0.770176
0.770176 1.000000 0.770176
0.921862 1.000000 0.770176
1.000000 1.000000 0.770176
1.000000 1.000000 0.770176
0.000000 1.000000 0.770176
0.163429 1.000000 0.770176
0.315116 1.000000 0.770176
0.466802 1.000000 0.770176
0.618489 1.000000 0.770176
0.770176 1.000000 0.770176
0.921862 1.000000 0.770176
1.000000 1.000000 0.770176
1.000000 1.000000 0.770176
0.000000 0.000000 0.921862
0.163429 0.000000 0.921862
0.315116 0.000000 0.921862
0.466802 0.000000 0.921862
0.618489 0.000000 0.921862
0.770176 0.000000 0.921862
0.921862 0.000000 0.921862
1.000000 0.000000 0.921862
1.000000 0.000000 0.921862
0.000000 0.163429 0.921862
0.163429 0.163429 0.921862
0.315116 0.163429 0.921862
0.466802 0.163429 0.921862
0.618489 0.163429 0.921862
0.770176 0.163429 0.921862
0.921862 0.163429 0.921862
1.000000 0.163429 0.921862
1.000000 0.163429 0.921862
0.000000 0.315116 0.921862
0.163429 0.315116 0.921862
0.315116 0.315116 0.921862
0.466802 0.315116 0.921862
0.618489 0.315116 0.921862
0.770176 0.315116 0.921862
0.921862 0.315116 0.921862
1.000000 0.315116 0.921862
1.000000 0.315116 0.921862
0.000000 0.466802 0.921862
0.163429 0.466802 0.921862
0.315116 0.466802 0.921862
0.466802 0.466802 0.921862
0.618489 0.466802 0.921862
0.770176 0.466802 0.921862
0.921862 0.466802 0.921862
1.000000 0.466802 0.921862
1.000000 0.466802 0.921862
0.000000 0.618489 0.921862
0.163429 0.618489 0.921862
0.315116 0.618489 0.921862
0.466802 0.618489 0.921862
0.618489 0.618489 0.921862
0.770176 0.618489 0.921862
0.921862 0.618489 0.921862
1.000000 0.618489 0.921862
1.000000 0.618489 0.921862
0.000000 0.770176 0.921862
0.163429 0.770176 0.921862
0.315116 0.770176 0.921862
0.466802 0.770176 0.921862
0.618489 0.770176 0.921862
0.770176 0.770176 0.921862
0.921862 0.770176 0.921862
1.000000 0.770176 0.921862
1.000000 0.770176 0.921862
0.000000 0.921862 0.921862
0.163429 0.921862 0.921862
0.315116 0.921862 0.921862
0.466802 0.921862 0.921862
0.618489 0.921862 0.921862
0.770176 0.921862 0.921862
0.921862 0.921862 0.921862
1.000000 0.921862 0.921862
1.000000 0.921862 0.921862
0.000000 1.000000 0.921862
0.163429 1.000000 0.921862
0.315116 1.000000 0.921862
0.466802 1.000000 0.921862
0.618489 1.000000 0.921862
0.770176 1.000000 0.921862
0.921862 1.000000 0.921862
1.000000 1.000000 0.921862
1.000000 1.000000 0.921862
0.000000 1.000000 0.921862
0.163429 1.000000 0.921862
0.315116 1.000000 0.921862
0.466802 1.000000 0.921862
0.618489 1.000000 0.921862
0.770176 1.000000 0.921862
0.921862 1.000000 0.921862
1.000000 1.000000 0.921862
1.000000 1.000000 0.921862
0.000000 0.000000 1.000000
0.163429 0.000000 1.000000
0.315116 0.000000 1.000000
0.466802 0.000000 1.000000
0.618489 0.000000 1.000000
0.770176 0.000000 1.000000
0.921862 0.000000 1.000000
1.000000 0.000000 1.000000
1.000000 0.000000 1.000000
0.000000 0.163429 1.000000
0.163429 0.163429 1.000000
0.315116 0.163429 1.000000
0.466802 0.163429 1.000000
0.618489 0.163429 1.000000
0.770176 0.163429 1.000000
0.921862 0.163429 1.000000
1.000000 0.163429 1.000000
1.000000 0.163429 1.000000
0.000000 0.315116 1.000000
0.163429 0.315116 1.000000
0.315116 0.315116 1.000000
0.466802 0.315116 1.000000
0.618489 0.315116 1.000000
0.770176 0.315116 1.000000
0.921862 0.315116 1.000000
1.000000 0.315116 1.000000
1.000000 0.315116 1.000000
0.000000 0.466802 1.000000
0.163429 0.466802 1.000000
0.315116 0.466802 1.000000
0.466802 0.466802 1.000000
0.618489 0.466802 1.000000
0.770176 0.466802 1.000000
0.921862 0.466802 1.000000
1.000000 0.466802 1.000000
1.000000 0.466802 1.000000
0.000000 0.618489 1.000000
0.163429 0.618489 1.000000
0.315116 0.618489 1.000000
0.466802 0.618489 1.000000
0.618489 0.618489 1.000000
0.770176 0.618489 1.000000
0.921862 0.618489 1.000000
1.000000 0.618489 1.000000
1.000000 0.618489 1.000000
0.000000 0.770176 1.000000
0.163429 0.770176 1.000000
0.315116 0.770176 1.000000
0.466802 0.770176 1.000000
0.618489 0.770176 1.000000
0.770176 0.770176 1.000000
0.921862 0.770176 1.000000
1.000000 0.770176 1.000000
1.000000 0.770176 1.000000
0.000000 0.921862 1.000000
0.163429 0.921862 1.000000
0.315116 0.921862 1.000000
0.466802 0.921862 1.000000
0.618489 0.921862 1.000000
0.770176 0.921862 1.000000
0.921862 0.921862 1.000000
1.000000 0.921862 1.000000
1.000000 0.921862 1.000000
0.000000 1.000000 1.000000
0.163429 1.000000 1.000000
0.315116 1.000000 1.000000
0.466802 1.000000 1.000000
0.618489 1.000000 1.000000
0.770176 1.000000 1.000000
0.921862 1.000000 1.000000
1.000000 1.000000 1.000000
1.000000 1.000000 1.000000
0.000000 1.000000 1.000000
0.163429 1.000000 1.000000
0.315116 1.000000 1.000000
0.466802 1.000000 1.000000
0.618489 1.000000 1.000000
0.770176 1.000000 1.000000
0.921862 1.000000 1.000000
1.000000 1.000000 1.000000
1.000000 1.000000 1.000000
0.000000 0.000000 1.000000
0.163429 0.000000 1.000000
0.315116 0.000000 1.000000
0.466802 0.000000 1.000000
0.618489 0.000000 1.000000
0.770176 0.000000 1.000000
0.921862 0.000000 1.000000
1.000000 0.000000 1.000000
1.000000 0.000000 1.000000
0.000000 0.163429 1.000000
0.163429 0.163429 1.000000
0.315116 0.163429 1.000000
0.466802 0.163429 1.000000
0.618489 0.163429 1.000000
0.770176 0.163429 1.000000
0.921862 0.163429 1.000000
1.000000 0.163429 1.000000
1.000000 0.163429 1.000000
0.000000 0.315116 1.000000
0.163429 0.315116 1.000000
0.315116 0.315116 1.000000
0.466802 0.315116 1.000000
0.618489 0.315116 1.000000
0.770176 0.315116 1.000000
0.921862 0.315116 1.000000
1.000000 0.315116 1.000000
1.000000 0.315116 1.000000
0.000000 0.466802 1.000000
0.163429 0.466802 1.000000
0.315116 0.466802 1.000000
0.466802 0.466802 1.000000
0.618489 0.466802 1.000000
0.770176 0.466802 1.000000
0.921862 0.466802 1.000000
1.000000 0.466802 1.000000
1.000000 0.466802 1.000000
0.000000 0.618489 1.000000
0.163429 0.618489 1.000000
0.315116 0.618489 1.000000
0.466802 0.618489 1.000000
0.618489 0.618489 1.000000
0.770176 0.618489 1.000000
0.921862 0.618489 1.000000
1.000000 0.618489 1.000000
1.000000 0.618489 1.000000
0.000000 0.770176 1.000000
0.163429 0.770176 1.000000
0.315116 0.770176 1.000000
0.466802 0.770176 1.000000
0.618489 0.770176 1.000000
0.770176 0.770176 1.000000
0.921862 0.770176 1.000000
1.000000 0.770176 1.000000
1.000000 0.770176 1.000000
0.000000 0.921862 1.000000
0.163429 0.921862 1.000000
0.315116 0.921862 1.000000
0.466802 0.921862 1.000000
0.618489 0.921862 1.000000
0.770176 0.921862 1.000000
0.921862 0.921862 1.000000
1.000000 0.921862 1.000000
1.000000 0.921862 1.000000
0.000000 1.000000 1.000000
0.163429 1.000000 1.000000
0.315116 1.000000 1.000000
0.466802 1.000000 1.000000
0.618489 1.000000 1.000000
0.770176 1.000000 1.000000
0.921862 1.000000 1.000000
1.000000 1.000000 1.000000
1.000000 1.000000 1.000000
0.000000 1.000000 1.000000
0.163429 1.000000 1.000000
0.315116 1.000000 1.000000
0.466802 1.000000 1.000000
0.618489 1.000000 1.000000
0.770176 1.000000 1.000000
0.921862 1.000000 1.000000
1.000000 1.000000 1.000000
1.000000 1.000000 1.000000
