assets/presets/luts/super-eight/lut.cube
TITLE "Super 8"
LUT_3D_SIZE 5
0.061094 0.050776 0.092801
0.274006 0.056697 0.098642
0.483473 0.062522 0.104388
0.682611 0.068059 0.109851
0.878306 0.073501 0.115220
0.082199 0.285184 0.113350
0.295110 0.291104 0.119191
0.504578 0.296929 0.124938
0.703716 0.302467 0.130401
0.899410 0.307908 0.135770
0.102868 0.514758 0.133477
0.315779 0.520678 0.139318
0.525247 0.526503 0.145064
0.724385 0.532041 0.150527
0.920079 0.537483 0.155896
0.122232 0.729833 0.152332
0.335143 0.735753 0.158173
0.544611 0.741578 0.163919
0.743748 0.747116 0.169382
0.939443 0.752557 0.174751
0.141160 0.940074 0.170763
0.354071 0.945995 0.176604
0.563539 0.951820 0.182350
0.762677 0.957357 0.187814
0.958372 0.962799 0.193182
0.062544 0.052207 0.237581
0.275455 0.058128 0.243422
0.484923 0.063952 0.249169
0.684061 0.069490 0.254632
0.879755 0.074932 0.260000
0.083648 0.286614 0.258131
0.296559 0.292535 0.263972
0.506027 0.298360 0.269718
0.705165 0.303897 0.275181
0.900860 0.309339 0.280550
0.104317 0.516189 0.278257
0.317229 0.522109 0.284098
0.526696 0.527934 0.289844
0.725834 0.533472 0.295308
0.921529 0.538913 0.300676
0.123681 0.731264 0.297112
0.336592 0.737184 0.302953
0.546060 0.743009 0.308700
0.745198 0.748546 0.314163
0.940893 0.753988 0.319531
0.142610 0.941505 0.315543
0.355521 0.947426 0.321384
0.564989 0.953251 0.327131
0.764127 0.958788 0.332594
0.959821 0.964230 0.337963
0.064082 0.053725 0.391136
0.276993 0.059645 0.396977
0.486460 0.065470 0.402723
0.685598 0.071007 0.408187
0.881293 0.076449 0.413555
0.085186 0.288132 0.411686
0.298097 0.294052 0.417527
0.507565 0.299877 0.423273
0.706703 0.305415 0.428736
0.902397 0.310857 0.434105
0.105855 0.517706 0.431812
0.318766 0.523627 0.437653
0.528234 0.529451 0.443399
0.727372 0.534989 0.448863
0.923066 0.540431 0.454231
0.125219 0.732781 0.450667
0.338130 0.738702 0.456508
0.547598 0.744526 0.462254
0.746736 0.750064 0.467718
0.942430 0.755506 0.473086
0.144147 0.943023 0.469098
0.357058 0.948943 0.474939
0.566526 0.954768 0.480686
0.765664 0.960306 0.486149
0.961359 0.965747 0.491518
0.065883 0.055502 0.571015
0.278794 0.061423 0.576856
0.488262 0.067247 0.582602
0.687399 0.072785 0.588065
0.883094 0.078227 0.593434
0.086987 0.289910 0.591564
0.299898 0.295830 0.597405
0.509366 0.301655 0.603152
0.708504 0.307192 0.608615
0.904198 0.312634 0.613984
0.107656 0.519484 0.611691
0.320567 0.525404 0.617532
0.530035 0.531229 0.623278
0.729173 0.536767 0.628741
0.924867 0.542208 0.634110
0.127020 0.734559 0.630546
0.339931 0.740479 0.636387
0.549399 0.746304 0.642133
0.748537 0.751841 0.647596
0.944231 0.757283 0.652965
0.145948 0.944800 0.648977
0.358859 0.950721 0.654818
0.568327 0.956546 0.660564
0.767465 0.962083 0.666028
0.963160 0.967525 0.671396
0.067771 0.057366 0.759668
0.280683 0.063287 0.765509
0.490150 0.069112 0.771255
0.689288 0.074649 0.776718
0.884983 0.080091 0.782087
0.088876 0.291774 0.780218
0.301787 0.297694 0.786059
0.511255 0.303519 0.791805
0.710393 0.309057 0.797268
0.906087 0.314498 0.802637
0.109545 0.521348 0.800344
0.322456 0.527269 0.806185
0.531924 0.533093 0.811931
0.731062 0.538631 0.817394
0.926756 0.544073 0.822763
0.128909 0.736423 0.819199
0.341820 0.742343 0.825040
0.551288 0.748168 0.830786
0.750425 0.753706 0.836250
0.946120 0.759148 0.841618
0.147837 0.946665 0.837630
0.360748 0.952585 0.843471
0.570216 0.958410 0.849218
0.769354 0.963947 0.854681
0.965049 0.969389 0.860049
