assets/presets/luts/super-eight/lut.cube
TITLE "Super 8"
LUT_3D_SIZE 17
0.061094 0.050776 0.092801
0.114080 0.052250 0.094254
0.167335 0.053731 0.095715
0.220697 0.055214 0.097179
0.274006 0.056697 0.098642
0.327099 0.058173 0.100098
0.379816 0.059639 0.101544
0.431994 0.061090 0.102976
0.483473 0.062522 0.104388
0.534146 0.063931 0.105778
0.584118 0.065320 0.107149
0.633553 0.066695 0.108505
0.682611 0.068059 0.109851
0.731454 0.069417 0.111191
0.780243 0.070774 0.112530
0.829140 0.072134 0.113871
0.878306 0.073501 0.115220
0.066340 0.109038 0.097908
0.119326 0.110512 0.099362
0.172580 0.111993 0.100823
0.225943 0.113477 0.102287
0.279251 0.114959 0.103749
0.332344 0.116435 0.105206
0.385061 0.117901 0.106652
0.437240 0.119352 0.108083
0.488719 0.120784 0.109496
0.539391 0.122193 0.110886
0.589364 0.123582 0.112257
0.638799 0.124957 0.113613
0.687857 0.126321 0.114959
0.736700 0.127679 0.116299
0.785489 0.129036 0.117637
0.834386 0.130396 0.118979
0.883551 0.131763 0.120328
0.071619 0.167678 0.103049
0.124605 0.169151 0.104503
0.177860 0.170632 0.105964
0.231222 0.172116 0.107428
0.284531 0.173598 0.108890
0.337624 0.175075 0.110347
0.390340 0.176541 0.111793
0.442519 0.177992 0.113224
0.493998 0.179423 0.114637
0.544671 0.180832 0.116027
0.594643 0.182222 0.117398
0.644078 0.183597 0.118754
0.693136 0.184961 0.120100
0.741979 0.186319 0.121440
0.790768 0.187676 0.122778
0.839665 0.189035 0.124120
0.888831 0.190403 0.125468
0.076912 0.226469 0.108203
0.129898 0.227942 0.109657
0.183153 0.229423 0.111118
0.236515 0.230907 0.112582
0.289824 0.232389 0.114044
0.342917 0.233866 0.115501
0.395634 0.235331 0.116947
0.447812 0.236782 0.118378
0.499291 0.238214 0.119791
0.549964 0.239623 0.121181
0.599936 0.241013 0.122552
0.649371 0.242387 0.123908
0.698429 0.243751 0.125254
0.747272 0.245110 0.126594
0.796061 0.246466 0.127932
0.844958 0.247826 0.129274
0.894124 0.249193 0.130622
0.082199 0.285184 0.113350
0.135184 0.286657 0.114804
0.188439 0.288138 0.116265
0.241801 0.289622 0.117729
0.295110 0.291104 0.119191
0.348203 0.292581 0.120648
0.400920 0.294047 0.122094
0.453098 0.295498 0.123526
0.504578 0.296929 0.124938
0.555250 0.298338 0.126328
0.605223 0.299728 0.127699
0.654657 0.301102 0.129055
0.703716 0.302467 0.130401
0.752559 0.303825 0.131741
0.801348 0.305181 0.133080
0.850244 0.306541 0.134421
0.899410 0.307908 0.135770
0.087458 0.343597 0.118471
0.140443 0.345070 0.119925
0.193698 0.346551 0.121386
0.247060 0.348035 0.122850
0.300369 0.349517 0.124312
0.353462 0.350994 0.125769
0.406179 0.352460 0.127215
0.458358 0.353911 0.128647
0.509837 0.355342 0.130059
0.560509 0.356751 0.131449
0.610482 0.358141 0.132820
0.659917 0.359515 0.134176
0.708975 0.360880 0.135522
0.757818 0.362238 0.136862
0.806607 0.363595 0.138200
0.855503 0.364954 0.139542
0.904669 0.366321 0.140891
0.092669 0.401481 0.123546
0.145655 0.402955 0.125000
0.198910 0.404435 0.126461
0.252272 0.405919 0.127924
0.305580 0.407402 0.129387
0.358674 0.408878 0.130843
0.411390 0.410344 0.132290
0.463569 0.411795 0.133721
0.515048 0.413226 0.135133
0.565720 0.414636 0.136524
0.615693 0.416025 0.137895
0.665128 0.417400 0.139251
0.714186 0.418764 0.140597
0.763029 0.420122 0.141937
0.811818 0.421479 0.143275
0.860715 0.422839 0.144616
0.909881 0.424206 0.145965
0.097813 0.458610 0.128554
0.150798 0.460084 0.130008
0.204053 0.461565 0.131469
0.257415 0.463049 0.132933
0.310724 0.464531 0.134395
0.363817 0.466007 0.135852
0.416534 0.467473 0.137298
0.468712 0.468924 0.138730
0.520192 0.470356 0.140142
0.570864 0.471765 0.141532
0.620837 0.473154 0.142903
0.670271 0.474529 0.144259
0.719330 0.475893 0.145605
0.768173 0.477251 0.146945
0.816962 0.478608 0.148283
0.865858 0.479968 0.149625
0.915024 0.481335 0.150974
0.102868 0.514758 0.133477
0.155854 0.516231 0.134930
0.209108 0.517712 0.136391
0.262471 0.519196 0.137855
0.315779 0.520678 0.139318
0.368872 0.522155 0.140774
0.421589 0.523621 0.142220
0.473768 0.525072 0.143652
0.525247 0.526503 0.145064
0.575919 0.527912 0.146454
0.625892 0.529302 0.147825
0.675327 0.530677 0.149181
0.724385 0.532041 0.150527
0.773228 0.533399 0.151867
0.822017 0.534756 0.153206
0.870914 0.536115 0.154547
0.920079 0.537483 0.155896
0.107821 0.569773 0.138300
0.160807 0.571246 0.139753
0.214061 0.572727 0.141214
0.267424 0.574211 0.142678
0.320732 0.575693 0.144141
0.373825 0.577170 0.145597
0.426542 0.578636 0.147043
0.478721 0.580087 0.148475
0.530200 0.581518 0.149887
0.580872 0.582927 0.151277
0.630845 0.584317 0.152648
0.680280 0.585691 0.154004
0.729338 0.587056 0.155350
0.778181 0.588414 0.156690
0.826970 0.589770 0.158029
0.875867 0.591130 0.159370
0.925032 0.592497 0.160719
0.112686 0.623806 0.143036
0.165671 0.625279 0.144490
0.218926 0.626760 0.145951
0.272288 0.628244 0.147415
0.325597 0.629726 0.148877
0.378690 0.631203 0.150334
0.431407 0.632669 0.151780
0.483585 0.634120 0.153212
0.535065 0.635551 0.154624
0.585737 0.636960 0.156014
0.635710 0.638350 0.157385
0.685144 0.639724 0.158741
0.734203 0.641089 0.160087
0.783046 0.642447 0.161427
0.831835 0.643803 0.162766
0.880731 0.645163 0.164107
0.929897 0.646530 0.165456
0.117482 0.677084 0.147707
0.170468 0.678557 0.149161
0.223723 0.680038 0.150622
0.277085 0.681522 0.152086
0.330394 0.683004 0.153548
0.383487 0.684480 0.155005
0.436204 0.685946 0.156451
0.488382 0.687397 0.157882
0.539861 0.688829 0.159295
0.590534 0.690238 0.160685
0.640506 0.691628 0.162056
0.689941 0.693002 0.163412
0.738999 0.694366 0.164758
0.787842 0.695725 0.166098
0.836631 0.697081 0.167436
0.885528 0.698441 0.168778
0.934694 0.699808 0.170127
0.122232 0.729833 0.152332
0.175217 0.731306 0.153785
0.228472 0.732787 0.155246
0.281834 0.734271 0.156710
0.335143 0.735753 0.158173
0.388236 0.737230 0.159629
0.440953 0.738696 0.161075
0.493131 0.740147 0.162507
0.544611 0.741578 0.163919
0.595283 0.742987 0.165309
0.645256 0.744377 0.166680
0.694690 0.745751 0.168036
0.743748 0.747116 0.169382
0.792591 0.748474 0.170722
0.841381 0.749830 0.172061
0.890277 0.751190 0.173402
0.939443 0.752557 0.174751
0.126954 0.782280 0.156929
0.179939 0.783753 0.158383
0.233194 0.785234 0.159844
0.286556 0.786718 0.161308
0.339865 0.788200 0.162770
0.392958 0.789677 0.164227
0.445675 0.791143 0.165673
0.497853 0.792594 0.167105
0.549332 0.794025 0.168517
0.600005 0.795434 0.169907
0.649978 0.796824 0.171278
0.699412 0.798199 0.172634
0.748470 0.799563 0.173980
0.797313 0.800921 0.175320
0.846102 0.802278 0.176659
0.894999 0.803637 0.178000
0.944165 0.805005 0.179349
0.131669 0.834652 0.161521
0.184654 0.836125 0.162974
0.237909 0.837606 0.164435
0.291271 0.839090 0.165899
0.344580 0.840572 0.167362
0.397673 0.842048 0.168818
0.450390 0.843514 0.170265
0.502568 0.844965 0.171696
0.554048 0.846397 0.173108
0.604720 0.847806 0.174498
0.654693 0.849196 0.175869
0.704127 0.850570 0.177226
0.753186 0.851934 0.178571
0.802028 0.853293 0.179911
0.850818 0.854649 0.181250
0.899714 0.856009 0.182591
0.948880 0.857376 0.183940
0.136397 0.887174 0.166125
0.189383 0.888648 0.167579
0.242638 0.890128 0.169040
0.296000 0.891612 0.170504
0.349309 0.893095 0.171966
0.402402 0.894571 0.173423
0.455119 0.896037 0.174869
0.507297 0.897488 0.176301
0.558776 0.898920 0.177713
0.609449 0.900329 0.179103
0.659421 0.901718 0.180474
0.708856 0.903093 0.181830
0.757914 0.904457 0.183176
0.806757 0.905815 0.184516
0.855546 0.907172 0.185854
0.904443 0.908532 0.187196
0.953609 0.909899 0.188545
0.141160 0.940074 0.170763
0.194146 0.941548 0.172217
0.247401 0.943029 0.173678
0.300763 0.944513 0.175141
0.354071 0.945995 0.176604
0.407165 0.947471 0.178060
0.459881 0.948937 0.179507
0.512060 0.950388 0.180938
0.563539 0.951820 0.182350
0.614211 0.953229 0.183741
0.664184 0.954618 0.185112
0.713619 0.955993 0.186468
0.762677 0.957357 0.187814
0.811520 0.958715 0.189154
0.860309 0.960072 0.190492
0.909206 0.961432 0.191833
0.958372 0.962799 0.193182
0.061463 0.051140 0.129613
0.114449 0.052614 0.131066
0.167703 0.054094 0.132527
0.221066 0.055578 0.133991
0.274374 0.057061 0.135454
0.327467 0.058537 0.136910
0.380184 0.060003 0.138356
0.432363 0.061454 0.139788
0.483842 0.062885 0.141200
0.534514 0.064294 0.142590
0.584487 0.065684 0.143961
0.633922 0.067059 0.145317
0.682980 0.068423 0.146663
0.731823 0.069781 0.148003
0.780612 0.071138 0.149342
0.829509 0.072498 0.150683
0.878674 0.073865 0.152032
0.066708 0.109402 0.134720
0.119694 0.110876 0.136174
0.172949 0.112356 0.137635
0.226311 0.113840 0.139099
0.279620 0.115323 0.140561
0.332713 0.116799 0.142018
0.385430 0.118265 0.143464
0.437608 0.119716 0.144896
0.489087 0.121147 0.146308
0.539760 0.122557 0.147698
0.589732 0.123946 0.149069
0.639167 0.125321 0.150425
0.688225 0.126685 0.151771
0.737068 0.128043 0.153111
0.785857 0.129400 0.154449
0.834754 0.130760 0.155791
0.883920 0.132127 0.157140
0.071988 0.168042 0.139861
0.124974 0.169515 0.141315
0.178228 0.170996 0.142776
0.231591 0.172480 0.144240
0.284899 0.173962 0.145702
0.337992 0.175439 0.147159
0.390709 0.176905 0.148605
0.442888 0.178356 0.150036
0.494367 0.179787 0.151449
0.545039 0.181196 0.152839
0.595012 0.182586 0.154210
0.644447 0.183960 0.155566
0.693505 0.185325 0.156912
0.742348 0.186683 0.158252
0.791137 0.188039 0.159590
0.840034 0.189399 0.160932
0.889199 0.190766 0.162280
0.077281 0.226832 0.145015
0.130267 0.228306 0.146469
0.183521 0.229787 0.147930
0.236884 0.231271 0.149394
0.290192 0.232753 0.150856
0.343285 0.234229 0.152313
0.396002 0.235695 0.153759
0.448181 0.237146 0.155190
0.499660 0.238578 0.156603
0.550332 0.239987 0.157993
0.600305 0.241376 0.159364
0.649740 0.242751 0.160720
0.698798 0.244115 0.162066
0.747641 0.245473 0.163406
0.796430 0.246830 0.164744
0.845327 0.248190 0.166086
0.894493 0.249557 0.167434
0.082567 0.285548 0.150162
0.135553 0.287021 0.151616
0.188808 0.288502 0.153077
0.242170 0.289986 0.154541
0.295478 0.291468 0.156003
0.348572 0.292944 0.157460
0.401288 0.294410 0.158906
0.453467 0.295861 0.160338
0.504946 0.297293 0.161750
0.555618 0.298702 0.163140
0.605591 0.300091 0.164511
0.655026 0.301466 0.165867
0.704084 0.302830 0.167213
0.752927 0.304189 0.168553
0.801716 0.305545 0.169892
0.850613 0.306905 0.171233
0.899779 0.308272 0.172582
0.087826 0.343961 0.155283
0.140812 0.345434 0.156737
0.194067 0.346915 0.158198
0.247429 0.348399 0.159662
0.300738 0.349881 0.161124
0.353831 0.351357 0.162581
0.406547 0.352823 0.164027
0.458726 0.354274 0.165459
0.510205 0.355706 0.166871
0.560878 0.357115 0.168261
0.610850 0.358505 0.169632
0.660285 0.359879 0.170988
0.709343 0.361243 0.172334
0.758186 0.362602 0.173674
0.806975 0.363958 0.175012
0.855872 0.365318 0.176354
0.905038 0.366685 0.177703
0.093038 0.401845 0.160358
0.146024 0.403318 0.161812
0.199278 0.404799 0.163273
0.252641 0.406283 0.164737
0.305949 0.407766 0.166199
0.359042 0.409242 0.167656
0.411759 0.410708 0.169102
0.463938 0.412159 0.170533
0.515417 0.413590 0.171945
0.566089 0.414999 0.173336
0.616062 0.416389 0.174707
0.665497 0.417764 0.176063
0.714555 0.419128 0.177409
0.763398 0.420486 0.178749
0.812187 0.421843 0.180087
0.861084 0.423202 0.181428
0.910249 0.424570 0.182777
0.098181 0.458974 0.165366
0.151167 0.460448 0.166820
0.204422 0.461929 0.168281
0.257784 0.463412 0.169745
0.311092 0.464895 0.171207
0.364186 0.466371 0.172664
0.416902 0.467837 0.174110
0.469081 0.469288 0.175542
0.520560 0.470720 0.176954
0.571232 0.472129 0.178344
0.621205 0.473518 0.179715
0.670640 0.474893 0.181071
0.719698 0.476257 0.182417
0.768541 0.477615 0.183757
0.817330 0.478972 0.185095
0.866227 0.480332 0.186437
0.915393 0.481699 0.187786
0.103236 0.515122 0.170289
0.156222 0.516595 0.171742
0.209477 0.518076 0.173203
0.262839 0.519560 0.174667
0.316148 0.521042 0.176130
0.369241 0.522519 0.177586
0.421958 0.523985 0.179032
0.474136 0.525436 0.180464
0.525615 0.526867 0.181876
0.576288 0.528276 0.183266
0.626260 0.529666 0.184637
0.675695 0.531040 0.185993
0.724753 0.532405 0.187339
0.773596 0.533763 0.188679
0.822385 0.535119 0.190018
0.871282 0.536479 0.191359
0.920448 0.537846 0.192708
0.108190 0.570136 0.175112
0.161175 0.571610 0.176565
0.214430 0.573091 0.178026
0.267792 0.574575 0.179490
0.321101 0.576057 0.180953
0.374194 0.577533 0.182409
0.426911 0.578999 0.183855
0.479089 0.580450 0.185287
0.530569 0.581882 0.186699
0.581241 0.583291 0.188089
0.631213 0.584680 0.189460
0.680648 0.586055 0.190816
0.729706 0.587419 0.192162
0.778549 0.588778 0.193502
0.827339 0.590134 0.194841
0.876235 0.591494 0.196182
0.925401 0.592861 0.197531
0.113054 0.624170 0.179849
0.166040 0.625643 0.181302
0.219295 0.627124 0.182763
0.272657 0.628608 0.184227
0.325965 0.630090 0.185690
0.379059 0.631566 0.187146
0.431775 0.633032 0.188592
0.483954 0.634483 0.190024
0.535433 0.635915 0.191436
0.586105 0.637324 0.192826
0.636078 0.638713 0.194197
0.685513 0.640088 0.195553
0.734571 0.641452 0.196899
0.783414 0.642811 0.198239
0.832203 0.644167 0.199578
0.881100 0.645527 0.200919
0.930266 0.646894 0.202268
0.117851 0.677447 0.184519
0.170837 0.678921 0.185973
0.224091 0.680402 0.187434
0.277454 0.681885 0.188898
0.330762 0.683368 0.190360
0.383855 0.684844 0.191817
0.436572 0.686310 0.193263
0.488751 0.687761 0.194695
0.540230 0.689193 0.196107
0.590902 0.690602 0.197497
0.640875 0.691991 0.198868
0.690310 0.693366 0.200224
0.739368 0.694730 0.201570
0.788211 0.696088 0.202910
0.837000 0.697445 0.204248
0.885897 0.698805 0.205590
0.935062 0.700172 0.206939
0.122600 0.730197 0.189144
0.175586 0.731670 0.190597
0.228841 0.733151 0.192058
0.282203 0.734635 0.193522
0.335511 0.736117 0.194985
0.388605 0.737593 0.196441
0.441321 0.739059 0.197887
0.493500 0.740510 0.199319
0.544979 0.741942 0.200731
0.595651 0.743351 0.202121
0.645624 0.744741 0.203492
0.695059 0.746115 0.204848
0.744117 0.747479 0.206194
0.792960 0.748838 0.207534
0.841749 0.750194 0.208873
0.890646 0.751554 0.210214
0.939812 0.752921 0.211563
0.127322 0.782644 0.193742
0.180308 0.784117 0.195195
0.233562 0.785598 0.196656
0.286925 0.787082 0.198120
0.340233 0.788564 0.199583
0.393327 0.790041 0.201039
0.446043 0.791507 0.202485
0.498222 0.792957 0.203917
0.549701 0.794389 0.205329
0.600373 0.795798 0.206719
0.650346 0.797188 0.208090
0.699781 0.798562 0.209446
0.748839 0.799927 0.210792
0.797682 0.801285 0.212132
0.846471 0.802641 0.213471
0.895368 0.804001 0.214812
0.944534 0.805368 0.216161
0.132037 0.835015 0.198333
0.185023 0.836489 0.199786
0.238278 0.837970 0.201247
0.291640 0.839453 0.202711
0.344948 0.840936 0.204174
0.398042 0.842412 0.205630
0.450758 0.843878 0.207077
0.502937 0.845329 0.208508
0.554416 0.846761 0.209920
0.605088 0.848170 0.211310
0.655061 0.849559 0.212681
0.704496 0.850934 0.214038
0.753554 0.852298 0.215383
0.802397 0.853656 0.216723
0.851186 0.855013 0.218062
0.900083 0.856373 0.219403
0.949249 0.857740 0.220752
0.136766 0.887538 0.202937
0.189752 0.889011 0.204391
0.243006 0.890492 0.205852
0.296369 0.891976 0.207316
0.349677 0.893458 0.208778
0.402770 0.894935 0.210235
0.455487 0.896401 0.211681
0.507666 0.897852 0.213113
0.559145 0.899283 0.214525
0.609817 0.900692 0.215915
0.659790 0.902082 0.217286
0.709225 0.903457 0.218642
0.758283 0.904821 0.219988
0.807126 0.906179 0.221328
0.855915 0.907536 0.222666
0.904812 0.908895 0.224008
0.953977 0.910263 0.225357
0.141529 0.940438 0.207575
0.194514 0.941912 0.209029
0.247769 0.943393 0.210490
0.301131 0.944876 0.211954
0.354440 0.946359 0.213416
0.407533 0.947835 0.214873
0.460250 0.949301 0.216319
0.512429 0.950752 0.217750
0.563908 0.952184 0.219162
0.614580 0.953593 0.220553
0.664553 0.954982 0.221924
0.713987 0.956357 0.223280
0.763046 0.957721 0.224626
0.811889 0.959079 0.225966
0.860678 0.960436 0.227304
0.909574 0.961796 0.228645
0.958740 0.963163 0.229994
0.061825 0.051497 0.165739
0.114810 0.052971 0.167193
0.168065 0.054451 0.168654
0.221427 0.055935 0.170118
0.274736 0.057418 0.171580
0.327829 0.058894 0.173037
0.380546 0.060360 0.174483
0.432724 0.061811 0.175914
0.484204 0.063242 0.177327
0.534876 0.064651 0.178717
0.584849 0.066041 0.180088
0.634283 0.067416 0.181444
0.683342 0.068780 0.182790
0.732185 0.070138 0.184130
0.780974 0.071495 0.185468
0.829870 0.072855 0.186810
0.879036 0.074222 0.188159
0.067070 0.109759 0.170847
0.120056 0.111233 0.172300
0.173311 0.112713 0.173761
0.226673 0.114197 0.175225
0.279981 0.115680 0.176688
0.333075 0.117156 0.178144
0.385791 0.118622 0.179591
0.437970 0.120073 0.181022
0.489449 0.121504 0.182434
0.540121 0.122914 0.183825
0.590094 0.124303 0.185195
0.639529 0.125678 0.186552
0.688587 0.127042 0.187898
0.737430 0.128400 0.189237
0.786219 0.129757 0.190576
0.835116 0.131117 0.191917
0.884282 0.132484 0.193266
0.072350 0.168399 0.175988
0.125335 0.169872 0.177441
0.178590 0.171353 0.178902
0.231952 0.172837 0.180366
0.285261 0.174319 0.181829
0.338354 0.175796 0.183285
0.391071 0.177262 0.184731
0.443249 0.178713 0.186163
0.494729 0.180144 0.187575
0.545401 0.181553 0.188965
0.595374 0.182943 0.190336
0.644808 0.184317 0.191692
0.693867 0.185682 0.193038
0.742709 0.187040 0.194378
0.791499 0.188396 0.195717
0.840395 0.189756 0.197058
0.889561 0.191123 0.198407
0.077643 0.227189 0.181142
0.130628 0.228663 0.182595
0.183883 0.230144 0.184056
0.237245 0.231628 0.185520
0.290554 0.233110 0.186983
0.343647 0.234586 0.188439
0.396364 0.236052 0.189885
0.448542 0.237503 0.191317
0.500022 0.238935 0.192729
0.550694 0.240344 0.194119
0.600667 0.241733 0.195490
0.650101 0.243108 0.196846
0.699160 0.244472 0.198192
0.748003 0.245830 0.199532
0.796792 0.247187 0.200871
0.845688 0.248547 0.202212
0.894854 0.249914 0.203561
0.082929 0.285905 0.186289
0.135915 0.287378 0.187743
0.189169 0.288859 0.189204
0.242532 0.290343 0.190668
0.295840 0.291825 0.192130
0.348933 0.293301 0.193587
0.401650 0.294767 0.195033
0.453829 0.296218 0.196464
0.505308 0.297650 0.197877
0.555980 0.299059 0.199267
0.605953 0.300449 0.200638
0.655388 0.301823 0.201994
0.704446 0.303187 0.203340
0.753289 0.304546 0.204680
0.802078 0.305902 0.206018
0.850975 0.307262 0.207360
0.900140 0.308629 0.208708
0.088188 0.344318 0.191410
0.141174 0.345791 0.192864
0.194428 0.347272 0.194325
0.247791 0.348756 0.195788
0.301099 0.350238 0.197251
0.354192 0.351714 0.198708
0.406909 0.353180 0.200154
0.459088 0.354631 0.201585
0.510567 0.356063 0.202997
0.561239 0.357472 0.204388
0.611212 0.358862 0.205759
0.660647 0.360236 0.207115
0.709705 0.361600 0.208461
0.758548 0.362959 0.209801
0.807337 0.364315 0.211139
0.856234 0.365675 0.212480
0.905400 0.367042 0.213829
0.093400 0.402202 0.196485
0.146385 0.403675 0.197938
0.199640 0.405156 0.199399
0.253002 0.406640 0.200863
0.306311 0.408123 0.202326
0.359404 0.409599 0.203782
0.412121 0.411065 0.205228
0.464299 0.412516 0.206660
0.515779 0.413947 0.208072
0.566451 0.415356 0.209462
0.616423 0.416746 0.210833
0.665858 0.418121 0.212189
0.714916 0.419485 0.213535
0.763759 0.420843 0.214875
0.812549 0.422200 0.216214
0.861445 0.423559 0.217555
0.910611 0.424927 0.218904
0.098543 0.459331 0.201493
0.151529 0.460805 0.202946
0.204783 0.462286 0.204407
0.258146 0.463769 0.205871
0.311454 0.465252 0.207334
0.364547 0.466728 0.208790
0.417264 0.468194 0.210237
0.469443 0.469645 0.211668
0.520922 0.471077 0.213080
0.571594 0.472486 0.214471
0.621567 0.473875 0.215842
0.671002 0.475250 0.217198
0.720060 0.476614 0.218544
0.768903 0.477972 0.219884
0.817692 0.479329 0.221222
0.866589 0.480689 0.222563
0.915754 0.482056 0.223912
0.103598 0.515479 0.206415
0.156584 0.516952 0.207869
0.209839 0.518433 0.209330
0.263201 0.519917 0.210794
0.316509 0.521399 0.212256
0.369603 0.522876 0.213713
0.422319 0.524342 0.215159
0.474498 0.525793 0.216590
0.525977 0.527224 0.218003
0.576649 0.528633 0.219393
0.626622 0.530023 0.220764
0.676057 0.531397 0.222120
0.725115 0.532762 0.223466
0.773958 0.534120 0.224806
0.822747 0.535477 0.226144
0.871644 0.536836 0.227486
0.920810 0.538203 0.228835
0.108551 0.570494 0.211238
0.161537 0.571967 0.212692
0.214792 0.573448 0.214153
0.268154 0.574932 0.215617
0.321462 0.576414 0.217079
0.374556 0.577890 0.218536
0.427272 0.579356 0.219982
0.479451 0.580807 0.221413
0.530930 0.582239 0.222826
0.581602 0.583648 0.224216
0.631575 0.585037 0.225587
0.681010 0.586412 0.226943
0.730068 0.587776 0.228289
0.778911 0.589135 0.229629
0.827700 0.590491 0.230967
0.876597 0.591851 0.232309
0.925763 0.593218 0.233658
0.113416 0.624527 0.215975
0.166402 0.626000 0.217429
0.219656 0.627481 0.218890
0.273019 0.628965 0.220354
0.326327 0.630447 0.221816
0.379420 0.631923 0.223273
0.432137 0.633389 0.224719
0.484316 0.634840 0.226150
0.535795 0.636272 0.227563
0.586467 0.637681 0.228953
0.636440 0.639071 0.230324
0.685875 0.640445 0.231680
0.734933 0.641809 0.233026
0.783776 0.643168 0.234366
0.832565 0.644524 0.235704
0.881462 0.645884 0.237046
0.930627 0.647251 0.238394
0.118213 0.677804 0.220646
0.171198 0.679278 0.222099
0.224453 0.680759 0.223560
0.277815 0.682243 0.225024
0.331124 0.683725 0.226487
0.384217 0.685201 0.227943
0.436934 0.686667 0.229390
0.489112 0.688118 0.230821
0.540592 0.689550 0.232233
0.591264 0.690959 0.233623
0.641237 0.692348 0.234994
0.690671 0.693723 0.236351
0.739730 0.695087 0.237696
0.788573 0.696445 0.239036
0.837362 0.697802 0.240375
0.886258 0.699162 0.241716
0.935424 0.700529 0.243065
0.122962 0.730554 0.225270
0.175948 0.732027 0.226724
0.229202 0.733508 0.228185
0.282565 0.734992 0.229649
0.335873 0.736474 0.231111
0.388966 0.737951 0.232568
0.441683 0.739416 0.234014
0.493862 0.740867 0.235445
0.545341 0.742299 0.236858
0.596013 0.743708 0.238248
0.645986 0.745098 0.239619
0.695421 0.746472 0.240975
0.744479 0.747836 0.242321
0.793322 0.749195 0.243661
0.842111 0.750551 0.244999
0.891008 0.751911 0.246341
0.940173 0.753278 0.247690
0.127684 0.783001 0.229868
0.180670 0.784474 0.231322
0.233924 0.785955 0.232783
0.287286 0.787439 0.234247
0.340595 0.788921 0.235709
0.393688 0.790398 0.237166
0.446405 0.791864 0.238612
0.498584 0.793315 0.240043
0.550063 0.794746 0.241456
0.600735 0.796155 0.242846
0.650708 0.797545 0.244217
0.700143 0.798919 0.245573
0.749201 0.800284 0.246919
0.798044 0.801642 0.248259
0.846833 0.802998 0.249597
0.895730 0.804358 0.250939
0.944895 0.805725 0.252287
0.132399 0.835372 0.234459
0.185385 0.836846 0.235913
0.238639 0.838327 0.237374
0.292002 0.839810 0.238838
0.345310 0.841293 0.240300
0.398403 0.842769 0.241757
0.451120 0.844235 0.243203
0.503299 0.845686 0.244635
0.554778 0.847118 0.246047
0.605450 0.848527 0.247437
0.655423 0.849916 0.248808
0.704858 0.851291 0.250164
0.753916 0.852655 0.251510
0.802759 0.854013 0.252850
0.851548 0.855370 0.254188
0.900445 0.856730 0.255530
0.949610 0.858097 0.256879
0.137128 0.887895 0.239064
0.190113 0.889368 0.240517
0.243368 0.890849 0.241978
0.296730 0.892333 0.243442
0.350039 0.893816 0.244905
0.403132 0.895292 0.246361
0.455849 0.896758 0.247808
0.508027 0.898209 0.249239
0.559507 0.899640 0.250651
0.610179 0.901049 0.252042
0.660152 0.902439 0.253413
0.709586 0.903814 0.254769
0.758645 0.905178 0.256115
0.807488 0.906536 0.257455
0.856277 0.907893 0.258793
0.905173 0.909252 0.260134
0.954339 0.910620 0.261483
0.141890 0.940795 0.243702
0.194876 0.942269 0.245155
0.248131 0.943750 0.246616
0.301493 0.945233 0.248080
0.354802 0.946716 0.249543
0.407895 0.948192 0.250999
0.460612 0.949658 0.252445
0.512790 0.951109 0.253877
0.564269 0.952541 0.255289
0.614942 0.953950 0.256679
0.664914 0.955339 0.258050
0.714349 0.956714 0.259406
0.763407 0.958078 0.260752
0.812250 0.959436 0.262092
0.861039 0.960793 0.263431
0.909936 0.962153 0.264772
0.959102 0.963520 0.266121
0.062184 0.051851 0.201592
0.115169 0.053325 0.203045
0.168424 0.054806 0.204506
0.221786 0.056290 0.205970
0.275095 0.057772 0.207433
0.328188 0.059248 0.208889
0.380905 0.060714 0.210335
0.433083 0.062165 0.211767
0.484563 0.063597 0.213179
0.535235 0.065006 0.214569
0.585208 0.066395 0.215940
0.634642 0.067770 0.217296
0.683701 0.069134 0.218642
0.732544 0.070492 0.219982
0.781333 0.071849 0.221321
0.830229 0.073209 0.222662
0.879395 0.074576 0.224011
0.067429 0.110113 0.206699
0.120415 0.111587 0.208153
0.173670 0.113068 0.209614
