assets/presets/luts/super-eight/lut.cube
TITLE "Super 8"
LUT_3D_SIZE 9
0.061094 0.050776 0.092801
0.167335 0.053731 0.095715
0.274006 0.056697 0.098642
0.379816 0.059639 0.101544
0.483473 0.062522 0.104388
0.584118 0.065320 0.107149
0.682611 0.068059 0.109851
0.780243 0.070774 0.112530
0.878306 0.073501 0.115220
0.071619 0.167678 0.103049
0.177860 0.170632 0.105964
0.284531 0.173598 0.108890
0.390340 0.176541 0.111793
0.493998 0.179423 0.114637
0.594643 0.182222 0.117398
0.693136 0.184961 0.120100
0.790768 0.187676 0.122778
0.888831 0.190403 0.125468
0.082199 0.285184 0.113350
0.188439 0.288138 0.116265
0.295110 0.291104 0.119191
0.400920 0.294047 0.122094
0.504578 0.296929 0.124938
0.605223 0.299728 0.127699
0.703716 0.302467 0.130401
0.801348 0.305181 0.133080
0.899410 0.307908 0.135770
0.092669 0.401481 0.123546
0.198910 0.404435 0.126461
0.305580 0.407402 0.129387
0.411390 0.410344 0.132290
0.515048 0.413226 0.135133
0.615693 0.416025 0.137895
0.714186 0.418764 0.140597
0.811818 0.421479 0.143275
0.909881 0.424206 0.145965
0.102868 0.514758 0.133477
0.209108 0.517712 0.136391
0.315779 0.520678 0.139318
0.421589 0.523621 0.142220
0.525247 0.526503 0.145064
0.625892 0.529302 0.147825
0.724385 0.532041 0.150527
0.822017 0.534756 0.153206
0.920079 0.537483 0.155896
0.112686 0.623806 0.143036
0.218926 0.626760 0.145951
0.325597 0.629726 0.148877
0.431407 0.632669 0.151780
0.535065 0.635551 0.154624
0.635710 0.638350 0.157385
0.734203 0.641089 0.160087
0.831835 0.643803 0.162766
0.929897 0.646530 0.165456
0.122232 0.729833 0.152332
0.228472 0.732787 0.155246
0.335143 0.735753 0.158173
0.440953 0.738696 0.161075
0.544611 0.741578 0.163919
0.645256 0.744377 0.166680
0.743748 0.747116 0.169382
0.841381 0.749830 0.172061
0.939443 0.752557 0.174751
0.131669 0.834652 0.161521
0.237909 0.837606 0.164435
0.344580 0.840572 0.167362
0.450390 0.843514 0.170265
0.554048 0.846397 0.173108
0.654693 0.849196 0.175869
0.753186 0.851934 0.178571
0.850818 0.854649 0.181250
0.948880 0.857376 0.183940
0.141160 0.940074 0.170763
0.247401 0.943029 0.173678
0.354071 0.945995 0.176604
0.459881 0.948937 0.179507
0.563539 0.951820 0.182350
0.664184 0.954618 0.185112
0.762677 0.957357 0.187814
0.860309 0.960072 0.190492
0.958372 0.962799 0.193182
0.061825 0.051497 0.165739
0.168065 0.054451 0.168654
0.274736 0.057418 0.171580
0.380546 0.060360 0.174483
0.484204 0.063242 0.177327
0.584849 0.066041 0.180088
0.683342 0.068780 0.182790
0.780974 0.071495 0.185468
0.879036 0.074222 0.188159
0.072350 0.168399 0.175988
0.178590 0.171353 0.178902
0.285261 0.174319 0.181829
0.391071 0.177262 0.184731
0.494729 0.180144 0.187575
0.595374 0.182943 0.190336
0.693867 0.185682 0.193038
0.791499 0.188396 0.195717
0.889561 0.191123 0.198407
0.082929 0.285905 0.186289
0.189169 0.288859 0.189204
0.295840 0.291825 0.192130
0.401650 0.294767 0.195033
0.505308 0.297650 0.197877
0.605953 0.300449 0.200638
0.704446 0.303187 0.203340
0.802078 0.305902 0.206018
0.900140 0.308629 0.208708
0.093400 0.402202 0.196485
0.199640 0.405156 0.199399
0.306311 0.408123 0.202326
0.412121 0.411065 0.205228
0.515779 0.413947 0.208072
0.616423 0.416746 0.210833
0.714916 0.419485 0.213535
0.812549 0.422200 0.216214
0.910611 0.424927 0.218904
0.103598 0.515479 0.206415
0.209839 0.518433 0.209330
0.316509 0.521399 0.212256
0.422319 0.524342 0.215159
0.525977 0.527224 0.218003
0.626622 0.530023 0.220764
0.725115 0.532762 0.223466
0.822747 0.535477 0.226144
0.920810 0.538203 0.228835
0.113416 0.624527 0.215975
0.219656 0.627481 0.218890
0.326327 0.630447 0.221816
0.432137 0.633389 0.224719
0.535795 0.636272 0.227563
0.636440 0.639071 0.230324
0.734933 0.641809 0.233026
0.832565 0.644524 0.235704
0.930627 0.647251 0.238394
0.122962 0.730554 0.225270
0.229202 0.733508 0.228185
0.335873 0.736474 0.231111
0.441683 0.739416 0.234014
0.545341 0.742299 0.236858
0.645986 0.745098 0.239619
0.744479 0.747836 0.242321
0.842111 0.750551 0.244999
0.940173 0.753278 0.247690
0.132399 0.835372 0.234459
0.238639 0.838327 0.237374
0.345310 0.841293 0.240300
0.451120 0.844235 0.243203
0.554778 0.847118 0.246047
0.655423 0.849916 0.248808
0.753916 0.852655 0.251510
0.851548 0.855370 0.254188
0.949610 0.858097 0.256879
0.141890 0.940795 0.243702
0.248131 0.943750 0.246616
0.354802 0.946716 0.249543
0.460612 0.949658 0.252445
0.564269 0.952541 0.255289
0.664914 0.955339 0.258050
0.763407 0.958078 0.260752
0.861039 0.960793 0.263431
0.959102 0.963520 0.266121
0.062544 0.052207 0.237581
0.168784 0.055161 0.240496
0.275455 0.058128 0.243422
0.381265 0.061070 0.246325
0.484923 0.063952 0.249169
0.585568 0.066751 0.251930
0.684061 0.069490 0.254632
0.781693 0.072205 0.257310
0.879755 0.074932 0.260000
0.073069 0.169109 0.247829
0.179309 0.172063 0.250744
0.285980 0.175029 0.253670
0.391790 0.177972 0.256573
0.495448 0.180854 0.259417
0.596093 0.183653 0.262178
0.694586 0.186392 0.264880
0.792218 0.189106 0.267559
0.890280 0.191833 0.270249
0.083648 0.286614 0.258131
0.189889 0.289569 0.261045
0.296559 0.292535 0.263972
0.402369 0.295477 0.266875
0.506027 0.298360 0.269718
0.606672 0.301158 0.272479
0.705165 0.303897 0.275181
0.802797 0.306612 0.277860
0.900860 0.309339 0.280550
0.094119 0.402912 0.268326
0.200359 0.405866 0.271241
0.307030 0.408832 0.274167
0.412840 0.411775 0.277070
0.516498 0.414657 0.279914
0.617143 0.417456 0.282675
0.715636 0.420195 0.285377
0.813268 0.422910 0.288055
0.911330 0.425637 0.290746
0.104317 0.516189 0.278257
0.210558 0.519143 0.281172
0.317229 0.522109 0.284098
0.423039 0.525052 0.287001
0.526696 0.527934 0.289844
0.627341 0.530733 0.292606
0.725834 0.533472 0.295308
0.823466 0.536186 0.297986
0.921529 0.538913 0.300676
0.114135 0.625237 0.287817
0.220376 0.628191 0.290731
0.327046 0.631157 0.293658
0.432856 0.634099 0.296561
0.536514 0.636982 0.299404
0.637159 0.639780 0.302166
0.735652 0.642519 0.304868
0.833284 0.645234 0.307546
0.931347 0.647961 0.310236
0.123681 0.731264 0.297112
0.229922 0.734218 0.300027
0.336592 0.737184 0.302953
0.442402 0.740126 0.305856
0.546060 0.743009 0.308700
0.646705 0.745808 0.311461
0.745198 0.748546 0.314163
0.842830 0.751261 0.316841
0.940893 0.753988 0.319531
0.133118 0.836082 0.306301
0.239359 0.839037 0.309216
0.346029 0.842003 0.312142
0.451839 0.844945 0.315045
0.555497 0.847828 0.317889
0.656142 0.850626 0.320650
0.754635 0.853365 0.323352
0.852267 0.856080 0.326030
0.950330 0.858807 0.328721
0.142610 0.941505 0.315543
0.248850 0.944459 0.318458
0.355521 0.947426 0.321384
0.461331 0.950368 0.324287
0.564989 0.953251 0.327131
0.665634 0.956049 0.329892
0.764127 0.958788 0.332594
0.861759 0.961503 0.335272
0.959821 0.964230 0.337963
0.063285 0.052939 0.311616
0.169526 0.055893 0.314531
0.276196 0.058859 0.317457
0.382006 0.061802 0.320360
0.485664 0.064684 0.323204
0.586309 0.067483 0.325965
0.684802 0.070222 0.328667
0.782434 0.072936 0.331345
0.880497 0.075663 0.334036
0.073810 0.169840 0.321865
0.180051 0.172795 0.324779
0.286721 0.175761 0.327706
0.392531 0.178703 0.330609
0.496189 0.181586 0.333452
0.596834 0.184384 0.336213
0.695327 0.187123 0.338915
0.792959 0.189838 0.341594
0.891022 0.192565 0.344284
0.084390 0.287346 0.332166
0.190630 0.290300 0.335081
0.297301 0.293267 0.338007
0.403111 0.296209 0.340910
0.506769 0.299091 0.343754
0.607414 0.301890 0.346515
0.705906 0.304629 0.349217
0.803539 0.307344 0.351895
0.901601 0.310071 0.354586
0.094860 0.403644 0.342362
0.201101 0.406598 0.345276
0.307771 0.409564 0.348203
0.413581 0.412506 0.351106
0.517239 0.415389 0.353949
0.617884 0.418188 0.356710
0.716377 0.420926 0.359412
0.814009 0.423641 0.362091
0.912072 0.426368 0.364781
0.105059 0.516920 0.352292
0.211299 0.519875 0.355207
0.317970 0.522841 0.358133
0.423780 0.525783 0.361036
0.527438 0.528666 0.363880
0.628083 0.531464 0.366641
0.726576 0.534203 0.369343
0.824208 0.536918 0.372021
0.922270 0.539645 0.374712
0.114877 0.625968 0.361852
0.221117 0.628922 0.364767
0.327788 0.631889 0.367693
0.433598 0.634831 0.370596
0.537256 0.637713 0.373440
0.637901 0.640512 0.376201
0.736393 0.643251 0.378903
0.834026 0.645966 0.381581
0.932088 0.648693 0.384272
0.124422 0.731995 0.371147
0.230663 0.734949 0.374062
0.337334 0.737916 0.376988
0.443144 0.740858 0.379891
0.546801 0.743740 0.382735
0.647446 0.746539 0.385496
0.745939 0.749278 0.388198
0.843571 0.751993 0.390877
0.941634 0.754720 0.393567
0.133860 0.836814 0.380337
0.240100 0.839768 0.383251
0.346771 0.842734 0.386178
0.452581 0.845677 0.389080
0.556239 0.848559 0.391924
0.656884 0.851358 0.394685
0.755376 0.854097 0.397387
0.853009 0.856812 0.400066
0.951071 0.859538 0.402756
0.143351 0.942237 0.389579
0.249591 0.945191 0.392493
0.356262 0.948157 0.395420
0.462072 0.951100 0.398322
0.565730 0.953982 0.401166
0.666375 0.956781 0.403927
0.764868 0.959520 0.406629
0.862500 0.962235 0.409308
0.960563 0.964961 0.411998
0.064082 0.053725 0.391136
0.170322 0.056679 0.394051
0.276993 0.059645 0.396977
0.382803 0.062587 0.399880
0.486460 0.065470 0.402723
0.587105 0.068269 0.405485
0.685598 0.071007 0.408187
0.783230 0.073722 0.410865
0.881293 0.076449 0.413555
0.074606 0.170626 0.401384
0.180847 0.173580 0.404299
0.287518 0.176547 0.407225
0.393328 0.179489 0.410128
0.496985 0.182371 0.412972
0.597630 0.185170 0.415733
0.696123 0.187909 0.418435
0.793755 0.190624 0.421113
0.891818 0.193351 0.423804
0.085186 0.288132 0.411686
0.191426 0.291086 0.414600
0.298097 0.294052 0.417527
0.403907 0.296995 0.420430
0.507565 0.299877 0.423273
0.608210 0.302676 0.426034
0.706703 0.305415 0.428736
0.804335 0.308130 0.431415
0.902397 0.310857 0.434105
0.095656 0.404429 0.421881
0.201897 0.407384 0.424796
0.308567 0.410350 0.427722
0.414377 0.413292 0.430625
0.518035 0.416175 0.433469
0.618680 0.418973 0.436230
0.717173 0.421712 0.438932
0.814805 0.424427 0.441610
0.912868 0.427154 0.444301
0.105855 0.517706 0.431812
0.212095 0.520660 0.434727
0.318766 0.523627 0.437653
0.424576 0.526569 0.440556
0.528234 0.529451 0.443399
0.628879 0.532250 0.446161
0.727372 0.534989 0.448863
0.825004 0.537704 0.451541
0.923066 0.540431 0.454231
0.115673 0.626754 0.441372
0.221913 0.629708 0.444286
0.328584 0.632674 0.447213
0.434394 0.635617 0.450116
0.538052 0.638499 0.452959
0.638697 0.641298 0.455720
0.737190 0.644037 0.458423
0.834822 0.646752 0.461101
0.932884 0.649479 0.463791
0.125219 0.732781 0.450667
0.231459 0.735735 0.453582
0.338130 0.738702 0.456508
0.443940 0.741644 0.459411
0.547598 0.744526 0.462254
0.648243 0.747325 0.465016
0.746736 0.750064 0.467718
0.844368 0.752779 0.470396
0.942430 0.755506 0.473086
0.134656 0.837600 0.459856
0.240896 0.840554 0.462771
0.347567 0.843520 0.465697
0.453377 0.846463 0.468600
0.557035 0.849345 0.471444
0.657680 0.852144 0.474205
0.756173 0.854883 0.476907
0.853805 0.857597 0.479585
0.951867 0.860324 0.482275
0.144147 0.943023 0.469098
0.250388 0.945977 0.472013
0.357058 0.948943 0.474939
0.462868 0.951886 0.477842
0.566526 0.954768 0.480686
0.667171 0.957567 0.483447
0.765664 0.960306 0.486149
0.863296 0.963020 0.488827
0.961359 0.965747 0.491518
0.064955 0.054586 0.478333
0.171195 0.057541 0.481248
0.277866 0.060507 0.484174
0.383676 0.063449 0.487077
0.487334 0.066332 0.489921
0.587979 0.069130 0.492682
0.686471 0.071869 0.495384
0.784104 0.074584 0.498062
0.882166 0.077311 0.500753
0.075480 0.171488 0.488582
0.181720 0.174442 0.491496
0.288391 0.177408 0.494423
0.394201 0.180351 0.497325
0.497858 0.183233 0.500169
0.598503 0.186032 0.502930
0.696996 0.188771 0.505632
0.794629 0.191486 0.508311
0.892691 0.194212 0.511001
0.086059 0.288994 0.498883
0.192299 0.291948 0.501798
0.298970 0.294914 0.504724
0.404780 0.297856 0.507627
0.508438 0.300739 0.510471
0.609083 0.303538 0.513232
0.707576 0.306276 0.515934
0.805208 0.308991 0.518612
0.903270 0.311718 0.521302
0.096529 0.405291 0.509079
0.202770 0.408245 0.511993
0.309441 0.411212 0.514920
0.415251 0.414154 0.517822
0.518908 0.417036 0.520666
0.619553 0.419835 0.523427
0.718046 0.422574 0.526129
0.815678 0.425289 0.528808
0.913741 0.428016 0.531498
0.106728 0.518568 0.519009
0.212968 0.521522 0.521924
0.319639 0.524488 0.524850
0.425449 0.527431 0.527753
0.529107 0.530313 0.530597
0.629752 0.533112 0.533358
0.728245 0.535851 0.536060
0.825877 0.538566 0.538738
0.923939 0.541292 0.541429
0.116546 0.627616 0.528569
0.222786 0.630570 0.531484
0.329457 0.633536 0.534410
0.435267 0.636478 0.537313
0.538925 0.639361 0.540157
0.639570 0.642160 0.542918
0.738063 0.644898 0.545620
0.835695 0.647613 0.548298
0.933757 0.650340 0.550988
0.126092 0.733643 0.537864
0.232332 0.736597 0.540779
0.339003 0.739563 0.543705
0.444813 0.742506 0.546608
0.548471 0.745388 0.549452
0.649116 0.748187 0.552213
0.747609 0.750926 0.554915
0.845241 0.753640 0.557593
0.943303 0.756367 0.560284
0.135529 0.838461 0.547053
0.241769 0.841416 0.549968
0.348440 0.844382 0.552894
0.454250 0.847324 0.555797
0.557908 0.850207 0.558641
0.658553 0.853005 0.561402
0.757046 0.855744 0.564104
0.854678 0.858459 0.566783
0.952740 0.861186 0.569473
0.145020 0.943884 0.556296
0.251261 0.946839 0.559210
0.357931 0.949805 0.562137
0.463741 0.952747 0.565039
0.567399 0.955630 0.567883
0.668044 0.958428 0.570644
0.766537 0.961167 0.573346
0.864169 0.963882 0.576025
0.962232 0.966609 0.578715
0.065883 0.055502 0.571015
0.172123 0.058456 0.573929
0.278794 0.061423 0.576856
0.384604 0.064365 0.579758
0.488262 0.067247 0.582602
0.588906 0.070046 0.585363
0.687399 0.072785 0.588065
0.785031 0.075500 0.590744
0.883094 0.078227 0.593434
0.076408 0.172404 0.581263
0.182648 0.175358 0.584178
0.289319 0.178324 0.587104
0.395129 0.181267 0.590007
0.498786 0.184149 0.592851
0.599431 0.186948 0.595612
0.697924 0.189687 0.598314
0.795556 0.192401 0.600992
0.893619 0.195128 0.603682
0.086987 0.289910 0.591564
0.193227 0.292864 0.594479
0.299898 0.295830 0.597405
0.405708 0.298772 0.600308
0.509366 0.301655 0.603152
0.610011 0.304454 0.605913
0.708504 0.307192 0.608615
0.806136 0.309907 0.611294
0.904198 0.312634 0.613984
0.097457 0.406207 0.601760
0.203698 0.409161 0.604675
0.310369 0.412128 0.607601
0.416178 0.415070 0.610504
0.519836 0.417952 0.613347
0.620481 0.420751 0.616109
0.718974 0.423490 0.618811
0.816606 0.426205 0.621489
0.914669 0.428932 0.624179
0.107656 0.519484 0.611691
0.213896 0.522438 0.614605
0.320567 0.525404 0.617532
0.426377 0.528347 0.620434
0.530035 0.531229 0.623278
0.630680 0.534028 0.626039
0.729173 0.536767 0.628741
0.826805 0.539482 0.631420
0.924867 0.542208 0.634110
0.117474 0.628532 0.621251
0.223714 0.631486 0.624165
0.330385 0.634452 0.627092
0.436195 0.637394 0.629994
0.539853 0.640277 0.632838
0.640498 0.643076 0.635599
0.738991 0.645814 0.638301
0.836623 0.648529 0.640980
0.934685 0.651256 0.643670
0.127020 0.734559 0.630546
0.233260 0.737513 0.633460
0.339931 0.740479 0.636387
0.445741 0.743421 0.639289
0.549399 0.746304 0.642133
0.650044 0.749103 0.644894
0.748537 0.751841 0.647596
0.846169 0.754556 0.650275
0.944231 0.757283 0.652965
0.136457 0.839377 0.639735
0.242697 0.842332 0.642649
0.349368 0.845298 0.645576
0.455178 0.848240 0.648479
0.558836 0.851123 0.651322
0.659481 0.853921 0.654083
0.757974 0.856660 0.656785
0.855606 0.859375 0.659464
0.953668 0.862102 0.662154
0.145948 0.944800 0.648977
0.252189 0.947755 0.651892
0.358859 0.950721 0.654818
0.464669 0.953663 0.657721
0.568327 0.956546 0.660564
0.668972 0.959344 0.663326
0.767465 0.962083 0.666028
0.865097 0.964798 0.668706
0.963160 0.967525 0.671396
0.066832 0.056440 0.665890
0.173073 0.059394 0.668804
0.279744 0.062360 0.671731
0.385554 0.065303 0.674633
0.489211 0.068185 0.677477
0.589856 0.070984 0.680238
0.688349 0.073723 0.682940
0.785981 0.076437 0.685619
0.884044 0.079164 0.688309
0.077357 0.173341 0.676138
0.183598 0.176296 0.679053
0.290269 0.179262 0.681979
0.396079 0.182204 0.684882
0.499736 0.185087 0.687726
0.600381 0.187885 0.690487
0.698874 0.190624 0.693189
0.796506 0.193339 0.695867
0.894569 0.196066 0.698557
0.087937 0.290847 0.686440
0.194177 0.293801 0.689354
0.300848 0.296768 0.692280
0.406658 0.299710 0.695183
0.510316 0.302592 0.698027
0.610961 0.305391 0.700788
0.709454 0.308130 0.703490
0.807086 0.310845 0.706169
0.905148 0.313572 0.708859
0.098407 0.407145 0.696635
0.204648 0.410099 0.699550
0.311318 0.413065 0.702476
0.417128 0.416007 0.705379
0.520786 0.418890 0.708223
0.621431 0.421689 0.710984
0.719924 0.424427 0.713686
0.817556 0.427142 0.716364
0.915619 0.429869 0.719054
0.108606 0.520421 0.706566
0.214846 0.523376 0.709480
0.321517 0.526342 0.712407
0.427327 0.529284 0.715309
0.530985 0.532167 0.718153
0.631630 0.534965 0.720914
0.730123 0.537704 0.723616
0.827755 0.540419 0.726295
0.925817 0.543146 0.728985
0.118424 0.629469 0.716126
0.224664 0.632423 0.719040
0.331335 0.635390 0.721967
0.437145 0.638332 0.724869
0.540803 0.641214 0.727713
0.641448 0.644013 0.730474
0.739941 0.646752 0.733176
0.837573 0.649467 0.735855
0.935635 0.652194 0.738545
0.127970 0.735496 0.725421
0.234210 0.738450 0.728335
0.340881 0.741417 0.731262
0.446691 0.744359 0.734164
0.550349 0.747241 0.737008
0.650994 0.750040 0.739769
0.749487 0.752779 0.742471
0.847119 0.755494 0.745150
0.945181 0.758221 0.747840
0.137407 0.840315 0.734610
0.243647 0.843269 0.737524
0.350318 0.846235 0.740451
0.456128 0.849178 0.743354
0.559786 0.852060 0.746197
0.660431 0.854859 0.748958
0.758924 0.857598 0.751660
0.856556 0.860313 0.754339
0.954618 0.863040 0.757029
0.146898 0.945738 0.743852
0.253139 0.948692 0.746767
0.359809 0.951658 0.749693
0.465619 0.954601 0.752596
0.569277 0.957483 0.755439
0.669922 0.960282 0.758201
0.768415 0.963021 0.760903
0.866047 0.965736 0.763581
0.964110 0.968462 0.766271
0.067771 0.057366 0.759668
0.174012 0.060321 0.762582
0.280683 0.063287 0.765509
0.386493 0.066229 0.768412
0.490150 0.069112 0.771255
0.590795 0.071910 0.774016
0.689288 0.074649 0.776718
0.786920 0.077364 0.779397
0.884983 0.080091 0.782087
0.078296 0.174268 0.769916
0.184537 0.177222 0.772831
0.291208 0.180189 0.775757
0.397017 0.183131 0.778660
0.500675 0.186013 0.781504
0.601320 0.188812 0.784265
0.699813 0.191551 0.786967
0.797445 0.194266 0.789645
0.895508 0.196993 0.792336
0.088876 0.291774 0.780218
0.195116 0.294728 0.783132
0.301787 0.297694 0.786059
0.407597 0.300637 0.788961
0.511255 0.303519 0.791805
0.611900 0.306318 0.794566
0.710393 0.309057 0.797268
0.808025 0.311772 0.799947
0.906087 0.314498 0.802637
0.099346 0.408071 0.790413
0.205587 0.411026 0.793328
0.312257 0.413992 0.796254
0.418067 0.416934 0.799157
0.521725 0.419817 0.802001
0.622370 0.422615 0.804762
0.720863 0.425354 0.807464
0.818495 0.428069 0.810142
0.916558 0.430796 0.812833
0.109545 0.521348 0.800344
0.215785 0.524302 0.803258
0.322456 0.527269 0.806185
0.428266 0.530211 0.809088
0.531924 0.533093 0.811931
0.632569 0.535892 0.814692
0.731062 0.538631 0.817394
0.828694 0.541346 0.820073
0.926756 0.544073 0.822763
0.119363 0.630396 0.809904
0.225603 0.633350 0.812818
0.332274 0.636316 0.815745
0.438084 0.639259 0.818648
0.541742 0.642141 0.821491
0.642387 0.644940 0.824252
0.740880 0.647679 0.826954
0.838512 0.650394 0.829633
0.936574 0.653120 0.832323
0.128909 0.736423 0.819199
0.235149 0.739377 0.822113
0.341820 0.742343 0.825040
0.447630 0.745286 0.827943
0.551288 0.748168 0.830786
0.651933 0.750967 0.833547
0.750425 0.753706 0.836250
0.848058 0.756421 0.838928
0.946120 0.759148 0.841618
0.138346 0.841242 0.828388
0.244586 0.844196 0.831303
0.351257 0.847162 0.834229
0.457067 0.850105 0.837132
0.560725 0.852987 0.839976
0.661370 0.855786 0.842737
0.759863 0.858525 0.845439
0.857495 0.861239 0.848117
0.955557 0.863966 0.850807
0.147837 0.946665 0.837630
0.254078 0.949619 0.840545
0.360748 0.952585 0.843471
0.466558 0.955527 0.846374
0.570216 0.958410 0.849218
0.670861 0.961209 0.851979
0.769354 0.963947 0.854681
0.866986 0.966662 0.857359
0.965049 0.969389 0.860049
