assets/presets/luts/mono-green/lut.cube
TITLE "Mono Green"
LUT_3D_SIZE 9
0.000000 0.000000 0.000000
0.002851 0.002851 0.002851
0.008139 0.008139 0.008139
0.015162 0.015162 0.015162
0.023702 0.023702 0.023702
0.033645 0.033645 0.033645
0.044922 0.044922 0.044922
0.057480 0.057480 0.057480
0.071279 0.071279 0.071279
0.031548 0.031548 0.031548
0.042562 0.042562 0.042562
0.054867 0.054867 0.054867
0.068421 0.068421 0.068421
0.083188 0.083188 0.083188
0.099133 0.099133 0.099133
0.116223 0.116223 0.116223
0.134420 0.134420 0.134420
0.153688 0.153688 0.153688
0.095851 0.095851 0.095851
0.112715 0.112715 0.112715
0.130694 0.130694 0.130694
0.149751 0.149751 0.149751
0.169843 0.169843 0.169843
0.190926 0.190926 0.190926
0.212948 0.212948 0.212948
0.235856 0.235856 0.235856
0.259587 0.259587 0.259587
0.186633 0.186633 0.186633
0.208471 0.208471 0.208471
0.231206 0.231206 0.231206
0.254778 0.254778 0.254778
0.279123 0.279123 0.279123
0.304173 0.304173 0.304173
0.329854 0.329854 0.329854
0.356088 0.356088 0.356088
0.382794 0.382794 0.382794
0.299110 0.299110 0.299110
0.324671 0.324671 0.324671
0.350801 0.350801 0.350801
0.377419 0.377419 0.377419
0.404442 0.404442 0.404442
0.431782 0.431782 0.431782
0.459349 0.459349 0.459349
0.487052 0.487052 0.487052
0.514798 0.514798 0.514798
0.426293 0.426293 0.426293
0.453822 0.453822 0.453822
0.481505 0.481505 0.481505
0.509249 0.509249 0.509249
0.536963 0.536963 0.536963
0.564554 0.564554 0.564554
0.591929 0.591929 0.591929
0.618999 0.618999 0.618999
0.645676 0.645676 0.645676
0.559050 0.559050 0.559050
0.586475 0.586475 0.586475
0.613614 0.613614 0.613614
0.640377 0.640377 0.640377
0.666679 0.666679 0.666679
0.692438 0.692438 0.692438
0.717576 0.717576 0.717576
0.742019 0.742019 0.742019
0.765698 0.765698 0.765698
0.687333 0.687333 0.687333
0.712602 0.712602 0.712602
0.737189 0.737189 0.737189
0.761026 0.761026 0.761026
0.784047 0.784047 0.784047
0.806191 0.806191 0.806191
0.827402 0.827402 0.827402
0.847629 0.847629 0.847629
0.866827 0.866827 0.866827
0.801835 0.801835 0.801835
0.823237 0.823237 0.823237
0.843665 0.843665 0.843665
0.863072 0.863072 0.863072
0.881414 0.881414 0.881414
0.898654 0.898654 0.898654
0.914753 0.914753 0.914753
0.929679 0.929679 0.929679
0.943397 0.943397 0.943397
0.002299 0.002299 0.002299
0.007327 0.007327 0.007327
0.014135 0.014135 0.014135
0.022480 0.022480 0.022480
0.032241 0.032241 0.032241
0.043343 0.043343 0.043343
0.055733 0.055733 0.055733
0.069368 0.069368 0.069368
0.084215 0.084215 0.084215
0.041018 0.041018 0.041018
0.053154 0.053154 0.053154
0.066543 0.066543 0.066543
0.081150 0.081150 0.081150
0.096940 0.096940 0.096940
0.113879 0.113879 0.113879
0.131931 0.131931 0.131931
0.151058 0.151058 0.151058
0.171218 0.171218 0.171218
0.110401 0.110401 0.110401
0.128234 0.128234 0.128234
0.147149 0.147149 0.147149
0.167106 0.167106 0.167106
0.188059 0.188059 0.188059
0.209960 0.209960 0.209960
0.232752 0.232752 0.232752
0.256378 0.256378 0.256378
0.280772 0.280772 0.280772
0.205506 0.205506 0.205506
0.228125 0.228125 0.228125
0.251589 0.251589 0.251589
0.275835 0.275835 0.275835
0.300795 0.300795 0.300795
0.326396 0.326396 0.326396
0.352561 0.352561 0.352561
0.379209 0.379209 0.379209
0.406256 0.406256 0.406256
0.321228 0.321228 0.321228
0.347287 0.347287 0.347287
0.373845 0.373845 0.373845
0.400819 0.400819 0.400819
0.428121 0.428121 0.428121
0.455663 0.455663 0.455663
0.483353 0.483353 0.483353
0.511099 0.511099 0.511099
0.538808 0.538808 0.538808
0.450140 0.450140 0.450140
0.477808 0.477808 0.477808
0.505550 0.505550 0.505550
0.533273 0.533273 0.533273
0.560885 0.560885 0.560885
0.588295 0.588295 0.588295
0.615411 0.615411 0.615411
0.642145 0.642145 0.642145
0.668414 0.668414 0.668414
0.582833 0.582833 0.582833
0.610015 0.610015 0.610015
0.636833 0.636833 0.636833
0.663201 0.663201 0.663201
0.689037 0.689037 0.689037
0.714263 0.714263 0.714263
0.738803 0.738803 0.738803
0.762587 0.762587 0.762587
0.785551 0.785551 0.785551
0.709270 0.709270 0.709270
0.733953 0.733953 0.733953
0.757894 0.757894 0.757894
0.781027 0.781027 0.781027
0.803291 0.803291 0.803291
0.824630 0.824630 0.824630
0.844991 0.844991 0.844991
0.864328 0.864328 0.864328
0.882598 0.882598 0.882598
0.820438 0.820438 0.820438
0.840999 0.840999 0.840999
0.860545 0.860545 0.860545
0.879031 0.879031 0.879031
0.896420 0.896420 0.896420
0.912674 0.912674 0.912674
0.927758 0.927758 0.927758
0.941639 0.941639 0.941639
0.954281 0.954281 0.954281
0.006546 0.006546 0.006546
0.013135 0.013135 0.013135
0.021284 0.021284 0.021284
0.030861 0.030861 0.030861
0.041787 0.041787 0.041787
0.054008 0.054008 0.054008
0.067480 0.067480 0.067480
0.082166 0.082166 0.082166
0.098034 0.098034 0.098034
0.051462 0.051462 0.051462
0.064687 0.064687 0.064687
0.079134 0.079134 0.079134
0.094768 0.094768 0.094768
0.111555 0.111555 0.111555
0.129461 0.129461 0.129461
0.148448 0.148448 0.148448
0.168472 0.168472 0.168472
0.189491 0.189491 0.189491
0.125793 0.125793 0.125793
0.144566 0.144566 0.144566
0.164386 0.164386 0.164386
0.185210 0.185210 0.185210
0.206987 0.206987 0.206987
0.229664 0.229664 0.229664
0.253182 0.253182 0.253182
0.277478 0.277478 0.277478
0.302483 0.302483 0.302483
0.225059 0.225059 0.225059
0.248414 0.248414 0.248414
0.272559 0.272559 0.272559
0.297428 0.297428 0.297428
0.322948 0.322948 0.322948
0.349043 0.349043 0.349043
0.375631 0.375631 0.375631
0.402630 0.402630 0.402630
0.429951 0.429951 0.429951
0.343782 0.343782 0.343782
0.370278 0.370278 0.370278
0.397201 0.397201 0.397201
0.424465 0.424465 0.424465
0.451981 0.451981 0.451981
0.479656 0.479656 0.479656
0.507400 0.507400 0.507400
0.535119 0.535119 0.535119
0.562720 0.562720 0.562720
0.474113 0.474113 0.474113
0.501850 0.501850 0.501850
0.529581 0.529581 0.529581
0.557214 0.557214 0.557214
0.584655 0.584655 0.584655
0.611815 0.611815 0.611815
0.638606 0.638606 0.638606
0.664941 0.664941 0.664941
0.690739 0.690739 0.690739
0.606410 0.606410 0.606410
0.633281 0.633281 0.633281
0.659714 0.659714 0.659714
0.685626 0.685626 0.685626
0.710937 0.710937 0.710937
0.735573 0.735573 0.735573
0.759462 0.759462 0.759462
0.782539 0.782539 0.782539
0.804743 0.804743 0.804743
0.730703 0.730703 0.730703
0.754747 0.754747 0.754747
0.777992 0.777992 0.777992
0.800375 0.800375 0.800375
0.821840 0.821840 0.821840
0.842334 0.842334 0.842334
0.861810 0.861810 0.861810
0.880225 0.880225 0.880225
0.897539 0.897539 0.897539
0.838315 0.838315 0.838315
0.857999 0.857999 0.857999
0.876629 0.876629 0.876629
0.894166 0.894166 0.894166
0.910573 0.910573 0.910573
0.925816 0.925816 0.925816
0.939859 0.939859 0.939859
0.952668 0.952668 0.952668
0.964204 0.964204 0.964204
0.012162 0.012162 0.012162
0.020112 0.020112 0.020112
0.029505 0.029505 0.029505
0.040255 0.040255 0.040255
0.052305 0.052305 0.052305
0.065612 0.065612 0.065612
0.080139 0.080139 0.080139
0.095851 0.095851 0.095851
0.112715 0.112715 0.112715
0.062852 0.062852 0.062852
0.077138 0.077138 0.077138
0.092616 0.092616 0.092616
0.109252 0.109252 0.109252
0.127011 0.127011 0.127011
0.145855 0.145855 0.145855
0.165744 0.165744 0.165744
0.186633 0.186633 0.186633
0.208471 0.208471 0.208471
0.142001 0.142001 0.142001
0.161685 0.161685 0.161685
0.182377 0.182377 0.182377
0.204030 0.204030 0.204030
0.226590 0.226590 0.226590
0.250000 0.250000 0.250000
0.274196 0.274196 0.274196
0.299110 0.299110 0.299110
0.324671 0.324671 0.324671
0.245253 0.245253 0.245253
0.269297 0.269297 0.269297
0.294073 0.294073 0.294073
0.319511 0.319511 0.319511
0.345533 0.345533 0.345533
0.372061 0.372061 0.372061
0.399009 0.399009 0.399009
0.426293 0.426293 0.426293
0.453822 0.453822 0.453822
0.366719 0.366719 0.366719
0.393590 0.393590 0.393590
0.420814 0.420814 0.420814
0.448301 0.448301 0.448301
0.475960 0.475960 0.475960
0.503700 0.503700 0.503700
0.531427 0.531427 0.531427
0.559050 0.559050 0.559050
0.586475 0.586475 0.586475
0.498150 0.498150 0.498150
0.525887 0.525887 0.525887
0.553538 0.553538 0.553538
0.581010 0.581010 0.581010
0.608213 0.608213 0.608213
0.635058 0.635058 0.635058
0.661459 0.661459 0.661459
0.687333 0.687333 0.687333
0.712602 0.712602 0.712602
0.629722 0.629722 0.629722
0.656218 0.656218 0.656218
0.682204 0.682204 0.682204
0.707600 0.707600 0.707600
0.732330 0.732330 0.732330
0.756322 0.756322 0.756322
0.779511 0.779511 0.779511
0.801835 0.801835 0.801835
0.823237 0.823237 0.823237
0.751586 0.751586 0.751586
0.774941 0.774941 0.774941
0.797442 0.797442 0.797442
0.819033 0.819033 0.819033
0.839659 0.839659 0.839659
0.859274 0.859274 0.859274
0.877833 0.877833 0.877833
0.895296 0.895296 0.895296
0.911626 0.911626 0.911626
0.855434 0.855434 0.855434
0.874207 0.874207 0.874207
0.891893 0.891893 0.891893
0.908452 0.908452 0.908452
0.923852 0.923852 0.923852
0.938057 0.938057 0.938057
0.951033 0.951033 0.951033
0.962741 0.962741 0.962741
0.973135 0.973135 0.973135
0.018967 0.018967 0.018967
0.028173 0.028173 0.028173
0.038745 0.038745 0.038745
0.050625 0.050625 0.050625
0.063767 0.063767 0.063767
0.078133 0.078133 0.078133
0.093689 0.093689 0.093689
0.110401 0.110401 0.110401
0.128234 0.128234 0.128234
0.075164 0.075164 0.075164
0.090484 0.090484 0.090484
0.106968 0.106968 0.106968
0.124579 0.124579 0.124579
0.143281 0.143281 0.143281
0.163033 0.163033 0.163033
0.183791 0.183791 0.183791
0.205506 0.205506 0.205506
0.228125 0.228125 0.228125
0.159001 0.159001 0.159001
0.179562 0.179562 0.179562
0.201089 0.201089 0.201089
0.223532 0.223532 0.223532
0.246832 0.246832 0.246832
0.270927 0.270927 0.270927
0.295749 0.295749 0.295749
0.321228 0.321228 0.321228
0.347287 0.347287 0.347287
0.266047 0.266047 0.266047
0.290730 0.290730 0.290730
0.316083 0.316083 0.316083
0.342032 0.342032 0.342032
0.368497 0.368497 0.368497
0.395395 0.395395 0.395395
0.422639 0.422639 0.422639
0.450140 0.450140 0.450140
0.477808 0.477808 0.477808
0.389985 0.389985 0.389985
0.417167 0.417167 0.417167
0.444624 0.444624 0.444624
0.472265 0.472265 0.472265
0.500000 0.500000 0.500000
0.527735 0.527735 0.527735
0.555376 0.555376 0.555376
0.582833 0.582833 0.582833
0.610015 0.610015 0.610015
0.522192 0.522192 0.522192
0.549860 0.549860 0.549860
0.577361 0.577361 0.577361
0.604605 0.604605 0.604605
0.631503 0.631503 0.631503
0.657968 0.657968 0.657968
0.683917 0.683917 0.683917
0.709270 0.709270 0.709270
0.733953 0.733953 0.733953
0.652713 0.652713 0.652713
0.678772 0.678772 0.678772
0.704251 0.704251 0.704251
0.729074 0.729074 0.729074
0.753168 0.753168 0.753168
0.776468 0.776468 0.776468
0.798911 0.798911 0.798911
0.820438 0.820438 0.820438
0.840999 0.840999 0.840999
0.771875 0.771875 0.771875
0.794494 0.794494 0.794494
0.816209 0.816209 0.816209
0.836967 0.836967 0.836967
0.856719 0.856719 0.856719
0.875421 0.875421 0.875421
0.893032 0.893032 0.893032
0.909516 0.909516 0.909516
0.924836 0.924836 0.924836
0.871766 0.871766 0.871766
0.889599 0.889599 0.889599
0.906311 0.906311 0.906311
0.921867 0.921867 0.921867
0.936233 0.936233 0.936233
0.949375 0.949375 0.949375
0.961255 0.961255 0.961255
0.971827 0.971827 0.971827
0.981033 0.981033 0.981033
0.026865 0.026865 0.026865
0.037259 0.037259 0.037259
0.048967 0.048967 0.048967
0.061943 0.061943 0.061943
0.076148 0.076148 0.076148
0.091548 0.091548 0.091548
0.108107 0.108107 0.108107
0.125793 0.125793 0.125793
0.144566 0.144566 0.144566
0.088374 0.088374 0.088374
0.104704 0.104704 0.104704
0.122167 0.122167 0.122167
0.140726 0.140726 0.140726
0.160341 0.160341 0.160341
0.180967 0.180967 0.180967
0.202558 0.202558 0.202558
0.225059 0.225059 0.225059
0.248414 0.248414 0.248414
0.176763 0.176763 0.176763
0.198165 0.198165 0.198165
0.220489 0.220489 0.220489
0.243678 0.243678 0.243678
0.267670 0.267670 0.267670
0.292400 0.292400 0.292400
0.317796 0.317796 0.317796
0.343782 0.343782 0.343782
0.370278 0.370278 0.370278
0.287398 0.287398 0.287398
0.312667 0.312667 0.312667
0.338541 0.338541 0.338541
0.364942 0.364942 0.364942
0.391787 0.391787 0.391787
0.418990 0.418990 0.418990
0.446462 0.446462 0.446462
0.474113 0.474113 0.474113
0.501850 0.501850 0.501850
0.413525 0.413525 0.413525
0.440950 0.440950 0.440950
0.468573 0.468573 0.468573
0.496300 0.496300 0.496300
0.524040 0.524040 0.524040
0.551699 0.551699 0.551699
0.579186 0.579186 0.579186
0.606410 0.606410 0.606410
0.633281 0.633281 0.633281
0.546178 0.546178 0.546178
0.573707 0.573707 0.573707
0.600991 0.600991 0.600991
0.627939 0.627939 0.627939
0.654467 0.654467 0.654467
0.680489 0.680489 0.680489
0.705927 0.705927 0.705927
0.730703 0.730703 0.730703
0.754747 0.754747 0.754747
0.675329 0.675329 0.675329
0.700890 0.700890 0.700890
0.725804 0.725804 0.725804
0.750000 0.750000 0.750000
0.773410 0.773410 0.773410
0.795970 0.795970 0.795970
0.817623 0.817623 0.817623
0.838315 0.838315 0.838315
0.857999 0.857999 0.857999
0.791529 0.791529 0.791529
0.813367 0.813367 0.813367
0.834256 0.834256 0.834256
0.854145 0.854145 0.854145
0.872989 0.872989 0.872989
0.890748 0.890748 0.890748
0.907384 0.907384 0.907384
0.922862 0.922862 0.922862
0.937148 0.937148 0.937148
0.887285 0.887285 0.887285
0.904149 0.904149 0.904149
0.919861 0.919861 0.919861
0.934388 0.934388 0.934388
0.947695 0.947695 0.947695
0.959745 0.959745 0.959745
0.970495 0.970495 0.970495
0.979888 0.979888 0.979888
0.987838 0.987838 0.987838
0.035796 0.035796 0.035796
0.047332 0.047332 0.047332
0.060141 0.060141 0.060141
0.074184 0.074184 0.074184
0.089427 0.089427 0.089427
0.105834 0.105834 0.105834
0.123371 0.123371 0.123371
0.142001 0.142001 0.142001
0.161685 0.161685 0.161685
0.102461 0.102461 0.102461
0.119775 0.119775 0.119775
0.138190 0.138190 0.138190
0.157666 0.157666 0.157666
0.178160 0.178160 0.178160
0.199625 0.199625 0.199625
0.222008 0.222008 0.222008
0.245253 0.245253 0.245253
0.269297 0.269297 0.269297
0.195257 0.195257 0.195257
0.217461 0.217461 0.217461
0.240538 0.240538 0.240538
0.264427 0.264427 0.264427
0.289063 0.289063 0.289063
0.314374 0.314374 0.314374
0.340286 0.340286 0.340286
0.366719 0.366719 0.366719
0.393590 0.393590 0.393590
0.309261 0.309261 0.309261
0.335059 0.335059 0.335059
0.361394 0.361394 0.361394
0.388185 0.388185 0.388185
0.415345 0.415345 0.415345
0.442786 0.442786 0.442786
0.470419 0.470419 0.470419
0.498150 0.498150 0.498150
0.525887 0.525887 0.525887
0.437280 0.437280 0.437280
0.464881 0.464881 0.464881
0.492600 0.492600 0.492600
0.520344 0.520344 0.520344
0.548019 0.548019 0.548019
0.575535 0.575535 0.575535
0.602799 0.602799 0.602799
0.629722 0.629722 0.629722
0.656218 0.656218 0.656218
0.570049 0.570049 0.570049
0.597370 0.597370 0.597370
0.624369 0.624369 0.624369
0.650957 0.650957 0.650957
0.677052 0.677052 0.677052
0.702572 0.702572 0.702572
0.727441 0.727441 0.727441
0.751586 0.751586 0.751586
0.774941 0.774941 0.774941
0.697518 0.697518 0.697518
0.722522 0.722522 0.722522
0.746818 0.746818 0.746818
0.770336 0.770336 0.770336
0.793013 0.793013 0.793013
0.814790 0.814790 0.814790
0.835614 0.835614 0.835614
0.855434 0.855434 0.855434
0.874207 0.874207 0.874207
0.810509 0.810509 0.810509
0.831528 0.831528 0.831528
0.851552 0.851552 0.851552
0.870539 0.870539 0.870539
0.888444 0.888444 0.888444
0.905232 0.905232 0.905232
0.920866 0.920866 0.920866
0.935313 0.935313 0.935313
0.948538 0.948538 0.948538
0.901966 0.901966 0.901966
0.917834 0.917834 0.917834
0.932520 0.932520 0.932520
0.945992 0.945992 0.945992
0.958212 0.958212 0.958212
0.969139 0.969139 0.969139
0.978716 0.978716 0.978716
0.986865 0.986865 0.986865
0.993454 0.993454 0.993454
0.045719 0.045719 0.045719
0.058361 0.058361 0.058361
0.072242 0.072242 0.072242
0.087326 0.087326 0.087326
0.103580 0.103580 0.103580
0.120969 0.120969 0.120969
0.139455 0.139455 0.139455
0.159001 0.159001 0.159001
0.179562 0.179562 0.179562
0.117402 0.117402 0.117402
0.135672 0.135672 0.135672
0.155009 0.155009 0.155009
0.175370 0.175370 0.175370
0.196709 0.196709 0.196709
0.218973 0.218973 0.218973
0.242106 0.242106 0.242106
0.266047 0.266047 0.266047
0.290730 0.290730 0.290730
0.214449 0.214449 0.214449
0.237413 0.237413 0.237413
0.261197 0.261197 0.261197
0.285737 0.285737 0.285737
0.310963 0.310963 0.310963
0.336799 0.336799 0.336799
0.363167 0.363167 0.363167
0.389985 0.389985 0.389985
0.417167 0.417167 0.417167
0.331586 0.331586 0.331586
0.357855 0.357855 0.357855
0.384589 0.384589 0.384589
0.411705 0.411705 0.411705
0.439115 0.439115 0.439115
0.466727 0.466727 0.466727
0.494450 0.494450 0.494450
0.522192 0.522192 0.522192
0.549860 0.549860 0.549860
0.461192 0.461192 0.461192
0.488901 0.488901 0.488901
0.516647 0.516647 0.516647
0.544337 0.544337 0.544337
0.571879 0.571879 0.571879
0.599181 0.599181 0.599181
0.626155 0.626155 0.626155
0.652713 0.652713 0.652713
0.678772 0.678772 0.678772
0.593744 0.593744 0.593744
0.620791 0.620791 0.620791
0.647439 0.647439 0.647439
0.673604 0.673604 0.673604
0.699205 0.699205 0.699205
0.724165 0.724165 0.724165
0.748411 0.748411 0.748411
0.771875 0.771875 0.771875
0.794494 0.794494 0.794494
0.719228 0.719228 0.719228
0.743622 0.743622 0.743622
0.767248 0.767248 0.767248
0.790040 0.790040 0.790040
0.811941 0.811941 0.811941
0.832894 0.832894 0.832894
0.852851 0.852851 0.852851
0.871766 0.871766 0.871766
0.889599 0.889599 0.889599
0.828781 0.828781 0.828781
0.848942 0.848942 0.848942
0.868069 0.868069 0.868069
0.886121 0.886121 0.886121
0.903060 0.903060 0.903060
0.918850 0.918850 0.918850
0.933457 0.933457 0.933457
0.946846 0.946846 0.946846
0.958982 0.958982 0.958982
0.915785 0.915785 0.915785
0.930632 0.930632 0.930632
0.944267 0.944267 0.944267
0.956657 0.956657 0.956657
0.967759 0.967759 0.967759
0.977520 0.977520 0.977520
0.985865 0.985865 0.985865
0.992673 0.992673 0.992673
0.997701 0.997701 0.997701
0.056603 0.056603 0.056603
0.070321 0.070321 0.070321
0.085247 0.085247 0.085247
0.101346 0.101346 0.101346
0.118586 0.118586 0.118586
0.136928 0.136928 0.136928
0.156335 0.156335 0.156335
0.176763 0.176763 0.176763
0.198165 0.198165 0.198165
0.133173 0.133173 0.133173
0.152371 0.152371 0.152371
0.172598 0.172598 0.172598
0.193809 0.193809 0.193809
0.215953 0.215953 0.215953
0.238974 0.238974 0.238974
0.262811 0.262811 0.262811
0.287398 0.287398 0.287398
0.312667 0.312667 0.312667
0.234302 0.234302 0.234302
0.257981 0.257981 0.257981
0.282424 0.282424 0.282424
0.307562 0.307562 0.307562
0.333321 0.333321 0.333321
0.359623 0.359623 0.359623
0.386386 0.386386 0.386386
0.413525 0.413525 0.413525
0.440950 0.440950 0.440950
0.354323 0.354323 0.354323
0.381001 0.381001 0.381001
0.408071 0.408071 0.408071
0.435446 0.435446 0.435446
0.463037 0.463037 0.463037
0.490751 0.490751 0.490751
0.518495 0.518495 0.518495
0.546178 0.546178 0.546178
0.573707 0.573707 0.573707
0.485202 0.485202 0.485202
0.512948 0.512948 0.512948
0.540651 0.540651 0.540651
0.568218 0.568218 0.568218
0.595558 0.595558 0.595558
0.622581 0.622581 0.622581
0.649199 0.649199 0.649199
0.675329 0.675329 0.675329
0.700890 0.700890 0.700890
0.617206 0.617206 0.617206
0.643912 0.643912 0.643912
0.670146 0.670146 0.670146
0.695827 0.695827 0.695827
0.720877 0.720877 0.720877
0.745222 0.745222 0.745222
0.768794 0.768794 0.768794
0.791529 0.791529 0.791529
0.813367 0.813367 0.813367
0.740413 0.740413 0.740413
0.764144 0.764144 0.764144
0.787052 0.787052 0.787052
0.809074 0.809074 0.809074
0.830157 0.830157 0.830157
0.850249 0.850249 0.850249
0.869306 0.869306 0.869306
0.887285 0.887285 0.887285
0.904149 0.904149 0.904149
0.846312 0.846312 0.846312
0.865580 0.865580 0.865580
0.883777 0.883777 0.883777
0.900867 0.900867 0.900867
0.916812 0.916812 0.916812
0.931579 0.931579 0.931579
0.945133 0.945133 0.945133
0.957438 0.957438 0.957438
0.968452 0.968452 0.968452
0.928721 0.928721 0.928721
0.942520 0.942520 0.942520
0.955078 0.955078 0.955078
0.966354 0.966354 0.966354
0.976298 0.976298 0.976298
0.984838 0.984838 0.984838
0.991861 0.991861 0.991861
0.997149 0.997149 0.997149
1.000000 1.000000 1.000000
