assets/presets/luts/mono-green/lut.cube
TITLE "Mono Green"
LUT_3D_SIZE 5
0.000000 0.000000 0.000000
0.008139 0.008139 0.008139
0.023702 0.023702 0.023702
0.044922 0.044922 0.044922
0.071279 0.071279 0.071279
0.095851 0.095851 0.095851
0.130694 0.130694 0.130694
0.169843 0.169843 0.169843
0.212948 0.212948 0.212948
0.259587 0.259587 0.259587
0.299110 0.299110 0.299110
0.350801 0.350801 0.350801
0.404442 0.404442 0.404442
0.459349 0.459349 0.459349
0.514798 0.514798 0.514798
0.559050 0.559050 0.559050
0.613614 0.613614 0.613614
0.666679 0.666679 0.666679
0.717576 0.717576 0.717576
0.765698 0.765698 0.765698
0.801835 0.801835 0.801835
0.843665 0.843665 0.843665
0.881414 0.881414 0.881414
0.914753 0.914753 0.914753
0.943397 0.943397 0.943397
0.006546 0.006546 0.006546
0.021284 0.021284 0.021284
0.041787 0.041787 0.041787
0.067480 0.067480 0.067480
0.098034 0.098034 0.098034
0.125793 0.125793 0.125793
0.164386 0.164386 0.164386
0.206987 0.206987 0.206987
0.253182 0.253182 0.253182
0.302483 0.302483 0.302483
0.343782 0.343782 0.343782
0.397201 0.397201 0.397201
0.451981 0.451981 0.451981
0.507400 0.507400 0.507400
0.562720 0.562720 0.562720
0.606410 0.606410 0.606410
0.659714 0.659714 0.659714
0.710937 0.710937 0.710937
0.759462 0.759462 0.759462
0.804743 0.804743 0.804743
0.838315 0.838315 0.838315
0.876629 0.876629 0.876629
0.910573 0.910573 0.910573
0.939859 0.939859 0.939859
0.964204 0.964204 0.964204
0.018967 0.018967 0.018967
0.038745 0.038745 0.038745
0.063767 0.063767 0.063767
0.093689 0.093689 0.093689
0.128234 0.128234 0.128234
0.159001 0.159001 0.159001
0.201089 0.201089 0.201089
0.246832 0.246832 0.246832
0.295749 0.295749 0.295749
0.347287 0.347287 0.347287
0.389985 0.389985 0.389985
0.444624 0.444624 0.444624
0.500000 0.500000 0.500000
0.555376 0.555376 0.555376
0.610015 0.610015 0.610015
0.652713 0.652713 0.652713
0.704251 0.704251 0.704251
0.753168 0.753168 0.753168
0.798911 0.798911 0.798911
0.840999 0.840999 0.840999
0.871766 0.871766 0.871766
0.906311 0.906311 0.906311
0.936233 0.936233 0.936233
0.961255 0.961255 0.961255
0.981033 0.981033 0.981033
0.035796 0.035796 0.035796
0.060141 0.060141 0.060141
0.089427 0.089427 0.089427
0.123371 0.123371 0.123371
0.161685 0.161685 0.161685
0.195257 0.195257 0.195257
0.240538 0.240538 0.240538
0.289063 0.289063 0.289063
0.340286 0.340286 0.340286
0.393590 0.393590 0.393590
0.437280 0.437280 0.437280
0.492600 0.492600 0.492600
0.548019 0.548019 0.548019
0.602799 0.602799 0.602799
0.656218 0.656218 0.656218
0.697518 0.697518 0.697518
0.746818 0.746818 0.746818
0.793013 0.793013 0.793013
0.835614 0.835614 0.835614
0.874207 0.874207 0.874207
0.901966 0.901966 0.901966
0.932520 0.932520 0.932520
0.958212 0.958212 0.958212
0.978716 0.978716 0.978716
0.993454 0.993454 0.993454
0.056603 0.056603 0.056603
0.085247 0.085247 0.085247
0.118586 0.118586 0.118586
0.156335 0.156335 0.156335
0.198165 0.198165 0.198165
0.234302 0.234302 0.234302
0.282424 0.282424 0.282424
0.333321 0.333321 0.333321
0.386386 0.386386 0.386386
0.440950 0.440950 0.440950
0.485202 0.485202 0.485202
0.540651 0.540651 0.540651
0.595558 0.595558 0.595558
0.649199 0.649199 0.649199
0.700890 0.700890 0.700890
0.740413 0.740413 0.740413
0.787052 0.787052 0.787052
0.830157 0.830157 0.830157
0.869306 0.869306 0.869306
0.904149 0.904149 0.904149
0.928721 0.928721 0.928721
0.955078 0.955078 0.955078
0.976298 0.976298 0.976298
0.991861 0.991861 0.991861
1.000000 1.000000 1.000000
