assets/presets/luts/mono-green/lut.cube
TITLE "Mono Green"
LUT_3D_SIZE 17
0.000000 0.000000 0.000000
0.001010 0.001010 0.001010
0.002851 0.002851 0.002851
0.005257 0.005257 0.005257
0.008139 0.008139 0.008139
0.011451 0.011451 0.011451
0.015162 0.015162 0.015162
0.019251 0.019251 0.019251
0.023702 0.023702 0.023702
0.028503 0.028503 0.028503
0.033645 0.033645 0.033645
0.039120 0.039120 0.039120
0.044922 0.044922 0.044922
0.051043 0.051043 0.051043
0.057480 0.057480 0.057480
0.064226 0.064226 0.064226
0.071279 0.071279 0.071279
0.010756 0.010756 0.010756
0.014389 0.014389 0.014389
0.018404 0.018404 0.018404
0.022783 0.022783 0.022783
0.027516 0.027516 0.027516
0.032590 0.032590 0.032590
0.037999 0.037999 0.037999
0.043736 0.043736 0.043736
0.049793 0.049793 0.049793
0.056167 0.056167 0.056167
0.062852 0.062852 0.062852
0.069844 0.069844 0.069844
0.077138 0.077138 0.077138
0.084730 0.084730 0.084730
0.092616 0.092616 0.092616
0.100791 0.100791 0.100791
0.109252 0.109252 0.109252
0.031548 0.031548 0.031548
0.036891 0.036891 0.036891
0.042562 0.042562 0.042562
0.048556 0.048556 0.048556
0.054867 0.054867 0.054867
0.061491 0.061491 0.061491
0.068421 0.068421 0.068421
0.075655 0.075655 0.075655
0.083188 0.083188 0.083188
0.091015 0.091015 0.091015
0.099133 0.099133 0.099133
0.107537 0.107537 0.107537
0.116223 0.116223 0.116223
0.125185 0.125185 0.125185
0.134420 0.134420 0.134420
0.143923 0.143923 0.143923
0.153688 0.153688 0.153688
0.060141 0.060141 0.060141
0.067011 0.067011 0.067011
0.074184 0.074184 0.074184
0.081658 0.081658 0.081658
0.089427 0.089427 0.089427
0.097487 0.097487 0.097487
0.105834 0.105834 0.105834
0.114463 0.114463 0.114463
0.123371 0.123371 0.123371
0.132552 0.132552 0.132552
0.142001 0.142001 0.142001
0.151714 0.151714 0.151714
0.161685 0.161685 0.161685
0.171908 0.171908 0.171908
0.182377 0.182377 0.182377
0.193087 0.193087 0.193087
0.204030 0.204030 0.204030
0.095851 0.095851 0.095851
0.104141 0.104141 0.104141
0.112715 0.112715 0.112715
0.121567 0.121567 0.121567
0.130694 0.130694 0.130694
0.140090 0.140090 0.140090
0.149751 0.149751 0.149751
0.159670 0.159670 0.159670
0.169843 0.169843 0.169843
0.180264 0.180264 0.180264
0.190926 0.190926 0.190926
0.201823 0.201823 0.201823
0.212948 0.212948 0.212948
0.224295 0.224295 0.224295
0.235856 0.235856 0.235856
0.247622 0.247622 0.247622
0.259587 0.259587 0.259587
0.138190 0.138190 0.138190
0.147798 0.147798 0.147798
0.157666 0.157666 0.157666
0.167789 0.167789 0.167789
0.178160 0.178160 0.178160
0.188774 0.188774 0.188774
0.199625 0.199625 0.199625
0.210705 0.210705 0.210705
0.222008 0.222008 0.222008
0.233527 0.233527 0.233527
0.245253 0.245253 0.245253
0.257179 0.257179 0.257179
0.269297 0.269297 0.269297
0.281598 0.281598 0.281598
0.294073 0.294073 0.294073
0.306714 0.306714 0.306714
0.319511 0.319511 0.319511
0.186633 0.186633 0.186633
0.197436 0.197436 0.197436
0.208471 0.208471 0.208471
0.219730 0.219730 0.219730
0.231206 0.231206 0.231206
0.242891 0.242891 0.242891
0.254778 0.254778 0.254778
0.266858 0.266858 0.266858
0.279123 0.279123 0.279123
0.291565 0.291565 0.291565
0.304173 0.304173 0.304173
0.316939 0.316939 0.316939
0.329854 0.329854 0.329854
0.342907 0.342907 0.342907
0.356088 0.356088 0.356088
0.369387 0.369387 0.369387
0.382794 0.382794 0.382794
0.240538 0.240538 0.240538
0.252385 0.252385 0.252385
0.264427 0.264427 0.264427
0.276656 0.276656 0.276656
0.289063 0.289063 0.289063
0.301638 0.301638 0.301638
0.314374 0.314374 0.314374
0.327259 0.327259 0.327259
0.340286 0.340286 0.340286
0.353442 0.353442 0.353442
0.366719 0.366719 0.366719
0.380105 0.380105 0.380105
0.393590 0.393590 0.393590
0.407163 0.407163 0.407163
0.420814 0.420814 0.420814
0.434530 0.434530 0.434530
0.448301 0.448301 0.448301
0.299110 0.299110 0.299110
0.311814 0.311814 0.311814
0.324671 0.324671 0.324671
0.337670 0.337670 0.337670
0.350801 0.350801 0.350801
0.364054 0.364054 0.364054
0.377419 0.377419 0.377419
0.390886 0.390886 0.390886
0.404442 0.404442 0.404442
0.418078 0.418078 0.418078
0.431782 0.431782 0.431782
0.445543 0.445543 0.445543
0.459349 0.459349 0.459349
0.473189 0.473189 0.473189
0.487052 0.487052 0.487052
0.500925 0.500925 0.500925
0.514798 0.514798 0.514798
0.361394 0.361394 0.361394
0.374738 0.374738 0.374738
0.388185 0.388185 0.388185
0.401724 0.401724 0.401724
0.415345 0.415345 0.415345
0.429036 0.429036 0.429036
0.442786 0.442786 0.442786
0.456584 0.456584 0.456584
0.470419 0.470419 0.470419
0.484278 0.484278 0.484278
0.498150 0.498150 0.498150
0.512024 0.512024 0.512024
0.525887 0.525887 0.525887
0.539729 0.539729 0.539729
0.553538 0.553538 0.553538
0.567302 0.567302 0.567302
0.581010 0.581010 0.581010
0.426293 0.426293 0.426293
0.440032 0.440032 0.440032
0.453822 0.453822 0.453822
0.467650 0.467650 0.467650
0.481505 0.481505 0.481505
0.495375 0.495375 0.495375
0.509249 0.509249 0.509249
0.523116 0.523116 0.523116
0.536963 0.536963 0.536963
0.550780 0.550780 0.550780
0.564554 0.564554 0.564554
0.578274 0.578274 0.578274
0.591929 0.591929 0.591929
0.605508 0.605508 0.605508
0.618999 0.618999 0.618999
0.632392 0.632392 0.632392
0.645676 0.645676 0.645676
0.492600 0.492600 0.492600
0.506475 0.506475 0.506475
0.520344 0.520344 0.520344
0.534196 0.534196 0.534196
0.548019 0.548019 0.548019
0.561803 0.561803 0.561803
0.575535 0.575535 0.575535
0.589204 0.589204 0.589204
0.602799 0.602799 0.602799
0.616308 0.616308 0.616308
0.629722 0.629722 0.629722
0.643029 0.643029 0.643029
0.656218 0.656218 0.656218
0.669280 0.669280 0.669280
0.682204 0.682204 0.682204
0.694981 0.694981 0.694981
0.707600 0.707600 0.707600
0.559050 0.559050 0.559050
0.572793 0.572793 0.572793
0.586475 0.586475 0.586475
0.600086 0.600086 0.600086
0.613614 0.613614 0.613614
0.627047 0.627047 0.627047
0.640377 0.640377 0.640377
0.653590 0.653590 0.653590
0.666679 0.666679 0.666679
0.679631 0.679631 0.679631
0.692438 0.692438 0.692438
0.705089 0.705089 0.705089
0.717576 0.717576 0.717576
0.729889 0.729889 0.729889
0.742019 0.742019 0.742019
0.753958 0.753958 0.753958
0.765698 0.765698 0.765698
0.624369 0.624369 0.624369
0.637720 0.637720 0.637720
0.650957 0.650957 0.650957
0.664072 0.664072 0.664072
0.677052 0.677052 0.677052
0.689889 0.689889 0.689889
0.702572 0.702572 0.702572
0.715092 0.715092 0.715092
0.727441 0.727441 0.727441
0.739608 0.739608 0.739608
0.751586 0.751586 0.751586
0.763366 0.763366 0.763366
0.774941 0.774941 0.774941
0.786302 0.786302 0.786302
0.797442 0.797442 0.797442
0.808355 0.808355 0.808355
0.819033 0.819033 0.819033
0.687333 0.687333 0.687333
0.700048 0.700048 0.700048
0.712602 0.712602 0.712602
0.724985 0.724985 0.724985
0.737189 0.737189 0.737189
0.749206 0.749206 0.749206
0.761026 0.761026 0.761026
0.772643 0.772643 0.772643
0.784047 0.784047 0.784047
0.795232 0.795232 0.795232
0.806191 0.806191 0.806191
0.816916 0.816916 0.816916
0.827402 0.827402 0.827402
0.837641 0.837641 0.837641
0.847629 0.847629 0.847629
0.857359 0.857359 0.857359
0.866827 0.866827 0.866827
0.746818 0.746818 0.746818
0.758678 0.758678 0.758678
0.770336 0.770336 0.770336
0.781784 0.781784 0.781784
0.793013 0.793013 0.793013
0.804018 0.804018 0.804018
0.814790 0.814790 0.814790
0.825324 0.825324 0.825324
0.835614 0.835614 0.835614
0.845652 0.845652 0.845652
0.855434 0.855434 0.855434
0.864954 0.864954 0.864954
0.874207 0.874207 0.874207
0.883188 0.883188 0.883188
0.891893 0.891893 0.891893
0.900315 0.900315 0.900315
0.908452 0.908452 0.908452
0.801835 0.801835 0.801835
0.812655 0.812655 0.812655
0.823237 0.823237 0.823237
0.833576 0.833576 0.833576
0.843665 0.843665 0.843665
0.853499 0.853499 0.853499
0.863072 0.863072 0.863072
0.872378 0.872378 0.872378
0.881414 0.881414 0.881414
0.890174 0.890174 0.890174
0.898654 0.898654 0.898654
0.906848 0.906848 0.906848
0.914753 0.914753 0.914753
0.922365 0.922365 0.922365
0.929679 0.929679 0.929679
0.936691 0.936691 0.936691
0.943397 0.943397 0.943397
0.000816 0.000816 0.000816
0.002570 0.002570 0.002570
0.004907 0.004907 0.004907
0.007729 0.007729 0.007729
0.010986 0.010986 0.010986
0.014645 0.014645 0.014645
0.018684 0.018684 0.018684
0.023088 0.023088 0.023088
0.027843 0.027843 0.027843
0.032940 0.032940 0.032940
0.038372 0.038372 0.038372
0.044130 0.044130 0.044130
0.050209 0.050209 0.050209
0.056603 0.056603 0.056603
0.063309 0.063309 0.063309
0.070321 0.070321 0.070321
0.077635 0.077635 0.077635
0.013882 0.013882 0.013882
0.017847 0.017847 0.017847
0.022179 0.022179 0.022179
0.026865 0.026865 0.026865
0.031894 0.031894 0.031894
0.037259 0.037259 0.037259
0.042952 0.042952 0.042952
0.048967 0.048967 0.048967
0.055299 0.055299 0.055299
0.061943 0.061943 0.061943
0.068894 0.068894 0.068894
0.076148 0.076148 0.076148
0.083701 0.083701 0.083701
0.091548 0.091548 0.091548
0.099685 0.099685 0.099685
0.108107 0.108107 0.108107
0.116812 0.116812 0.116812
0.036160 0.036160 0.036160
0.041787 0.041787 0.041787
0.047739 0.047739 0.047739
0.054008 0.054008 0.054008
0.060590 0.060590 0.060590
0.067480 0.067480 0.067480
0.074673 0.074673 0.074673
0.082166 0.082166 0.082166
0.089955 0.089955 0.089955
0.098034 0.098034 0.098034
0.106400 0.106400 0.106400
0.115048 0.115048 0.115048
0.123974 0.123974 0.123974
0.133173 0.133173 0.133173
0.142641 0.142641 0.142641
0.152371 0.152371 0.152371
0.162358 0.162358 0.162358
0.066077 0.066077 0.066077
0.073211 0.073211 0.073211
0.080644 0.080644 0.080644
0.088374 0.088374 0.088374
0.096395 0.096395 0.096395
0.104704 0.104704 0.104704
0.113296 0.113296 0.113296
0.122167 0.122167 0.122167
0.131312 0.131312 0.131312
0.140726 0.140726 0.140726
0.150404 0.150404 0.150404
0.160341 0.160341 0.160341
0.170530 0.170530 0.170530
0.180967 0.180967 0.180967
0.191645 0.191645 0.191645
0.202558 0.202558 0.202558
0.213698 0.213698 0.213698
0.103020 0.103020 0.103020
0.111555 0.111555 0.111555
0.120371 0.120371 0.120371
0.129461 0.129461 0.129461
0.138822 0.138822 0.138822
0.148448 0.148448 0.148448
0.158333 0.158333 0.158333
0.168472 0.168472 0.168472
0.178860 0.178860 0.178860
0.189491 0.189491 0.189491
0.200357 0.200357 0.200357
0.211452 0.211452 0.211452
0.222770 0.222770 0.222770
0.234302 0.234302 0.234302
0.246042 0.246042 0.246042
0.257981 0.257981 0.257981
0.270111 0.270111 0.270111
0.146501 0.146501 0.146501
0.156335 0.156335 0.156335
0.166424 0.166424 0.166424
0.176763 0.176763 0.176763
0.187345 0.187345 0.187345
0.198165 0.198165 0.198165
0.209215 0.209215 0.209215
0.220489 0.220489 0.220489
0.231979 0.231979 0.231979
0.243678 0.243678 0.243678
0.255578 0.255578 0.255578
0.267670 0.267670 0.267670
0.279947 0.279947 0.279947
0.292400 0.292400 0.292400
0.305019 0.305019 0.305019
0.317796 0.317796 0.317796
0.330720 0.330720 0.330720
0.195982 0.195982 0.195982
0.206987 0.206987 0.206987
0.218216 0.218216 0.218216
0.229664 0.229664 0.229664
0.241322 0.241322 0.241322
0.253182 0.253182 0.253182
0.265237 0.265237 0.265237
0.277478 0.277478 0.277478
0.289896 0.289896 0.289896
0.302483 0.302483 0.302483
0.315228 0.315228 0.315228
0.328124 0.328124 0.328124
0.341159 0.341159 0.341159
0.354323 0.354323 0.354323
0.367608 0.367608 0.367608
0.381001 0.381001 0.381001
0.394492 0.394492 0.394492
0.250794 0.250794 0.250794
0.262811 0.262811 0.262811
0.275015 0.275015 0.275015
0.287398 0.287398 0.287398
0.299952 0.299952 0.299952
0.312667 0.312667 0.312667
0.325533 0.325533 0.325533
0.338541 0.338541 0.338541
0.351681 0.351681 0.351681
0.364942 0.364942 0.364942
0.378314 0.378314 0.378314
0.391787 0.391787 0.391787
0.405349 0.405349 0.405349
0.418990 0.418990 0.418990
0.432698 0.432698 0.432698
0.446462 0.446462 0.446462
0.460271 0.460271 0.460271
0.310111 0.310111 0.310111
0.322948 0.322948 0.322948
0.335928 0.335928 0.335928
0.349043 0.349043 0.349043
0.362280 0.362280 0.362280
0.375631 0.375631 0.375631
0.389085 0.389085 0.389085
0.402630 0.402630 0.402630
0.416256 0.416256 0.416256
0.429951 0.429951 0.429951
0.443705 0.443705 0.443705
0.457506 0.457506 0.457506
0.471342 0.471342 0.471342
0.485202 0.485202 0.485202
0.499075 0.499075 0.499075
0.512948 0.512948 0.512948
0.526811 0.526811 0.526811
0.372952 0.372952 0.372952
0.386386 0.386386 0.386386
0.399914 0.399914 0.399914
0.413525 0.413525 0.413525
0.427207 0.427207 0.427207
0.440950 0.440950 0.440950
0.454742 0.454742 0.454742
0.468573 0.468573 0.468573
0.482429 0.482429 0.482429
0.496300 0.496300 0.496300
0.510174 0.510174 0.510174
0.524040 0.524040 0.524040
0.537885 0.537885 0.537885
0.551699 0.551699 0.551699
0.565470 0.565470 0.565470
0.579186 0.579186 0.579186
0.592837 0.592837 0.592837
0.438197 0.438197 0.438197
0.451981 0.451981 0.451981
0.465804 0.465804 0.465804
0.479656 0.479656 0.479656
0.493525 0.493525 0.493525
0.507400 0.507400 0.507400
0.521268 0.521268 0.521268
0.535119 0.535119 0.535119
0.548940 0.548940 0.548940
0.562720 0.562720 0.562720
0.576448 0.576448 0.576448
0.590112 0.590112 0.590112
0.603702 0.603702 0.603702
0.617206 0.617206 0.617206
0.630613 0.630613 0.630613
0.643912 0.643912 0.643912
0.657093 0.657093 0.657093
0.504625 0.504625 0.504625
0.518495 0.518495 0.518495
0.532350 0.532350 0.532350
0.546178 0.546178 0.546178
0.559968 0.559968 0.559968
0.573707 0.573707 0.573707
0.587385 0.587385 0.587385
0.600991 0.600991 0.600991
0.614512 0.614512 0.614512
0.627939 0.627939 0.627939
0.641261 0.641261 0.641261
0.654467 0.654467 0.654467
0.667546 0.667546 0.667546
0.680489 0.680489 0.680489
0.693286 0.693286 0.693286
0.705927 0.705927 0.705927
0.718402 0.718402 0.718402
0.570964 0.570964 0.570964
0.584655 0.584655 0.584655
0.598276 0.598276 0.598276
0.611815 0.611815 0.611815
0.625262 0.625262 0.625262
0.638606 0.638606 0.638606
0.651836 0.651836 0.651836
0.664941 0.664941 0.664941
0.677912 0.677912 0.677912
0.690739 0.690739 0.690739
0.703412 0.703412 0.703412
0.715921 0.715921 0.715921
0.728257 0.728257 0.728257
0.740413 0.740413 0.740413
0.752378 0.752378 0.752378
0.764144 0.764144 0.764144
0.775705 0.775705 0.775705
0.635946 0.635946 0.635946
0.649199 0.649199 0.649199
0.662330 0.662330 0.662330
0.675329 0.675329 0.675329
0.688186 0.688186 0.688186
0.700890 0.700890 0.700890
0.713432 0.713432 0.713432
0.725804 0.725804 0.725804
0.737996 0.737996 0.737996
0.750000 0.750000 0.750000
0.761807 0.761807 0.761807
0.773410 0.773410 0.773410
0.784800 0.784800 0.784800
0.795970 0.795970 0.795970
0.806913 0.806913 0.806913
0.817623 0.817623 0.817623
0.828092 0.828092 0.828092
0.698362 0.698362 0.698362
0.710937 0.710937 0.710937
0.723344 0.723344 0.723344
0.735573 0.735573 0.735573
0.747615 0.747615 0.747615
0.759462 0.759462 0.759462
0.771106 0.771106 0.771106
0.782539 0.782539 0.782539
0.793754 0.793754 0.793754
0.804743 0.804743 0.804743
0.815500 0.815500 0.815500
0.826018 0.826018 0.826018
0.836291 0.836291 0.836291
0.846312 0.846312 0.846312
0.856077 0.856077 0.856077
0.865580 0.865580 0.865580
0.874815 0.874815 0.874815
0.757109 0.757109 0.757109
0.768794 0.768794 0.768794
0.780270 0.780270 0.780270
0.791529 0.791529 0.791529
0.802564 0.802564 0.802564
0.813367 0.813367 0.813367
0.823934 0.823934 0.823934
0.834256 0.834256 0.834256
0.844328 0.844328 0.844328
0.854145 0.854145 0.854145
0.863700 0.863700 0.863700
0.872989 0.872989 0.872989
0.882007 0.882007 0.882007
0.890748 0.890748 0.890748
0.899209 0.899209 0.899209
0.907384 0.907384 0.907384
0.915270 0.915270 0.915270
0.811225 0.811225 0.811225
0.821840 0.821840 0.821840
0.832211 0.832211 0.832211
0.842334 0.842334 0.842334
0.852202 0.852202 0.852202
0.861810 0.861810 0.861810
0.871153 0.871153 0.871153
0.880225 0.880225 0.880225
0.889022 0.889022 0.889022
0.897539 0.897539 0.897539
0.905772 0.905772 0.905772
0.913716 0.913716 0.913716
0.921367 0.921367 0.921367
0.928721 0.928721 0.928721
0.935774 0.935774 0.935774
0.942520 0.942520 0.942520
0.948957 0.948957 0.948957
0.002299 0.002299 0.002299
0.004566 0.004566 0.004566
0.007327 0.007327 0.007327
0.010528 0.010528 0.010528
0.014135 0.014135 0.014135
0.018124 0.018124 0.018124
0.022480 0.022480 0.022480
0.027189 0.027189 0.027189
0.032241 0.032241 0.032241
0.037628 0.037628 0.037628
0.043343 0.043343 0.043343
0.049380 0.049380 0.049380
0.055733 0.055733 0.055733
0.062397 0.062397 0.062397
0.069368 0.069368 0.069368
0.076642 0.076642 0.076642
0.084215 0.084215 0.084215
0.017297 0.017297 0.017297
0.021580 0.021580 0.021580
0.026220 0.026220 0.026220
0.031204 0.031204 0.031204
0.036525 0.036525 0.036525
0.042174 0.042174 0.042174
0.048147 0.048147 0.048147
0.054437 0.054437 0.054437
0.061040 0.061040 0.061040
0.067950 0.067950 0.067950
0.075164 0.075164 0.075164
0.082677 0.082677 0.082677
0.090484 0.090484 0.090484
0.098583 0.098583 0.098583
0.106968 0.106968 0.106968
0.115635 0.115635 0.115635
0.124579 0.124579 0.124579
0.041018 0.041018 0.041018
0.046927 0.046927 0.046927
0.053154 0.053154 0.053154
0.059694 0.059694 0.059694
0.066543 0.066543 0.066543
0.073697 0.073697 0.073697
0.081150 0.081150 0.081150
0.088899 0.088899 0.088899
0.096940 0.096940 0.096940
0.105268 0.105268 0.105268
0.113879 0.113879 0.113879
0.122768 0.122768 0.122768
0.131931 0.131931 0.131931
0.141363 0.141363 0.141363
0.151058 0.151058 0.151058
0.161012 0.161012 0.161012
0.171218 0.171218 0.171218
0.072242 0.072242 0.072242
0.079636 0.079636 0.079636
0.087326 0.087326 0.087326
0.095309 0.095309 0.095309
0.103580 0.103580 0.103580
0.112135 0.112135 0.112135
0.120969 0.120969 0.120969
0.130077 0.130077 0.130077
0.139455 0.139455 0.139455
0.149099 0.149099 0.149099
0.159001 0.159001 0.159001
0.169157 0.169157 0.169157
0.179562 0.179562 0.179562
0.190208 0.190208 0.190208
0.201089 0.201089 0.201089
0.212200 0.212200 0.212200
0.223532 0.223532 0.223532
0.110401 0.110401 0.110401
0.119180 0.119180 0.119180
0.128234 0.128234 0.128234
0.137558 0.137558 0.137558
0.147149 0.147149 0.147149
0.157000 0.157000 0.157000
0.167106 0.167106 0.167106
0.177461 0.177461 0.177461
0.188059 0.188059 0.188059
0.198895 0.198895 0.198895
0.209960 0.209960 0.209960
0.221248 0.221248 0.221248
0.232752 0.232752 0.232752
0.244465 0.244465 0.244465
0.256378 0.256378 0.256378
0.268483 0.268483 0.268483
0.280772 0.280772 0.280772
0.155009 0.155009 0.155009
0.165065 0.165065 0.165065
0.175370 0.175370 0.175370
0.185921 0.185921 0.185921
0.196709 0.196709 0.196709
0.207729 0.207729 0.207729
0.218973 0.218973 0.218973
0.230435 0.230435 0.230435
0.242106 0.242106 0.242106
0.253980 0.253980 0.253980
0.266047 0.266047 0.266047
0.278300 0.278300 0.278300
0.290730 0.290730 0.290730
0.303327 0.303327 0.303327
0.316083 0.316083 0.316083
0.328988 0.328988 0.328988
0.342032 0.342032 0.342032
0.205506 0.205506 0.205506
0.216706 0.216706 0.216706
0.228125 0.228125 0.228125
0.239755 0.239755 0.239755
0.251589 0.251589 0.251589
0.263618 0.263618 0.263618
0.275835 0.275835 0.275835
0.288230 0.288230 0.288230
0.300795 0.300795 0.300795
0.313520 0.313520 0.313520
0.326396 0.326396 0.326396
0.339413 0.339413 0.339413
0.352561 0.352561 0.352561
0.365830 0.365830 0.365830
0.379209 0.379209 0.379209
0.392688 0.392688 0.392688
0.406256 0.406256 0.406256
0.261197 0.261197 0.261197
0.273377 0.273377 0.273377
0.285737 0.285737 0.285737
0.298269 0.298269 0.298269
0.310963 0.310963 0.310963
0.323809 0.323809 0.323809
0.336799 0.336799 0.336799
0.349921 0.349921 0.349921
0.363167 0.363167 0.363167
0.376525 0.376525 0.376525
0.389985 0.389985 0.389985
0.403536 0.403536 0.403536
0.417167 0.417167 0.417167
0.430866 0.430866 0.430866
0.444624 0.444624 0.444624
0.458427 0.458427 0.458427
0.472265 0.472265 0.472265
0.321228 0.321228 0.321228
0.334190 0.334190 0.334190
0.347287 0.347287 0.347287
0.360509 0.360509 0.360509
0.373845 0.373845 0.373845
0.387285 0.387285 0.387285
0.400819 0.400819 0.400819
0.414435 0.414435 0.414435
0.428121 0.428121 0.428121
0.441868 0.441868 0.441868
0.455663 0.455663 0.455663
0.469496 0.469496 0.469496
0.483353 0.483353 0.483353
0.497225 0.497225 0.497225
0.511099 0.511099 0.511099
0.524964 0.524964 0.524964
0.538808 0.538808 0.538808
0.384589 0.384589 0.384589
0.398105 0.398105 0.398105
0.411705 0.411705 0.411705
0.425379 0.425379 0.425379
0.439115 0.439115 0.439115
0.452901 0.452901 0.452901
0.466727 0.466727 0.466727
0.480580 0.480580 0.480580
0.494450 0.494450 0.494450
0.508325 0.508325 0.508325
0.522192 0.522192 0.522192
0.536041 0.536041 0.536041
0.549860 0.549860 0.549860
0.563637 0.563637 0.563637
0.577361 0.577361 0.577361
0.591021 0.591021 0.591021
0.604605 0.604605 0.604605
0.450140 0.450140 0.450140
0.463959 0.463959 0.463959
0.477808 0.477808 0.477808
0.491675 0.491675 0.491675
0.505550 0.505550 0.505550
0.519420 0.519420 0.519420
0.533273 0.533273 0.533273
0.547099 0.547099 0.547099
0.560885 0.560885 0.560885
0.574621 0.574621 0.574621
0.588295 0.588295 0.588295
0.601895 0.601895 0.601895
0.615411 0.615411 0.615411
0.628831 0.628831 0.628831
0.642145 0.642145 0.642145
0.655343 0.655343 0.655343
0.668414 0.668414 0.668414
0.516647 0.516647 0.516647
0.530504 0.530504 0.530504
0.544337 0.544337 0.544337
0.558132 0.558132 0.558132
0.571879 0.571879 0.571879
0.585565 0.585565 0.585565
0.599181 0.599181 0.599181
0.612715 0.612715 0.612715
0.626155 0.626155 0.626155
0.639491 0.639491 0.639491
0.652713 0.652713 0.652713
0.665810 0.665810 0.665810
0.678772 0.678772 0.678772
0.691589 0.691589 0.691589
0.704251 0.704251 0.704251
0.716749 0.716749 0.716749
0.729074 0.729074 0.729074
0.582833 0.582833 0.582833
0.596464 0.596464 0.596464
0.610015 0.610015 0.610015
0.623475 0.623475 0.623475
0.636833 0.636833 0.636833
0.650079 0.650079 0.650079
0.663201 0.663201 0.663201
0.676191 0.676191 0.676191
0.689037 0.689037 0.689037
0.701731 0.701731 0.701731
0.714263 0.714263 0.714263
0.726623 0.726623 0.726623
0.738803 0.738803 0.738803
0.750794 0.750794 0.750794
0.762587 0.762587 0.762587
0.774176 0.774176 0.774176
0.785551 0.785551 0.785551
0.647439 0.647439 0.647439
0.660587 0.660587 0.660587
0.673604 0.673604 0.673604
0.686480 0.686480 0.686480
0.699205 0.699205 0.699205
0.711770 0.711770 0.711770
0.724165 0.724165 0.724165
0.736382 0.736382 0.736382
0.748411 0.748411 0.748411
0.760245 0.760245 0.760245
0.771875 0.771875 0.771875
0.783294 0.783294 0.783294
0.794494 0.794494 0.794494
0.805467 0.805467 0.805467
0.816209 0.816209 0.816209
0.826710 0.826710 0.826710
0.836967 0.836967 0.836967
0.709270 0.709270 0.709270
0.721700 0.721700 0.721700
0.733953 0.733953 0.733953
0.746020 0.746020 0.746020
0.757894 0.757894 0.757894
0.769566 0.769566 0.769566
0.781027 0.781027 0.781027
0.792271 0.792271 0.792271
0.803291 0.803291 0.803291
0.814079 0.814079 0.814079
0.824630 0.824630 0.824630
0.834935 0.834935 0.834935
0.844991 0.844991 0.844991
0.854790 0.854790 0.854790
0.864328 0.864328 0.864328
0.873599 0.873599 0.873599
0.882598 0.882598 0.882598
0.767248 0.767248 0.767248
0.778752 0.778752 0.778752
0.790040 0.790040 0.790040
0.801105 0.801105 0.801105
0.811941 0.811941 0.811941
0.822539 0.822539 0.822539
0.832894 0.832894 0.832894
0.843000 0.843000 0.843000
0.852851 0.852851 0.852851
0.862442 0.862442 0.862442
0.871766 0.871766 0.871766
0.880820 0.880820 0.880820
0.889599 0.889599 0.889599
0.898097 0.898097 0.898097
0.906311 0.906311 0.906311
0.914235 0.914235 0.914235
0.921867 0.921867 0.921867
0.820438 0.820438 0.820438
0.830843 0.830843 0.830843
0.840999 0.840999 0.840999
0.850901 0.850901 0.850901
0.860545 0.860545 0.860545
0.869923 0.869923 0.869923
0.879031 0.879031 0.879031
0.887865 0.887865 0.887865
0.896420 0.896420 0.896420
0.904691 0.904691 0.904691
0.912674 0.912674 0.912674
0.920364 0.920364 0.920364
0.927758 0.927758 0.927758
0.934851 0.934851 0.934851
0.941639 0.941639 0.941639
0.948117 0.948117 0.948117
0.954281 0.954281 0.954281
0.004233 0.004233 0.004233
0.006933 0.006933 0.006933
0.010077 0.010077 0.010077
0.013631 0.013631 0.013631
0.017571 0.017571 0.017571
0.021879 0.021879 0.021879
0.026541 0.026541 0.026541
0.031548 0.031548 0.031548
0.036891 0.036891 0.036891
0.042562 0.042562 0.042562
0.048556 0.048556 0.048556
0.054867 0.054867 0.054867
0.061491 0.061491 0.061491
0.068421 0.068421 0.068421
0.075655 0.075655 0.075655
0.083188 0.083188 0.083188
0.091015 0.091015 0.091015
0.020989 0.020989 0.020989
0.025581 0.025581 0.025581
0.030520 0.030520 0.030520
