assets/presets/luts/moonrise/lut.cube
TITLE "Moonrise"
LUT_3D_SIZE 9
0.000000 0.000000 0.000000
0.020416 0.000000 0.000000
0.139970 0.000000 0.000000
0.259662 0.000000 0.000000
0.379482 0.000000 0.000000
0.499419 0.000000 0.000000
0.619462 0.000000 0.000000
0.739600 0.000000 0.000000
0.859823 0.000000 0.000000
0.000000 0.041360 0.000000
0.021601 0.041547 0.000000
0.141566 0.041797 0.000000
0.261634 0.042087 0.000000
0.381795 0.042415 0.000000
0.502037 0.042776 0.000000
0.622350 0.043165 0.000000
0.742723 0.043577 0.000000
0.863146 0.044010 0.000000
0.000000 0.166406 0.000000
0.024211 0.166721 0.000000
0.144490 0.167097 0.000000
0.264835 0.167498 0.000000
0.385234 0.167921 0.000000
0.505677 0.168362 0.000000
0.626153 0.168816 0.000000
0.746652 0.169279 0.000000
0.867162 0.169746 0.000000
0.000000 0.291875 0.000000
0.027756 0.292269 0.000000
0.148217 0.292717 0.000000
0.268705 0.293176 0.000000
0.389211 0.293642 0.000000
0.509723 0.294110 0.000000
0.630231 0.294579 0.000000
0.750747 0.295076 0.000000
0.871266 0.295606 0.000000
0.000000 0.417580 0.000000
0.031772 0.418006 0.000000
0.152282 0.418474 0.000000
0.272793 0.418952 0.000000
0.393312 0.419467 0.000000
0.513828 0.420011 0.000000
0.634326 0.420576 0.000000
0.754795 0.421156 0.000000
0.875222 0.421742 0.000000
0.000000 0.543382 0.000000
0.035876 0.543865 0.000000
0.156385 0.544421 0.000000
0.276870 0.544994 0.000000
0.397320 0.545578 0.000000
0.517720 0.546164 0.000000
0.638059 0.546746 0.000000
0.758322 0.547315 0.000000
0.878498 0.547865 0.000000
0.000000 0.669467 0.000000
0.039832 0.670001 0.000000
0.160203 0.670586 0.000000
0.280506 0.671162 0.000000
0.400727 0.671723 0.000000
0.520854 0.672260 0.000000
0.640873 0.672765 0.000000
0.760773 0.673232 0.000000
0.880539 0.673652 0.000000
0.000000 0.795625 0.000000
0.043108 0.796124 0.000000
0.163183 0.796646 0.000000
0.283144 0.797133 0.000000
0.402979 0.797578 0.000000
0.522674 0.797973 0.000000
0.642255 0.798325 0.000000
0.761830 0.798676 0.000000
0.881404 0.799026 0.000000
0.000000 0.921531 0.000000
0.045150 0.921912 0.000000
0.164774 0.922280 0.000000
0.284349 0.922631 0.000000
0.403923 0.922981 0.000000
0.523496 0.923328 0.000000
0.643064 0.923669 0.000000
0.762626 0.924000 0.000000
0.882179 0.924317 0.000000
0.000000 0.000000 0.079780
0.020473 0.000000 0.079668
0.140077 0.000000 0.079405
0.259815 0.000000 0.079008
0.379677 0.000000 0.078488
0.499652 0.000000 0.077854
0.619729 0.000000 0.077118
0.739897 0.000000 0.076290
0.860147 0.000000 0.075382
0.000000 0.041426 0.078842
0.021805 0.041629 0.078336
0.141807 0.041893 0.077675
0.261909 0.042197 0.076915
0.382099 0.042537 0.076065
0.502367 0.042908 0.075138
0.622702 0.043305 0.074144
0.743094 0.043726 0.073094
0.863531 0.044164 0.071998
0.000000 0.166524 0.076424
0.024529 0.166849 0.075612
0.144832 0.167233 0.074650
0.265197 0.167643 0.073626
0.385612 0.168073 0.072552
0.506068 0.168518 0.071437
0.626553 0.168976 0.070293
0.747057 0.169441 0.069131
0.867568 0.169909 0.067960
0.000000 0.292024 0.072999
0.028141 0.292423 0.072000
0.148613 0.292876 0.070869
0.269108 0.293337 0.069715
0.389617 0.293805 0.068547
0.510129 0.294273 0.067377
0.630638 0.294747 0.066232
0.751157 0.295257 0.065176
0.871674 0.295796 0.064222
0.000000 0.417742 0.069028
0.032178 0.418168 0.067963
0.152687 0.418636 0.066796
0.273202 0.419127 0.065693
0.393721 0.419653 0.064687
0.514232 0.420205 0.063785
0.634722 0.420776 0.062991
0.755178 0.421359 0.062312
0.875587 0.421945 0.061752
0.000000 0.543563 0.065088
0.036283 0.544056 0.064224
0.156786 0.544618 0.063375
0.277260 0.545196 0.062638
0.397694 0.545782 0.062017
0.518074 0.546367 0.061519
0.638388 0.546946 0.061148
0.758623 0.547509 0.060910
0.878765 0.548050 0.060811
0.000000 0.669671 0.062258
0.040197 0.670204 0.061753
0.160545 0.670787 0.061318
0.280821 0.671359 0.061013
0.401011 0.671912 0.060843
0.521102 0.672439 0.060815
0.641082 0.672932 0.060933
0.760936 0.673383 0.061203
0.880653 0.673786 0.061631
0.000000 0.795818 0.060896
0.043375 0.796309 0.060811
0.163412 0.796820 0.060855
0.283331 0.797293 0.061049
0.403118 0.797721 0.061396
0.522762 0.798097 0.061904
0.642336 0.798447 0.062488
0.761912 0.798798 0.063073
0.881485 0.799146 0.063653
0.000000 0.921681 0.061234
0.045264 0.922046 0.061630
0.164855 0.922401 0.062195
0.284430 0.922752 0.062781
0.404004 0.923102 0.063364
0.523576 0.923448 0.063939
0.643142 0.923785 0.064501
0.762700 0.924111 0.065045
0.882250 0.924424 0.065566
0.000000 0.000000 0.208423
0.020553 0.000000 0.208261
0.140207 0.000000 0.207948
0.259992 0.000000 0.207505
0.379896 0.000000 0.206942
0.499910 0.000000 0.206269
0.620022 0.000000 0.205498
0.740221 0.000000 0.204640
0.860497 0.000000 0.203705
0.000000 0.041503 0.207323
0.022035 0.041721 0.206780
0.142075 0.042000 0.206081
0.262210 0.042318 0.205287
0.382430 0.042669 0.204408
0.502724 0.043051 0.203455
0.623081 0.043457 0.202439
0.743491 0.043884 0.201371
0.863942 0.044328 0.200261
0.000000 0.166651 0.204779
0.024873 0.166986 0.203941
0.145200 0.167381 0.202955
0.265585 0.167798 0.201912
0.386016 0.168234 0.200821
0.506484 0.168685 0.199695
0.626977 0.169146 0.198543
0.747485 0.169612 0.197376
0.867997 0.170080 0.196206
0.000000 0.292183 0.201274
0.028551 0.292588 0.200263
0.149033 0.293044 0.199122
0.269535 0.293508 0.197962
0.390046 0.293976 0.196792
0.510556 0.294443 0.195623
0.631069 0.294930 0.194507
0.751588 0.295451 0.193488
0.872101 0.296000 0.192572
0.000000 0.417914 0.197273
0.032607 0.418340 0.196208
0.153115 0.418811 0.195055
0.273633 0.419316 0.193986
0.394151 0.419852 0.193018
0.514656 0.420412 0.192155
0.635135 0.420989 0.191403
0.755575 0.421573 0.190766
0.875963 0.422160 0.190251
0.000000 0.543759 0.193403
0.036711 0.544259 0.192574
0.157204 0.544828 0.191765
0.277666 0.545410 0.191070
0.398081 0.545996 0.190494
0.518439 0.546580 0.190042
0.638725 0.547154 0.189719
0.758927 0.547710 0.189531
0.879032 0.548241 0.189484
0.000000 0.669885 0.190716
0.040573 0.670419 0.190252
0.160897 0.670998 0.189864
0.281143 0.671564 0.189608
0.401298 0.672109 0.189490
0.521350 0.672624 0.189514
0.641285 0.673102 0.189688
0.761090 0.673537 0.190015
0.880753 0.673920 0.190501
0.000000 0.796018 0.189521
0.043643 0.796500 0.189484
0.163638 0.796998 0.189582
0.283510 0.797455 0.189831
0.403246 0.797865 0.190237
0.522847 0.798225 0.190791
0.642422 0.798576 0.191376
0.761997 0.798926 0.191960
0.881569 0.799272 0.192537
0.000000 0.921833 0.190051
0.045365 0.922179 0.190500
0.164940 0.922530 0.191083
0.284516 0.922881 0.191668
0.404089 0.923229 0.192249
0.523659 0.923572 0.192820
0.643222 0.923906 0.193377
0.762778 0.924228 0.193912
0.882323 0.924534 0.194423
0.000000 0.000000 0.337046
0.020652 0.000000 0.336836
0.140355 0.000000 0.336474
0.260185 0.000000 0.335985
0.380130 0.000000 0.335381
0.500181 0.000000 0.334671
0.620326 0.000000 0.333867
0.740555 0.000000 0.332980
0.860857 0.000000 0.332019
0.000000 0.041586 0.335789
0.022279 0.041818 0.335209
0.142355 0.042112 0.334474
0.262522 0.042443 0.333648
0.382771 0.042806 0.332740
0.503089 0.043197 0.331763
0.623467 0.043611 0.330727
0.743893 0.044045 0.329642
0.864356 0.044494 0.328519
0.000000 0.166783 0.333122
0.025227 0.167128 0.332261
0.145576 0.167531 0.331253
0.265979 0.167956 0.330191
0.386425 0.168398 0.329086
0.506904 0.168853 0.327949
0.627403 0.169316 0.326790
0.747914 0.169784 0.325621
0.868424 0.170251 0.324452
0.000000 0.292344 0.329544
0.028966 0.292753 0.328522
0.149457 0.293213 0.327372
0.269963 0.293679 0.326207
0.390475 0.294148 0.325037
0.510983 0.294617 0.323877
0.631500 0.295117 0.322796
0.752019 0.295649 0.321814
0.872526 0.296207 0.320937
0.000000 0.418085 0.325518
0.033034 0.418511 0.324454
0.153545 0.418992 0.323326
0.274065 0.419509 0.322293
0.394579 0.420055 0.321363
0.515076 0.420622 0.320540
0.635542 0.421202 0.319829
0.755965 0.421788 0.319237
0.876331 0.422373 0.318768
0.000000 0.543958 0.321733
0.037136 0.544466 0.320938
0.157619 0.545040 0.320171
0.278065 0.545624 0.319518
0.398461 0.546211 0.318987
0.518794 0.546792 0.318581
0.639051 0.547360 0.318308
0.759219 0.547908 0.318171
0.879285 0.548427 0.318176
0.000000 0.670100 0.319190
0.040941 0.670632 0.318768
0.161238 0.671208 0.318428
0.281452 0.671766 0.318222
0.401571 0.672301 0.318155
0.521581 0.672804 0.318234
0.641471 0.673267 0.318463
0.761225 0.673684 0.318847
0.880839 0.674048 0.319387
0.000000 0.796215 0.318165
0.043896 0.796686 0.318176
0.163847 0.797170 0.318329
0.283671 0.797611 0.318635
0.403354 0.798002 0.319099
0.522933 0.798353 0.319679
0.642508 0.798704 0.320264
0.762082 0.799053 0.320846
0.881652 0.799397 0.321418
0.000000 0.921978 0.318889
0.045451 0.922308 0.319386
0.165026 0.922659 0.319971
0.284601 0.923009 0.320555
0.404173 0.923356 0.321133
0.523741 0.923696 0.321699
0.643302 0.924025 0.322249
0.762854 0.924342 0.322776
0.882395 0.924641 0.323275
0.000000 0.000000 0.465649
0.020769 0.000000 0.465392
0.140520 0.000000 0.464983
0.260393 0.000000 0.464450
0.380379 0.000000 0.463806
0.500465 0.000000 0.463061
0.620642 0.000000 0.462225
0.740899 0.000000 0.461309
0.861224 0.000000 0.460325
0.000000 0.041675 0.464240
0.022537 0.041921 0.463625
0.142647 0.042229 0.462855
0.262846 0.042572 0.461998
0.383121 0.042946 0.461064
0.503462 0.043346 0.460063
0.623859 0.043768 0.459008
0.744300 0.044208 0.457908
0.864775 0.044661 0.456775
0.000000 0.166919 0.461456
0.025589 0.167273 0.460572
0.145959 0.167684 0.459543
0.266379 0.168116 0.458464
0.386839 0.168563 0.457346
0.507326 0.169022 0.456200
0.627831 0.169487 0.455036
0.748343 0.169955 0.453865
0.868851 0.170423 0.452701
0.000000 0.292508 0.457809
0.029384 0.292921 0.456777
0.149882 0.293383 0.455620
0.270392 0.293851 0.454452
0.390902 0.294319 0.453282
0.511413 0.294796 0.452144
0.631932 0.295309 0.451098
0.752448 0.295851 0.450154
0.872948 0.296415 0.449316
0.000000 0.418257 0.453762
0.033461 0.418683 0.452704
0.153977 0.419178 0.451610
0.274496 0.419706 0.450614
0.395005 0.420260 0.449722
0.515492 0.420833 0.448940
0.635944 0.421416 0.448272
0.756348 0.422003 0.447724
0.876690 0.422585 0.447301
0.000000 0.544160 0.450076
0.037557 0.544675 0.449318
0.158029 0.545253 0.448592
0.278458 0.545839 0.447983
0.398832 0.546425 0.447497
0.519139 0.547002 0.447139
0.639365 0.547563 0.446915
0.759497 0.548102 0.446829
0.879523 0.548609 0.446888
0.000000 0.670315 0.447681
0.041300 0.670844 0.447302
0.161568 0.671415 0.447010
0.281749 0.671965 0.446854
0.401829 0.672489 0.446840
0.521797 0.672978 0.446973
0.641638 0.673425 0.447258
0.761341 0.673823 0.447702
0.880925 0.674176 0.448274
0.000000 0.796408 0.446829
0.044133 0.796868 0.446888
0.164040 0.797337 0.447096
0.283813 0.797761 0.447460
0.403443 0.798131 0.447982
0.523018 0.798482 0.448566
0.642593 0.798832 0.449151
0.762166 0.799180 0.449730
0.881735 0.799521 0.450298
0.000000 0.922115 0.447748
0.045537 0.922436 0.448273
0.165112 0.922787 0.448858
0.284686 0.923137 0.449441
0.404257 0.923481 0.450015
0.523822 0.923818 0.450576
0.643380 0.924143 0.451118
0.762928 0.924453 0.451636
0.882465 0.924746 0.452123
0.000000 0.000000 0.594233
0.020904 0.000000 0.593931
0.140701 0.000000 0.593475
0.260617 0.000000 0.592900
0.380640 0.000000 0.592218
0.500761 0.000000 0.591438
0.620969 0.000000 0.590572
0.741252 0.000000 0.589630
0.861600 0.000000 0.588623
0.000000 0.041770 0.592676
0.022808 0.042030 0.592027
0.142952 0.042351 0.591224
0.263179 0.042706 0.590337
0.383480 0.043090 0.589378
0.503843 0.043498 0.588356
0.624257 0.043927 0.587283
0.744712 0.044373 0.586170
0.865196 0.044830 0.585027
0.000000 0.167059 0.589780
0.025959 0.167421 0.588875
0.146349 0.167840 0.587826
0.266785 0.168278 0.586732
0.387256 0.168730 0.585602
0.507751 0.169191 0.584448
0.628259 0.169658 0.583281
0.748771 0.170126 0.582111
0.869280 0.170600 0.580963
0.000000 0.292673 0.586070
0.029806 0.293089 0.585029
0.150309 0.293554 0.583867
0.270820 0.294022 0.582697
0.391329 0.294490 0.581529
0.511843 0.294980 0.580423
0.632363 0.295504 0.579414
0.752874 0.296055 0.578508
0.873365 0.296626 0.577711
0.000000 0.418428 0.582008
0.033890 0.418859 0.580965
0.154408 0.419368 0.579907
0.274925 0.419906 0.578948
0.395428 0.420468 0.578096
0.515904 0.421046 0.577355
0.636339 0.421631 0.576730
0.756722 0.422217 0.576228
0.877038 0.422796 0.575852
0.000000 0.544365 0.578433
0.037975 0.544885 0.577712
0.158432 0.545468 0.577028
0.278843 0.546054 0.576464
0.399194 0.546637 0.576024
0.519473 0.547210 0.575715
0.639666 0.547763 0.575540
0.759761 0.548291 0.575507
0.879744 0.548786 0.575620
0.000000 0.670529 0.576189
0.041649 0.671055 0.575853
0.161886 0.671619 0.575610
0.282032 0.672161 0.575506
0.402072 0.672673 0.575545
0.521995 0.673147 0.575733
0.641787 0.673577 0.576076
0.761436 0.673954 0.576578
0.881011 0.674305 0.577162
0.000000 0.796596 0.575511
0.044355 0.797045 0.575620
0.164214 0.797498 0.575884
0.283936 0.797903 0.576306
0.403529 0.798259 0.576869
0.523104 0.798610 0.577454
0.642679 0.798960 0.578037
0.762250 0.799306 0.578613
0.881816 0.799644 0.579176
0.000000 0.922245 0.576629
0.045622 0.922564 0.577161
0.165197 0.922915 0.577746
0.284771 0.923263 0.578326
0.404340 0.923606 0.578896
0.523903 0.923938 0.579450
0.643457 0.924258 0.579984
0.763001 0.924563 0.580491
0.882533 0.924848 0.580967
0.000000 0.000000 0.722798
0.021056 0.000000 0.722452
0.140898 0.000000 0.721951
0.260855 0.000000 0.721336
0.380915 0.000000 0.720616
0.501069 0.000000 0.719803
0.621305 0.000000 0.718908
0.741614 0.000000 0.717941
0.861983 0.000000 0.716913
0.000000 0.041871 0.721098
0.023091 0.042143 0.720417
0.143267 0.042477 0.719582
0.263523 0.042843 0.718667
0.383848 0.043236 0.717684
0.504230 0.043653 0.716642
0.624661 0.044089 0.715553
0.745127 0.044539 0.714428
0.865620 0.045000 0.713276
0.000000 0.167202 0.718096
0.026337 0.167572 0.717171
0.146745 0.167999 0.716104
0.267195 0.168442 0.714995
0.387676 0.168898 0.713856
0.508177 0.169362 0.712695
0.628688 0.169830 0.711526
0.749198 0.170297 0.710357
0.869710 0.170782 0.709238
0.000000 0.292839 0.714327
0.030230 0.293259 0.713278
0.150737 0.293725 0.712112
0.271249 0.294194 0.710942
0.391757 0.294665 0.709787
0.512275 0.295168 0.708715
0.632793 0.295703 0.707743
0.753299 0.296263 0.706876
0.873779 0.296838 0.706120
0.000000 0.418599 0.710255
0.034320 0.419041 0.709240
0.154840 0.419562 0.708217
0.275353 0.420110 0.707297
0.395847 0.420678 0.706485
0.516310 0.421260 0.705786
0.636728 0.421846 0.705205
0.757087 0.422430 0.704749
0.877376 0.423004 0.704421
0.000000 0.544573 0.706805
0.038388 0.545097 0.706121
0.158830 0.545682 0.705481
0.279221 0.546268 0.704961
0.399547 0.546849 0.704569
0.519795 0.547415 0.704308
0.639954 0.547960 0.704185
0.760009 0.548477 0.704205
0.879949 0.548957 0.704373
0.000000 0.670741 0.704714
0.041987 0.671264 0.704422
0.162192 0.671820 0.704229
0.282301 0.672352 0.704177
0.402300 0.672851 0.704270
0.522176 0.673310 0.704514
0.641917 0.673722 0.704914
0.761521 0.674083 0.705465
0.881096 0.674434 0.706050
0.000000 0.796781 0.704214
0.044560 0.797216 0.704372
0.164370 0.797652 0.704694
0.284039 0.798037 0.705174
0.403615 0.798388 0.705756
0.523190 0.798739 0.706342
0.642763 0.799087 0.706923
0.762333 0.799430 0.707494
0.881897 0.799765 0.708051
0.000000 0.922374 0.705516
0.045708 0.922693 0.706049
0.165283 0.923043 0.706632
0.284855 0.923390 0.707210
0.404422 0.923729 0.707775
0.523982 0.924057 0.708322
0.643533 0.924372 0.708847
0.763073 0.924670 0.709343
0.882599 0.924947 0.709806
0.000000 0.000000 0.851345
0.021226 0.000000 0.850956
0.141111 0.000000 0.850412
0.261107 0.000000 0.849757
0.381203 0.000000 0.849002
0.501388 0.000000 0.848158
0.621652 0.000000 0.847235
0.741983 0.000000 0.846245
0.862372 0.000000 0.845197
0.000000 0.041977 0.849507
0.023387 0.042262 0.848794
0.143593 0.042608 0.847929
0.263876 0.042984 0.846988
0.384223 0.043387 0.845982
0.504624 0.043811 0.844922
0.625069 0.044252 0.843818
0.745546 0.044707 0.842682
0.866046 0.045170 0.841524
0.000000 0.167348 0.846403
0.026722 0.167726 0.845459
0.147147 0.168159 0.844376
0.267609 0.168608 0.843254
0.388099 0.169067 0.842106
0.508605 0.169533 0.840941
0.629117 0.170001 0.839770
0.749625 0.170470 0.838610
0.870142 0.170969 0.837525
0.000000 0.293007 0.842580
0.030656 0.293429 0.841526
0.151166 0.293897 0.840357
0.271676 0.294365 0.839188
0.392187 0.294845 0.838056
0.512707 0.295361 0.837021
0.633222 0.295906 0.836087
0.753719 0.296472 0.835260
0.874187 0.297052 0.834545
0.000000 0.418773 0.838510
0.034752 0.419228 0.837527
0.155270 0.419760 0.836542
0.275778 0.420316 0.835660
0.396262 0.420890 0.834889
0.516710 0.421474 0.834233
0.637108 0.422061 0.833697
0.757443 0.422642 0.833287
0.877703 0.423211 0.833008
0.000000 0.544783 0.835192
0.038797 0.545311 0.834547
0.159221 0.545897 0.833950
0.279589 0.546482 0.833476
0.399889 0.547058 0.833131
0.520106 0.547617 0.832920
0.640228 0.548153 0.832849
0.760243 0.548657 0.832922
0.880136 0.549122 0.833146
0.000000 0.670953 0.833257
0.042313 0.671470 0.833009
0.162485 0.672018 0.832867
0.282555 0.672539 0.832867
0.402511 0.673024 0.833015
0.522339 0.673467 0.833315
0.642027 0.673859 0.833774
0.761607 0.674211 0.834352
0.881182 0.674562 0.834937
0.000000 0.796960 0.832936
0.044747 0.797381 0.833145
0.164507 0.797799 0.833524
0.284125 0.798165 0.834059
0.403700 0.798516 0.834644
0.523275 0.798867 0.835229
0.642848 0.799214 0.835807
0.762416 0.799554 0.836374
0.881977 0.799884 0.836924
0.000000 0.922502 0.834404
0.045794 0.922822 0.834936
0.165368 0.923171 0.835518
0.284938 0.923515 0.836092
0.404503 0.923850 0.836651
0.524060 0.924174 0.837190
0.643607 0.924483 0.837705
0.763142 0.924774 0.838190
0.882663 0.925043 0.838639
0.000000 0.000000 0.979875
0.021411 0.000000 0.979444
0.141338 0.000000 0.978858
0.261372 0.000000 0.978165
0.381502 0.000000 0.977376
0.501717 0.000000 0.976502
0.622007 0.000000 0.975553
0.742361 0.000000 0.974541
0.862768 0.000000 0.973475
0.000000 0.042088 0.977903
0.023694 0.042385 0.977161
0.143930 0.042742 0.976266
0.264237 0.043129 0.975300
0.384605 0.043540 0.974273
0.505024 0.043971 0.973195
0.625482 0.044417 0.972079
0.745969 0.044876 0.970933
0.866473 0.045341 0.969770
0.000000 0.167498 0.974702
0.027114 0.167883 0.973741
0.147554 0.168322 0.972642
0.268027 0.168775 0.971510
0.388524 0.169237 0.970354
0.509034 0.169705 0.969186
0.629545 0.170172 0.968016
0.750054 0.170649 0.966875
0.870573 0.171160 0.965826
0.000000 0.293176 0.970831
0.031083 0.293600 0.969772
0.151594 0.294068 0.968602
0.272103 0.294536 0.967437
0.392618 0.295030 0.966339
0.513138 0.295557 0.965340
0.633648 0.296111 0.964445
0.754136 0.296683 0.963658
0.874589 0.297266 0.962986
0.000000 0.418953 0.966779
0.035183 0.419419 0.965828
0.155699 0.419961 0.964880
0.276200 0.420525 0.964038
0.396673 0.421103 0.963308
0.517103 0.421689 0.962695
0.637480 0.422275 0.962205
0.757789 0.422852 0.961843
0.878018 0.423414 0.961614
0.000000 0.544994 0.963594
0.039199 0.545525 0.962987
0.159604 0.546112 0.962435
0.279949 0.546694 0.962008
0.400220 0.547265 0.961712
0.520404 0.547817 0.961551
0.640488 0.548342 0.961532
0.760460 0.548832 0.961660
0.880306 0.549281 0.961940
0.000000 0.671163 0.961817
0.042628 0.671673 0.961614
0.162764 0.672213 0.961524
0.282794 0.672721 0.961577
0.402705 0.673192 0.961780
0.522483 0.673617 0.962138
0.642118 0.673989 0.962655
0.761693 0.674340 0.963240
0.881268 0.674690 0.963825
0.000000 0.797134 0.961678
0.044917 0.797540 0.961939
0.164625 0.797939 0.962376
0.284211 0.798294 0.962947
0.403786 0.798645 0.963532
0.523360 0.798995 0.964115
0.642931 0.799339 0.964689
0.762497 0.799676 0.965251
0.882055 0.800002 0.965793
0.000000 0.922631 0.963291
0.045879 0.922950 0.963823
0.165452 0.923298 0.964403
0.285021 0.923639 0.964972
0.404583 0.923970 0.965524
0.524137 0.924289 0.966056
0.643679 0.924592 0.966560
0.763210 0.924875 0.967032
0.882724 0.925136 0.967467
