assets/presets/luts/moonrise/lut.cube
TITLE "Moonrise"
LUT_3D_SIZE 5
0.000000 0.000000 0.000000
0.139970 0.000000 0.000000
0.379482 0.000000 0.000000
0.619462 0.000000 0.000000
0.859823 0.000000 0.000000
0.000000 0.166406 0.000000
0.144490 0.167097 0.000000
0.385234 0.167921 0.000000
0.626153 0.168816 0.000000
0.867162 0.169746 0.000000
0.000000 0.417580 0.000000
0.152282 0.418474 0.000000
0.393312 0.419467 0.000000
0.634326 0.420576 0.000000
0.875222 0.421742 0.000000
0.000000 0.669467 0.000000
0.160203 0.670586 0.000000
0.400727 0.671723 0.000000
0.640873 0.672765 0.000000
0.880539 0.673652 0.000000
0.000000 0.921531 0.000000
0.164774 0.922280 0.000000
0.403923 0.922981 0.000000
0.643064 0.923669 0.000000
0.882179 0.924317 0.000000
0.000000 0.000000 0.208423
0.140207 0.000000 0.207948
0.379896 0.000000 0.206942
0.620022 0.000000 0.205498
0.860497 0.000000 0.203705
0.000000 0.166651 0.204779
0.145200 0.167381 0.202955
0.386016 0.168234 0.200821
0.626977 0.169146 0.198543
0.867997 0.170080 0.196206
0.000000 0.417914 0.197273
0.153115 0.418811 0.195055
0.394151 0.419852 0.193018
0.635135 0.420989 0.191403
0.875963 0.422160 0.190251
0.000000 0.669885 0.190716
0.160897 0.670998 0.189864
0.401298 0.672109 0.189490
0.641285 0.673102 0.189688
0.880753 0.673920 0.190501
0.000000 0.921833 0.190051
0.164940 0.922530 0.191083
0.404089 0.923229 0.192249
0.643222 0.923906 0.193377
0.882323 0.924534 0.194423
0.000000 0.000000 0.465649
0.140520 0.000000 0.464983
0.380379 0.000000 0.463806
0.620642 0.000000 0.462225
0.861224 0.000000 0.460325
0.000000 0.166919 0.461456
0.145959 0.167684 0.459543
0.386839 0.168563 0.457346
0.627831 0.169487 0.455036
0.868851 0.170423 0.452701
0.000000 0.418257 0.453762
0.153977 0.419178 0.451610
0.395005 0.420260 0.449722
0.635944 0.421416 0.448272
0.876690 0.422585 0.447301
0.000000 0.670315 0.447681
0.161568 0.671415 0.447010
0.401829 0.672489 0.446840
0.641638 0.673425 0.447258
0.880925 0.674176 0.448274
0.000000 0.922115 0.447748
0.165112 0.922787 0.448858
0.404257 0.923481 0.450015
0.643380 0.924143 0.451118
0.882465 0.924746 0.452123
0.000000 0.000000 0.722798
0.140898 0.000000 0.721951
0.380915 0.000000 0.720616
0.621305 0.000000 0.718908
0.861983 0.000000 0.716913
0.000000 0.167202 0.718096
0.146745 0.167999 0.716104
0.387676 0.168898 0.713856
0.628688 0.169830 0.711526
0.869710 0.170782 0.709238
0.000000 0.418599 0.710255
0.154840 0.419562 0.708217
0.395847 0.420678 0.706485
0.636728 0.421846 0.705205
0.877376 0.423004 0.704421
0.000000 0.670741 0.704714
0.162192 0.671820 0.704229
0.402300 0.672851 0.704270
0.641917 0.673722 0.704914
0.881096 0.674434 0.706050
0.000000 0.922374 0.705516
0.165283 0.923043 0.706632
0.404422 0.923729 0.707775
0.643533 0.924372 0.708847
0.882599 0.924947 0.709806
0.000000 0.000000 0.979875
0.141338 0.000000 0.978858
0.381502 0.000000 0.977376
0.622007 0.000000 0.975553
0.862768 0.000000 0.973475
0.000000 0.167498 0.974702
0.147554 0.168322 0.972642
0.388524 0.169237 0.970354
0.629545 0.170172 0.968016
0.870573 0.171160 0.965826
0.000000 0.418953 0.966779
0.155699 0.419961 0.964880
0.396673 0.421103 0.963308
0.637480 0.422275 0.962205
0.878018 0.423414 0.961614
0.000000 0.671163 0.961817
0.162764 0.672213 0.961524
0.402705 0.673192 0.961780
0.642118 0.673989 0.962655
0.881268 0.674690 0.963825
0.000000 0.922631 0.963291
0.165452 0.923298 0.964403
0.404583 0.923970 0.965524
0.643679 0.924592 0.966560
0.882724 0.925136 0.967467
