assets/presets/luts/moonrise/lut.cube
TITLE "Moonrise"
LUT_3D_SIZE 17
0.000000 0.000000 0.000000
0.000000 0.000000 0.000000
0.020416 0.000000 0.000000
0.080175 0.000000 0.000000
0.139970 0.000000 0.000000
0.199799 0.000000 0.000000
0.259662 0.000000 0.000000
0.319557 0.000000 0.000000
0.379482 0.000000 0.000000
0.439437 0.000000 0.000000
0.499419 0.000000 0.000000
0.559428 0.000000 0.000000
0.619462 0.000000 0.000000
0.679520 0.000000 0.000000
0.739600 0.000000 0.000000
0.799702 0.000000 0.000000
0.859823 0.000000 0.000000
0.000000 0.000000 0.000000
0.000000 0.000000 0.000000
0.020790 0.000000 0.000000
0.080653 0.000000 0.000000
0.140548 0.000000 0.000000
0.200474 0.000000 0.000000
0.260429 0.000000 0.000000
0.320412 0.000000 0.000000
0.380421 0.000000 0.000000
0.440455 0.000000 0.000000
0.500513 0.000000 0.000000
0.560594 0.000000 0.000000
0.620695 0.000000 0.000000
0.680817 0.000000 0.000000
0.740956 0.000000 0.000000
0.801113 0.000000 0.000000
0.861286 0.000000 0.000000
0.000000 0.041360 0.000000
0.000000 0.041439 0.000000
0.021601 0.041547 0.000000
0.081570 0.041666 0.000000
0.141566 0.041797 0.000000
0.201588 0.041937 0.000000
0.261634 0.042087 0.000000
0.321703 0.042247 0.000000
0.381795 0.042415 0.000000
0.441906 0.042592 0.000000
0.502037 0.042776 0.000000
0.562185 0.042967 0.000000
0.622350 0.043165 0.000000
0.682530 0.043368 0.000000
0.742723 0.043577 0.000000
0.802929 0.043792 0.000000
0.863146 0.044010 0.000000
0.000000 0.103819 0.000000
0.000000 0.103931 0.000000
0.022760 0.104076 0.000000
0.082818 0.104231 0.000000
0.142899 0.104395 0.000000
0.203001 0.104567 0.000000
0.263122 0.104748 0.000000
0.323262 0.104935 0.000000
0.383418 0.105130 0.000000
0.443591 0.105331 0.000000
0.503778 0.105537 0.000000
0.563977 0.105749 0.000000
0.624189 0.105965 0.000000
0.684410 0.106186 0.000000
0.744641 0.106410 0.000000
0.804879 0.106637 0.000000
0.865124 0.106866 0.000000
0.000000 0.166406 0.000000
0.000000 0.166545 0.000000
0.024211 0.166721 0.000000
0.084342 0.166906 0.000000
0.144490 0.167097 0.000000
0.204655 0.167294 0.000000
0.264835 0.167498 0.000000
0.325028 0.167707 0.000000
0.385234 0.167921 0.000000
0.445451 0.168140 0.000000
0.505677 0.168362 0.000000
0.565912 0.168588 0.000000
0.626153 0.168816 0.000000
0.686401 0.169047 0.000000
0.746652 0.169279 0.000000
0.806906 0.169512 0.000000
0.867162 0.169746 0.000000
0.000000 0.229100 0.000000
0.000000 0.229260 0.000000
0.025896 0.229460 0.000000
0.086083 0.229667 0.000000
0.146282 0.229878 0.000000
0.206494 0.230095 0.000000
0.266715 0.230315 0.000000
0.326946 0.230539 0.000000
0.387184 0.230766 0.000000
0.447429 0.230996 0.000000
0.507678 0.231227 0.000000
0.567931 0.231460 0.000000
0.628186 0.231694 0.000000
0.688442 0.231928 0.000000
0.748698 0.232162 0.000000
0.808952 0.232396 0.000000
0.869207 0.232635 0.000000
0.000000 0.291875 0.000000
0.000000 0.292051 0.000000
0.027756 0.292269 0.000000
0.087982 0.292492 0.000000
0.148217 0.292717 0.000000
0.208458 0.292946 0.000000
0.268705 0.293176 0.000000
0.328957 0.293409 0.000000
0.389211 0.293642 0.000000
0.449467 0.293876 0.000000
0.509723 0.294110 0.000000
0.569977 0.294344 0.000000
0.630231 0.294579 0.000000
0.690488 0.294823 0.000000
0.750747 0.295076 0.000000
0.811007 0.295337 0.000000
0.871266 0.295606 0.000000
0.000000 0.354710 0.000000
0.000000 0.354896 0.000000
0.029734 0.355126 0.000000
0.089983 0.355357 0.000000
0.150236 0.355590 0.000000
0.210491 0.355824 0.000000
0.270747 0.356058 0.000000
0.331003 0.356292 0.000000
0.391256 0.356525 0.000000
0.451512 0.356764 0.000000
0.511770 0.357013 0.000000
0.572030 0.357270 0.000000
0.632289 0.357536 0.000000
0.692547 0.357808 0.000000
0.752802 0.358085 0.000000
0.813051 0.358368 0.000000
0.873294 0.358655 0.000000
0.000000 0.417580 0.000000
0.000000 0.417772 0.000000
0.031772 0.418006 0.000000
0.092028 0.418240 0.000000
0.152282 0.418474 0.000000
0.212536 0.418708 0.000000
0.272793 0.418952 0.000000
0.333052 0.419205 0.000000
0.393312 0.419467 0.000000
0.453571 0.419736 0.000000
0.513828 0.420011 0.000000
0.574080 0.420291 0.000000
0.634326 0.420576 0.000000
0.694565 0.420865 0.000000
0.754795 0.421156 0.000000
0.815015 0.421448 0.000000
0.875222 0.421742 0.000000
0.000000 0.480464 0.000000
0.000000 0.480655 0.000000
0.033817 0.480894 0.000000
0.094075 0.481143 0.000000
0.154335 0.481400 0.000000
0.214594 0.481665 0.000000
0.274852 0.481937 0.000000
0.335107 0.482215 0.000000
0.395356 0.482498 0.000000
0.455599 0.482785 0.000000
0.515834 0.483075 0.000000
0.576059 0.483367 0.000000
0.636273 0.483660 0.000000
0.696473 0.483953 0.000000
0.756659 0.484246 0.000000
0.816828 0.484537 0.000000
0.876980 0.484825 0.000000
0.000000 0.543382 0.000000
0.000000 0.543596 0.000000
0.035876 0.543865 0.000000
0.096132 0.544140 0.000000
0.156385 0.544421 0.000000
0.216631 0.544706 0.000000
0.276870 0.544994 0.000000
0.337100 0.545285 0.000000
0.397320 0.545578 0.000000
0.457527 0.545871 0.000000
0.517720 0.546164 0.000000
0.577898 0.546456 0.000000
0.638059 0.546746 0.000000
0.698201 0.547033 0.000000
0.758322 0.547315 0.000000
0.818422 0.547593 0.000000
0.878498 0.547865 0.000000
0.000000 0.606395 0.000000
0.000000 0.606627 0.000000
0.037904 0.606914 0.000000
0.098139 0.607204 0.000000
0.158364 0.607496 0.000000
0.218578 0.607789 0.000000
0.278778 0.608083 0.000000
0.338964 0.608375 0.000000
0.399133 0.608666 0.000000
0.459285 0.608955 0.000000
0.519417 0.609239 0.000000
0.579527 0.609520 0.000000
0.639616 0.609795 0.000000
0.699679 0.610063 0.000000
0.759717 0.610324 0.000000
0.819727 0.610577 0.000000
0.879707 0.610821 0.000000
0.000000 0.669467 0.000000
0.000000 0.669707 0.000000
0.039832 0.670001 0.000000
0.100025 0.670294 0.000000
0.160203 0.670586 0.000000
0.220364 0.670876 0.000000
0.280506 0.671162 0.000000
0.340627 0.671445 0.000000
0.400727 0.671723 0.000000
0.460803 0.671995 0.000000
0.520854 0.672260 0.000000
0.580878 0.672517 0.000000
0.640873 0.672765 0.000000
0.700839 0.673004 0.000000
0.760773 0.673232 0.000000
0.820673 0.673448 0.000000
0.880539 0.673652 0.000000
0.000000 0.732557 0.000000
0.000000 0.732796 0.000000
0.041590 0.733084 0.000000
0.101722 0.733369 0.000000
0.161833 0.733649 0.000000
0.221921 0.733924 0.000000
0.281984 0.734193 0.000000
0.342022 0.734454 0.000000
0.402032 0.734707 0.000000
0.462013 0.734950 0.000000
0.521963 0.735184 0.000000
0.581880 0.735406 0.000000
0.641763 0.735617 0.000000
0.701611 0.735814 0.000000
0.761421 0.735998 0.000000
0.821208 0.736173 0.000000
0.880996 0.736348 0.000000
0.000000 0.795625 0.000000
0.000000 0.795852 0.000000
0.043108 0.796124 0.000000
0.103159 0.796389 0.000000
0.163183 0.796646 0.000000
0.223179 0.796895 0.000000
0.283144 0.797133 0.000000
0.343078 0.797361 0.000000
0.402979 0.797578 0.000000
0.462845 0.797782 0.000000
0.522674 0.797973 0.000000
0.582468 0.798150 0.000000
0.642255 0.798325 0.000000
0.702043 0.798501 0.000000
0.761830 0.798676 0.000000
0.821618 0.798851 0.000000
0.881404 0.799026 0.000000
0.000000 0.858630 0.000000
0.000000 0.858836 0.000000
0.044318 0.859080 0.000000
0.104268 0.859314 0.000000
0.164186 0.859536 0.000000
0.224069 0.859747 0.000000
0.283917 0.859944 0.000000
0.343727 0.860127 0.000000
0.403514 0.860302 0.000000
0.463302 0.860478 0.000000
0.523090 0.860653 0.000000
0.582877 0.860829 0.000000
0.642664 0.861004 0.000000
0.702450 0.861177 0.000000
0.762236 0.861349 0.000000
0.822020 0.861520 0.000000
0.881802 0.861688 0.000000
0.000000 0.921531 0.000000
0.000000 0.921708 0.000000
0.045150 0.921912 0.000000
0.104979 0.922102 0.000000
0.164774 0.922280 0.000000
0.224561 0.922455 0.000000
0.284349 0.922631 0.000000
0.344136 0.922806 0.000000
0.403923 0.922981 0.000000
0.463710 0.923155 0.000000
0.523496 0.923328 0.000000
0.583281 0.923500 0.000000
0.643064 0.923669 0.000000
0.702846 0.923836 0.000000
0.762626 0.924000 0.000000
0.822403 0.924160 0.000000
0.882179 0.924317 0.000000
0.000000 0.000000 0.015451
0.000000 0.000000 0.015427
0.020441 0.000000 0.015364
0.080212 0.000000 0.015263
0.140018 0.000000 0.015127
0.199859 0.000000 0.014957
0.259733 0.000000 0.014754
0.319637 0.000000 0.014520
0.379573 0.000000 0.014255
0.439536 0.000000 0.013962
0.499528 0.000000 0.013641
0.559545 0.000000 0.013295
0.619587 0.000000 0.012923
0.679652 0.000000 0.012528
0.739739 0.000000 0.012112
0.799847 0.000000 0.011674
0.859975 0.000000 0.011217
0.000000 0.000000 0.015240
0.000000 0.000000 0.015125
0.020850 0.000000 0.014955
0.080724 0.000000 0.014751
0.140629 0.000000 0.014517
0.200564 0.000000 0.014252
0.260528 0.000000 0.013958
0.320520 0.000000 0.013637
0.380538 0.000000 0.013290
0.440580 0.000000 0.012918
0.500645 0.000000 0.012523
0.560733 0.000000 0.012106
0.620841 0.000000 0.011669
0.680969 0.000000 0.011212
0.741114 0.000000 0.010737
0.801276 0.000000 0.010245
0.861454 0.000000 0.009738
0.000000 0.041390 0.014595
0.000000 0.041473 0.014388
0.021696 0.041585 0.014109
0.081674 0.041708 0.013801
0.141678 0.041842 0.013467
0.201708 0.041985 0.013108
0.261762 0.042139 0.012724
0.321839 0.042301 0.012318
0.381937 0.042472 0.011890
0.442055 0.042651 0.011443
0.502192 0.042838 0.010977
0.562346 0.043031 0.010493
0.622516 0.043231 0.009994
0.682700 0.043436 0.009480
0.742898 0.043647 0.008953
0.803107 0.043863 0.008414
0.863327 0.044083 0.007865
0.000000 0.103863 0.013577
0.000000 0.103977 0.013291
0.022885 0.104126 0.012919
0.082951 0.104284 0.012524
0.143038 0.104451 0.012107
0.203146 0.104626 0.011669
0.263274 0.104809 0.011213
0.323419 0.104999 0.010738
0.383581 0.105195 0.010246
0.443759 0.105398 0.009739
0.503950 0.105606 0.009219
0.564154 0.105819 0.008686
0.624369 0.106037 0.008141
0.684593 0.106259 0.007587
0.744827 0.106484 0.007024
0.805067 0.106712 0.006454
0.865314 0.106942 0.005879
0.000000 0.166461 0.012243
0.000000 0.166602 0.011891
0.024360 0.166781 0.011444
0.084497 0.166968 0.010978
0.144651 0.167161 0.010494
0.204821 0.167361 0.009995
0.265005 0.167566 0.009481
0.325203 0.167777 0.008954
0.385412 0.167993 0.008415
0.445632 0.168212 0.007866
0.505862 0.168436 0.007307
0.566099 0.168662 0.006741
0.626342 0.168892 0.006168
0.686591 0.169123 0.005590
0.746843 0.169356 0.005008
0.807098 0.169589 0.004423
0.867354 0.169823 0.003838
0.000000 0.229163 0.010651
0.000000 0.229325 0.010247
0.026064 0.229528 0.009740
0.086255 0.229736 0.009220
0.146459 0.229949 0.008687
0.206674 0.230167 0.008142
0.266898 0.230388 0.007588
0.327132 0.230614 0.007025
0.387372 0.230841 0.006455
0.447618 0.231072 0.005880
0.507869 0.231304 0.005300
0.568123 0.231537 0.004716
0.628379 0.231771 0.004131
0.688635 0.232005 0.003546
0.748890 0.232239 0.002961
0.809143 0.232473 0.002381
0.869399 0.232715 0.001821
0.000000 0.291945 0.008859
0.000000 0.292122 0.008416
0.027937 0.292342 0.007867
0.088167 0.292565 0.007308
0.148404 0.292792 0.006742
0.208647 0.293021 0.006169
0.268896 0.293252 0.005591
0.329148 0.293485 0.005009
0.389403 0.293719 0.004425
0.449659 0.293953 0.003839
0.509915 0.294187 0.003254
0.570169 0.294420 0.002671
0.630423 0.294658 0.002098
0.690681 0.294905 0.001550
0.750941 0.295161 0.001026
0.811201 0.295425 0.000526
0.871459 0.295696 0.000052
0.000000 0.354784 0.006924
0.000000 0.354971 0.006457
0.029923 0.355201 0.005881
0.090174 0.355433 0.005301
0.150428 0.355667 0.004718
0.210683 0.355901 0.004132
0.270939 0.356135 0.003547
0.331195 0.356369 0.002963
0.391448 0.356603 0.002382
0.451704 0.356845 0.001822
0.511963 0.357097 0.001285
0.572223 0.357357 0.000773
0.632483 0.357624 0.000286
0.692740 0.357898 0.000000
0.752993 0.358178 0.000000
0.813240 0.358462 0.000000
0.873481 0.358750 0.000000
0.000000 0.417657 0.004905
0.000000 0.417849 0.004426
0.031964 0.418083 0.003840
0.092220 0.418317 0.003255
0.152474 0.418550 0.002672
0.212728 0.418787 0.002100
0.272986 0.419035 0.001551
0.333246 0.419290 0.001027
0.393506 0.419554 0.000527
0.453764 0.419825 0.000053
0.514019 0.420102 0.000000
0.574270 0.420384 0.000000
0.634514 0.420670 0.000000
0.694750 0.420960 0.000000
0.754977 0.421252 0.000000
0.815193 0.421545 0.000000
0.875395 0.421838 0.000000
0.000000 0.480540 0.002859
0.000000 0.480732 0.002383
0.034009 0.480975 0.001823
0.094268 0.481226 0.001286
0.154528 0.481486 0.000774
0.214787 0.481754 0.000287
0.275044 0.482028 0.000000
0.335298 0.482307 0.000000
0.395545 0.482592 0.000000
0.455786 0.482880 0.000000
0.516017 0.483170 0.000000
0.576239 0.483463 0.000000
0.636448 0.483756 0.000000
0.696644 0.484049 0.000000
0.756824 0.484342 0.000000
0.816988 0.484632 0.000000
0.877133 0.484919 0.000000
0.000000 0.543467 0.000936
0.000000 0.543684 0.000528
0.036069 0.543955 0.000054
0.096324 0.544232 0.000000
0.156575 0.544514 0.000000
0.216819 0.544800 0.000000
0.277055 0.545089 0.000000
0.337282 0.545381 0.000000
0.397498 0.545674 0.000000
0.457700 0.545968 0.000000
0.517889 0.546260 0.000000
0.578061 0.546552 0.000000
0.638216 0.546841 0.000000
0.698351 0.547126 0.000000
0.758466 0.547407 0.000000
0.818558 0.547683 0.000000
0.878626 0.547953 0.000000
0.000000 0.606488 0.000000
0.000000 0.606721 0.000000
0.038091 0.607009 0.000000
0.098322 0.607300 0.000000
0.158544 0.607592 0.000000
0.218753 0.607886 0.000000
0.278949 0.608179 0.000000
0.339129 0.608471 0.000000
0.399293 0.608761 0.000000
0.459438 0.609049 0.000000
0.519564 0.609332 0.000000
0.579667 0.609611 0.000000
0.639747 0.609884 0.000000
0.699803 0.610150 0.000000
0.759831 0.610408 0.000000
0.819832 0.610658 0.000000
0.879803 0.610899 0.000000
0.000000 0.669563 0.000000
0.000000 0.669804 0.000000
0.040005 0.670097 0.000000
0.100194 0.670390 0.000000
0.160366 0.670681 0.000000
0.220521 0.670970 0.000000
0.280656 0.671256 0.000000
0.340771 0.671537 0.000000
0.400863 0.671813 0.000000
0.460931 0.672082 0.000000
0.520973 0.672345 0.000000
0.580988 0.672599 0.000000
0.640974 0.672845 0.000000
0.700929 0.673080 0.000000
0.760852 0.673304 0.000000
0.820741 0.673517 0.000000
0.880595 0.673716 0.000000
0.000000 0.732653 0.000000
0.000000 0.732891 0.000000
0.041744 0.733178 0.000000
0.101869 0.733462 0.000000
0.161972 0.733740 0.000000
0.222053 0.734013 0.000000
0.282108 0.734279 0.000000
0.342137 0.734538 0.000000
0.402137 0.734788 0.000000
0.462108 0.735028 0.000000
0.522047 0.735258 0.000000
0.581954 0.735477 0.000000
0.641825 0.735683 0.000000
0.701661 0.735876 0.000000
0.761460 0.736055 0.000000
0.821247 0.736230 0.000000
0.881034 0.736406 0.000000
0.000000 0.795716 0.000000
0.000000 0.795942 0.000000
0.043236 0.796212 0.000000
0.103278 0.796474 0.000000
0.163293 0.796729 0.000000
0.223279 0.796974 0.000000
0.283235 0.797210 0.000000
0.343158 0.797434 0.000000
0.403047 0.797646 0.000000
0.462901 0.797846 0.000000
0.522717 0.798032 0.000000
0.582506 0.798207 0.000000
0.642294 0.798383 0.000000
0.702081 0.798558 0.000000
0.761869 0.798734 0.000000
0.821656 0.798909 0.000000
0.881442 0.799083 0.000000
0.000000 0.858713 0.000000
0.000000 0.858918 0.000000
0.044414 0.859158 0.000000
0.104353 0.859388 0.000000
0.164259 0.859607 0.000000
0.224131 0.859813 0.000000
0.283967 0.860006 0.000000
0.343765 0.860185 0.000000
0.403553 0.860360 0.000000
0.463340 0.860536 0.000000
0.523128 0.860711 0.000000
0.582915 0.860886 0.000000
0.642702 0.861061 0.000000
0.702488 0.861234 0.000000
0.762273 0.861406 0.000000
0.822057 0.861575 0.000000
0.881839 0.861742 0.000202
0.000000 0.921603 0.000000
0.000000 0.921776 0.000000
0.045206 0.921976 0.000000
0.105023 0.922162 0.000000
0.164812 0.922337 0.000000
0.224599 0.922513 0.000000
0.284387 0.922688 0.000000
0.344175 0.922864 0.000000
0.403962 0.923039 0.000000
0.463748 0.923212 0.000000
0.523534 0.923385 0.000000
0.583318 0.923556 0.000000
0.643101 0.923724 0.000063
0.702882 0.923890 0.000339
0.762661 0.924053 0.000611
0.822438 0.924212 0.000876
0.882212 0.924368 0.001136
0.000000 0.000000 0.079780
0.000000 0.000000 0.079745
0.020473 0.000000 0.079668
0.080258 0.000000 0.079554
0.140077 0.000000 0.079405
0.199930 0.000000 0.079223
0.259815 0.000000 0.079008
0.319731 0.000000 0.078763
0.379677 0.000000 0.078488
0.439651 0.000000 0.078184
0.499652 0.000000 0.077854
0.559678 0.000000 0.077498
0.619729 0.000000 0.077118
0.679802 0.000000 0.076715
0.739897 0.000000 0.076290
0.800013 0.000000 0.075846
0.860147 0.000000 0.075382
0.000000 0.000000 0.079528
0.000000 0.000000 0.079403
0.020920 0.000000 0.079221
0.080806 0.000000 0.079006
0.140722 0.000000 0.078760
0.200669 0.000000 0.078484
0.260643 0.000000 0.078180
0.320644 0.000000 0.077850
0.380671 0.000000 0.077493
0.440722 0.000000 0.077113
0.500796 0.000000 0.076710
0.560891 0.000000 0.076285
0.621006 0.000000 0.075840
0.681141 0.000000 0.075376
0.741292 0.000000 0.074895
0.801460 0.000000 0.074398
0.861643 0.000000 0.073886
0.000000 0.041426 0.078842
0.000000 0.041513 0.078626
0.021805 0.041629 0.078336
0.081793 0.041756 0.078019
0.141807 0.041893 0.077675
0.201846 0.042041 0.077307
0.261909 0.042197 0.076915
0.321993 0.042363 0.076500
0.382099 0.042537 0.076065
0.442224 0.042719 0.075611
0.502367 0.042908 0.075138
0.562527 0.043104 0.074649
0.622702 0.043305 0.074144
0.682892 0.043513 0.073625
0.743094 0.043726 0.073094
0.803307 0.043943 0.072551
0.863531 0.044164 0.071998
0.000000 0.103913 0.077788
0.000000 0.104031 0.077494
0.023027 0.104183 0.077114
0.083101 0.104344 0.076711
0.143196 0.104514 0.076286
0.203312 0.104692 0.075841
0.263446 0.104877 0.075377
0.323598 0.105070 0.074896
0.383765 0.105269 0.074399
0.443948 0.105473 0.073887
0.504144 0.105684 0.073362
0.564352 0.105899 0.072824
0.624571 0.106118 0.072276
0.684799 0.106341 0.071719
0.745035 0.106567 0.071153
0.805277 0.106796 0.070581
0.865525 0.107027 0.070003
0.000000 0.166524 0.076424
0.000000 0.166667 0.076066
0.024529 0.166849 0.075612
0.084672 0.167038 0.075139
0.144832 0.167233 0.074650
0.205007 0.167435 0.074145
0.265197 0.167643 0.073626
0.325399 0.167855 0.073095
0.385612 0.168073 0.072552
0.445836 0.168294 0.071999
0.506068 0.168518 0.071437
0.566308 0.168746 0.070868
0.626553 0.168976 0.070293
0.686804 0.169208 0.069714
0.747057 0.169441 0.069131
0.807312 0.169675 0.068546
0.867568 0.169909 0.067960
0.000000 0.229235 0.074809
0.000000 0.229398 0.074400
0.026253 0.229603 0.073888
0.086449 0.229813 0.073363
0.146657 0.230028 0.072825
0.206876 0.230247 0.072277
0.267104 0.230470 0.071720
0.327340 0.230697 0.071154
0.387582 0.230926 0.070582
0.447830 0.231157 0.070005
0.508082 0.231389 0.069423
0.568337 0.231623 0.068839
0.628593 0.231857 0.068254
0.688849 0.232091 0.067668
0.749103 0.232324 0.067085
0.809357 0.232561 0.066510
0.869615 0.232806 0.065958
0.000000 0.292024 0.072999
0.000000 0.292202 0.072553
0.028141 0.292423 0.072000
0.088373 0.292648 0.071438
0.148613 0.292876 0.070869
0.208858 0.293106 0.070294
0.269108 0.293337 0.069715
0.329362 0.293571 0.069132
0.389617 0.293805 0.068547
0.449873 0.294039 0.067962
0.510129 0.294273 0.067377
0.570382 0.294506 0.066795
0.630638 0.294747 0.066232
0.690897 0.294998 0.065692
0.751157 0.295257 0.065176
0.811416 0.295523 0.064686
0.871674 0.295796 0.064222
0.000000 0.354867 0.071053
0.000000 0.355055 0.070583
0.030135 0.355286 0.070006
0.090387 0.355519 0.069424
0.150642 0.355752 0.068840
0.210898 0.355987 0.068255
0.271154 0.356221 0.067670
0.331408 0.356454 0.067086
0.391662 0.356690 0.066511
0.451920 0.356936 0.065959
0.512179 0.357191 0.065431
0.572439 0.357454 0.064929
0.632698 0.357724 0.064451
0.692953 0.358000 0.064000
0.753205 0.358281 0.063576
0.813450 0.358567 0.063179
0.873687 0.358856 0.062810
0.000000 0.417742 0.069028
0.000000 0.417934 0.068548
0.032178 0.418168 0.067963
0.092434 0.418402 0.067378
0.152687 0.418636 0.066796
0.212943 0.418877 0.066233
0.273202 0.419127 0.065693
0.333462 0.419386 0.065177
0.393721 0.419653 0.064687
0.453978 0.419926 0.064223
0.514232 0.420205 0.063785
0.574481 0.420489 0.063374
0.634722 0.420776 0.062991
0.694955 0.421066 0.062637
0.755178 0.421359 0.062312
0.815389 0.421652 0.062017
0.875587 0.421945 0.061752
0.000000 0.480626 0.066982
0.000000 0.480820 0.066512
0.034225 0.481066 0.065960
0.094484 0.481321 0.065432
0.154744 0.481583 0.064930
0.215003 0.481853 0.064452
0.275258 0.482130 0.064001
0.335510 0.482411 0.063577
0.395755 0.482697 0.063180
0.455992 0.482986 0.062811
0.516220 0.483277 0.062471
0.576437 0.483570 0.062161
0.636642 0.483864 0.061881
0.696832 0.484156 0.061632
0.757007 0.484448 0.061414
0.817164 0.484737 0.061228
0.877302 0.485023 0.061076
0.000000 0.543563 0.065088
0.000000 0.543782 0.064688
0.036283 0.544056 0.064224
0.096537 0.544334 0.063786
0.156786 0.544618 0.063375
0.217027 0.544906 0.062992
0.277260 0.545196 0.062638
0.337483 0.545488 0.062313
0.397694 0.545782 0.062017
0.457892 0.546075 0.061752
0.518074 0.546367 0.061519
0.578240 0.546658 0.061317
0.638388 0.546946 0.061148
0.698516 0.547230 0.061012
0.758623 0.547509 0.060910
0.818706 0.547783 0.060843
0.878765 0.548050 0.060811
0.000000 0.606592 0.063504
0.000000 0.606826 0.063180
0.038297 0.607115 0.062812
0.098525 0.607407 0.062472
0.158742 0.607700 0.062161
0.218947 0.607993 0.061881
0.279137 0.608286 0.061632
0.339312 0.608578 0.061414
0.399469 0.608867 0.061229
0.459607 0.609153 0.061076
0.519725 0.609435 0.060957
0.579820 0.609711 0.060873
0.639891 0.609982 0.060823
0.699937 0.610245 0.060809
0.759955 0.610501 0.060831
0.819945 0.610747 0.060890
0.879905 0.610984 0.060986
0.000000 0.669671 0.062258
0.000000 0.669911 0.062018
0.040197 0.670204 0.061753
0.100379 0.670497 0.061519
0.160545 0.670787 0.061318
0.220693 0.671075 0.061149
0.280821 0.671359 0.061013
0.340928 0.671638 0.060911
0.401011 0.671912 0.060843
0.461070 0.672179 0.060811
0.521102 0.672439 0.060815
0.581107 0.672690 0.060855
0.641082 0.672932 0.060933
0.701025 0.673163 0.061049
0.760936 0.673383 0.061203
0.820813 0.673591 0.061397
0.880653 0.673786 0.061631
0.000000 0.732759 0.061379
0.000000 0.732996 0.061229
0.041913 0.733282 0.061076
0.102030 0.733564 0.060957
0.162125 0.733841 0.060873
0.222196 0.734111 0.060823
0.282242 0.734375 0.060809
0.342261 0.734631 0.060831
0.402251 0.734877 0.060890
0.462210 0.735114 0.060986
0.522138 0.735340 0.061121
0.582032 0.735554 0.061295
0.641890 0.735755 0.061508
0.701712 0.735943 0.061762
0.761502 0.736119 0.062050
0.821290 0.736294 0.062342
0.881077 0.736470 0.062635
0.000000 0.795818 0.060896
0.000000 0.796042 0.060843
0.043375 0.796309 0.060811
0.103408 0.796569 0.060815
0.163412 0.796820 0.060855
0.223387 0.797062 0.060933
0.283331 0.797293 0.061049
0.343242 0.797513 0.061203
0.403118 0.797721 0.061396
0.462959 0.797916 0.061630
0.522762 0.798097 0.061904
0.582549 0.798272 0.062196
0.642336 0.798447 0.062488
0.702124 0.798623 0.062781
0.761912 0.798798 0.063073
0.821698 0.798973 0.063364
0.881485 0.799146 0.063653
0.000000 0.858805 0.060838
0.000000 0.859007 0.060889
0.044516 0.859243 0.060986
0.104443 0.859469 0.061121
0.164337 0.859684 0.061295
0.224196 0.859885 0.061508
0.284018 0.860073 0.061762
0.343808 0.860249 0.062050
0.403596 0.860424 0.062342
0.463383 0.860600 0.062635
0.523171 0.860775 0.062927
0.582958 0.860950 0.063219
0.642745 0.861124 0.063509
0.702530 0.861297 0.063797
0.762315 0.861468 0.064081
0.822098 0.861637 0.064363
0.881879 0.861803 0.064640
0.000000 0.921681 0.061234
0.000000 0.921851 0.061396
0.045264 0.922046 0.061630
0.105067 0.922226 0.061904
0.164855 0.922401 0.062195
0.224642 0.922577 0.062488
0.284430 0.922752 0.062781
0.344217 0.922928 0.063073
0.404004 0.923102 0.063364
0.463790 0.923276 0.063653
0.523576 0.923448 0.063939
0.583359 0.923617 0.064222
0.643142 0.923785 0.064501
0.702922 0.923950 0.064776
0.762700 0.924111 0.065045
0.822476 0.924269 0.065309
0.882250 0.924424 0.065566
0.000000 0.000000 0.144104
0.000000 0.000000 0.144058
0.020511 0.000000 0.143967
0.080308 0.000000 0.143840
0.140140 0.000000 0.143679
0.200005 0.000000 0.143485
0.259901 0.000000 0.143259
0.319828 0.000000 0.143002
0.379785 0.000000 0.142717
0.439769 0.000000 0.142403
0.499779 0.000000 0.142063
0.559814 0.000000 0.141698
0.619874 0.000000 0.141310
0.679955 0.000000 0.140899
0.740058 0.000000 0.140467
0.800180 0.000000 0.140015
0.860321 0.000000 0.139545
0.000000 0.000000 0.143812
0.000000 0.000000 0.143677
0.020995 0.000000 0.143482
