assets/presets/luts/mono-contrast/lut.cube
TITLE "Mono Contrast"
LUT_3D_SIZE 17
0.000000 0.000000 0.000000
0.000000 0.000000 0.000000
0.000000 0.000000 0.000000
0.000000 0.000000 0.000000
0.000000 0.000000 0.000000
0.000000 0.000000 0.000000
0.000000 0.000000 0.000000
0.000000 0.000000 0.000000
0.000000 0.000000 0.000000
0.000000 0.000000 0.000000
0.000000 0.000000 0.000000
0.000000 0.000000 0.000000
0.000000 0.000000 0.000000
0.000000 0.000000 0.000000
0.000000 0.000000 0.000000
0.000000 0.000000 0.000000
0.000000 0.000000 0.000000
0.000000 0.000000 0.000000
0.000000 0.000000 0.000000
0.000000 0.000000 0.000000
0.000000 0.000000 0.000000
0.000000 0.000000 0.000000
0.000000 0.000000 0.000000
0.000000 0.000000 0.000000
0.000000 0.000000 0.000000
0.000000 0.000000 0.000000
0.000000 0.000000 0.000000
0.000000 0.000000 0.000000
0.000000 0.000000 0.000000
0.000000 0.000000 0.000000
0.000000 0.000000 0.000000
0.002532 0.002532 0.002532
0.011727 0.011727 0.011727
0.022216 0.022216 0.022216
0.000000 0.000000 0.000000
0.000000 0.000000 0.000000
0.000000 0.000000 0.000000
0.000000 0.000000 0.000000
0.000000 0.000000 0.000000
0.000000 0.000000 0.000000
0.000000 0.000000 0.000000
0.000000 0.000000 0.000000
0.000000 0.000000 0.000000
0.000000 0.000000 0.000000
0.000000 0.000000 0.000000
0.005737 0.005737 0.005737
0.015390 0.015390 0.015390
0.026376 0.026376 0.026376
0.038802 0.038802 0.038802
0.052774 0.052774 0.052774
0.068392 0.068392 0.068392
0.000000 0.000000 0.000000
0.000000 0.000000 0.000000
0.000000 0.000000 0.000000
0.000000 0.000000 0.000000
0.000000 0.000000 0.000000
0.000000 0.000000 0.000000
0.000000 0.000000 0.000000
0.000242 0.000242 0.000242
0.009104 0.009104 0.009104
0.019230 0.019230 0.019230
0.030728 0.030728 0.030728
0.043704 0.043704 0.043704
0.058264 0.058264 0.058264
0.074505 0.074505 0.074505
0.092515 0.092515 0.092515
0.112368 0.112368 0.112368
0.134122 0.134122 0.134122
0.000000 0.000000 0.000000
0.000000 0.000000 0.000000
0.000000 0.000000 0.000000
0.000000 0.000000 0.000000
0.003329 0.003329 0.003329
0.012639 0.012639 0.012639
0.023251 0.023251 0.023251
0.035275 0.035275 0.035275
0.048816 0.048816 0.048816
0.063977 0.063977 0.063977
0.080853 0.080853 0.080853
0.099526 0.099526 0.099526
0.120065 0.120065 0.120065
0.142521 0.142521 0.142521
0.166918 0.166918 0.166918
0.193255 0.193255 0.193255
0.221496 0.221496 0.221496
0.000000 0.000000 0.000000
0.006574 0.006574 0.006574
0.016346 0.016346 0.016346
0.027460 0.027460 0.027460
0.040024 0.040024 0.040024
0.054143 0.054143 0.054143
0.069918 0.069918 0.069918
0.087439 0.087439 0.087439
0.106784 0.106784 0.106784
0.128017 0.128017 0.128017
0.151178 0.151178 0.151178
0.176283 0.176283 0.176283
0.203319 0.203319 0.203319
0.232239 0.232239 0.232239
0.262960 0.262960 0.262960
0.295362 0.295362 0.295362
0.329287 0.329287 0.329287
0.031860 0.031860 0.031860
0.044979 0.044979 0.044979
0.059690 0.059690 0.059690
0.076090 0.076090 0.076090
0.094267 0.094267 0.094267
0.114293 0.114293 0.114293
0.136224 0.136224 0.136224
0.160093 0.160093 0.160093
0.185904 0.185904 0.185904
0.213633 0.213633 0.213633
0.243220 0.243220 0.243220
0.274570 0.274570 0.274570
0.307546 0.307546 0.307546
0.341978 0.341978 0.341978
0.377654 0.377654 0.377654
0.414332 0.414332 0.414332
0.451743 0.451743 0.451743
0.082498 0.082498 0.082498
0.101340 0.101340 0.101340
0.122055 0.122055 0.122055
0.144689 0.144689 0.144689
0.169265 0.169265 0.169265
0.195779 0.195779 0.195779
0.224194 0.224194 0.224194
0.254436 0.254436 0.254436
0.286395 0.286395 0.286395
0.319923 0.319923 0.319923
0.354834 0.354834 0.354834
0.390905 0.390905 0.390905
0.427882 0.427882 0.427882
0.465488 0.465488 0.465488
0.503426 0.503426 0.503426
0.541388 0.541388 0.541388
0.579068 0.579068 0.579068
0.153411 0.153411 0.153411
0.178695 0.178695 0.178695
0.205907 0.205907 0.205907
0.234997 0.234997 0.234997
0.265879 0.265879 0.265879
0.298429 0.298429 0.298429
0.332484 0.332484 0.332484
0.367844 0.367844 0.367844
0.404276 0.404276 0.404276
0.441516 0.441516 0.441516
0.479277 0.479277 0.479277
0.517260 0.517260 0.517260
0.555154 0.555154 0.555154
0.592657 0.592657 0.592657
0.629473 0.629473 0.629473
0.665328 0.665328 0.665328
0.699976 0.699976 0.699976
0.246038 0.246038 0.246038
0.277544 0.277544 0.277544
0.310663 0.310663 0.310663
0.345218 0.345218 0.345218
0.380997 0.380997 0.380997
0.417755 0.417755 0.417755
0.455219 0.455219 0.455219
0.493096 0.493096 0.493096
0.531082 0.531082 0.531082
0.568869 0.568869 0.568869
0.606154 0.606154 0.606154
0.642651 0.642651 0.642651
0.678094 0.678094 0.678094
0.712247 0.712247 0.712247
0.744907 0.744907 0.744907
0.775910 0.775910 0.775910
0.805128 0.805128 0.805128
0.358115 0.358115 0.358115
0.394280 0.394280 0.394280
0.431327 0.431327 0.431327
0.468976 0.468976 0.468976
0.506929 0.506929 0.506929
0.544878 0.544878 0.544878
0.582517 0.582517 0.582517
0.619547 0.619547 0.619547
0.655690 0.655690 0.655690
0.690689 0.690689 0.690689
0.724320 0.724320 0.724320
0.756394 0.756394 0.756394
0.786759 0.786759 0.786759
0.815304 0.815304 0.815304
0.841952 0.841952 0.841952
0.866663 0.866663 0.866663
0.889432 0.889432 0.889432
0.482775 0.482775 0.482775
0.520762 0.520762 0.520762
0.558633 0.558633 0.558633
0.596084 0.596084 0.596084
0.632822 0.632822 0.632822
0.668576 0.668576 0.668576
0.703102 0.703102 0.703102
0.736186 0.736186 0.736186
0.767653 0.767653 0.767653
0.797367 0.797367 0.797367
0.825228 0.825228 0.825228
0.851173 0.851173 0.851173
0.875177 0.875177 0.875177
0.897242 0.897242 0.897242
0.917400 0.917400 0.917400
0.935703 0.935703 0.935703
0.952224 0.952224 0.952224
0.609556 0.609556 0.609556
0.645967 0.645967 0.645967
0.681300 0.681300 0.681300
0.715323 0.715323 0.715323
0.747837 0.747837 0.747837
0.778680 0.778680 0.778680
0.807728 0.807728 0.807728
0.834897 0.834897 0.834897
0.860138 0.860138 0.860138
0.883433 0.883433 0.883433
0.904799 0.904799 0.904799
0.924275 0.924275 0.924275
0.941920 0.941920 0.941920
0.957813 0.957813 0.957813
0.972045 0.972045 0.972045
0.984714 0.984714 0.984714
0.995925 0.995925 0.995925
0.727344 0.727344 0.727344
0.759267 0.759267 0.759267
0.789468 0.789468 0.789468
0.817841 0.817841 0.817841
0.844311 0.844311 0.844311
0.868844 0.868844 0.868844
0.891434 0.891434 0.891434
0.912106 0.912106 0.912106
0.930907 0.930907 0.930907
0.947904 0.947904 0.947904
0.963182 0.963182 0.963182
0.976833 0.976833 0.976833
0.988958 0.988958 0.988958
0.999666 0.999666 0.999666
1.000000 1.000000 1.000000
1.000000 1.000000 1.000000
1.000000 1.000000 1.000000
0.827700 0.827700 0.827700
0.853468 0.853468 0.853468
0.877292 0.877292 0.877292
0.899180 0.899180 0.899180
0.919164 0.919164 0.919164
0.937300 0.937300 0.937300
0.953661 0.953661 0.953661
0.968335 0.968335 0.968335
0.981418 0.981418 0.981418
0.993015 0.993015 0.993015
1.000000 1.000000 1.000000
1.000000 1.000000 1.000000
1.000000 1.000000 1.000000
1.000000 1.000000 1.000000
1.000000 1.000000 1.000000
1.000000 1.000000 1.000000
1.000000 1.000000 1.000000
0.906673 0.906673 0.906673
0.925977 0.925977 0.925977
0.943457 0.943457 0.943457
0.959193 0.959193 0.959193
0.973276 0.973276 0.973276
0.985807 0.985807 0.985807
0.996889 0.996889 0.996889
1.000000 1.000000 1.000000
1.000000 1.000000 1.000000
1.000000 1.000000 1.000000
1.000000 1.000000 1.000000
1.000000 1.000000 1.000000
1.000000 1.000000 1.000000
1.000000 1.000000 1.000000
1.000000 1.000000 1.000000
1.000000 1.000000 1.000000
1.000000 1.000000 1.000000
0.964507 0.964507 0.964507
0.978013 0.978013 0.978013
0.990003 0.990003 0.990003
1.000000 1.000000 1.000000
1.000000 1.000000 1.000000
1.000000 1.000000 1.000000
1.000000 1.000000 1.000000
1.000000 1.000000 1.000000
1.000000 1.000000 1.000000
1.000000 1.000000 1.000000
1.000000 1.000000 1.000000
1.000000 1.000000 1.000000
1.000000 1.000000 1.000000
1.000000 1.000000 1.000000
1.000000 1.000000 1.000000
1.000000 1.000000 1.000000
1.000000 1.000000 1.000000
0.000000 0.000000 0.000000
0.000000 0.000000 0.000000
0.000000 0.000000 0.000000
0.000000 0.000000 0.000000
0.000000 0.000000 0.000000
0.000000 0.000000 0.000000
0.000000 0.000000 0.000000
0.000000 0.000000 0.000000
0.000000 0.000000 0.000000
0.000000 0.000000 0.000000
0.000000 0.000000 0.000000
0.000000 0.000000 0.000000
0.000000 0.000000 0.000000
0.000000 0.000000 0.000000
0.000000 0.000000 0.000000
0.000000 0.000000 0.000000
0.000000 0.000000 0.000000
0.000000 0.000000 0.000000
0.000000 0.000000 0.000000
0.000000 0.000000 0.000000
0.000000 0.000000 0.000000
0.000000 0.000000 0.000000
0.000000 0.000000 0.000000
0.000000 0.000000 0.000000
0.000000 0.000000 0.000000
0.000000 0.000000 0.000000
0.000000 0.000000 0.000000
0.000000 0.000000 0.000000
0.000000 0.000000 0.000000
0.000000 0.000000 0.000000
0.000000 0.000000 0.000000
0.005517 0.005517 0.005517
0.015139 0.015139 0.015139
0.026091 0.026091 0.026091
0.000000 0.000000 0.000000
0.000000 0.000000 0.000000
0.000000 0.000000 0.000000
0.000000 0.000000 0.000000
0.000000 0.000000 0.000000
0.000000 0.000000 0.000000
0.000000 0.000000 0.000000
0.000000 0.000000 0.000000
0.000000 0.000000 0.000000
0.000000 0.000000 0.000000
0.000040 0.000040 0.000040
0.008873 0.008873 0.008873
0.018966 0.018966 0.018966
0.030429 0.030429 0.030429
0.043368 0.043368 0.043368
0.057888 0.057888 0.057888
0.074087 0.074087 0.074087
0.000000 0.000000 0.000000
0.000000 0.000000 0.000000
0.000000 0.000000 0.000000
0.000000 0.000000 0.000000
0.000000 0.000000 0.000000
0.000000 0.000000 0.000000
0.000000 0.000000 0.000000
0.003116 0.003116 0.003116
0.012396 0.012396 0.012396
0.022975 0.022975 0.022975
0.034963 0.034963 0.034963
0.048466 0.048466 0.048466
0.063586 0.063586 0.063586
0.080419 0.080419 0.080419
0.099047 0.099047 0.099047
0.119540 0.119540 0.119540
0.141949 0.141949 0.141949
0.000000 0.000000 0.000000
0.000000 0.000000 0.000000
0.000000 0.000000 0.000000
0.000000 0.000000 0.000000
0.006351 0.006351 0.006351
0.016091 0.016091 0.016091
0.027171 0.027171 0.027171
0.039698 0.039698 0.039698
0.053779 0.053779 0.053779
0.069512 0.069512 0.069512
0.086989 0.086989 0.086989
0.106289 0.106289 0.106289
0.127475 0.127475 0.127475
0.150588 0.150588 0.150588
0.175646 0.175646 0.175646
0.202635 0.202635 0.202635
0.231509 0.231509 0.231509
0.000804 0.000804 0.000804
0.009749 0.009749 0.009749
0.019964 0.019964 0.019964
0.031559 0.031559 0.031559
0.044639 0.044639 0.044639
0.059310 0.059310 0.059310
0.075668 0.075668 0.075668
0.093800 0.093800 0.093800
0.113781 0.113781 0.113781
0.135665 0.135665 0.135665
0.159486 0.159486 0.159486
0.185249 0.185249 0.185249
0.212932 0.212932 0.212932
0.242475 0.242475 0.242475
0.273783 0.273783 0.273783
0.306722 0.306722 0.306722
0.341120 0.341120 0.341120
0.036143 0.036143 0.036143
0.049791 0.049791 0.049791
0.065065 0.065065 0.065065
0.082060 0.082060 0.082060
0.100857 0.100857 0.100857
0.121525 0.121525 0.121525
0.144112 0.144112 0.144112
0.168641 0.168641 0.168641
0.195108 0.195108 0.195108
0.223476 0.223476 0.223476
0.253675 0.253675 0.253675
0.285594 0.285594 0.285594
0.319086 0.319086 0.319086
0.353965 0.353965 0.353965
0.390011 0.390011 0.390011
0.426969 0.426969 0.426969
0.464563 0.464563 0.464563
0.088691 0.088691 0.088691
0.108162 0.108162 0.108162
0.129525 0.129525 0.129525
0.152817 0.152817 0.152817
0.178053 0.178053 0.178053
0.205219 0.205219 0.205219
0.234264 0.234264 0.234264
0.265103 0.265103 0.265103
0.297614 0.297614 0.297614
0.331635 0.331635 0.331635
0.366966 0.366966 0.366966
0.403374 0.403374 0.403374
0.440598 0.440598 0.440598
0.478350 0.478350 0.478350
0.516330 0.516330 0.516330
0.554231 0.554231 0.554231
0.591746 0.591746 0.591746
0.161780 0.161780 0.161780
0.187722 0.187722 0.187722
0.215579 0.215579 0.215579
0.245289 0.245289 0.245289
0.276754 0.276754 0.276754
0.309835 0.309835 0.309835
0.344357 0.344357 0.344357
0.380109 0.380109 0.380109
0.416846 0.416846 0.416846
0.454296 0.454296 0.454296
0.492167 0.492167 0.492167
0.530154 0.530154 0.530154
0.567949 0.567949 0.567949
0.605251 0.605251 0.605251
0.641770 0.641770 0.641770
0.677242 0.677242 0.677242
0.711429 0.711429 0.711429
0.256548 0.256548 0.256548
0.288619 0.288619 0.288619
0.322247 0.322247 0.322247
0.357243 0.357243 0.357243
0.393384 0.393384 0.393384
0.430413 0.430413 0.430413
0.468051 0.468051 0.468051
0.506000 0.506000 0.506000
0.543952 0.543952 0.543952
0.581602 0.581602 0.581602
0.618651 0.618651 0.618651
0.654818 0.654818 0.654818
0.689848 0.689848 0.689848
0.723515 0.723515 0.723515
0.755629 0.755629 0.755629
0.786038 0.786038 0.786038
0.814628 0.814628 0.814628
0.370281 0.370281 0.370281
0.406776 0.406776 0.406776
0.444060 0.444060 0.444060
0.481847 0.481847 0.481847
0.519833 0.519833 0.519833
0.557710 0.557710 0.557710
0.595175 0.595175 0.595175
0.631934 0.631934 0.631934
0.667716 0.667716 0.667716
0.702273 0.702273 0.702273
0.735395 0.735395 0.735395
0.766904 0.766904 0.766904
0.796662 0.796662 0.796662
0.824569 0.824569 0.824569
0.850562 0.850562 0.850562
0.874613 0.874613 0.874613
0.896725 0.896725 0.896725
0.495669 0.495669 0.495669
0.533651 0.533651 0.533651
0.571413 0.571413 0.571413
0.608654 0.608654 0.608654
0.645088 0.645088 0.645088
0.680450 0.680450 0.680450
0.714508 0.714508 0.714508
0.747061 0.747061 0.747061
0.777947 0.777947 0.777947
0.807040 0.807040 0.807040
0.834256 0.834256 0.834256
0.859543 0.859543 0.859543
0.882887 0.882887 0.882887
0.904299 0.904299 0.904299
0.923820 0.923820 0.923820
0.941510 0.941510 0.941510
0.957445 0.957445 0.957445
0.622027 0.622027 0.622027
0.658099 0.658099 0.658099
0.693012 0.693012 0.693012
0.726543 0.726543 0.726543
0.758506 0.758506 0.758506
0.788751 0.788751 0.788751
0.817169 0.817169 0.817169
0.843687 0.843687 0.843687
0.868267 0.868267 0.868267
0.890904 0.890904 0.890904
0.911622 0.911622 0.911622
0.930469 0.930469 0.930469
0.947510 0.947510 0.947510
0.962828 0.962828 0.962828
0.976517 0.976517 0.976517
0.988679 0.988679 0.988679
0.999420 0.999420 0.999420
0.738370 0.738370 0.738370
0.769722 0.769722 0.769722
0.799313 0.799313 0.799313
0.827046 0.827046 0.827046
0.852861 0.852861 0.852861
0.876733 0.876733 0.876733
0.898667 0.898667 0.898667
0.918697 0.918697 0.918697
0.936877 0.936877 0.936877
0.953281 0.953281 0.953281
0.967995 0.967995 0.967995
0.981116 0.981116 0.981116
0.992748 0.992748 0.992748
1.000000 1.000000 1.000000
1.000000 1.000000 1.000000
1.000000 1.000000 1.000000
1.000000 1.000000 1.000000
0.836668 0.836668 0.836668
0.861777 0.861777 0.861777
0.884941 0.884941 0.884941
0.906177 0.906177 0.906177
0.925527 0.925527 0.925527
0.943051 0.943051 0.943051
0.958829 0.958829 0.958829
0.972951 0.972951 0.972951
0.985518 0.985518 0.985518
0.996635 0.996635 0.996635
1.000000 1.000000 1.000000
1.000000 1.000000 1.000000
1.000000 1.000000 1.000000
1.000000 1.000000 1.000000
1.000000 1.000000 1.000000
1.000000 1.000000 1.000000
1.000000 1.000000 1.000000
0.913437 0.913437 0.913437
0.932114 0.932114 0.932114
0.948992 0.948992 0.948992
0.964157 0.964157 0.964157
0.977701 0.977701 0.977701
0.989727 0.989727 0.989727
1.000000 1.000000 1.000000
1.000000 1.000000 1.000000
1.000000 1.000000 1.000000
1.000000 1.000000 1.000000
1.000000 1.000000 1.000000
1.000000 1.000000 1.000000
1.000000 1.000000 1.000000
1.000000 1.000000 1.000000
1.000000 1.000000 1.000000
1.000000 1.000000 1.000000
1.000000 1.000000 1.000000
0.969270 0.969270 0.969270
0.982249 0.982249 0.982249
0.993750 0.993750 0.993750
1.000000 1.000000 1.000000
1.000000 1.000000 1.000000
1.000000 1.000000 1.000000
1.000000 1.000000 1.000000
1.000000 1.000000 1.000000
1.000000 1.000000 1.000000
1.000000 1.000000 1.000000
1.000000 1.000000 1.000000
1.000000 1.000000 1.000000
1.000000 1.000000 1.000000
1.000000 1.000000 1.000000
1.000000 1.000000 1.000000
1.000000 1.000000 1.000000
1.000000 1.000000 1.000000
0.000000 0.000000 0.000000
0.000000 0.000000 0.000000
0.000000 0.000000 0.000000
0.000000 0.000000 0.000000
0.000000 0.000000 0.000000
0.000000 0.000000 0.000000
0.000000 0.000000 0.000000
0.000000 0.000000 0.000000
0.000000 0.000000 0.000000
0.000000 0.000000 0.000000
0.000000 0.000000 0.000000
0.000000 0.000000 0.000000
0.000000 0.000000 0.000000
0.000000 0.000000 0.000000
0.000000 0.000000 0.000000
0.000000 0.000000 0.000000
0.000000 0.000000 0.000000
0.000000 0.000000 0.000000
0.000000 0.000000 0.000000
0.000000 0.000000 0.000000
0.000000 0.000000 0.000000
0.000000 0.000000 0.000000
0.000000 0.000000 0.000000
0.000000 0.000000 0.000000
0.000000 0.000000 0.000000
0.000000 0.000000 0.000000
0.000000 0.000000 0.000000
0.000000 0.000000 0.000000
0.000000 0.000000 0.000000
0.000000 0.000000 0.000000
0.000000 0.000000 0.000000
0.008642 0.008642 0.008642
0.018704 0.018704 0.018704
0.030132 0.030132 0.030132
0.000000 0.000000 0.000000
0.000000 0.000000 0.000000
0.000000 0.000000 0.000000
0.000000 0.000000 0.000000
0.000000 0.000000 0.000000
0.000000 0.000000 0.000000
0.000000 0.000000 0.000000
0.000000 0.000000 0.000000
0.000000 0.000000 0.000000
0.000000 0.000000 0.000000
0.002905 0.002905 0.002905
0.012154 0.012154 0.012154
0.022700 0.022700 0.022700
0.034653 0.034653 0.034653
0.048117 0.048117 0.048117
0.063197 0.063197 0.063197
0.079986 0.079986 0.079986
0.000000 0.000000 0.000000
0.000000 0.000000 0.000000
0.000000 0.000000 0.000000
0.000000 0.000000 0.000000
0.000000 0.000000 0.000000
0.000000 0.000000 0.000000
0.000000 0.000000 0.000000
0.006129 0.006129 0.006129
0.015837 0.015837 0.015837
0.026883 0.026883 0.026883
0.039374 0.039374 0.039374
0.053415 0.053415 0.053415
0.069106 0.069106 0.069106
0.086540 0.086540 0.086540
0.105795 0.105795 0.105795
0.126934 0.126934 0.126934
0.150000 0.150000 0.150000
0.000000 0.000000 0.000000
0.000000 0.000000 0.000000
0.000000 0.000000 0.000000
0.000600 0.000600 0.000600
0.009515 0.009515 0.009515
0.019698 0.019698 0.019698
0.031258 0.031258 0.031258
0.044301 0.044301 0.044301
0.058931 0.058931 0.058931
0.075247 0.075247 0.075247
0.093335 0.093335 0.093335
0.113270 0.113270 0.113270
0.135107 0.135107 0.135107
0.158880 0.158880 0.158880
0.184596 0.184596 0.184596
0.212232 0.212232 0.212232
0.241731 0.241731 0.241731
0.003706 0.003706 0.003706
0.013070 0.013070 0.013070
0.023742 0.023742 0.023742
0.035829 0.035829 0.035829
0.049438 0.049438 0.049438
0.064671 0.064671 0.064671
0.081623 0.081623 0.081623
0.100375 0.100375 0.100375
0.120997 0.120997 0.120997
0.143536 0.143536 0.143536
0.168018 0.168018 0.168018
0.194438 0.194438 0.194438
0.222760 0.222760 0.222760
0.252915 0.252915 0.252915
0.284794 0.284794 0.284794
0.318250 0.318250 0.318250
0.353097 0.353097 0.353097
0.040602 0.040602 0.040602
0.054791 0.054791 0.054791
0.070639 0.070639 0.070639
0.088238 0.088238 0.088238
0.107664 0.107664 0.107664
0.128979 0.128979 0.128979
0.152224 0.152224 0.152224
0.177413 0.177413 0.177413
0.204532 0.204532 0.204532
0.233531 0.233531 0.233531
0.264328 0.264328 0.264328
0.296800 0.296800 0.296800
0.330786 0.330786 0.330786
0.366088 0.366088 0.366088
0.402473 0.402473 0.402473
0.439680 0.439680 0.439680
0.477423 0.477423 0.477423
0.095095 0.095095 0.095095
0.115203 0.115203 0.115203
0.137217 0.137217 0.137217
0.161169 0.161169 0.161169
0.187064 0.187064 0.187064
0.214875 0.214875 0.214875
0.244541 0.244541 0.244541
0.275964 0.275964 0.275964
0.309008 0.309008 0.309008
0.343497 0.343497 0.343497
0.379222 0.379222 0.379222
0.415938 0.415938 0.415938
0.453374 0.453374 0.453374
0.491238 0.491238 0.491238
0.529226 0.529226 0.529226
0.567030 0.567030 0.567030
0.604347 0.604347 0.604347
0.170373 0.170373 0.170373
0.196970 0.196970 0.196970
0.225465 0.225465 0.225465
0.255784 0.255784 0.255784
0.287815 0.287815 0.287815
0.321407 0.321407 0.321407
0.356373 0.356373 0.356373
0.392488 0.392488 0.392488
0.429499 0.429499 0.429499
0.467125 0.467125 0.467125
0.505070 0.505070 0.505070
0.543026 0.543026 0.543026
0.580687 0.580687 0.580687
0.617754 0.617754 0.617754
0.653946 0.653946 0.653946
0.689007 0.689007 0.689007
0.722709 0.722709 0.722709
0.267254 0.267254 0.267254
0.299873 0.299873 0.299873
0.333989 0.333989 0.333989
0.369401 0.369401 0.369401
0.405873 0.405873 0.405873
0.443141 0.443141 0.443141
0.480919 0.480919 0.480919
0.518903 0.518903 0.518903
0.556788 0.556788 0.556788
0.594266 0.594266 0.594266
0.631046 0.631046 0.631046
0.666854 0.666854 0.666854
0.701445 0.701445 0.701445
0.734604 0.734604 0.734604
0.766154 0.766154 0.766154
0.795956 0.795956 0.795956
0.823909 0.823909 0.823909
0.382569 0.382569 0.382569
0.419364 0.419364 0.419364
0.456851 0.456851 0.456851
0.494740 0.494740 0.494740
0.532724 0.532724 0.532724
0.570495 0.570495 0.570495
0.607752 0.607752 0.607752
0.644209 0.644209 0.644209
0.679600 0.679600 0.679600
0.713692 0.713692 0.713692
0.746284 0.746284 0.746284
0.777212 0.777212 0.777212
0.806351 0.806351 0.806351
0.833613 0.833613 0.833613
0.858948 0.858948 0.858948
0.882339 0.882339 0.882339
0.903798 0.903798 0.903798
0.508573 0.508573 0.508573
0.546515 0.546515 0.546515
0.584134 0.584134 0.584134
0.621132 0.621132 0.621132
0.657230 0.657230 0.657230
0.692174 0.692174 0.692174
0.725741 0.725741 0.725741
0.757744 0.757744 0.757744
0.788033 0.788033 0.788033
0.816496 0.816496 0.816496
0.843061 0.843061 0.843061
0.867689 0.867689 0.867689
0.890374 0.890374 0.890374
0.911138 0.911138 0.911138
0.930029 0.930029 0.930029
0.947114 0.947114 0.947114
0.962473 0.962473 0.962473
0.634392 0.634392 0.634392
0.670098 0.670098 0.670098
0.704564 0.704564 0.704564
0.737582 0.737582 0.737582
0.768976 0.768976 0.768976
0.798611 0.798611 0.798611
0.826390 0.826390 0.826390
0.852252 0.852252 0.852252
0.876172 0.876172 0.876172
0.898154 0.898154 0.898154
0.918230 0.918230 0.918230
0.936454 0.936454 0.936454
0.952900 0.952900 0.952900
0.967655 0.967655 0.967655
0.980814 0.980814 0.980814
0.992481 0.992481 0.992481
1.000000 1.000000 1.000000
0.749207 0.749207 0.749207
0.779975 0.779975 0.779975
0.808944 0.808944 0.808944
0.836030 0.836030 0.836030
0.861186 0.861186 0.861186
0.884398 0.884398 0.884398
0.905681 0.905681 0.905681
0.925075 0.925075 0.925075
0.942643 0.942643 0.942643
0.958463 0.958463 0.958463
0.972625 0.972625 0.972625
0.985228 0.985228 0.985228
0.996379 0.996379 0.996379
1.000000 1.000000 1.000000
1.000000 1.000000 1.000000
1.000000 1.000000 1.000000
1.000000 1.000000 1.000000
0.845413 0.845413 0.845413
0.869861 0.869861 0.869861
0.892368 0.892368 0.892368
0.912957 0.912957 0.912957
0.931679 0.931679 0.931679
0.948601 0.948601 0.948601
0.963805 0.963805 0.963805
0.977388 0.977388 0.977388
0.989450 0.989450 0.989450
1.000000 1.000000 1.000000
1.000000 1.000000 1.000000
1.000000 1.000000 1.000000
1.000000 1.000000 1.000000
1.000000 1.000000 1.000000
1.000000 1.000000 1.000000
1.000000 1.000000 1.000000
1.000000 1.000000 1.000000
0.919986 0.919986 0.919986
0.938044 0.938044 0.938044
0.954330 0.954330 0.954330
0.968933 0.968933 0.968933
0.981950 0.981950 0.981950
0.993485 0.993485 0.993485
1.000000 1.000000 1.000000
1.000000 1.000000 1.000000
1.000000 1.000000 1.000000
1.000000 1.000000 1.000000
1.000000 1.000000 1.000000
1.000000 1.000000 1.000000
1.000000 1.000000 1.000000
1.000000 1.000000 1.000000
1.000000 1.000000 1.000000
1.000000 1.000000 1.000000
1.000000 1.000000 1.000000
0.973850 0.973850 0.973850
0.986315 0.986315 0.986315
0.997338 0.997338 0.997338
1.000000 1.000000 1.000000
1.000000 1.000000 1.000000
1.000000 1.000000 1.000000
1.000000 1.000000 1.000000
1.000000 1.000000 1.000000
1.000000 1.000000 1.000000
1.000000 1.000000 1.000000
1.000000 1.000000 1.000000
1.000000 1.000000 1.000000
1.000000 1.000000 1.000000
1.000000 1.000000 1.000000
1.000000 1.000000 1.000000
1.000000 1.000000 1.000000
1.000000 1.000000 1.000000
0.000000 0.000000 0.000000
0.000000 0.000000 0.000000
0.000000 0.000000 0.000000
0.000000 0.000000 0.000000
0.000000 0.000000 0.000000
0.000000 0.000000 0.000000
0.000000 0.000000 0.000000
0.000000 0.000000 0.000000
0.000000 0.000000 0.000000
0.000000 0.000000 0.000000
0.000000 0.000000 0.000000
0.000000 0.000000 0.000000
0.000000 0.000000 0.000000
0.000000 0.000000 0.000000
0.000000 0.000000 0.000000
0.000000 0.000000 0.000000
0.000000 0.000000 0.000000
0.000000 0.000000 0.000000
0.000000 0.000000 0.000000
0.000000 0.000000 0.000000
