assets/presets/luts/mono-contrast/lut.cube
TITLE "Mono Contrast"
LUT_3D_SIZE 5
0.000000 0.000000 0.000000
0.000000 0.000000 0.000000
0.000000 0.000000 0.000000
0.000000 0.000000 0.000000
0.000000 0.000000 0.000000
0.000000 0.000000 0.000000
0.003329 0.003329 0.003329
0.048816 0.048816 0.048816
0.120065 0.120065 0.120065
0.221496 0.221496 0.221496
0.153411 0.153411 0.153411
0.265879 0.265879 0.265879
0.404276 0.404276 0.404276
0.555154 0.555154 0.555154
0.699976 0.699976 0.699976
0.609556 0.609556 0.609556
0.747837 0.747837 0.747837
0.860138 0.860138 0.860138
0.941920 0.941920 0.941920
0.995925 0.995925 0.995925
0.964507 0.964507 0.964507
1.000000 1.000000 1.000000
1.000000 1.000000 1.000000
1.000000 1.000000 1.000000
1.000000 1.000000 1.000000
0.000000 0.000000 0.000000
0.000000 0.000000 0.000000
0.000000 0.000000 0.000000
0.000000 0.000000 0.000000
0.002484 0.002484 0.002484
0.000000 0.000000 0.000000
0.016287 0.016287 0.016287
0.069824 0.069824 0.069824
0.151042 0.151042 0.151042
0.262782 0.262782 0.262782
0.188228 0.188228 0.188228
0.310472 0.310472 0.310472
0.455006 0.455006 0.455006
0.605946 0.605946 0.605946
0.744727 0.744727 0.744727
0.658767 0.658767 0.658767
0.789303 0.789303 0.789303
0.891312 0.891312 0.891312
0.963100 0.963100 0.963100
1.000000 1.000000 1.000000
0.982479 0.982479 0.982479
1.000000 1.000000 1.000000
1.000000 1.000000 1.000000
1.000000 1.000000 1.000000
1.000000 1.000000 1.000000
0.000000 0.000000 0.000000
0.000000 0.000000 0.000000
0.000000 0.000000 0.000000
0.000000 0.000000 0.000000
0.015274 0.015274 0.015274
0.000000 0.000000 0.000000
0.031721 0.031721 0.031721
0.094051 0.094051 0.094051
0.185602 0.185602 0.185602
0.307166 0.307166 0.307166
0.226574 0.226574 0.226574
0.357712 0.357712 0.357712
0.506500 0.506500 0.506500
0.655288 0.655288 0.655288
0.786426 0.786426 0.786426
0.705834 0.705834 0.705834
0.827398 0.827398 0.827398
0.918949 0.918949 0.918949
0.981279 0.981279 0.981279
1.000000 1.000000 1.000000
0.997726 0.997726 0.997726
1.000000 1.000000 1.000000
1.000000 1.000000 1.000000
1.000000 1.000000 1.000000
1.000000 1.000000 1.000000
0.000000 0.000000 0.000000
0.000000 0.000000 0.000000
0.000000 0.000000 0.000000
0.000000 0.000000 0.000000
0.030521 0.030521 0.030521
0.003986 0.003986 0.003986
0.049900 0.049900 0.049900
0.121688 0.121688 0.121688
0.223697 0.223697 0.223697
0.354233 0.354233 0.354233
0.268273 0.268273 0.268273
0.407054 0.407054 0.407054
0.557994 0.557994 0.557994
0.702528 0.702528 0.702528
0.824772 0.824772 0.824772
0.750218 0.750218 0.750218
0.861958 0.861958 0.861958
0.943176 0.943176 0.943176
0.996713 0.996713 0.996713
1.000000 1.000000 1.000000
1.000000 1.000000 1.000000
1.000000 1.000000 1.000000
1.000000 1.000000 1.000000
1.000000 1.000000 1.000000
1.000000 1.000000 1.000000
0.000000 0.000000 0.000000
0.000000 0.000000 0.000000
0.000000 0.000000 0.000000
0.003133 0.003133 0.003133
0.048493 0.048493 0.048493
0.017075 0.017075 0.017075
0.071080 0.071080 0.071080
0.152862 0.152862 0.152862
0.265163 0.265163 0.265163
0.403444 0.403444 0.403444
0.313024 0.313024 0.313024
0.457846 0.457846 0.457846
0.608724 0.608724 0.608724
0.747121 0.747121 0.747121
0.859589 0.859589 0.859589
0.791504 0.791504 0.791504
0.892935 0.892935 0.892935
0.964184 0.964184 0.964184
1.000000 1.000000 1.000000
1.000000 1.000000 1.000000
1.000000 1.000000 1.000000
1.000000 1.000000 1.000000
1.000000 1.000000 1.000000
1.000000 1.000000 1.000000
1.000000 1.000000 1.000000
