assets/presets/luts/mono-contrast/lut.cube
TITLE "Mono Contrast"
LUT_3D_SIZE 9
0.000000 0.000000 0.000000
0.000000 0.000000 0.000000
0.000000 0.000000 0.000000
0.000000 0.000000 0.000000
0.000000 0.000000 0.000000
0.000000 0.000000 0.000000
0.000000 0.000000 0.000000
0.000000 0.000000 0.000000
0.000000 0.000000 0.000000
0.000000 0.000000 0.000000
0.000000 0.000000 0.000000
0.000000 0.000000 0.000000
0.000000 0.000000 0.000000
0.000000 0.000000 0.000000
0.000000 0.000000 0.000000
0.015390 0.015390 0.015390
0.038802 0.038802 0.038802
0.068392 0.068392 0.068392
0.000000 0.000000 0.000000
0.000000 0.000000 0.000000
0.003329 0.003329 0.003329
0.023251 0.023251 0.023251
0.048816 0.048816 0.048816
0.080853 0.080853 0.080853
0.120065 0.120065 0.120065
0.166918 0.166918 0.166918
0.221496 0.221496 0.221496
0.031860 0.031860 0.031860
0.059690 0.059690 0.059690
0.094267 0.094267 0.094267
0.136224 0.136224 0.136224
0.185904 0.185904 0.185904
0.243220 0.243220 0.243220
0.307546 0.307546 0.307546
0.377654 0.377654 0.377654
0.451743 0.451743 0.451743
0.153411 0.153411 0.153411
0.205907 0.205907 0.205907
0.265879 0.265879 0.265879
0.332484 0.332484 0.332484
0.404276 0.404276 0.404276
0.479277 0.479277 0.479277
0.555154 0.555154 0.555154
0.629473 0.629473 0.629473
0.699976 0.699976 0.699976
0.358115 0.358115 0.358115
0.431327 0.431327 0.431327
0.506929 0.506929 0.506929
0.582517 0.582517 0.582517
0.655690 0.655690 0.655690
0.724320 0.724320 0.724320
0.786759 0.786759 0.786759
0.841952 0.841952 0.841952
0.889432 0.889432 0.889432
0.609556 0.609556 0.609556
0.681300 0.681300 0.681300
0.747837 0.747837 0.747837
0.807728 0.807728 0.807728
0.860138 0.860138 0.860138
0.904799 0.904799 0.904799
0.941920 0.941920 0.941920
0.972045 0.972045 0.972045
0.995925 0.995925 0.995925
0.827700 0.827700 0.827700
0.877292 0.877292 0.877292
0.919164 0.919164 0.919164
0.953661 0.953661 0.953661
0.981418 0.981418 0.981418
1.000000 1.000000 1.000000
1.000000 1.000000 1.000000
1.000000 1.000000 1.000000
1.000000 1.000000 1.000000
0.964507 0.964507 0.964507
0.990003 0.990003 0.990003
1.000000 1.000000 1.000000
1.000000 1.000000 1.000000
1.000000 1.000000 1.000000
1.000000 1.000000 1.000000
1.000000 1.000000 1.000000
1.000000 1.000000 1.000000
1.000000 1.000000 1.000000
0.000000 0.000000 0.000000
0.000000 0.000000 0.000000
0.000000 0.000000 0.000000
0.000000 0.000000 0.000000
0.000000 0.000000 0.000000
0.000000 0.000000 0.000000
0.000000 0.000000 0.000000
0.000000 0.000000 0.000000
0.000000 0.000000 0.000000
0.000000 0.000000 0.000000
0.000000 0.000000 0.000000
0.000000 0.000000 0.000000
0.000000 0.000000 0.000000
0.000000 0.000000 0.000000
0.002905 0.002905 0.002905
0.022700 0.022700 0.022700
0.048117 0.048117 0.048117
0.079986 0.079986 0.079986
0.000000 0.000000 0.000000
0.000000 0.000000 0.000000
0.009515 0.009515 0.009515
0.031258 0.031258 0.031258
0.058931 0.058931 0.058931
0.093335 0.093335 0.093335
0.135107 0.135107 0.135107
0.184596 0.184596 0.184596
0.241731 0.241731 0.241731
0.040602 0.040602 0.040602
0.070639 0.070639 0.070639
0.107664 0.107664 0.107664
0.152224 0.152224 0.152224
0.204532 0.204532 0.204532
0.264328 0.264328 0.264328
0.330786 0.330786 0.330786
0.402473 0.402473 0.402473
0.477423 0.477423 0.477423
0.170373 0.170373 0.170373
0.225465 0.225465 0.225465
0.287815 0.287815 0.287815
0.356373 0.356373 0.356373
0.429499 0.429499 0.429499
0.505070 0.505070 0.505070
0.580687 0.580687 0.580687
0.653946 0.653946 0.653946
0.722709 0.722709 0.722709
0.382569 0.382569 0.382569
0.456851 0.456851 0.456851
0.532724 0.532724 0.532724
0.607752 0.607752 0.607752
0.679600 0.679600 0.679600
0.746284 0.746284 0.746284
0.806351 0.806351 0.806351
0.858948 0.858948 0.858948
0.903798 0.903798 0.903798
0.634392 0.634392 0.634392
0.704564 0.704564 0.704564
0.768976 0.768976 0.768976
0.826390 0.826390 0.826390
0.876172 0.876172 0.876172
0.918230 0.918230 0.918230
0.952900 0.952900 0.952900
0.980814 0.980814 0.980814
1.000000 1.000000 1.000000
0.845413 0.845413 0.845413
0.892368 0.892368 0.892368
0.931679 0.931679 0.931679
0.963805 0.963805 0.963805
0.989450 0.989450 0.989450
1.000000 1.000000 1.000000
1.000000 1.000000 1.000000
1.000000 1.000000 1.000000
1.000000 1.000000 1.000000
0.973850 0.973850 0.973850
0.997338 0.997338 0.997338
1.000000 1.000000 1.000000
1.000000 1.000000 1.000000
1.000000 1.000000 1.000000
1.000000 1.000000 1.000000
1.000000 1.000000 1.000000
1.000000 1.000000 1.000000
1.000000 1.000000 1.000000
0.000000 0.000000 0.000000
0.000000 0.000000 0.000000
0.000000 0.000000 0.000000
0.000000 0.000000 0.000000
0.000000 0.000000 0.000000
0.000000 0.000000 0.000000
0.000000 0.000000 0.000000
0.000000 0.000000 0.000000
0.002484 0.002484 0.002484
0.000000 0.000000 0.000000
0.000000 0.000000 0.000000
0.000000 0.000000 0.000000
0.000000 0.000000 0.000000
0.000000 0.000000 0.000000
0.009051 0.009051 0.009051
0.030659 0.030659 0.030659
0.058177 0.058177 0.058177
0.092408 0.092408 0.092408
0.000000 0.000000 0.000000
0.000000 0.000000 0.000000
0.016287 0.016287 0.016287
0.039949 0.039949 0.039949
0.069824 0.069824 0.069824
0.106670 0.106670 0.106670
0.151042 0.151042 0.151042
0.203161 0.203161 0.203161
0.262782 0.262782 0.262782
0.050063 0.050063 0.050063
0.082397 0.082397 0.082397
0.121933 0.121933 0.121933
0.169121 0.169121 0.169121
0.224028 0.224028 0.224028
0.286210 0.286210 0.286210
0.354633 0.354633 0.354633
0.427672 0.427672 0.427672
0.503211 0.503211 0.503211
0.188228 0.188228 0.188228
0.245865 0.245865 0.245865
0.310472 0.310472 0.310472
0.380792 0.380792 0.380792
0.455006 0.455006 0.455006
0.530868 0.530868 0.530868
0.605946 0.605946 0.605946
0.677897 0.677897 0.677897
0.744727 0.744727 0.744727
0.407471 0.407471 0.407471
0.482560 0.482560 0.482560
0.558420 0.558420 0.558420
0.632618 0.632618 0.632618
0.702911 0.702911 0.702911
0.767480 0.767480 0.767480
0.825076 0.825076 0.825076
0.875047 0.875047 0.875047
0.917291 0.917291 0.917291
0.658767 0.658767 0.658767
0.727160 0.727160 0.727160
0.789303 0.789303 0.789303
0.844167 0.844167 0.844167
0.891312 0.891312 0.891312
0.930806 0.930806 0.930806
0.963100 0.963100 0.963100
0.988894 0.988894 0.988894
1.000000 1.000000 1.000000
0.862231 0.862231 0.862231
0.906559 0.906559 0.906559
0.943363 0.943363 0.943363
0.973202 0.973202 0.973202
0.996830 0.996830 0.996830
1.000000 1.000000 1.000000
1.000000 1.000000 1.000000
1.000000 1.000000 1.000000
1.000000 1.000000 1.000000
0.982479 0.982479 0.982479
1.000000 1.000000 1.000000
1.000000 1.000000 1.000000
1.000000 1.000000 1.000000
1.000000 1.000000 1.000000
1.000000 1.000000 1.000000
1.000000 1.000000 1.000000
1.000000 1.000000 1.000000
1.000000 1.000000 1.000000
0.000000 0.000000 0.000000
0.000000 0.000000 0.000000
0.000000 0.000000 0.000000
0.000000 0.000000 0.000000
0.000000 0.000000 0.000000
0.000000 0.000000 0.000000
0.000000 0.000000 0.000000
0.000000 0.000000 0.000000
0.008589 0.008589 0.008589
0.000000 0.000000 0.000000
0.000000 0.000000 0.000000
0.000000 0.000000 0.000000
0.000000 0.000000 0.000000
0.000000 0.000000 0.000000
0.015779 0.015779 0.015779
0.039299 0.039299 0.039299
0.069013 0.069013 0.069013
0.105681 0.105681 0.105681
0.000000 0.000000 0.000000
0.003657 0.003657 0.003657
0.023678 0.023678 0.023678
0.049357 0.049357 0.049357
0.081522 0.081522 0.081522
0.120875 0.120875 0.120875
0.167874 0.167874 0.167874
0.222595 0.222595 0.222595
0.284609 0.284609 0.284609
0.060276 0.060276 0.060276
0.094987 0.094987 0.094987
0.137087 0.137087 0.137087
0.186913 0.186913 0.186913
0.244369 0.244369 0.244369
0.308817 0.308817 0.308817
0.379017 0.379017 0.379017
0.453161 0.453161 0.453161
0.529012 0.529012 0.529012
0.206968 0.206968 0.206968
0.267075 0.267075 0.267075
0.333792 0.333792 0.333792
0.405665 0.405665 0.405665
0.480705 0.480705 0.480705
0.556575 0.556575 0.556575
0.630841 0.630841 0.630841
0.701253 0.701253 0.701253
0.765980 0.765980 0.765980
0.432735 0.432735 0.432735
0.508359 0.508359 0.508359
0.583923 0.583923 0.583923
0.657029 0.657029 0.657029
0.725556 0.725556 0.725556
0.787867 0.787867 0.787867
0.842917 0.842917 0.842917
0.890251 0.890251 0.890251
0.929928 0.929928 0.929928
0.682605 0.682605 0.682605
0.749029 0.749029 0.749029
0.808785 0.808785 0.808785
0.861049 0.861049 0.861049
0.905566 0.905566 0.905566
0.942549 0.942549 0.942549
0.972549 0.972549 0.972549
0.996320 0.996320 0.996320
1.000000 1.000000 1.000000
0.878151 0.878151 0.878151
0.919879 0.919879 0.919879
0.954243 0.954243 0.954243
0.981881 0.981881 0.981881
1.000000 1.000000 1.000000
1.000000 1.000000 1.000000
1.000000 1.000000 1.000000
1.000000 1.000000 1.000000
1.000000 1.000000 1.000000
0.990426 0.990426 0.990426
1.000000 1.000000 1.000000
1.000000 1.000000 1.000000
1.000000 1.000000 1.000000
1.000000 1.000000 1.000000
1.000000 1.000000 1.000000
1.000000 1.000000 1.000000
1.000000 1.000000 1.000000
1.000000 1.000000 1.000000
0.000000 0.000000 0.000000
0.000000 0.000000 0.000000
0.000000 0.000000 0.000000
0.000000 0.000000 0.000000
0.000000 0.000000 0.000000
0.000000 0.000000 0.000000
0.000000 0.000000 0.000000
0.000000 0.000000 0.000000
0.015274 0.015274 0.015274
0.000000 0.000000 0.000000
0.000000 0.000000 0.000000
0.000000 0.000000 0.000000
0.000000 0.000000 0.000000
0.003231 0.003231 0.003231
0.023124 0.023124 0.023124
0.048655 0.048655 0.048655
0.080652 0.080652 0.080652
0.119823 0.119823 0.119823
0.000000 0.000000 0.000000
0.009875 0.009875 0.009875
0.031721 0.031721 0.031721
0.059514 0.059514 0.059514
0.094051 0.094051 0.094051
0.135966 0.135966 0.135966
0.185602 0.185602 0.185602
0.242876 0.242876 0.242876
0.307166 0.307166 0.307166
0.071269 0.071269 0.071269
0.108431 0.108431 0.108431
0.153137 0.153137 0.153137
0.205589 0.205589 0.205589
0.265521 0.265521 0.265521
0.332092 0.332092 0.332092
0.403860 0.403860 0.403860
0.478849 0.478849 0.478849
0.554728 0.554728 0.554728
0.226574 0.226574 0.226574
0.289052 0.289052 0.289052
0.357712 0.357712 0.357712
0.430905 0.430905 0.430905
0.506500 0.506500 0.506500
0.582095 0.582095 0.582095
0.655288 0.655288 0.655288
0.723948 0.723948 0.723948
0.786426 0.786426 0.786426
0.458272 0.458272 0.458272
0.534151 0.534151 0.534151
0.609140 0.609140 0.609140
0.680908 0.680908 0.680908
0.747479 0.747479 0.747479
0.807411 0.807411 0.807411
0.859863 0.859863 0.859863
0.904569 0.904569 0.904569
0.941731 0.941731 0.941731
0.705834 0.705834 0.705834
0.770124 0.770124 0.770124
0.827398 0.827398 0.827398
0.877034 0.877034 0.877034
0.918949 0.918949 0.918949
0.953486 0.953486 0.953486
0.981279 0.981279 0.981279
1.000000 1.000000 1.000000
1.000000 1.000000 1.000000
0.893177 0.893177 0.893177
0.932348 0.932348 0.932348
0.964345 0.964345 0.964345
0.989876 0.989876 0.989876
1.000000 1.000000 1.000000
1.000000 1.000000 1.000000
1.000000 1.000000 1.000000
1.000000 1.000000 1.000000
1.000000 1.000000 1.000000
0.997726 0.997726 0.997726
1.000000 1.000000 1.000000
1.000000 1.000000 1.000000
1.000000 1.000000 1.000000
1.000000 1.000000 1.000000
1.000000 1.000000 1.000000
1.000000 1.000000 1.000000
1.000000 1.000000 1.000000
1.000000 1.000000 1.000000
0.000000 0.000000 0.000000
0.000000 0.000000 0.000000
0.000000 0.000000 0.000000
0.000000 0.000000 0.000000
0.000000 0.000000 0.000000
0.000000 0.000000 0.000000
0.000000 0.000000 0.000000
0.002807 0.002807 0.002807
0.022574 0.022574 0.022574
0.000000 0.000000 0.000000
0.000000 0.000000 0.000000
0.000000 0.000000 0.000000
0.000000 0.000000 0.000000
0.009408 0.009408 0.009408
0.031119 0.031119 0.031119
0.058757 0.058757 0.058757
0.093121 0.093121 0.093121
0.134849 0.134849 0.134849
0.000000 0.000000 0.000000
0.016680 0.016680 0.016680
0.040451 0.040451 0.040451
0.070451 0.070451 0.070451
0.107434 0.107434 0.107434
0.151951 0.151951 0.151951
0.204215 0.204215 0.204215
0.263971 0.263971 0.263971
0.330395 0.330395 0.330395
0.083072 0.083072 0.083072
0.122749 0.122749 0.122749
0.170083 0.170083 0.170083
0.225133 0.225133 0.225133
0.287444 0.287444 0.287444
0.355971 0.355971 0.355971
0.429077 0.429077 0.429077
0.504641 0.504641 0.504641
0.580265 0.580265 0.580265
0.247020 0.247020 0.247020
0.311747 0.311747 0.311747
0.382159 0.382159 0.382159
0.456425 0.456425 0.456425
0.532295 0.532295 0.532295
0.607335 0.607335 0.607335
0.679208 0.679208 0.679208
0.745925 0.745925 0.745925
0.806032 0.806032 0.806032
0.483988 0.483988 0.483988
0.559839 0.559839 0.559839
0.633983 0.633983 0.633983
0.704183 0.704183 0.704183
0.768631 0.768631 0.768631
0.826087 0.826087 0.826087
0.875913 0.875913 0.875913
0.918013 0.918013 0.918013
0.952724 0.952724 0.952724
0.728391 0.728391 0.728391
0.790405 0.790405 0.790405
0.845126 0.845126 0.845126
0.892125 0.892125 0.892125
0.931478 0.931478 0.931478
0.963643 0.963643 0.963643
0.989322 0.989322 0.989322
1.000000 1.000000 1.000000
1.000000 1.000000 1.000000
0.907319 0.907319 0.907319
0.943987 0.943987 0.943987
0.973701 0.973701 0.973701
0.997221 0.997221 0.997221
1.000000 1.000000 1.000000
1.000000 1.000000 1.000000
1.000000 1.000000 1.000000
1.000000 1.000000 1.000000
1.000000 1.000000 1.000000
1.000000 1.000000 1.000000
1.000000 1.000000 1.000000
1.000000 1.000000 1.000000
1.000000 1.000000 1.000000
1.000000 1.000000 1.000000
1.000000 1.000000 1.000000
1.000000 1.000000 1.000000
1.000000 1.000000 1.000000
1.000000 1.000000 1.000000
0.000000 0.000000 0.000000
0.000000 0.000000 0.000000
0.000000 0.000000 0.000000
0.000000 0.000000 0.000000
0.000000 0.000000 0.000000
0.000000 0.000000 0.000000
0.000000 0.000000 0.000000
0.008944 0.008944 0.008944
0.030521 0.030521 0.030521
0.000000 0.000000 0.000000
0.000000 0.000000 0.000000
0.000000 0.000000 0.000000
0.000000 0.000000 0.000000
0.016170 0.016170 0.016170
0.039799 0.039799 0.039799
0.069636 0.069636 0.069636
0.106441 0.106441 0.106441
0.150769 0.150769 0.150769
0.003986 0.003986 0.003986
0.024106 0.024106 0.024106
0.049900 0.049900 0.049900
0.082194 0.082194 0.082194
0.121688 0.121688 0.121688
0.168833 0.168833 0.168833
0.223697 0.223697 0.223697
0.285840 0.285840 0.285840
0.354233 0.354233 0.354233
0.095709 0.095709 0.095709
0.137953 0.137953 0.137953
0.187924 0.187924 0.187924
0.245520 0.245520 0.245520
0.310089 0.310089 0.310089
0.380382 0.380382 0.380382
0.454580 0.454580 0.454580
0.530440 0.530440 0.530440
0.605529 0.605529 0.605529
0.268273 0.268273 0.268273
0.335103 0.335103 0.335103
0.407054 0.407054 0.407054
0.482132 0.482132 0.482132
0.557994 0.557994 0.557994
0.632208 0.632208 0.632208
0.702528 0.702528 0.702528
0.767135 0.767135 0.767135
0.824772 0.824772 0.824772
0.509789 0.509789 0.509789
0.585328 0.585328 0.585328
0.658367 0.658367 0.658367
0.726790 0.726790 0.726790
0.788972 0.788972 0.788972
0.843879 0.843879 0.843879
0.891067 0.891067 0.891067
0.930603 0.930603 0.930603
0.962937 0.962937 0.962937
0.750218 0.750218 0.750218
0.809839 0.809839 0.809839
0.861958 0.861958 0.861958
0.906330 0.906330 0.906330
0.943176 0.943176 0.943176
0.973051 0.973051 0.973051
0.996713 0.996713 0.996713
1.000000 1.000000 1.000000
1.000000 1.000000 1.000000
0.920592 0.920592 0.920592
0.954823 0.954823 0.954823
0.982341 0.982341 0.982341
1.000000 1.000000 1.000000
1.000000 1.000000 1.000000
1.000000 1.000000 1.000000
1.000000 1.000000 1.000000
1.000000 1.000000 1.000000
1.000000 1.000000 1.000000
1.000000 1.000000 1.000000
1.000000 1.000000 1.000000
1.000000 1.000000 1.000000
1.000000 1.000000 1.000000
1.000000 1.000000 1.000000
1.000000 1.000000 1.000000
1.000000 1.000000 1.000000
1.000000 1.000000 1.000000
1.000000 1.000000 1.000000
0.000000 0.000000 0.000000
0.000000 0.000000 0.000000
0.000000 0.000000 0.000000
0.000000 0.000000 0.000000
0.000000 0.000000 0.000000
0.000000 0.000000 0.000000
0.000000 0.000000 0.000000
0.015662 0.015662 0.015662
0.039150 0.039150 0.039150
0.000000 0.000000 0.000000
0.000000 0.000000 0.000000
0.000000 0.000000 0.000000
0.003558 0.003558 0.003558
0.023550 0.023550 0.023550
0.049195 0.049195 0.049195
0.081321 0.081321 0.081321
0.120632 0.120632 0.120632
0.167587 0.167587 0.167587
0.010236 0.010236 0.010236
0.032186 0.032186 0.032186
0.060100 0.060100 0.060100
0.094770 0.094770 0.094770
0.136828 0.136828 0.136828
0.186610 0.186610 0.186610
0.244024 0.244024 0.244024
0.308436 0.308436 0.308436
0.378608 0.378608 0.378608
0.109202 0.109202 0.109202
0.154052 0.154052 0.154052
0.206649 0.206649 0.206649
0.266716 0.266716 0.266716
0.333400 0.333400 0.333400
0.405248 0.405248 0.405248
0.480276 0.480276 0.480276
0.556149 0.556149 0.556149
0.630431 0.630431 0.630431
0.290291 0.290291 0.290291
0.359054 0.359054 0.359054
0.432313 0.432313 0.432313
0.507930 0.507930 0.507930
0.583501 0.583501 0.583501
0.656627 0.656627 0.656627
0.725185 0.725185 0.725185
0.787535 0.787535 0.787535
0.842627 0.842627 0.842627
0.535577 0.535577 0.535577
0.610527 0.610527 0.610527
0.682214 0.682214 0.682214
0.748672 0.748672 0.748672
0.808468 0.808468 0.808468
0.860776 0.860776 0.860776
0.905336 0.905336 0.905336
0.942361 0.942361 0.942361
0.972398 0.972398 0.972398
0.771269 0.771269 0.771269
0.828404 0.828404 0.828404
0.877893 0.877893 0.877893
0.919665 0.919665 0.919665
0.954068 0.954068 0.954068
0.981742 0.981742 0.981742
1.000000 1.000000 1.000000
1.000000 1.000000 1.000000
1.000000 1.000000 1.000000
0.933014 0.933014 0.933014
0.964883 0.964883 0.964883
0.990300 0.990300 0.990300
1.000000 1.000000 1.000000
1.000000 1.000000 1.000000
1.000000 1.000000 1.000000
1.000000 1.000000 1.000000
1.000000 1.000000 1.000000
1.000000 1.000000 1.000000
1.000000 1.000000 1.000000
1.000000 1.000000 1.000000
1.000000 1.000000 1.000000
1.000000 1.000000 1.000000
1.000000 1.000000 1.000000
1.000000 1.000000 1.000000
1.000000 1.000000 1.000000
1.000000 1.000000 1.000000
1.000000 1.000000 1.000000
0.000000 0.000000 0.000000
0.000000 0.000000 0.000000
0.000000 0.000000 0.000000
0.000000 0.000000 0.000000
0.000000 0.000000 0.000000
0.000000 0.000000 0.000000
0.003133 0.003133 0.003133
0.022997 0.022997 0.022997
0.048493 0.048493 0.048493
0.000000 0.000000 0.000000
0.000000 0.000000 0.000000
0.000000 0.000000 0.000000
0.009767 0.009767 0.009767
0.031582 0.031582 0.031582
0.059339 0.059339 0.059339
0.093836 0.093836 0.093836
0.135708 0.135708 0.135708
0.185300 0.185300 0.185300
0.017075 0.017075 0.017075
0.040955 0.040955 0.040955
0.071080 0.071080 0.071080
0.108201 0.108201 0.108201
0.152862 0.152862 0.152862
0.205272 0.205272 0.205272
0.265163 0.265163 0.265163
0.331700 0.331700 0.331700
0.403444 0.403444 0.403444
0.123568 0.123568 0.123568
0.171048 0.171048 0.171048
0.226241 0.226241 0.226241
0.288680 0.288680 0.288680
0.357310 0.357310 0.357310
0.430483 0.430483 0.430483
0.506071 0.506071 0.506071
0.581673 0.581673 0.581673
0.654885 0.654885 0.654885
0.313024 0.313024 0.313024
0.383527 0.383527 0.383527
0.457846 0.457846 0.457846
0.533723 0.533723 0.533723
0.608724 0.608724 0.608724
0.680516 0.680516 0.680516
0.747121 0.747121 0.747121
0.807093 0.807093 0.807093
0.859589 0.859589 0.859589
0.561257 0.561257 0.561257
0.635346 0.635346 0.635346
0.705454 0.705454 0.705454
0.769780 0.769780 0.769780
0.827096 0.827096 0.827096
0.876776 0.876776 0.876776
0.918733 0.918733 0.918733
0.953310 0.953310 0.953310
0.981140 0.981140 0.981140
0.791504 0.791504 0.791504
0.846082 0.846082 0.846082
0.892935 0.892935 0.892935
0.932147 0.932147 0.932147
0.964184 0.964184 0.964184
0.989749 0.989749 0.989749
1.000000 1.000000 1.000000
1.000000 1.000000 1.000000
1.000000 1.000000 1.000000
0.944608 0.944608 0.944608
0.974198 0.974198 0.974198
0.997610 0.997610 0.997610
1.000000 1.000000 1.000000
1.000000 1.000000 1.000000
1.000000 1.000000 1.000000
1.000000 1.000000 1.000000
1.000000 1.000000 1.000000
1.000000 1.000000 1.000000
1.000000 1.000000 1.000000
1.000000 1.000000 1.000000
1.000000 1.000000 1.000000
1.000000 1.000000 1.000000
1.000000 1.000000 1.000000
1.000000 1.000000 1.000000
1.000000 1.000000 1.000000
1.000000 1.000000 1.000000
1.000000 1.000000 1.000000
