assets/presets/luts/albumen/lut.cube
TITLE "Albumen"
LUT_3D_SIZE 17
0.146386 0.139843 0.122831
0.168425 0.159203 0.136767
0.190463 0.178563 0.150703
0.212501 0.197923 0.164639
0.234539 0.217283 0.178576
0.256577 0.236643 0.192512
0.278616 0.256004 0.206448
0.300654 0.275364 0.220384
0.322692 0.294724 0.234320
0.344730 0.314084 0.248257
0.366769 0.333444 0.262193
0.388807 0.352804 0.276129
0.410845 0.372164 0.290065
0.432883 0.391524 0.304002
0.454921 0.410884 0.317938
0.476960 0.430244 0.331874
0.498998 0.449604 0.345810
0.171179 0.161623 0.138509
0.193218 0.180983 0.152445
0.215256 0.200343 0.166381
0.237294 0.219703 0.180318
0.259332 0.239063 0.194254
0.281370 0.258424 0.208190
0.303409 0.277784 0.222126
0.325447 0.297144 0.236062
0.347485 0.316504 0.249999
0.369523 0.335864 0.263935
0.391562 0.355224 0.277871
0.413600 0.374584 0.291807
0.435638 0.393944 0.305744
0.457676 0.413304 0.319680
0.479714 0.432664 0.333616
0.501753 0.452024 0.347552
0.523791 0.471384 0.361488
0.195972 0.183403 0.154187
0.218011 0.202763 0.168123
0.240049 0.222123 0.182060
0.262087 0.241483 0.195996
0.284125 0.260844 0.209932
0.306163 0.280204 0.223868
0.328202 0.299564 0.237804
0.350240 0.318924 0.251741
0.372278 0.338284 0.265677
0.394316 0.357644 0.279613
0.416354 0.377004 0.293549
0.438393 0.396364 0.307486
0.460431 0.415724 0.321422
0.482469 0.435084 0.335358
0.504507 0.454444 0.349294
0.526546 0.473804 0.363231
0.548584 0.493165 0.377167
0.220765 0.205183 0.169865
0.242804 0.224543 0.183802
0.264842 0.243903 0.197738
0.286880 0.263264 0.211674
0.308918 0.282624 0.225610
0.330956 0.301984 0.239547
0.352995 0.321344 0.253483
0.375033 0.340704 0.267419
0.397071 0.360064 0.281355
0.419109 0.379424 0.295291
0.441147 0.398784 0.309228
0.463186 0.418144 0.323164
0.485224 0.437504 0.337100
0.507262 0.456864 0.351036
0.529300 0.476224 0.364973
0.551339 0.495585 0.378909
0.573377 0.514945 0.392845
0.245558 0.226963 0.185544
0.267597 0.246323 0.199480
0.289635 0.265684 0.213416
0.311673 0.285044 0.227352
0.333711 0.304404 0.241289
0.355749 0.323764 0.255225
0.377788 0.343124 0.269161
0.399826 0.362484 0.283097
0.421864 0.381844 0.297033
0.443902 0.401204 0.310970
0.465940 0.420564 0.324906
0.487979 0.439924 0.338842
0.510017 0.459284 0.352778
0.532055 0.478644 0.366715
0.554093 0.498005 0.380651
0.576132 0.517365 0.394587
0.598170 0.536725 0.408523
0.270351 0.248744 0.201222
0.292390 0.268104 0.215158
0.314428 0.287464 0.229094
0.336466 0.306824 0.243031
0.358504 0.326184 0.256967
0.380542 0.345544 0.270903
0.402581 0.364904 0.284839
0.424619 0.384264 0.298775
0.446657 0.403624 0.312712
0.468695 0.422984 0.326648
0.490733 0.442344 0.340584
0.512772 0.461704 0.354520
0.534810 0.481064 0.368457
0.556848 0.500425 0.382393
0.578886 0.519785 0.396329
0.600925 0.539145 0.410265
0.622963 0.558505 0.424202
0.295144 0.270524 0.216900
0.317183 0.289884 0.230836
0.339221 0.309244 0.244773
0.361259 0.328604 0.258709
0.383297 0.347964 0.272645
0.405335 0.367324 0.286581
0.427374 0.386684 0.300517
0.449412 0.406044 0.314454
0.471450 0.425404 0.328390
0.493488 0.444764 0.342326
0.515526 0.464124 0.356262
0.537565 0.483484 0.370199
0.559603 0.502845 0.384135
0.581641 0.522205 0.398071
0.603679 0.541565 0.412007
0.625718 0.560925 0.425944
0.647756 0.580285 0.439880
0.319937 0.292304 0.232578
0.341976 0.311664 0.246515
0.364014 0.331024 0.260451
0.386052 0.350384 0.274387
0.408090 0.369744 0.288323
0.430128 0.389104 0.302260
0.452167 0.408464 0.316196
0.474205 0.427824 0.330132
0.496243 0.447184 0.344068
0.518281 0.466544 0.358004
0.540320 0.485904 0.371941
0.562358 0.505265 0.385877
0.584396 0.524625 0.399813
0.606434 0.543985 0.413749
0.628472 0.563345 0.427686
0.650511 0.582705 0.441622
0.672549 0.602065 0.455558
0.344730 0.314084 0.248257
0.366769 0.333444 0.262193
0.388807 0.352804 0.276129
0.410845 0.372164 0.290065
0.432883 0.391524 0.304002
0.454921 0.410884 0.317938
0.476960 0.430244 0.331874
0.498998 0.449604 0.345810
0.521036 0.468964 0.359746
0.543074 0.488324 0.373683
0.565112 0.507685 0.387619
0.587151 0.527045 0.401555
0.609189 0.546405 0.415491
0.631227 0.565765 0.429428
0.653265 0.585125 0.443364
0.675304 0.604485 0.457300
0.697342 0.623845 0.471236
0.369523 0.335864 0.263935
0.391562 0.355224 0.277871
0.413600 0.374584 0.291807
0.435638 0.393944 0.305744
0.457676 0.413304 0.319680
0.479714 0.432664 0.333616
0.501753 0.452024 0.347552
0.523791 0.471384 0.361488
0.545829 0.490745 0.375425
0.567867 0.510105 0.389361
0.589905 0.529465 0.403297
0.611944 0.548825 0.417233
0.633982 0.568185 0.431170
0.656020 0.587545 0.445106
0.678058 0.606905 0.459042
0.700097 0.626265 0.472978
0.722135 0.645625 0.486915
0.394316 0.357644 0.279613
0.416354 0.377004 0.293549
0.438393 0.396364 0.307486
0.460431 0.415724 0.321422
0.482469 0.435084 0.335358
0.504507 0.454444 0.349294
0.526546 0.473804 0.363231
0.548584 0.493165 0.377167
0.570622 0.512525 0.391103
0.592660 0.531885 0.405039
0.614698 0.551245 0.418975
0.636737 0.570605 0.432912
0.658775 0.589965 0.446848
0.680813 0.609325 0.460784
0.702851 0.628685 0.474720
0.724890 0.648045 0.488657
0.746928 0.667405 0.502593
0.419109 0.379424 0.295291
0.441147 0.398784 0.309228
0.463186 0.418144 0.323164
0.485224 0.437504 0.337100
0.507262 0.456864 0.351036
0.529300 0.476224 0.364973
0.551339 0.495585 0.378909
0.573377 0.514945 0.392845
0.595415 0.534305 0.406781
0.617453 0.553665 0.420717
0.639491 0.573025 0.434654
0.661530 0.592385 0.448590
0.683568 0.611745 0.462526
0.705606 0.631105 0.476462
0.727644 0.650465 0.490399
0.749683 0.669825 0.504335
0.771721 0.689185 0.518271
0.443902 0.401204 0.310970
0.465940 0.420564 0.324906
0.487979 0.439924 0.338842
0.510017 0.459284 0.352778
0.532055 0.478644 0.366715
0.554093 0.498005 0.380651
0.576132 0.517365 0.394587
0.598170 0.536725 0.408523
0.620208 0.556085 0.422460
0.642246 0.575445 0.436396
0.664284 0.594805 0.450332
0.686323 0.614165 0.464268
0.708361 0.633525 0.478204
0.730399 0.652885 0.492141
0.752437 0.672245 0.506077
0.774476 0.691605 0.520013
0.796514 0.710965 0.533949
0.468695 0.422984 0.326648
0.490733 0.442344 0.340584
0.512772 0.461704 0.354520
0.534810 0.481064 0.368457
0.556848 0.500425 0.382393
0.578886 0.519785 0.396329
0.600925 0.539145 0.410265
0.622963 0.558505 0.424202
0.645001 0.577865 0.438138
0.667039 0.597225 0.452074
0.689077 0.616585 0.466010
0.711116 0.635945 0.479946
0.733154 0.655305 0.493883
0.755192 0.674665 0.507819
0.777230 0.694025 0.521755
0.799269 0.713385 0.535691
0.821307 0.732745 0.549628
0.493488 0.444764 0.342326
0.515526 0.464124 0.356262
0.537565 0.483484 0.370199
0.559603 0.502845 0.384135
0.581641 0.522205 0.398071
0.603679 0.541565 0.412007
0.625718 0.560925 0.425944
0.647756 0.580285 0.439880
0.669794 0.599645 0.453816
0.691832 0.619005 0.467752
0.713870 0.638365 0.481688
0.735909 0.657725 0.495625
0.757947 0.677085 0.509561
0.779985 0.696445 0.523497
0.802023 0.715805 0.537433
0.824062 0.735165 0.551370
0.846100 0.754526 0.565306
0.518281 0.466544 0.358004
0.540320 0.485904 0.371941
0.562358 0.505265 0.385877
0.584396 0.524625 0.399813
0.606434 0.543985 0.413749
0.628472 0.563345 0.427686
0.650511 0.582705 0.441622
0.672549 0.602065 0.455558
0.694587 0.621425 0.469494
0.716625 0.640785 0.483431
0.738663 0.660145 0.497367
0.760702 0.679505 0.511303
0.782740 0.698865 0.525239
0.804778 0.718225 0.539175
0.826816 0.737585 0.553112
0.848855 0.756946 0.567048
0.870893 0.776306 0.580984
0.543074 0.488324 0.373683
0.565112 0.507685 0.387619
0.587151 0.527045 0.401555
0.609189 0.546405 0.415491
0.631227 0.565765 0.429428
0.653265 0.585125 0.443364
0.675304 0.604485 0.457300
0.697342 0.623845 0.471236
0.719380 0.643205 0.485173
0.741418 0.662565 0.499109
0.763456 0.681925 0.513045
0.785495 0.701285 0.526981
0.807533 0.720645 0.540917
0.829571 0.740006 0.554854
0.851609 0.759366 0.568790
0.873648 0.778726 0.582726
0.895686 0.798086 0.596662
0.154651 0.147103 0.128057
0.176689 0.166463 0.141993
0.198727 0.185823 0.155929
0.220765 0.205183 0.169865
0.242804 0.224543 0.183802
0.264842 0.243903 0.197738
0.286880 0.263264 0.211674
0.308918 0.282624 0.225610
0.330956 0.301984 0.239547
0.352995 0.321344 0.253483
0.375033 0.340704 0.267419
0.397071 0.360064 0.281355
0.419109 0.379424 0.295291
0.441147 0.398784 0.309228
0.463186 0.418144 0.323164
0.485224 0.437504 0.337100
0.507262 0.456864 0.351036
0.179444 0.168883 0.143735
0.201482 0.188243 0.157671
0.223520 0.207603 0.171607
0.245558 0.226963 0.185544
0.267597 0.246323 0.199480
0.289635 0.265684 0.213416
0.311673 0.285044 0.227352
0.333711 0.304404 0.241289
0.355749 0.323764 0.255225
0.377788 0.343124 0.269161
0.399826 0.362484 0.283097
0.421864 0.381844 0.297033
0.443902 0.401204 0.310970
0.465940 0.420564 0.324906
0.487979 0.439924 0.338842
0.510017 0.459284 0.352778
0.532055 0.478644 0.366715
0.204237 0.190663 0.159413
0.226275 0.210023 0.173349
0.248313 0.229383 0.187286
0.270351 0.248744 0.201222
0.292390 0.268104 0.215158
0.314428 0.287464 0.229094
0.336466 0.306824 0.243031
0.358504 0.326184 0.256967
0.380542 0.345544 0.270903
0.402581 0.364904 0.284839
0.424619 0.384264 0.298775
0.446657 0.403624 0.312712
0.468695 0.422984 0.326648
0.490733 0.442344 0.340584
0.512772 0.461704 0.354520
0.534810 0.481064 0.368457
0.556848 0.500425 0.382393
0.229030 0.212443 0.175091
0.251068 0.231803 0.189028
0.273106 0.251164 0.202964
0.295144 0.270524 0.216900
0.317183 0.289884 0.230836
0.339221 0.309244 0.244773
0.361259 0.328604 0.258709
0.383297 0.347964 0.272645
0.405335 0.367324 0.286581
0.427374 0.386684 0.300517
0.449412 0.406044 0.314454
0.471450 0.425404 0.328390
0.493488 0.444764 0.342326
0.515526 0.464124 0.356262
0.537565 0.483484 0.370199
0.559603 0.502845 0.384135
0.581641 0.522205 0.398071
0.253823 0.234223 0.190770
0.275861 0.253584 0.204706
0.297899 0.272944 0.218642
0.319937 0.292304 0.232578
0.341976 0.311664 0.246515
0.364014 0.331024 0.260451
0.386052 0.350384 0.274387
0.408090 0.369744 0.288323
0.430128 0.389104 0.302260
0.452167 0.408464 0.316196
0.474205 0.427824 0.330132
0.496243 0.447184 0.344068
0.518281 0.466544 0.358004
0.540320 0.485904 0.371941
0.562358 0.505265 0.385877
0.584396 0.524625 0.399813
0.606434 0.543985 0.413749
0.278616 0.256004 0.206448
0.300654 0.275364 0.220384
0.322692 0.294724 0.234320
0.344730 0.314084 0.248257
0.366769 0.333444 0.262193
0.388807 0.352804 0.276129
0.410845 0.372164 0.290065
0.432883 0.391524 0.304002
0.454921 0.410884 0.317938
0.476960 0.430244 0.331874
0.498998 0.449604 0.345810
0.521036 0.468964 0.359746
0.543074 0.488324 0.373683
0.565112 0.507685 0.387619
0.587151 0.527045 0.401555
0.609189 0.546405 0.415491
0.631227 0.565765 0.429428
0.303409 0.277784 0.222126
0.325447 0.297144 0.236062
0.347485 0.316504 0.249999
0.369523 0.335864 0.263935
0.391562 0.355224 0.277871
0.413600 0.374584 0.291807
0.435638 0.393944 0.305744
0.457676 0.413304 0.319680
0.479714 0.432664 0.333616
0.501753 0.452024 0.347552
0.523791 0.471384 0.361488
0.545829 0.490745 0.375425
0.567867 0.510105 0.389361
0.589905 0.529465 0.403297
0.611944 0.548825 0.417233
0.633982 0.568185 0.431170
0.656020 0.587545 0.445106
0.328202 0.299564 0.237804
0.350240 0.318924 0.251741
0.372278 0.338284 0.265677
0.394316 0.357644 0.279613
0.416354 0.377004 0.293549
0.438393 0.396364 0.307486
0.460431 0.415724 0.321422
0.482469 0.435084 0.335358
0.504507 0.454444 0.349294
0.526546 0.473804 0.363231
0.548584 0.493165 0.377167
0.570622 0.512525 0.391103
0.592660 0.531885 0.405039
0.614698 0.551245 0.418975
0.636737 0.570605 0.432912
0.658775 0.589965 0.446848
0.680813 0.609325 0.460784
0.352995 0.321344 0.253483
0.375033 0.340704 0.267419
0.397071 0.360064 0.281355
0.419109 0.379424 0.295291
0.441147 0.398784 0.309228
0.463186 0.418144 0.323164
0.485224 0.437504 0.337100
0.507262 0.456864 0.351036
0.529300 0.476224 0.364973
0.551339 0.495585 0.378909
0.573377 0.514945 0.392845
0.595415 0.534305 0.406781
0.617453 0.553665 0.420717
0.639491 0.573025 0.434654
0.661530 0.592385 0.448590
0.683568 0.611745 0.462526
0.705606 0.631105 0.476462
0.377788 0.343124 0.269161
0.399826 0.362484 0.283097
0.421864 0.381844 0.297033
0.443902 0.401204 0.310970
0.465940 0.420564 0.324906
0.487979 0.439924 0.338842
0.510017 0.459284 0.352778
0.532055 0.478644 0.366715
0.554093 0.498005 0.380651
0.576132 0.517365 0.394587
0.598170 0.536725 0.408523
0.620208 0.556085 0.422460
0.642246 0.575445 0.436396
0.664284 0.594805 0.450332
0.686323 0.614165 0.464268
0.708361 0.633525 0.478204
0.730399 0.652885 0.492141
0.402581 0.364904 0.284839
0.424619 0.384264 0.298775
0.446657 0.403624 0.312712
0.468695 0.422984 0.326648
0.490733 0.442344 0.340584
0.512772 0.461704 0.354520
0.534810 0.481064 0.368457
0.556848 0.500425 0.382393
0.578886 0.519785 0.396329
0.600925 0.539145 0.410265
0.622963 0.558505 0.424202
0.645001 0.577865 0.438138
0.667039 0.597225 0.452074
0.689077 0.616585 0.466010
0.711116 0.635945 0.479946
0.733154 0.655305 0.493883
0.755192 0.674665 0.507819
0.427374 0.386684 0.300517
0.449412 0.406044 0.314454
0.471450 0.425404 0.328390
0.493488 0.444764 0.342326
0.515526 0.464124 0.356262
0.537565 0.483484 0.370199
0.559603 0.502845 0.384135
0.581641 0.522205 0.398071
0.603679 0.541565 0.412007
0.625718 0.560925 0.425944
0.647756 0.580285 0.439880
0.669794 0.599645 0.453816
0.691832 0.619005 0.467752
0.713870 0.638365 0.481688
0.735909 0.657725 0.495625
0.757947 0.677085 0.509561
0.779985 0.696445 0.523497
0.452167 0.408464 0.316196
0.474205 0.427824 0.330132
0.496243 0.447184 0.344068
0.518281 0.466544 0.358004
0.540320 0.485904 0.371941
0.562358 0.505265 0.385877
0.584396 0.524625 0.399813
0.606434 0.543985 0.413749
0.628472 0.563345 0.427686
0.650511 0.582705 0.441622
0.672549 0.602065 0.455558
0.694587 0.621425 0.469494
0.716625 0.640785 0.483431
0.738663 0.660145 0.497367
0.760702 0.679505 0.511303
0.782740 0.698865 0.525239
0.804778 0.718225 0.539175
0.476960 0.430244 0.331874
0.498998 0.449604 0.345810
0.521036 0.468964 0.359746
0.543074 0.488324 0.373683
0.565112 0.507685 0.387619
0.587151 0.527045 0.401555
0.609189 0.546405 0.415491
0.631227 0.565765 0.429428
0.653265 0.585125 0.443364
0.675304 0.604485 0.457300
0.697342 0.623845 0.471236
0.719380 0.643205 0.485173
0.741418 0.662565 0.499109
0.763456 0.681925 0.513045
0.785495 0.701285 0.526981
0.807533 0.720645 0.540917
0.829571 0.740006 0.554854
0.501753 0.452024 0.347552
0.523791 0.471384 0.361488
0.545829 0.490745 0.375425
0.567867 0.510105 0.389361
0.589905 0.529465 0.403297
0.611944 0.548825 0.417233
0.633982 0.568185 0.431170
0.656020 0.587545 0.445106
0.678058 0.606905 0.459042
0.700097 0.626265 0.472978
0.722135 0.645625 0.486915
0.744173 0.664985 0.500851
0.766211 0.684345 0.514787
0.788249 0.703705 0.528723
0.810288 0.723065 0.542659
0.832326 0.742426 0.556596
0.854364 0.761786 0.570532
0.526546 0.473804 0.363231
0.548584 0.493165 0.377167
0.570622 0.512525 0.391103
0.592660 0.531885 0.405039
0.614698 0.551245 0.418975
0.636737 0.570605 0.432912
0.658775 0.589965 0.446848
0.680813 0.609325 0.460784
0.702851 0.628685 0.474720
0.724890 0.648045 0.488657
0.746928 0.667405 0.502593
0.768966 0.686765 0.516529
0.791004 0.706125 0.530465
0.813042 0.725485 0.544401
0.835081 0.744846 0.558338
0.857119 0.764206 0.572274
0.879157 0.783566 0.586210
0.551339 0.495585 0.378909
0.573377 0.514945 0.392845
0.595415 0.534305 0.406781
0.617453 0.553665 0.420717
0.639491 0.573025 0.434654
0.661530 0.592385 0.448590
0.683568 0.611745 0.462526
0.705606 0.631105 0.476462
0.727644 0.650465 0.490399
0.749683 0.669825 0.504335
0.771721 0.689185 0.518271
0.793759 0.708545 0.532207
0.815797 0.727905 0.546144
0.837835 0.747266 0.560080
0.859874 0.766626 0.574016
0.881912 0.785986 0.587952
0.903950 0.805346 0.601888
0.162915 0.154363 0.133283
0.184953 0.173723 0.147219
0.206991 0.193083 0.161155
0.229030 0.212443 0.175091
0.251068 0.231803 0.189028
0.273106 0.251164 0.202964
0.295144 0.270524 0.216900
0.317183 0.289884 0.230836
0.339221 0.309244 0.244773
0.361259 0.328604 0.258709
0.383297 0.347964 0.272645
0.405335 0.367324 0.286581
0.427374 0.386684 0.300517
0.449412 0.406044 0.314454
0.471450 0.425404 0.328390
0.493488 0.444764 0.342326
0.515526 0.464124 0.356262
0.187708 0.176143 0.148961
0.209746 0.195503 0.162897
0.231784 0.214863 0.176833
0.253823 0.234223 0.190770
0.275861 0.253584 0.204706
0.297899 0.272944 0.218642
0.319937 0.292304 0.232578
0.341976 0.311664 0.246515
0.364014 0.331024 0.260451
0.386052 0.350384 0.274387
0.408090 0.369744 0.288323
0.430128 0.389104 0.302260
0.452167 0.408464 0.316196
0.474205 0.427824 0.330132
0.496243 0.447184 0.344068
0.518281 0.466544 0.358004
0.540320 0.485904 0.371941
0.212501 0.197923 0.164639
0.234539 0.217283 0.178576
0.256577 0.236643 0.192512
0.278616 0.256004 0.206448
0.300654 0.275364 0.220384
0.322692 0.294724 0.234320
0.344730 0.314084 0.248257
0.366769 0.333444 0.262193
0.388807 0.352804 0.276129
0.410845 0.372164 0.290065
0.432883 0.391524 0.304002
0.454921 0.410884 0.317938
0.476960 0.430244 0.331874
0.498998 0.449604 0.345810
0.521036 0.468964 0.359746
0.543074 0.488324 0.373683
0.565112 0.507685 0.387619
0.237294 0.219703 0.180318
0.259332 0.239063 0.194254
0.281370 0.258424 0.208190
0.303409 0.277784 0.222126
0.325447 0.297144 0.236062
0.347485 0.316504 0.249999
0.369523 0.335864 0.263935
0.391562 0.355224 0.277871
0.413600 0.374584 0.291807
0.435638 0.393944 0.305744
0.457676 0.413304 0.319680
0.479714 0.432664 0.333616
0.501753 0.452024 0.347552
0.523791 0.471384 0.361488
0.545829 0.490745 0.375425
0.567867 0.510105 0.389361
0.589905 0.529465 0.403297
0.262087 0.241483 0.195996
0.284125 0.260844 0.209932
0.306163 0.280204 0.223868
0.328202 0.299564 0.237804
0.350240 0.318924 0.251741
0.372278 0.338284 0.265677
0.394316 0.357644 0.279613
0.416354 0.377004 0.293549
0.438393 0.396364 0.307486
0.460431 0.415724 0.321422
0.482469 0.435084 0.335358
0.504507 0.454444 0.349294
0.526546 0.473804 0.363231
0.548584 0.493165 0.377167
0.570622 0.512525 0.391103
0.592660 0.531885 0.405039
0.614698 0.551245 0.418975
0.286880 0.263264 0.211674
0.308918 0.282624 0.225610
0.330956 0.301984 0.239547
0.352995 0.321344 0.253483
0.375033 0.340704 0.267419
0.397071 0.360064 0.281355
0.419109 0.379424 0.295291
0.441147 0.398784 0.309228
0.463186 0.418144 0.323164
0.485224 0.437504 0.337100
0.507262 0.456864 0.351036
0.529300 0.476224 0.364973
0.551339 0.495585 0.378909
0.573377 0.514945 0.392845
0.595415 0.534305 0.406781
0.617453 0.553665 0.420717
0.639491 0.573025 0.434654
0.311673 0.285044 0.227352
0.333711 0.304404 0.241289
0.355749 0.323764 0.255225
0.377788 0.343124 0.269161
0.399826 0.362484 0.283097
0.421864 0.381844 0.297033
0.443902 0.401204 0.310970
0.465940 0.420564 0.324906
0.487979 0.439924 0.338842
0.510017 0.459284 0.352778
0.532055 0.478644 0.366715
0.554093 0.498005 0.380651
0.576132 0.517365 0.394587
0.598170 0.536725 0.408523
0.620208 0.556085 0.422460
0.642246 0.575445 0.436396
0.664284 0.594805 0.450332
0.336466 0.306824 0.243031
0.358504 0.326184 0.256967
0.380542 0.345544 0.270903
0.402581 0.364904 0.284839
0.424619 0.384264 0.298775
0.446657 0.403624 0.312712
0.468695 0.422984 0.326648
0.490733 0.442344 0.340584
0.512772 0.461704 0.354520
0.534810 0.481064 0.368457
0.556848 0.500425 0.382393
0.578886 0.519785 0.396329
0.600925 0.539145 0.410265
0.622963 0.558505 0.424202
0.645001 0.577865 0.438138
0.667039 0.597225 0.452074
0.689077 0.616585 0.466010
0.361259 0.328604 0.258709
0.383297 0.347964 0.272645
0.405335 0.367324 0.286581
0.427374 0.386684 0.300517
0.449412 0.406044 0.314454
0.471450 0.425404 0.328390
0.493488 0.444764 0.342326
0.515526 0.464124 0.356262
0.537565 0.483484 0.370199
0.559603 0.502845 0.384135
0.581641 0.522205 0.398071
0.603679 0.541565 0.412007
0.625718 0.560925 0.425944
0.647756 0.580285 0.439880
0.669794 0.599645 0.453816
0.691832 0.619005 0.467752
0.713870 0.638365 0.481688
0.386052 0.350384 0.274387
0.408090 0.369744 0.288323
0.430128 0.389104 0.302260
0.452167 0.408464 0.316196
0.474205 0.427824 0.330132
0.496243 0.447184 0.344068
0.518281 0.466544 0.358004
0.540320 0.485904 0.371941
0.562358 0.505265 0.385877
0.584396 0.524625 0.399813
0.606434 0.543985 0.413749
0.628472 0.563345 0.427686
0.650511 0.582705 0.441622
0.672549 0.602065 0.455558
0.694587 0.621425 0.469494
0.716625 0.640785 0.483431
0.738663 0.660145 0.497367
0.410845 0.372164 0.290065
0.432883 0.391524 0.304002
0.454921 0.410884 0.317938
0.476960 0.430244 0.331874
0.498998 0.449604 0.345810
0.521036 0.468964 0.359746
0.543074 0.488324 0.373683
0.565112 0.507685 0.387619
0.587151 0.527045 0.401555
0.609189 0.546405 0.415491
0.631227 0.565765 0.429428
0.653265 0.585125 0.443364
0.675304 0.604485 0.457300
0.697342 0.623845 0.471236
0.719380 0.643205 0.485173
0.741418 0.662565 0.499109
0.763456 0.681925 0.513045
0.435638 0.393944 0.305744
0.457676 0.413304 0.319680
0.479714 0.432664 0.333616
0.501753 0.452024 0.347552
0.523791 0.471384 0.361488
0.545829 0.490745 0.375425
0.567867 0.510105 0.389361
0.589905 0.529465 0.403297
0.611944 0.548825 0.417233
0.633982 0.568185 0.431170
0.656020 0.587545 0.445106
0.678058 0.606905 0.459042
0.700097 0.626265 0.472978
0.722135 0.645625 0.486915
0.744173 0.664985 0.500851
0.766211 0.684345 0.514787
0.788249 0.703705 0.528723
0.460431 0.415724 0.321422
0.482469 0.435084 0.335358
0.504507 0.454444 0.349294
0.526546 0.473804 0.363231
0.548584 0.493165 0.377167
0.570622 0.512525 0.391103
0.592660 0.531885 0.405039
0.614698 0.551245 0.418975
0.636737 0.570605 0.432912
0.658775 0.589965 0.446848
0.680813 0.609325 0.460784
0.702851 0.628685 0.474720
0.724890 0.648045 0.488657
0.746928 0.667405 0.502593
0.768966 0.686765 0.516529
0.791004 0.706125 0.530465
0.813042 0.725485 0.544401
0.485224 0.437504 0.337100
0.507262 0.456864 0.351036
0.529300 0.476224 0.364973
0.551339 0.495585 0.378909
0.573377 0.514945 0.392845
0.595415 0.534305 0.406781
0.617453 0.553665 0.420717
0.639491 0.573025 0.434654
0.661530 0.592385 0.448590
0.683568 0.611745 0.462526
0.705606 0.631105 0.476462
0.727644 0.650465 0.490399
0.749683 0.669825 0.504335
0.771721 0.689185 0.518271
0.793759 0.708545 0.532207
0.815797 0.727905 0.546144
0.837835 0.747266 0.560080
0.510017 0.459284 0.352778
0.532055 0.478644 0.366715
0.554093 0.498005 0.380651
0.576132 0.517365 0.394587
0.598170 0.536725 0.408523
0.620208 0.556085 0.422460
0.642246 0.575445 0.436396
0.664284 0.594805 0.450332
0.686323 0.614165 0.464268
0.708361 0.633525 0.478204
0.730399 0.652885 0.492141
0.752437 0.672245 0.506077
0.774476 0.691605 0.520013
0.796514 0.710965 0.533949
0.818552 0.730325 0.547886
0.840590 0.749686 0.561822
0.862628 0.769046 0.575758
0.534810 0.481064 0.368457
0.556848 0.500425 0.382393
0.578886 0.519785 0.396329
0.600925 0.539145 0.410265
0.622963 0.558505 0.424202
0.645001 0.577865 0.438138
0.667039 0.597225 0.452074
0.689077 0.616585 0.466010
0.711116 0.635945 0.479946
0.733154 0.655305 0.493883
0.755192 0.674665 0.507819
0.777230 0.694025 0.521755
0.799269 0.713385 0.535691
0.821307 0.732745 0.549628
0.843345 0.752106 0.563564
0.865383 0.771466 0.577500
0.887421 0.790826 0.591436
0.559603 0.502845 0.384135
0.581641 0.522205 0.398071
0.603679 0.541565 0.412007
0.625718 0.560925 0.425944
0.647756 0.580285 0.439880
0.669794 0.599645 0.453816
0.691832 0.619005 0.467752
0.713870 0.638365 0.481688
0.735909 0.657725 0.495625
0.757947 0.677085 0.509561
0.779985 0.696445 0.523497
0.802023 0.715805 0.537433
0.824062 0.735165 0.551370
0.846100 0.754526 0.565306
0.868138 0.773886 0.579242
0.890176 0.793246 0.593178
0.912214 0.812606 0.607114
0.171179 0.161623 0.138509
0.193218 0.180983 0.152445
0.215256 0.200343 0.166381
0.237294 0.219703 0.180318
0.259332 0.239063 0.194254
0.281370 0.258424 0.208190
0.303409 0.277784 0.222126
0.325447 0.297144 0.236062
0.347485 0.316504 0.249999
0.369523 0.335864 0.263935
0.391562 0.355224 0.277871
0.413600 0.374584 0.291807
0.435638 0.393944 0.305744
0.457676 0.413304 0.319680
0.479714 0.432664 0.333616
0.501753 0.452024 0.347552
0.523791 0.471384 0.361488
0.195972 0.183403 0.154187
0.218011 0.202763 0.168123
0.240049 0.222123 0.182060
