assets/presets/luts/albumen/lut.cube
TITLE "Albumen"
LUT_3D_SIZE 5
0.146386 0.139843 0.122831
0.234539 0.217283 0.178576
0.322692 0.294724 0.234320
0.410845 0.372164 0.290065
0.498998 0.449604 0.345810
0.245558 0.226963 0.185544
0.333711 0.304404 0.241289
0.421864 0.381844 0.297033
0.510017 0.459284 0.352778
0.598170 0.536725 0.408523
0.344730 0.314084 0.248257
0.432883 0.391524 0.304002
0.521036 0.468964 0.359746
0.609189 0.546405 0.415491
0.697342 0.623845 0.471236
0.443902 0.401204 0.310970
0.532055 0.478644 0.366715
0.620208 0.556085 0.422460
0.708361 0.633525 0.478204
0.796514 0.710965 0.533949
0.543074 0.488324 0.373683
0.631227 0.565765 0.429428
0.719380 0.643205 0.485173
0.807533 0.720645 0.540917
0.895686 0.798086 0.596662
0.179444 0.168883 0.143735
0.267597 0.246323 0.199480
0.355749 0.323764 0.255225
0.443902 0.401204 0.310970
0.532055 0.478644 0.366715
0.278616 0.256004 0.206448
0.366769 0.333444 0.262193
0.454921 0.410884 0.317938
0.543074 0.488324 0.373683
0.631227 0.565765 0.429428
0.377788 0.343124 0.269161
0.465940 0.420564 0.324906
0.554093 0.498005 0.380651
0.642246 0.575445 0.436396
0.730399 0.652885 0.492141
0.476960 0.430244 0.331874
0.565112 0.507685 0.387619
0.653265 0.585125 0.443364
0.741418 0.662565 0.499109
0.829571 0.740006 0.554854
0.576132 0.517365 0.394587
0.664284 0.594805 0.450332
0.752437 0.672245 0.506077
0.840590 0.749686 0.561822
0.928743 0.827126 0.617567
0.212501 0.197923 0.164639
0.300654 0.275364 0.220384
0.388807 0.352804 0.276129
0.476960 0.430244 0.331874
0.565112 0.507685 0.387619
0.311673 0.285044 0.227352
0.399826 0.362484 0.283097
0.487979 0.439924 0.338842
0.576132 0.517365 0.394587
0.664284 0.594805 0.450332
0.410845 0.372164 0.290065
0.498998 0.449604 0.345810
0.587151 0.527045 0.401555
0.675304 0.604485 0.457300
0.763456 0.681925 0.513045
0.510017 0.459284 0.352778
0.598170 0.536725 0.408523
0.686323 0.614165 0.464268
0.774476 0.691605 0.520013
0.862628 0.769046 0.575758
0.609189 0.546405 0.415491
0.697342 0.623845 0.471236
0.785495 0.701285 0.526981
0.873648 0.778726 0.582726
0.961800 0.856166 0.638471
0.245558 0.226963 0.185544
0.333711 0.304404 0.241289
0.421864 0.381844 0.297033
0.510017 0.459284 0.352778
0.598170 0.536725 0.408523
0.344730 0.314084 0.248257
0.432883 0.391524 0.304002
0.521036 0.468964 0.359746
0.609189 0.546405 0.415491
0.697342 0.623845 0.471236
0.443902 0.401204 0.310970
0.532055 0.478644 0.366715
0.620208 0.556085 0.422460
0.708361 0.633525 0.478204
0.796514 0.710965 0.533949
0.543074 0.488324 0.373683
0.631227 0.565765 0.429428
0.719380 0.643205 0.485173
0.807533 0.720645 0.540917
0.895686 0.798086 0.596662
0.642246 0.575445 0.436396
0.730399 0.652885 0.492141
0.818552 0.730325 0.547886
0.906705 0.807766 0.603630
0.994858 0.885206 0.659375
0.278616 0.256004 0.206448
0.366769 0.333444 0.262193
0.454921 0.410884 0.317938
0.543074 0.488324 0.373683
0.631227 0.565765 0.429428
0.377788 0.343124 0.269161
0.465940 0.420564 0.324906
0.554093 0.498005 0.380651
0.642246 0.575445 0.436396
0.730399 0.652885 0.492141
0.476960 0.430244 0.331874
0.565112 0.507685 0.387619
0.653265 0.585125 0.443364
0.741418 0.662565 0.499109
0.829571 0.740006 0.554854
0.576132 0.517365 0.394587
0.664284 0.594805 0.450332
0.752437 0.672245 0.506077
0.840590 0.749686 0.561822
0.928743 0.827126 0.617567
0.675304 0.604485 0.457300
0.763456 0.681925 0.513045
0.851609 0.759366 0.568790
0.939762 0.836806 0.624535
1.000000 0.914246 0.680280
