assets/presets/luts/albumen/lut.cube
TITLE "Albumen"
LUT_3D_SIZE 9
0.146386 0.139843 0.122831
0.190463 0.178563 0.150703
0.234539 0.217283 0.178576
0.278616 0.256004 0.206448
0.322692 0.294724 0.234320
0.366769 0.333444 0.262193
0.410845 0.372164 0.290065
0.454921 0.410884 0.317938
0.498998 0.449604 0.345810
0.195972 0.183403 0.154187
0.240049 0.222123 0.182060
0.284125 0.260844 0.209932
0.328202 0.299564 0.237804
0.372278 0.338284 0.265677
0.416354 0.377004 0.293549
0.460431 0.415724 0.321422
0.504507 0.454444 0.349294
0.548584 0.493165 0.377167
0.245558 0.226963 0.185544
0.289635 0.265684 0.213416
0.333711 0.304404 0.241289
0.377788 0.343124 0.269161
0.421864 0.381844 0.297033
0.465940 0.420564 0.324906
0.510017 0.459284 0.352778
0.554093 0.498005 0.380651
0.598170 0.536725 0.408523
0.295144 0.270524 0.216900
0.339221 0.309244 0.244773
0.383297 0.347964 0.272645
0.427374 0.386684 0.300517
0.471450 0.425404 0.328390
0.515526 0.464124 0.356262
0.559603 0.502845 0.384135
0.603679 0.541565 0.412007
0.647756 0.580285 0.439880
0.344730 0.314084 0.248257
0.388807 0.352804 0.276129
0.432883 0.391524 0.304002
0.476960 0.430244 0.331874
0.521036 0.468964 0.359746
0.565112 0.507685 0.387619
0.609189 0.546405 0.415491
0.653265 0.585125 0.443364
0.697342 0.623845 0.471236
0.394316 0.357644 0.279613
0.438393 0.396364 0.307486
0.482469 0.435084 0.335358
0.526546 0.473804 0.363231
0.570622 0.512525 0.391103
0.614698 0.551245 0.418975
0.658775 0.589965 0.446848
0.702851 0.628685 0.474720
0.746928 0.667405 0.502593
0.443902 0.401204 0.310970
0.487979 0.439924 0.338842
0.532055 0.478644 0.366715
0.576132 0.517365 0.394587
0.620208 0.556085 0.422460
0.664284 0.594805 0.450332
0.708361 0.633525 0.478204
0.752437 0.672245 0.506077
0.796514 0.710965 0.533949
0.493488 0.444764 0.342326
0.537565 0.483484 0.370199
0.581641 0.522205 0.398071
0.625718 0.560925 0.425944
0.669794 0.599645 0.453816
0.713870 0.638365 0.481688
0.757947 0.677085 0.509561
0.802023 0.715805 0.537433
0.846100 0.754526 0.565306
0.543074 0.488324 0.373683
0.587151 0.527045 0.401555
0.631227 0.565765 0.429428
0.675304 0.604485 0.457300
0.719380 0.643205 0.485173
0.763456 0.681925 0.513045
0.807533 0.720645 0.540917
0.851609 0.759366 0.568790
0.895686 0.798086 0.596662
0.162915 0.154363 0.133283
0.206991 0.193083 0.161155
0.251068 0.231803 0.189028
0.295144 0.270524 0.216900
0.339221 0.309244 0.244773
0.383297 0.347964 0.272645
0.427374 0.386684 0.300517
0.471450 0.425404 0.328390
0.515526 0.464124 0.356262
0.212501 0.197923 0.164639
0.256577 0.236643 0.192512
0.300654 0.275364 0.220384
0.344730 0.314084 0.248257
0.388807 0.352804 0.276129
0.432883 0.391524 0.304002
0.476960 0.430244 0.331874
0.521036 0.468964 0.359746
0.565112 0.507685 0.387619
0.262087 0.241483 0.195996
0.306163 0.280204 0.223868
0.350240 0.318924 0.251741
0.394316 0.357644 0.279613
0.438393 0.396364 0.307486
0.482469 0.435084 0.335358
0.526546 0.473804 0.363231
0.570622 0.512525 0.391103
0.614698 0.551245 0.418975
0.311673 0.285044 0.227352
0.355749 0.323764 0.255225
0.399826 0.362484 0.283097
0.443902 0.401204 0.310970
0.487979 0.439924 0.338842
0.532055 0.478644 0.366715
0.576132 0.517365 0.394587
0.620208 0.556085 0.422460
0.664284 0.594805 0.450332
0.361259 0.328604 0.258709
0.405335 0.367324 0.286581
0.449412 0.406044 0.314454
0.493488 0.444764 0.342326
0.537565 0.483484 0.370199
0.581641 0.522205 0.398071
0.625718 0.560925 0.425944
0.669794 0.599645 0.453816
0.713870 0.638365 0.481688
0.410845 0.372164 0.290065
0.454921 0.410884 0.317938
0.498998 0.449604 0.345810
0.543074 0.488324 0.373683
0.587151 0.527045 0.401555
0.631227 0.565765 0.429428
0.675304 0.604485 0.457300
0.719380 0.643205 0.485173
0.763456 0.681925 0.513045
0.460431 0.415724 0.321422
0.504507 0.454444 0.349294
0.548584 0.493165 0.377167
0.592660 0.531885 0.405039
0.636737 0.570605 0.432912
0.680813 0.609325 0.460784
0.724890 0.648045 0.488657
0.768966 0.686765 0.516529
0.813042 0.725485 0.544401
0.510017 0.459284 0.352778
0.554093 0.498005 0.380651
0.598170 0.536725 0.408523
0.642246 0.575445 0.436396
0.686323 0.614165 0.464268
0.730399 0.652885 0.492141
0.774476 0.691605 0.520013
0.818552 0.730325 0.547886
0.862628 0.769046 0.575758
0.559603 0.502845 0.384135
0.603679 0.541565 0.412007
0.647756 0.580285 0.439880
0.691832 0.619005 0.467752
0.735909 0.657725 0.495625
0.779985 0.696445 0.523497
0.824062 0.735165 0.551370
0.868138 0.773886 0.579242
0.912214 0.812606 0.607114
0.179444 0.168883 0.143735
0.223520 0.207603 0.171607
0.267597 0.246323 0.199480
0.311673 0.285044 0.227352
0.355749 0.323764 0.255225
0.399826 0.362484 0.283097
0.443902 0.401204 0.310970
0.487979 0.439924 0.338842
0.532055 0.478644 0.366715
0.229030 0.212443 0.175091
0.273106 0.251164 0.202964
0.317183 0.289884 0.230836
0.361259 0.328604 0.258709
0.405335 0.367324 0.286581
0.449412 0.406044 0.314454
0.493488 0.444764 0.342326
0.537565 0.483484 0.370199
0.581641 0.522205 0.398071
0.278616 0.256004 0.206448
0.322692 0.294724 0.234320
0.366769 0.333444 0.262193
0.410845 0.372164 0.290065
0.454921 0.410884 0.317938
0.498998 0.449604 0.345810
0.543074 0.488324 0.373683
0.587151 0.527045 0.401555
0.631227 0.565765 0.429428
0.328202 0.299564 0.237804
0.372278 0.338284 0.265677
0.416354 0.377004 0.293549
0.460431 0.415724 0.321422
0.504507 0.454444 0.349294
0.548584 0.493165 0.377167
0.592660 0.531885 0.405039
0.636737 0.570605 0.432912
0.680813 0.609325 0.460784
0.377788 0.343124 0.269161
0.421864 0.381844 0.297033
0.465940 0.420564 0.324906
0.510017 0.459284 0.352778
0.554093 0.498005 0.380651
0.598170 0.536725 0.408523
0.642246 0.575445 0.436396
0.686323 0.614165 0.464268
0.730399 0.652885 0.492141
0.427374 0.386684 0.300517
0.471450 0.425404 0.328390
0.515526 0.464124 0.356262
0.559603 0.502845 0.384135
0.603679 0.541565 0.412007
0.647756 0.580285 0.439880
0.691832 0.619005 0.467752
0.735909 0.657725 0.495625
0.779985 0.696445 0.523497
0.476960 0.430244 0.331874
0.521036 0.468964 0.359746
0.565112 0.507685 0.387619
0.609189 0.546405 0.415491
0.653265 0.585125 0.443364
0.697342 0.623845 0.471236
0.741418 0.662565 0.499109
0.785495 0.701285 0.526981
0.829571 0.740006 0.554854
0.526546 0.473804 0.363231
0.570622 0.512525 0.391103
0.614698 0.551245 0.418975
0.658775 0.589965 0.446848
0.702851 0.628685 0.474720
0.746928 0.667405 0.502593
0.791004 0.706125 0.530465
0.835081 0.744846 0.558338
0.879157 0.783566 0.586210
0.576132 0.517365 0.394587
0.620208 0.556085 0.422460
0.664284 0.594805 0.450332
0.708361 0.633525 0.478204
0.752437 0.672245 0.506077
0.796514 0.710965 0.533949
0.840590 0.749686 0.561822
0.884667 0.788406 0.589694
0.928743 0.827126 0.617567
0.195972 0.183403 0.154187
0.240049 0.222123 0.182060
0.284125 0.260844 0.209932
0.328202 0.299564 0.237804
0.372278 0.338284 0.265677
0.416354 0.377004 0.293549
0.460431 0.415724 0.321422
0.504507 0.454444 0.349294
0.548584 0.493165 0.377167
0.245558 0.226963 0.185544
0.289635 0.265684 0.213416
0.333711 0.304404 0.241289
0.377788 0.343124 0.269161
0.421864 0.381844 0.297033
0.465940 0.420564 0.324906
0.510017 0.459284 0.352778
0.554093 0.498005 0.380651
0.598170 0.536725 0.408523
0.295144 0.270524 0.216900
0.339221 0.309244 0.244773
0.383297 0.347964 0.272645
0.427374 0.386684 0.300517
0.471450 0.425404 0.328390
0.515526 0.464124 0.356262
0.559603 0.502845 0.384135
0.603679 0.541565 0.412007
0.647756 0.580285 0.439880
0.344730 0.314084 0.248257
0.388807 0.352804 0.276129
0.432883 0.391524 0.304002
0.476960 0.430244 0.331874
0.521036 0.468964 0.359746
0.565112 0.507685 0.387619
0.609189 0.546405 0.415491
0.653265 0.585125 0.443364
0.697342 0.623845 0.471236
0.394316 0.357644 0.279613
0.438393 0.396364 0.307486
0.482469 0.435084 0.335358
0.526546 0.473804 0.363231
0.570622 0.512525 0.391103
0.614698 0.551245 0.418975
0.658775 0.589965 0.446848
0.702851 0.628685 0.474720
0.746928 0.667405 0.502593
0.443902 0.401204 0.310970
0.487979 0.439924 0.338842
0.532055 0.478644 0.366715
0.576132 0.517365 0.394587
0.620208 0.556085 0.422460
0.664284 0.594805 0.450332
0.708361 0.633525 0.478204
0.752437 0.672245 0.506077
0.796514 0.710965 0.533949
0.493488 0.444764 0.342326
0.537565 0.483484 0.370199
0.581641 0.522205 0.398071
0.625718 0.560925 0.425944
0.669794 0.599645 0.453816
0.713870 0.638365 0.481688
0.757947 0.677085 0.509561
0.802023 0.715805 0.537433
0.846100 0.754526 0.565306
0.543074 0.488324 0.373683
0.587151 0.527045 0.401555
0.631227 0.565765 0.429428
0.675304 0.604485 0.457300
0.719380 0.643205 0.485173
0.763456 0.681925 0.513045
0.807533 0.720645 0.540917
0.851609 0.759366 0.568790
0.895686 0.798086 0.596662
0.592660 0.531885 0.405039
0.636737 0.570605 0.432912
0.680813 0.609325 0.460784
0.724890 0.648045 0.488657
0.768966 0.686765 0.516529
0.813042 0.725485 0.544401
0.857119 0.764206 0.572274
0.901195 0.802926 0.600146
0.945272 0.841646 0.628019
0.212501 0.197923 0.164639
0.256577 0.236643 0.192512
0.300654 0.275364 0.220384
0.344730 0.314084 0.248257
0.388807 0.352804 0.276129
0.432883 0.391524 0.304002
0.476960 0.430244 0.331874
0.521036 0.468964 0.359746
0.565112 0.507685 0.387619
0.262087 0.241483 0.195996
0.306163 0.280204 0.223868
0.350240 0.318924 0.251741
0.394316 0.357644 0.279613
0.438393 0.396364 0.307486
0.482469 0.435084 0.335358
0.526546 0.473804 0.363231
0.570622 0.512525 0.391103
0.614698 0.551245 0.418975
0.311673 0.285044 0.227352
0.355749 0.323764 0.255225
0.399826 0.362484 0.283097
0.443902 0.401204 0.310970
0.487979 0.439924 0.338842
0.532055 0.478644 0.366715
0.576132 0.517365 0.394587
0.620208 0.556085 0.422460
0.664284 0.594805 0.450332
0.361259 0.328604 0.258709
0.405335 0.367324 0.286581
0.449412 0.406044 0.314454
0.493488 0.444764 0.342326
0.537565 0.483484 0.370199
0.581641 0.522205 0.398071
0.625718 0.560925 0.425944
0.669794 0.599645 0.453816
0.713870 0.638365 0.481688
0.410845 0.372164 0.290065
0.454921 0.410884 0.317938
0.498998 0.449604 0.345810
0.543074 0.488324 0.373683
0.587151 0.527045 0.401555
0.631227 0.565765 0.429428
0.675304 0.604485 0.457300
0.719380 0.643205 0.485173
0.763456 0.681925 0.513045
0.460431 0.415724 0.321422
0.504507 0.454444 0.349294
0.548584 0.493165 0.377167
0.592660 0.531885 0.405039
0.636737 0.570605 0.432912
0.680813 0.609325 0.460784
0.724890 0.648045 0.488657
0.768966 0.686765 0.516529
0.813042 0.725485 0.544401
0.510017 0.459284 0.352778
0.554093 0.498005 0.380651
0.598170 0.536725 0.408523
0.642246 0.575445 0.436396
0.686323 0.614165 0.464268
0.730399 0.652885 0.492141
0.774476 0.691605 0.520013
0.818552 0.730325 0.547886
0.862628 0.769046 0.575758
0.559603 0.502845 0.384135
0.603679 0.541565 0.412007
0.647756 0.580285 0.439880
0.691832 0.619005 0.467752
0.735909 0.657725 0.495625
0.779985 0.696445 0.523497
0.824062 0.735165 0.551370
0.868138 0.773886 0.579242
0.912214 0.812606 0.607114
0.609189 0.546405 0.415491
0.653265 0.585125 0.443364
0.697342 0.623845 0.471236
0.741418 0.662565 0.499109
0.785495 0.701285 0.526981
0.829571 0.740006 0.554854
0.873648 0.778726 0.582726
0.917724 0.817446 0.610599
0.961800 0.856166 0.638471
0.229030 0.212443 0.175091
0.273106 0.251164 0.202964
0.317183 0.289884 0.230836
0.361259 0.328604 0.258709
0.405335 0.367324 0.286581
0.449412 0.406044 0.314454
0.493488 0.444764 0.342326
0.537565 0.483484 0.370199
0.581641 0.522205 0.398071
0.278616 0.256004 0.206448
0.322692 0.294724 0.234320
0.366769 0.333444 0.262193
0.410845 0.372164 0.290065
0.454921 0.410884 0.317938
0.498998 0.449604 0.345810
0.543074 0.488324 0.373683
0.587151 0.527045 0.401555
0.631227 0.565765 0.429428
0.328202 0.299564 0.237804
0.372278 0.338284 0.265677
0.416354 0.377004 0.293549
0.460431 0.415724 0.321422
0.504507 0.454444 0.349294
0.548584 0.493165 0.377167
0.592660 0.531885 0.405039
0.636737 0.570605 0.432912
0.680813 0.609325 0.460784
0.377788 0.343124 0.269161
0.421864 0.381844 0.297033
0.465940 0.420564 0.324906
0.510017 0.459284 0.352778
0.554093 0.498005 0.380651
0.598170 0.536725 0.408523
0.642246 0.575445 0.436396
0.686323 0.614165 0.464268
0.730399 0.652885 0.492141
0.427374 0.386684 0.300517
0.471450 0.425404 0.328390
0.515526 0.464124 0.356262
0.559603 0.502845 0.384135
0.603679 0.541565 0.412007
0.647756 0.580285 0.439880
0.691832 0.619005 0.467752
0.735909 0.657725 0.495625
0.779985 0.696445 0.523497
0.476960 0.430244 0.331874
0.521036 0.468964 0.359746
0.565112 0.507685 0.387619
0.609189 0.546405 0.415491
0.653265 0.585125 0.443364
0.697342 0.623845 0.471236
0.741418 0.662565 0.499109
0.785495 0.701285 0.526981
0.829571 0.740006 0.554854
0.526546 0.473804 0.363231
0.570622 0.512525 0.391103
0.614698 0.551245 0.418975
0.658775 0.589965 0.446848
0.702851 0.628685 0.474720
0.746928 0.667405 0.502593
0.791004 0.706125 0.530465
0.835081 0.744846 0.558338
0.879157 0.783566 0.586210
0.576132 0.517365 0.394587
0.620208 0.556085 0.422460
0.664284 0.594805 0.450332
0.708361 0.633525 0.478204
0.752437 0.672245 0.506077
0.796514 0.710965 0.533949
0.840590 0.749686 0.561822
0.884667 0.788406 0.589694
0.928743 0.827126 0.617567
0.625718 0.560925 0.425944
0.669794 0.599645 0.453816
0.713870 0.638365 0.481688
0.757947 0.677085 0.509561
0.802023 0.715805 0.537433
0.846100 0.754526 0.565306
0.890176 0.793246 0.593178
0.934253 0.831966 0.621051
0.978329 0.870686 0.648923
0.245558 0.226963 0.185544
0.289635 0.265684 0.213416
0.333711 0.304404 0.241289
0.377788 0.343124 0.269161
0.421864 0.381844 0.297033
0.465940 0.420564 0.324906
0.510017 0.459284 0.352778
0.554093 0.498005 0.380651
0.598170 0.536725 0.408523
0.295144 0.270524 0.216900
0.339221 0.309244 0.244773
0.383297 0.347964 0.272645
0.427374 0.386684 0.300517
0.471450 0.425404 0.328390
0.515526 0.464124 0.356262
0.559603 0.502845 0.384135
0.603679 0.541565 0.412007
0.647756 0.580285 0.439880
0.344730 0.314084 0.248257
0.388807 0.352804 0.276129
0.432883 0.391524 0.304002
0.476960 0.430244 0.331874
0.521036 0.468964 0.359746
0.565112 0.507685 0.387619
0.609189 0.546405 0.415491
0.653265 0.585125 0.443364
0.697342 0.623845 0.471236
0.394316 0.357644 0.279613
0.438393 0.396364 0.307486
0.482469 0.435084 0.335358
0.526546 0.473804 0.363231
0.570622 0.512525 0.391103
0.614698 0.551245 0.418975
0.658775 0.589965 0.446848
0.702851 0.628685 0.474720
0.746928 0.667405 0.502593
0.443902 0.401204 0.310970
0.487979 0.439924 0.338842
0.532055 0.478644 0.366715
0.576132 0.517365 0.394587
0.620208 0.556085 0.422460
0.664284 0.594805 0.450332
0.708361 0.633525 0.478204
0.752437 0.672245 0.506077
0.796514 0.710965 0.533949
0.493488 0.444764 0.342326
0.537565 0.483484 0.370199
0.581641 0.522205 0.398071
0.625718 0.560925 0.425944
0.669794 0.599645 0.453816
0.713870 0.638365 0.481688
0.757947 0.677085 0.509561
0.802023 0.715805 0.537433
0.846100 0.754526 0.565306
0.543074 0.488324 0.373683
0.587151 0.527045 0.401555
0.631227 0.565765 0.429428
0.675304 0.604485 0.457300
0.719380 0.643205 0.485173
0.763456 0.681925 0.513045
0.807533 0.720645 0.540917
0.851609 0.759366 0.568790
0.895686 0.798086 0.596662
0.592660 0.531885 0.405039
0.636737 0.570605 0.432912
0.680813 0.609325 0.460784
0.724890 0.648045 0.488657
0.768966 0.686765 0.516529
0.813042 0.725485 0.544401
0.857119 0.764206 0.572274
0.901195 0.802926 0.600146
0.945272 0.841646 0.628019
0.642246 0.575445 0.436396
0.686323 0.614165 0.464268
0.730399 0.652885 0.492141
0.774476 0.691605 0.520013
0.818552 0.730325 0.547886
0.862628 0.769046 0.575758
0.906705 0.807766 0.603630
0.950781 0.846486 0.631503
0.994858 0.885206 0.659375
0.262087 0.241483 0.195996
0.306163 0.280204 0.223868
0.350240 0.318924 0.251741
0.394316 0.357644 0.279613
0.438393 0.396364 0.307486
0.482469 0.435084 0.335358
0.526546 0.473804 0.363231
0.570622 0.512525 0.391103
0.614698 0.551245 0.418975
0.311673 0.285044 0.227352
0.355749 0.323764 0.255225
0.399826 0.362484 0.283097
0.443902 0.401204 0.310970
0.487979 0.439924 0.338842
0.532055 0.478644 0.366715
0.576132 0.517365 0.394587
0.620208 0.556085 0.422460
0.664284 0.594805 0.450332
0.361259 0.328604 0.258709
0.405335 0.367324 0.286581
0.449412 0.406044 0.314454
0.493488 0.444764 0.342326
0.537565 0.483484 0.370199
0.581641 0.522205 0.398071
0.625718 0.560925 0.425944
0.669794 0.599645 0.453816
0.713870 0.638365 0.481688
0.410845 0.372164 0.290065
0.454921 0.410884 0.317938
0.498998 0.449604 0.345810
0.543074 0.488324 0.373683
0.587151 0.527045 0.401555
0.631227 0.565765 0.429428
0.675304 0.604485 0.457300
0.719380 0.643205 0.485173
0.763456 0.681925 0.513045
0.460431 0.415724 0.321422
0.504507 0.454444 0.349294
0.548584 0.493165 0.377167
0.592660 0.531885 0.405039
0.636737 0.570605 0.432912
0.680813 0.609325 0.460784
0.724890 0.648045 0.488657
0.768966 0.686765 0.516529
0.813042 0.725485 0.544401
0.510017 0.459284 0.352778
0.554093 0.498005 0.380651
0.598170 0.536725 0.408523
0.642246 0.575445 0.436396
0.686323 0.614165 0.464268
0.730399 0.652885 0.492141
0.774476 0.691605 0.520013
0.818552 0.730325 0.547886
0.862628 0.769046 0.575758
0.559603 0.502845 0.384135
0.603679 0.541565 0.412007
0.647756 0.580285 0.439880
0.691832 0.619005 0.467752
0.735909 0.657725 0.495625
0.779985 0.696445 0.523497
0.824062 0.735165 0.551370
0.868138 0.773886 0.579242
0.912214 0.812606 0.607114
0.609189 0.546405 0.415491
0.653265 0.585125 0.443364
0.697342 0.623845 0.471236
0.741418 0.662565 0.499109
0.785495 0.701285 0.526981
0.829571 0.740006 0.554854
0.873648 0.778726 0.582726
0.917724 0.817446 0.610599
0.961800 0.856166 0.638471
0.658775 0.589965 0.446848
0.702851 0.628685 0.474720
0.746928 0.667405 0.502593
0.791004 0.706125 0.530465
0.835081 0.744846 0.558338
0.879157 0.783566 0.586210
0.923234 0.822286 0.614083
0.967310 0.861006 0.641955
1.000000 0.899726 0.669828
0.278616 0.256004 0.206448
0.322692 0.294724 0.234320
0.366769 0.333444 0.262193
0.410845 0.372164 0.290065
0.454921 0.410884 0.317938
0.498998 0.449604 0.345810
0.543074 0.488324 0.373683
0.587151 0.527045 0.401555
0.631227 0.565765 0.429428
0.328202 0.299564 0.237804
0.372278 0.338284 0.265677
0.416354 0.377004 0.293549
0.460431 0.415724 0.321422
0.504507 0.454444 0.349294
0.548584 0.493165 0.377167
0.592660 0.531885 0.405039
0.636737 0.570605 0.432912
0.680813 0.609325 0.460784
0.377788 0.343124 0.269161
0.421864 0.381844 0.297033
0.465940 0.420564 0.324906
0.510017 0.459284 0.352778
0.554093 0.498005 0.380651
0.598170 0.536725 0.408523
0.642246 0.575445 0.436396
0.686323 0.614165 0.464268
0.730399 0.652885 0.492141
0.427374 0.386684 0.300517
0.471450 0.425404 0.328390
0.515526 0.464124 0.356262
0.559603 0.502845 0.384135
0.603679 0.541565 0.412007
0.647756 0.580285 0.439880
0.691832 0.619005 0.467752
0.735909 0.657725 0.495625
0.779985 0.696445 0.523497
0.476960 0.430244 0.331874
0.521036 0.468964 0.359746
0.565112 0.507685 0.387619
0.609189 0.546405 0.415491
0.653265 0.585125 0.443364
0.697342 0.623845 0.471236
0.741418 0.662565 0.499109
0.785495 0.701285 0.526981
0.829571 0.740006 0.554854
0.526546 0.473804 0.363231
0.570622 0.512525 0.391103
0.614698 0.551245 0.418975
0.658775 0.589965 0.446848
0.702851 0.628685 0.474720
0.746928 0.667405 0.502593
0.791004 0.706125 0.530465
0.835081 0.744846 0.558338
0.879157 0.783566 0.586210
0.576132 0.517365 0.394587
0.620208 0.556085 0.422460
0.664284 0.594805 0.450332
0.708361 0.633525 0.478204
0.752437 0.672245 0.506077
0.796514 0.710965 0.533949
0.840590 0.749686 0.561822
0.884667 0.788406 0.589694
0.928743 0.827126 0.617567
0.625718 0.560925 0.425944
0.669794 0.599645 0.453816
0.713870 0.638365 0.481688
0.757947 0.677085 0.509561
0.802023 0.715805 0.537433
0.846100 0.754526 0.565306
0.890176 0.793246 0.593178
0.934253 0.831966 0.621051
0.978329 0.870686 0.648923
0.675304 0.604485 0.457300
0.719380 0.643205 0.485173
0.763456 0.681925 0.513045
0.807533 0.720645 0.540917
0.851609 0.759366 0.568790
0.895686 0.798086 0.596662
0.939762 0.836806 0.624535
0.983839 0.875526 0.652407
1.000000 0.914246 0.680280
