assets/presets/luts/candlelight/lut.cube
TITLE "Candlelight"
LUT_3D_SIZE 17
0.027285 0.022535 0.017785
0.085166 0.023176 0.018426
0.143285 0.023819 0.019069
0.201403 0.024462 0.019712
0.259522 0.025105 0.020355
0.317640 0.025748 0.020998
0.375759 0.026391 0.021641
0.433877 0.027034 0.022284
0.491996 0.027677 0.022927
0.550114 0.028321 0.023571
0.608232 0.028964 0.024214
0.666351 0.029607 0.024857
0.724469 0.030250 0.025500
0.782588 0.030893 0.026143
0.840706 0.031536 0.026786
0.898825 0.032179 0.027429
0.956943 0.032822 0.028072
0.029252 0.076760 0.019752
0.087133 0.077400 0.020393
0.145252 0.078043 0.021036
0.203370 0.078686 0.021679
0.261489 0.079330 0.022322
0.319607 0.079973 0.022965
0.377726 0.080616 0.023608
0.435844 0.081259 0.024251
0.493963 0.081902 0.024895
0.552081 0.082545 0.025538
0.610200 0.083188 0.026181
0.668318 0.083831 0.026824
0.726436 0.084474 0.027467
0.784555 0.085118 0.028110
0.842673 0.085761 0.028753
0.900792 0.086404 0.029396
0.958910 0.087047 0.030039
0.031321 0.133792 0.021821
0.089202 0.134433 0.022462
0.147321 0.135076 0.023105
0.205439 0.135719 0.023748
0.263558 0.136362 0.024391
0.321676 0.137005 0.025034
0.379795 0.137648 0.025677
0.437913 0.138292 0.026320
0.496032 0.138935 0.026963
0.554150 0.139578 0.027607
0.612269 0.140221 0.028250
0.670387 0.140864 0.028893
0.728505 0.141507 0.029536
0.786624 0.142150 0.030179
0.844742 0.142793 0.030822
0.902861 0.143437 0.031465
0.960979 0.144080 0.032108
0.033390 0.190825 0.023890
0.091271 0.191466 0.024531
0.149390 0.192109 0.025174
0.207508 0.192752 0.025817
0.265627 0.193395 0.026460
0.323745 0.194038 0.027103
0.381864 0.194681 0.027746
0.439982 0.195324 0.028389
0.498100 0.195967 0.029032
0.556219 0.196611 0.029676
0.614337 0.197254 0.030319
0.672456 0.197897 0.030962
0.730574 0.198540 0.031605
0.788693 0.199183 0.032248
0.846811 0.199826 0.032891
0.904930 0.200469 0.033534
0.963048 0.201112 0.034177
0.035459 0.247858 0.025959
0.093340 0.248498 0.026600
0.151459 0.249141 0.027243
0.209577 0.249785 0.027886
0.267696 0.250428 0.028529
0.325814 0.251071 0.029172
0.383932 0.251714 0.029815
0.442051 0.252357 0.030458
0.500169 0.253000 0.031101
0.558288 0.253643 0.031744
0.616406 0.254286 0.032388
0.674525 0.254930 0.033031
0.732643 0.255573 0.033674
0.790762 0.256216 0.034317
0.848880 0.256859 0.034960
0.906999 0.257502 0.035603
0.965117 0.258145 0.036246
0.037528 0.304891 0.028028
0.095409 0.305531 0.028668
0.153528 0.306174 0.029312
0.211646 0.306817 0.029955
0.269764 0.307460 0.030598
0.327883 0.308104 0.031241
0.386001 0.308747 0.031884
0.444120 0.309390 0.032527
0.502238 0.310033 0.033170
0.560357 0.310676 0.033813
0.618475 0.311319 0.034457
0.676594 0.311962 0.035100
0.734712 0.312605 0.035743
0.792831 0.313248 0.036386
0.850949 0.313892 0.037029
0.909068 0.314535 0.037672
0.967186 0.315178 0.038315
0.039597 0.361923 0.030097
0.097478 0.362564 0.030737
0.155596 0.363207 0.031381
0.213715 0.363850 0.032024
0.271833 0.364493 0.032667
0.329952 0.365136 0.033310
0.388070 0.365779 0.033953
0.446189 0.366422 0.034596
0.504307 0.367066 0.035239
0.562426 0.367709 0.035882
0.620544 0.368352 0.036526
0.678663 0.368995 0.037169
0.736781 0.369638 0.037812
0.794900 0.370281 0.038455
0.853018 0.370924 0.039098
0.911137 0.371567 0.039741
0.969255 0.372211 0.040384
0.041666 0.418956 0.032166
0.099547 0.419596 0.032806
0.157665 0.420240 0.033450
0.215784 0.420883 0.034093
0.273902 0.421526 0.034736
0.332021 0.422169 0.035379
0.390139 0.422812 0.036022
0.448258 0.423455 0.036665
0.506376 0.424098 0.037308
0.564495 0.424741 0.037951
0.622613 0.425385 0.038594
0.680732 0.426028 0.039238
0.738850 0.426671 0.039881
0.796969 0.427314 0.040524
0.855087 0.427957 0.041167
0.913206 0.428600 0.041810
0.971324 0.429243 0.042453
0.043735 0.475989 0.034235
0.101616 0.476629 0.034875
0.159734 0.477272 0.035518
0.217853 0.477915 0.036162
0.275971 0.478559 0.036805
0.334090 0.479202 0.037448
0.392208 0.479845 0.038091
0.450327 0.480488 0.038734
0.508445 0.481131 0.039377
0.566564 0.481774 0.040020
0.624682 0.482417 0.040663
0.682801 0.483060 0.041307
0.740919 0.483703 0.041950
0.799038 0.484347 0.042593
0.857156 0.484990 0.043236
0.915275 0.485633 0.043879
0.973393 0.486276 0.044522
0.045804 0.533021 0.036304
0.103685 0.533662 0.036944
0.161803 0.534305 0.037587
0.219922 0.534948 0.038231
0.278040 0.535591 0.038874
0.336159 0.536234 0.039517
0.394277 0.536877 0.040160
0.452396 0.537521 0.040803
0.510514 0.538164 0.041446
0.568633 0.538807 0.042089
0.626751 0.539450 0.042732
0.684870 0.540093 0.043375
0.742988 0.540736 0.044019
0.801107 0.541379 0.044662
0.859225 0.542022 0.045305
0.917344 0.542666 0.045948
0.975462 0.543309 0.046591
0.047873 0.590054 0.038373
0.105754 0.590695 0.039013
0.163872 0.591338 0.039656
0.221991 0.591981 0.040299
0.280109 0.592624 0.040943
0.338228 0.593267 0.041586
0.396346 0.593910 0.042229
0.454465 0.594553 0.042872
0.512583 0.595196 0.043515
0.570702 0.595840 0.044158
0.628820 0.596483 0.044801
0.686939 0.597126 0.045444
0.745057 0.597769 0.046088
0.803176 0.598412 0.046731
0.861294 0.599055 0.047374
0.919412 0.599698 0.048017
0.977531 0.600341 0.048660
0.049942 0.647087 0.040442
0.107823 0.647727 0.041082
0.165941 0.648370 0.041725
0.224060 0.649014 0.042368
0.282178 0.649657 0.043012
0.340297 0.650300 0.043655
0.398415 0.650943 0.044298
0.456534 0.651586 0.044941
0.514652 0.652229 0.045584
0.572771 0.652872 0.046227
0.630889 0.653515 0.046870
0.689008 0.654158 0.047513
0.747126 0.654802 0.048156
0.805245 0.655445 0.048800
0.863363 0.656088 0.049443
0.921481 0.656731 0.050086
0.979600 0.657374 0.050729
0.052011 0.704120 0.042511
0.109892 0.704760 0.043151
0.168010 0.705403 0.043794
0.226129 0.706046 0.044437
0.284247 0.706689 0.045080
0.342366 0.707332 0.045724
0.400484 0.707976 0.046367
0.458603 0.708619 0.047010
0.516721 0.709262 0.047653
0.574840 0.709905 0.048296
0.632958 0.710548 0.048939
0.691077 0.711191 0.049582
0.749195 0.711834 0.050225
0.807313 0.712477 0.050869
0.865432 0.713121 0.051512
0.923550 0.713764 0.052155
0.981669 0.714407 0.052798
0.054080 0.761152 0.044580
0.111961 0.761793 0.045220
0.170079 0.762436 0.045863
0.228198 0.763079 0.046506
0.286316 0.763722 0.047149
0.344435 0.764365 0.047793
0.402553 0.765008 0.048436
0.460672 0.765651 0.049079
0.518790 0.766295 0.049722
0.576908 0.766938 0.050365
0.635027 0.767581 0.051008
0.693145 0.768224 0.051651
0.751264 0.768867 0.052294
0.809382 0.769510 0.052938
0.867501 0.770153 0.053581
0.925619 0.770796 0.054224
0.983738 0.771439 0.054867
0.056149 0.818185 0.046649
0.114030 0.818825 0.047289
0.172148 0.819469 0.047932
0.230267 0.820112 0.048575
0.288385 0.820755 0.049218
0.346504 0.821398 0.049862
0.404622 0.822041 0.050505
0.462740 0.822684 0.051148
0.520859 0.823327 0.051791
0.578977 0.823970 0.052434
0.637096 0.824614 0.053077
0.695214 0.825257 0.053720
0.753333 0.825900 0.054363
0.811451 0.826543 0.055006
0.869570 0.827186 0.055650
0.927688 0.827829 0.056293
0.985807 0.828472 0.056936
0.058218 0.875218 0.048718
0.116099 0.875858 0.049358
0.174217 0.876501 0.050001
0.232336 0.877144 0.050644
0.290454 0.877788 0.051287
0.348572 0.878431 0.051930
0.406691 0.879074 0.052574
0.464809 0.879717 0.053217
0.522928 0.880360 0.053860
0.581046 0.881003 0.054503
0.639165 0.881646 0.055146
0.697283 0.882289 0.055789
0.755402 0.882932 0.056432
0.813520 0.883576 0.057075
0.871639 0.884219 0.057719
0.929757 0.884862 0.058362
0.987876 0.885505 0.059005
0.060286 0.932250 0.050786
0.118168 0.932891 0.051427
0.176286 0.933534 0.052070
0.234404 0.934177 0.052713
0.292523 0.934820 0.053356
0.350641 0.935463 0.053999
0.408760 0.936106 0.054643
0.466878 0.936750 0.055286
0.524997 0.937393 0.055929
0.583115 0.938036 0.056572
0.641234 0.938679 0.057215
0.699352 0.939322 0.057858
0.757471 0.939965 0.058501
0.815589 0.940608 0.059144
0.873708 0.941251 0.059787
0.931826 0.941895 0.060431
0.989945 0.942538 0.061074
0.027463 0.022713 0.064774
0.085344 0.023353 0.065415
0.143463 0.023997 0.066058
0.201581 0.024640 0.066701
0.259699 0.025283 0.067344
0.317818 0.025926 0.067987
0.375936 0.026569 0.068630
0.434055 0.027212 0.069273
0.492173 0.027855 0.069916
0.550292 0.028498 0.070560
0.608410 0.029142 0.071203
0.666529 0.029785 0.071846
0.724647 0.030428 0.072489
0.782766 0.031071 0.073132
0.840884 0.031714 0.073775
0.899003 0.032357 0.074418
0.957121 0.033000 0.075061
0.029430 0.076938 0.066741
0.087311 0.077578 0.067382
0.145430 0.078221 0.068025
0.203548 0.078864 0.068668
0.261667 0.079507 0.069311
0.319785 0.080151 0.069954
0.377904 0.080794 0.070597
0.436022 0.081437 0.071240
0.494140 0.082080 0.071884
0.552259 0.082723 0.072527
0.610377 0.083366 0.073170
0.668496 0.084009 0.073813
0.726614 0.084652 0.074456
0.784733 0.085295 0.075099
0.842851 0.085939 0.075742
0.900970 0.086582 0.076385
0.959088 0.087225 0.077028
0.031499 0.133970 0.068810
0.089380 0.134611 0.069451
0.147499 0.135254 0.070094
0.205617 0.135897 0.070737
0.263736 0.136540 0.071380
0.321854 0.137183 0.072023
0.379972 0.137826 0.072666
0.438091 0.138469 0.073309
0.496209 0.139113 0.073952
0.554328 0.139756 0.074596
0.612446 0.140399 0.075239
0.670565 0.141042 0.075882
0.728683 0.141685 0.076525
0.786802 0.142328 0.077168
0.844920 0.142971 0.077811
0.903039 0.143614 0.078454
0.961157 0.144258 0.079097
0.033568 0.191003 0.070879
0.091449 0.191643 0.071520
0.149567 0.192287 0.072163
0.207686 0.192930 0.072806
0.265804 0.193573 0.073449
0.323923 0.194216 0.074092
0.382041 0.194859 0.074735
0.440160 0.195502 0.075378
0.498278 0.196145 0.076021
0.556397 0.196788 0.076665
0.614515 0.197432 0.077308
0.672634 0.198075 0.077951
0.730752 0.198718 0.078594
0.788871 0.199361 0.079237
0.846989 0.200004 0.079880
0.905108 0.200647 0.080523
0.963226 0.201290 0.081166
0.035637 0.248036 0.072948
0.093518 0.248676 0.073589
0.151636 0.249319 0.074232
0.209755 0.249962 0.074875
0.267873 0.250606 0.075518
0.325992 0.251249 0.076161
0.384110 0.251892 0.076804
0.442229 0.252535 0.077447
0.500347 0.253178 0.078090
0.558466 0.253821 0.078734
0.616584 0.254464 0.079377
0.674703 0.255107 0.080020
0.732821 0.255751 0.080663
0.790940 0.256394 0.081306
0.849058 0.257037 0.081949
0.907177 0.257680 0.082592
0.965295 0.258323 0.083235
0.037706 0.305068 0.075017
0.095587 0.305709 0.075658
0.153705 0.306352 0.076301
0.211824 0.306995 0.076944
0.269942 0.307638 0.077587
0.328061 0.308281 0.078230
0.386179 0.308924 0.078873
0.444298 0.309568 0.079516
0.502416 0.310211 0.080159
0.560535 0.310854 0.080802
0.618653 0.311497 0.081446
0.676772 0.312140 0.082089
0.734890 0.312783 0.082732
0.793009 0.313426 0.083375
0.851127 0.314069 0.084018
0.909246 0.314713 0.084661
0.967364 0.315356 0.085304
0.039775 0.362101 0.077086
0.097656 0.362742 0.077726
0.155774 0.363385 0.078370
0.213893 0.364028 0.079013
0.272011 0.364671 0.079656
0.330130 0.365314 0.080299
0.388248 0.365957 0.080942
0.446367 0.366600 0.081585
0.504485 0.367243 0.082228
0.562604 0.367887 0.082871
0.620722 0.368530 0.083515
0.678841 0.369173 0.084158
0.736959 0.369816 0.084801
0.795078 0.370459 0.085444
0.853196 0.371102 0.086087
0.911315 0.371745 0.086730
0.969433 0.372388 0.087373
0.041844 0.419134 0.079155
0.099725 0.419774 0.079795
0.157843 0.420417 0.080439
0.215962 0.421061 0.081082
0.274080 0.421704 0.081725
0.332199 0.422347 0.082368
0.390317 0.422990 0.083011
0.448436 0.423633 0.083654
0.506554 0.424276 0.084297
0.564673 0.424919 0.084940
0.622791 0.425562 0.085583
0.680910 0.426206 0.086227
0.739028 0.426849 0.086870
0.797147 0.427492 0.087513
0.855265 0.428135 0.088156
0.913384 0.428778 0.088799
0.971502 0.429421 0.089442
0.043913 0.476167 0.081224
0.101794 0.476807 0.081864
0.159912 0.477450 0.082507
0.218031 0.478093 0.083151
0.276149 0.478736 0.083794
0.334268 0.479380 0.084437
0.392386 0.480023 0.085080
0.450505 0.480666 0.085723
0.508623 0.481309 0.086366
0.566742 0.481952 0.087009
0.624860 0.482595 0.087652
0.682979 0.483238 0.088296
0.741097 0.483881 0.088939
0.799216 0.484524 0.089582
0.857334 0.485168 0.090225
0.915452 0.485811 0.090868
0.973571 0.486454 0.091511
0.045982 0.533199 0.083293
0.103863 0.533840 0.083933
0.161981 0.534483 0.084576
0.220100 0.535126 0.085220
0.278218 0.535769 0.085863
0.336337 0.536412 0.086506
0.394455 0.537055 0.087149
0.452574 0.537698 0.087792
0.510692 0.538342 0.088435
0.568811 0.538985 0.089078
0.626929 0.539628 0.089721
0.685048 0.540271 0.090365
0.743166 0.540914 0.091008
0.801284 0.541557 0.091651
0.859403 0.542200 0.092294
0.917521 0.542843 0.092937
0.975640 0.543487 0.093580
0.048051 0.590232 0.085362
0.105932 0.590872 0.086002
0.164050 0.591516 0.086645
0.222169 0.592159 0.087288
0.280287 0.592802 0.087932
0.338406 0.593445 0.088575
0.396524 0.594088 0.089218
0.454643 0.594731 0.089861
0.512761 0.595374 0.090504
0.570880 0.596017 0.091147
0.628998 0.596661 0.091790
0.687116 0.597304 0.092433
0.745235 0.597947 0.093077
0.803353 0.598590 0.093720
0.861472 0.599233 0.094363
0.919590 0.599876 0.095006
0.977709 0.600519 0.095649
0.050120 0.647265 0.087431
0.108001 0.647905 0.088071
0.166119 0.648548 0.088714
0.224238 0.649191 0.089357
0.282356 0.649835 0.090001
0.340475 0.650478 0.090644
0.398593 0.651121 0.091287
0.456712 0.651764 0.091930
0.514830 0.652407 0.092573
0.572948 0.653050 0.093216
0.631067 0.653693 0.093859
0.689185 0.654336 0.094502
0.747304 0.654979 0.095146
0.805422 0.655623 0.095789
0.863541 0.656266 0.096432
0.921659 0.656909 0.097075
0.979778 0.657552 0.097718
0.052189 0.704297 0.089500
0.110070 0.704938 0.090140
0.168188 0.705581 0.090783
0.226307 0.706224 0.091426
0.284425 0.706867 0.092070
0.342543 0.707510 0.092713
0.400662 0.708153 0.093356
0.458780 0.708797 0.093999
0.516899 0.709440 0.094642
0.575017 0.710083 0.095285
0.633136 0.710726 0.095928
0.691254 0.711369 0.096571
0.749373 0.712012 0.097214
0.807491 0.712655 0.097858
0.865610 0.713298 0.098501
0.923728 0.713942 0.099144
0.981847 0.714585 0.099787
0.054257 0.761330 0.091569
0.112139 0.761971 0.092209
0.170257 0.762614 0.092852
0.228375 0.763257 0.093495
0.286494 0.763900 0.094138
0.344612 0.764543 0.094782
0.402731 0.765186 0.095425
0.460849 0.765829 0.096068
0.518968 0.766472 0.096711
0.577086 0.767116 0.097354
0.635205 0.767759 0.097997
0.693323 0.768402 0.098640
0.751442 0.769045 0.099283
0.809560 0.769688 0.099927
0.867679 0.770331 0.100570
0.925797 0.770974 0.101213
0.983916 0.771617 0.101856
0.056326 0.818363 0.093638
0.114207 0.819003 0.094278
0.172326 0.819646 0.094921
0.230444 0.820290 0.095564
0.288563 0.820933 0.096207
0.346681 0.821576 0.096851
0.404800 0.822219 0.097494
0.462918 0.822862 0.098137
0.521037 0.823505 0.098780
0.579155 0.824148 0.099423
0.637274 0.824791 0.100066
0.695392 0.825435 0.100709
0.753511 0.826078 0.101352
0.811629 0.826721 0.101995
0.869748 0.827364 0.102639
0.927866 0.828007 0.103282
0.985985 0.828650 0.103925
0.058395 0.875396 0.095707
0.116276 0.876036 0.096347
0.174395 0.876679 0.096990
0.232513 0.877322 0.097633
0.290632 0.877965 0.098276
0.348750 0.878609 0.098919
0.406869 0.879252 0.099563
0.464987 0.879895 0.100206
0.523106 0.880538 0.100849
0.581224 0.881181 0.101492
0.639343 0.881824 0.102135
0.697461 0.882467 0.102778
0.755580 0.883110 0.103421
0.813698 0.883753 0.104064
0.871817 0.884397 0.104708
0.929935 0.885040 0.105351
0.988054 0.885683 0.105994
0.060464 0.932428 0.097775
0.118345 0.933069 0.098416
0.176464 0.933712 0.099059
0.234582 0.934355 0.099702
0.292701 0.934998 0.100345
0.350819 0.935641 0.100988
0.408938 0.936284 0.101632
0.467056 0.936927 0.102275
0.525175 0.937571 0.102918
0.583293 0.938214 0.103561
0.641412 0.938857 0.104204
0.699530 0.939500 0.104847
0.757649 0.940143 0.105490
0.815767 0.940786 0.106133
0.873886 0.941429 0.106777
0.932004 0.942072 0.107420
0.990123 0.942716 0.108063
0.027661 0.022911 0.117178
0.085542 0.023552 0.117819
0.143661 0.024195 0.118462
0.201779 0.024838 0.119105
0.259898 0.025481 0.119748
0.318016 0.026124 0.120391
0.376135 0.026767 0.121034
0.434253 0.027411 0.121677
0.492372 0.028054 0.122321
0.550490 0.028697 0.122964
0.608609 0.029340 0.123607
0.666727 0.029983 0.124250
0.724846 0.030626 0.124893
0.782964 0.031269 0.125536
0.841083 0.031912 0.126179
0.899201 0.032556 0.126822
0.957320 0.033199 0.127466
0.029628 0.077136 0.119145
0.087509 0.077776 0.119786
0.145628 0.078420 0.120429
0.203746 0.079063 0.121072
0.261865 0.079706 0.121715
0.319983 0.080349 0.122358
0.378102 0.080992 0.123001
0.436220 0.081635 0.123645
0.494339 0.082278 0.124288
0.552457 0.082921 0.124931
0.610576 0.083565 0.125574
0.668694 0.084208 0.126217
0.726813 0.084851 0.126860
0.784931 0.085494 0.127503
0.843050 0.086137 0.128146
0.901168 0.086780 0.128789
0.959287 0.087423 0.129433
0.031697 0.134169 0.121214
0.089578 0.134809 0.121855
0.147697 0.135452 0.122498
0.205815 0.136095 0.123141
0.263934 0.136739 0.123784
0.322052 0.137382 0.124427
0.380171 0.138025 0.125070
0.438289 0.138668 0.125713
0.496408 0.139311 0.126357
0.554526 0.139954 0.127000
0.612645 0.140597 0.127643
0.670763 0.141240 0.128286
0.728882 0.141883 0.128929
0.787000 0.142527 0.129572
0.845119 0.143170 0.130215
0.903237 0.143813 0.130858
0.961356 0.144456 0.131502
0.033766 0.191201 0.123283
0.091647 0.191842 0.123924
0.149766 0.192485 0.124567
0.207884 0.193128 0.125210
0.266003 0.193771 0.125853
0.324121 0.194414 0.126496
0.382240 0.195057 0.127139
0.440358 0.195701 0.127782
0.498477 0.196344 0.128426
0.556595 0.196987 0.129069
0.614714 0.197630 0.129712
0.672832 0.198273 0.130355
0.730951 0.198916 0.130998
0.789069 0.199559 0.131641
0.847188 0.200202 0.132284
0.905306 0.200846 0.132927
0.963425 0.201489 0.133570
0.035835 0.248234 0.125352
0.093716 0.248875 0.125993
0.151835 0.249518 0.126636
0.209953 0.250161 0.127279
0.268072 0.250804 0.127922
0.326190 0.251447 0.128565
0.384309 0.252090 0.129208
0.442427 0.252733 0.129851
0.500546 0.253376 0.130494
0.558664 0.254020 0.131138
0.616783 0.254663 0.131781
0.674901 0.255306 0.132424
0.733020 0.255949 0.133067
0.791138 0.256592 0.133710
0.849257 0.257235 0.134353
0.907375 0.257878 0.134996
0.965494 0.258521 0.135639
0.037904 0.305267 0.127421
0.095785 0.305907 0.128062
0.153904 0.306550 0.128705
0.212022 0.307194 0.129348
0.270141 0.307837 0.129991
0.328259 0.308480 0.130634
0.386378 0.309123 0.131277
0.444496 0.309766 0.131920
0.502615 0.310409 0.132563
0.560733 0.311052 0.133207
0.618852 0.311695 0.133850
0.676970 0.312338 0.134493
0.735089 0.312982 0.135136
0.793207 0.313625 0.135779
0.851326 0.314268 0.136422
0.909444 0.314911 0.137065
0.967562 0.315554 0.137708
0.039973 0.362300 0.129490
0.097854 0.362940 0.130131
0.155973 0.363583 0.130774
0.214091 0.364226 0.131417
0.272210 0.364869 0.132060
0.330328 0.365512 0.132703
0.388447 0.366156 0.133346
0.446565 0.366799 0.133989
0.504684 0.367442 0.134632
0.562802 0.368085 0.135276
0.620921 0.368728 0.135919
0.679039 0.369371 0.136562
0.737158 0.370014 0.137205
0.795276 0.370657 0.137848
0.853395 0.371301 0.138491
0.911513 0.371944 0.139134
0.969631 0.372587 0.139777
0.042042 0.419332 0.131559
0.099923 0.419973 0.132200
0.158042 0.420616 0.132843
0.216160 0.421259 0.133486
0.274279 0.421902 0.134129
0.332397 0.422545 0.134772
0.390516 0.423188 0.135415
0.448634 0.423831 0.136058
0.506753 0.424475 0.136701
0.564871 0.425118 0.137344
0.622990 0.425761 0.137988
0.681108 0.426404 0.138631
0.739226 0.427047 0.139274
0.797345 0.427690 0.139917
0.855463 0.428333 0.140560
0.913582 0.428976 0.141203
0.971700 0.429619 0.141846
0.044111 0.476365 0.133628
0.101992 0.477005 0.134268
0.160111 0.477649 0.134912
0.218229 0.478292 0.135555
0.276348 0.478935 0.136198
0.334466 0.479578 0.136841
0.392585 0.480221 0.137484
0.450703 0.480864 0.138127
0.508821 0.481507 0.138770
0.566940 0.482150 0.139413
0.625058 0.482794 0.140057
0.683177 0.483437 0.140700
0.741295 0.484080 0.141343
0.799414 0.484723 0.141986
0.857532 0.485366 0.142629
0.915651 0.486009 0.143272
0.973769 0.486652 0.143915
0.046180 0.533398 0.135697
0.104061 0.534038 0.136337
0.162180 0.534681 0.136981
0.220298 0.535324 0.137624
0.278417 0.535967 0.138267
0.336535 0.536611 0.138910
0.394653 0.537254 0.139553
0.452772 0.537897 0.140196
0.510890 0.538540 0.140839
0.569009 0.539183 0.141482
0.627127 0.539826 0.142125
0.685246 0.540469 0.142769
0.743364 0.541112 0.143412
0.801483 0.541756 0.144055
0.859601 0.542399 0.144698
0.917720 0.543042 0.145341
0.975838 0.543685 0.145984
0.048249 0.590430 0.137766
0.106130 0.591071 0.138406
0.164249 0.591714 0.139049
0.222367 0.592357 0.139693
0.280485 0.593000 0.140336
0.338604 0.593643 0.140979
0.396722 0.594286 0.141622
0.454841 0.594930 0.142265
0.512959 0.595573 0.142908
0.571078 0.596216 0.143551
0.629196 0.596859 0.144194
0.687315 0.597502 0.144838
0.745433 0.598145 0.145481
0.803552 0.598788 0.146124
0.861670 0.599431 0.146767
0.919789 0.600075 0.147410
0.977907 0.600718 0.148053
0.050318 0.647463 0.139835
0.108199 0.648104 0.140475
0.166317 0.648747 0.141118
0.224436 0.649390 0.141762
0.282554 0.650033 0.142405
0.340673 0.650676 0.143048
0.398791 0.651319 0.143691
0.456910 0.651962 0.144334
0.515028 0.652605 0.144977
0.573147 0.653248 0.145620
0.631265 0.653892 0.146263
0.689384 0.654535 0.146907
0.747502 0.655178 0.147550
0.805621 0.655821 0.148193
0.863739 0.656464 0.148836
0.921858 0.657107 0.149479
0.979976 0.657750 0.150122
0.052387 0.704496 0.141904
0.110268 0.705136 0.142544
0.168386 0.705779 0.143187
0.226505 0.706423 0.143831
0.284623 0.707066 0.144474
0.342742 0.707709 0.145117
0.400860 0.708352 0.145760
0.458979 0.708995 0.146403
0.517097 0.709638 0.147046
0.575216 0.710281 0.147689
0.633334 0.710924 0.148332
0.691453 0.711567 0.148975
0.749571 0.712211 0.149619
0.807690 0.712854 0.150262
0.865808 0.713497 0.150905
0.923927 0.714140 0.151548
0.982045 0.714783 0.152191
0.054456 0.761528 0.143973
0.112337 0.762169 0.144613
0.170455 0.762812 0.145256
0.228574 0.763455 0.145899
0.286692 0.764098 0.146543
0.344811 0.764741 0.147186
0.402929 0.765385 0.147829
0.461048 0.766028 0.148472
0.519166 0.766671 0.149115
0.577285 0.767314 0.149758
0.635403 0.767957 0.150401
0.693522 0.768600 0.151044
0.751640 0.769243 0.151688
0.809759 0.769886 0.152331
0.867877 0.770530 0.152974
0.925996 0.771173 0.153617
0.984114 0.771816 0.154260
0.056525 0.818561 0.146042
0.114406 0.819202 0.146682
0.172524 0.819845 0.147325
0.230643 0.820488 0.147968
0.288761 0.821131 0.148612
0.346880 0.821774 0.149255
0.404998 0.822417 0.149898
0.463117 0.823060 0.150541
0.521235 0.823704 0.151184
0.579354 0.824347 0.151827
0.637472 0.824990 0.152470
0.695591 0.825633 0.153113
0.753709 0.826276 0.153756
0.811828 0.826919 0.154400
0.869946 0.827562 0.155043
0.928065 0.828205 0.155686
0.986183 0.828848 0.156329
0.058594 0.875594 0.148111
0.116475 0.876234 0.148751
0.174593 0.876878 0.149394
0.232712 0.877521 0.150037
0.290830 0.878164 0.150680
0.348949 0.878807 0.151324
0.407067 0.879450 0.151967
0.465186 0.880093 0.152610
0.523304 0.880736 0.153253
0.581423 0.881379 0.153896
0.639541 0.882023 0.154539
0.697660 0.882666 0.155182
0.755778 0.883309 0.155825
0.813897 0.883952 0.156469
0.872015 0.884595 0.157112
0.930134 0.885238 0.157755
0.988252 0.885881 0.158398
0.060663 0.932627 0.150180
0.118544 0.933267 0.150820
0.176662 0.933910 0.151463
0.234781 0.934553 0.152106
0.292899 0.935196 0.152749
0.351018 0.935840 0.153393
0.409136 0.936483 0.154036
0.467255 0.937126 0.154679
0.525373 0.937769 0.155322
0.583492 0.938412 0.155965
0.641610 0.939055 0.156608
0.699729 0.939698 0.157251
0.757847 0.940341 0.157894
0.815966 0.940985 0.158538
0.874084 0.941628 0.159181
0.932202 0.942271 0.159824
0.990321 0.942914 0.160467
0.027860 0.023110 0.169582
0.085741 0.023750 0.170223
0.143859 0.024393 0.170866
0.201978 0.025036 0.171509
0.260096 0.025680 0.172152
0.318215 0.026323 0.172795
0.376333 0.026966 0.173438
0.434452 0.027609 0.174082
0.492570 0.028252 0.174725
0.550689 0.028895 0.175368
0.608807 0.029538 0.176011
0.666926 0.030181 0.176654
0.725044 0.030825 0.177297
0.783163 0.031468 0.177940
0.841281 0.032111 0.178583
0.899400 0.032754 0.179226
0.957518 0.033397 0.179870
0.029827 0.077334 0.171549
0.087708 0.077975 0.172190
0.145826 0.078618 0.172833
