assets/presets/luts/candlelight/lut.cube
TITLE "Candlelight"
LUT_3D_SIZE 9
0.027285 0.022535 0.017785
0.143285 0.023819 0.019069
0.259522 0.025105 0.020355
0.375759 0.026391 0.021641
0.491996 0.027677 0.022927
0.608232 0.028964 0.024214
0.724469 0.030250 0.025500
0.840706 0.031536 0.026786
0.956943 0.032822 0.028072
0.031321 0.133792 0.021821
0.147321 0.135076 0.023105
0.263558 0.136362 0.024391
0.379795 0.137648 0.025677
0.496032 0.138935 0.026963
0.612269 0.140221 0.028250
0.728505 0.141507 0.029536
0.844742 0.142793 0.030822
0.960979 0.144080 0.032108
0.035459 0.247858 0.025959
0.151459 0.249141 0.027243
0.267696 0.250428 0.028529
0.383932 0.251714 0.029815
0.500169 0.253000 0.031101
0.616406 0.254286 0.032388
0.732643 0.255573 0.033674
0.848880 0.256859 0.034960
0.965117 0.258145 0.036246
0.039597 0.361923 0.030097
0.155596 0.363207 0.031381
0.271833 0.364493 0.032667
0.388070 0.365779 0.033953
0.504307 0.367066 0.035239
0.620544 0.368352 0.036526
0.736781 0.369638 0.037812
0.853018 0.370924 0.039098
0.969255 0.372211 0.040384
0.043735 0.475989 0.034235
0.159734 0.477272 0.035518
0.275971 0.478559 0.036805
0.392208 0.479845 0.038091
0.508445 0.481131 0.039377
0.624682 0.482417 0.040663
0.740919 0.483703 0.041950
0.857156 0.484990 0.043236
0.973393 0.486276 0.044522
0.047873 0.590054 0.038373
0.163872 0.591338 0.039656
0.280109 0.592624 0.040943
0.396346 0.593910 0.042229
0.512583 0.595196 0.043515
0.628820 0.596483 0.044801
0.745057 0.597769 0.046088
0.861294 0.599055 0.047374
0.977531 0.600341 0.048660
0.052011 0.704120 0.042511
0.168010 0.705403 0.043794
0.284247 0.706689 0.045080
0.400484 0.707976 0.046367
0.516721 0.709262 0.047653
0.632958 0.710548 0.048939
0.749195 0.711834 0.050225
0.865432 0.713121 0.051512
0.981669 0.714407 0.052798
0.056149 0.818185 0.046649
0.172148 0.819469 0.047932
0.288385 0.820755 0.049218
0.404622 0.822041 0.050505
0.520859 0.823327 0.051791
0.637096 0.824614 0.053077
0.753333 0.825900 0.054363
0.869570 0.827186 0.055650
0.985807 0.828472 0.056936
0.060286 0.932250 0.050786
0.176286 0.933534 0.052070
0.292523 0.934820 0.053356
0.408760 0.936106 0.054643
0.524997 0.937393 0.055929
0.641234 0.938679 0.057215
0.757471 0.939965 0.058501
0.873708 0.941251 0.059787
0.989945 0.942538 0.061074
0.027661 0.022911 0.117178
0.143661 0.024195 0.118462
0.259898 0.025481 0.119748
0.376135 0.026767 0.121034
0.492372 0.028054 0.122321
0.608609 0.029340 0.123607
0.724846 0.030626 0.124893
0.841083 0.031912 0.126179
0.957320 0.033199 0.127466
0.031697 0.134169 0.121214
0.147697 0.135452 0.122498
0.263934 0.136739 0.123784
0.380171 0.138025 0.125070
0.496408 0.139311 0.126357
0.612645 0.140597 0.127643
0.728882 0.141883 0.128929
0.845119 0.143170 0.130215
0.961356 0.144456 0.131502
0.035835 0.248234 0.125352
0.151835 0.249518 0.126636
0.268072 0.250804 0.127922
0.384309 0.252090 0.129208
0.500546 0.253376 0.130494
0.616783 0.254663 0.131781
0.733020 0.255949 0.133067
0.849257 0.257235 0.134353
0.965494 0.258521 0.135639
0.039973 0.362300 0.129490
0.155973 0.363583 0.130774
0.272210 0.364869 0.132060
0.388447 0.366156 0.133346
0.504684 0.367442 0.134632
0.620921 0.368728 0.135919
0.737158 0.370014 0.137205
0.853395 0.371301 0.138491
0.969631 0.372587 0.139777
0.044111 0.476365 0.133628
0.160111 0.477649 0.134912
0.276348 0.478935 0.136198
0.392585 0.480221 0.137484
0.508821 0.481507 0.138770
0.625058 0.482794 0.140057
0.741295 0.484080 0.141343
0.857532 0.485366 0.142629
0.973769 0.486652 0.143915
0.048249 0.590430 0.137766
0.164249 0.591714 0.139049
0.280485 0.593000 0.140336
0.396722 0.594286 0.141622
0.512959 0.595573 0.142908
0.629196 0.596859 0.144194
0.745433 0.598145 0.145481
0.861670 0.599431 0.146767
0.977907 0.600718 0.148053
0.052387 0.704496 0.141904
0.168386 0.705779 0.143187
0.284623 0.707066 0.144474
0.400860 0.708352 0.145760
0.517097 0.709638 0.147046
0.633334 0.710924 0.148332
0.749571 0.712211 0.149619
0.865808 0.713497 0.150905
0.982045 0.714783 0.152191
0.056525 0.818561 0.146042
0.172524 0.819845 0.147325
0.288761 0.821131 0.148612
0.404998 0.822417 0.149898
0.521235 0.823704 0.151184
0.637472 0.824990 0.152470
0.753709 0.826276 0.153756
0.869946 0.827562 0.155043
0.986183 0.828848 0.156329
0.060663 0.932627 0.150180
0.176662 0.933910 0.151463
0.292899 0.935196 0.152749
0.409136 0.936483 0.154036
0.525373 0.937769 0.155322
0.641610 0.939055 0.156608
0.757847 0.940341 0.157894
0.874084 0.941628 0.159181
0.990321 0.942914 0.160467
0.028058 0.023308 0.221986
0.144058 0.024592 0.223270
0.260295 0.025878 0.224556
0.376532 0.027164 0.225843
0.492769 0.028450 0.227129
0.609006 0.029737 0.228415
0.725242 0.031023 0.229701
0.841479 0.032309 0.230987
0.957716 0.033595 0.232274
0.032094 0.134565 0.226022
0.148094 0.135849 0.227306
0.264331 0.137135 0.228592
0.380568 0.138422 0.229879
0.496805 0.139708 0.231165
0.613042 0.140994 0.232451
0.729279 0.142280 0.233737
0.845515 0.143566 0.235024
0.961752 0.144853 0.236310
0.036232 0.248631 0.230160
0.152232 0.249914 0.231444
0.268469 0.251201 0.232730
0.384706 0.252487 0.234016
0.500942 0.253773 0.235303
0.617179 0.255059 0.236589
0.733416 0.256346 0.237875
0.849653 0.257632 0.239161
0.965890 0.258918 0.240448
0.040370 0.362696 0.234298
0.156369 0.363980 0.235582
0.272606 0.365266 0.236868
0.388843 0.366552 0.238154
0.505080 0.367839 0.239441
0.621317 0.369125 0.240727
0.737554 0.370411 0.242013
0.853791 0.371697 0.243299
0.970028 0.372984 0.244586
0.044508 0.476762 0.238436
0.160507 0.478045 0.239720
0.276744 0.479332 0.241006
0.392981 0.480618 0.242292
0.509218 0.481904 0.243579
0.625455 0.483190 0.244865
0.741692 0.484477 0.246151
0.857929 0.485763 0.247437
0.974166 0.487049 0.248723
0.048646 0.590827 0.242574
0.164645 0.592111 0.243858
0.280882 0.593397 0.245144
0.397119 0.594683 0.246430
0.513356 0.595969 0.247716
0.629593 0.597256 0.249003
0.745830 0.598542 0.250289
0.862067 0.599828 0.251575
0.978304 0.601114 0.252861
0.052784 0.704893 0.246712
0.168783 0.706176 0.247996
0.285020 0.707462 0.249282
0.401257 0.708749 0.250568
0.517494 0.710035 0.251854
0.633731 0.711321 0.253141
0.749968 0.712607 0.254427
0.866205 0.713894 0.255713
0.982442 0.715180 0.256999
0.056922 0.818958 0.250850
0.172921 0.820242 0.252134
0.289158 0.821528 0.253420
0.405395 0.822814 0.254706
0.521632 0.824100 0.255992
0.637869 0.825387 0.257278
0.754106 0.826673 0.258565
0.870343 0.827959 0.259851
0.986580 0.829245 0.261137
0.061059 0.933023 0.254988
0.177059 0.934307 0.256271
0.293296 0.935593 0.257558
0.409533 0.936880 0.258844
0.525770 0.938166 0.260130
0.642007 0.939452 0.261416
0.758244 0.940738 0.262703
0.874481 0.942024 0.263989
0.990718 0.943311 0.265275
0.028455 0.023705 0.326795
0.144454 0.024989 0.328078
0.260691 0.026275 0.329365
0.376928 0.027561 0.330651
0.493165 0.028847 0.331937
0.609402 0.030133 0.333223
0.725639 0.031420 0.334509
0.841876 0.032706 0.335796
0.958113 0.033992 0.337082
0.032491 0.134962 0.330831
0.148490 0.136246 0.332114
0.264727 0.137532 0.333401
0.380964 0.138818 0.334687
0.497201 0.140105 0.335973
0.613438 0.141391 0.337259
0.729675 0.142677 0.338546
0.845912 0.143963 0.339832
0.962149 0.145249 0.341118
0.036629 0.249028 0.334969
0.152628 0.250311 0.336252
0.268865 0.251597 0.337538
0.385102 0.252884 0.338825
0.501339 0.254170 0.340111
0.617576 0.255456 0.341397
0.733813 0.256742 0.342683
0.850050 0.258029 0.343970
0.966287 0.259315 0.345256
0.040767 0.363093 0.339107
0.156766 0.364377 0.340390
0.273003 0.365663 0.341676
0.389240 0.366949 0.342963
0.505477 0.368235 0.344249
0.621714 0.369522 0.345535
0.737951 0.370808 0.346821
0.854188 0.372094 0.348108
0.970425 0.373380 0.349394
0.044905 0.477158 0.343244
0.160904 0.478442 0.344528
0.277141 0.479728 0.345814
0.393378 0.481015 0.347100
0.509615 0.482301 0.348387
0.625852 0.483587 0.349673
0.742089 0.484873 0.350959
0.858326 0.486160 0.352245
0.974563 0.487446 0.353532
0.049043 0.591224 0.347382
0.165042 0.592507 0.348666
0.281279 0.593794 0.349952
0.397516 0.595080 0.351238
0.513753 0.596366 0.352525
0.629990 0.597652 0.353811
0.746227 0.598939 0.355097
0.862464 0.600225 0.356383
0.978701 0.601511 0.357670
0.053180 0.705289 0.351520
0.169180 0.706573 0.352804
0.285417 0.707859 0.354090
0.401654 0.709145 0.355376
0.517891 0.710432 0.356663
0.634128 0.711718 0.357949
0.750365 0.713004 0.359235
0.866602 0.714290 0.360521
0.982839 0.715577 0.361807
0.057318 0.819355 0.355658
0.173318 0.820638 0.356942
0.289555 0.821925 0.358228
0.405792 0.823211 0.359514
0.522029 0.824497 0.360800
0.638266 0.825783 0.362087
0.754503 0.827070 0.363373
0.870740 0.828356 0.364659
0.986977 0.829642 0.365945
0.061456 0.933420 0.359796
0.177456 0.934704 0.361080
0.293693 0.935990 0.362366
0.409930 0.937276 0.363652
0.526167 0.938563 0.364938
0.642404 0.939849 0.366225
0.758641 0.941135 0.367511
0.874878 0.942421 0.368797
0.991114 0.943707 0.370083
0.028852 0.024102 0.431603
0.144851 0.025385 0.432886
0.261088 0.026672 0.434173
0.377325 0.027958 0.435459
0.493562 0.029244 0.436745
0.609799 0.030530 0.438031
0.726036 0.031816 0.439318
0.842273 0.033103 0.440604
0.958510 0.034389 0.441890
0.032888 0.135359 0.435639
0.148887 0.136643 0.436923
0.265124 0.137929 0.438209
0.381361 0.139215 0.439495
0.497598 0.140501 0.440781
0.613835 0.141788 0.442067
0.730072 0.143074 0.443354
0.846309 0.144360 0.444640
0.962546 0.145646 0.445926
0.037026 0.249424 0.439777
0.153025 0.250708 0.441060
0.269262 0.251994 0.442347
0.385499 0.253280 0.443633
0.501736 0.254567 0.444919
0.617973 0.255853 0.446205
0.734210 0.257139 0.447492
0.850447 0.258425 0.448778
0.966684 0.259712 0.450064
0.041163 0.363490 0.443915
0.157163 0.364773 0.445198
0.273400 0.366060 0.446485
0.389637 0.367346 0.447771
0.505874 0.368632 0.449057
0.622111 0.369918 0.450343
0.738348 0.371205 0.451630
0.854585 0.372491 0.452916
0.970822 0.373777 0.454202
0.045301 0.477555 0.448053
0.161301 0.478839 0.449336
0.277538 0.480125 0.450622
0.393775 0.481411 0.451909
0.510012 0.482698 0.453195
0.626249 0.483984 0.454481
0.742486 0.485270 0.455767
0.858723 0.486556 0.457054
0.974960 0.487843 0.458340
0.049439 0.591621 0.452191
0.165439 0.592904 0.453474
0.281676 0.594190 0.454760
0.397913 0.595477 0.456047
0.514150 0.596763 0.457333
0.630387 0.598049 0.458619
0.746624 0.599335 0.459905
0.862861 0.600622 0.461192
0.979098 0.601908 0.462478
0.053577 0.705686 0.456328
0.169577 0.706970 0.457612
0.285814 0.708256 0.458898
0.402051 0.709542 0.460185
0.518288 0.710828 0.461471
0.634525 0.712115 0.462757
0.750762 0.713401 0.464043
0.866998 0.714687 0.465329
0.983235 0.715973 0.466616
0.057715 0.819752 0.460466
0.173715 0.821035 0.461750
0.289952 0.822321 0.463036
0.406189 0.823608 0.464322
0.522426 0.824894 0.465609
0.638662 0.826180 0.466895
0.754899 0.827466 0.468181
0.871136 0.828753 0.469467
0.987373 0.830039 0.470754
0.061853 0.933817 0.464604
0.177853 0.935101 0.465888
0.294089 0.936387 0.467174
0.410326 0.937673 0.468460
0.526563 0.938959 0.469747
0.642800 0.940246 0.471033
0.759037 0.941532 0.472319
0.875274 0.942818 0.473605
0.991511 0.944104 0.474892
0.029248 0.024498 0.536411
0.145248 0.025782 0.537695
0.261485 0.027068 0.538981
0.377722 0.028355 0.540267
0.493959 0.029641 0.541553
0.610196 0.030927 0.542840
0.726433 0.032213 0.544126
0.842670 0.033499 0.545412
0.958907 0.034786 0.546698
0.033284 0.135756 0.540447
0.149284 0.137039 0.541731
0.265521 0.138326 0.543017
0.381758 0.139612 0.544303
0.497995 0.140898 0.545589
0.614232 0.142184 0.546876
0.730469 0.143471 0.548162
0.846706 0.144757 0.549448
0.962943 0.146043 0.550734
0.037422 0.249821 0.544585
0.153422 0.251105 0.545869
0.269659 0.252391 0.547155
0.385896 0.253677 0.548441
0.502133 0.254963 0.549727
0.618370 0.256250 0.551014
0.734607 0.257536 0.552300
0.850844 0.258822 0.553586
0.967081 0.260108 0.554872
0.041560 0.363887 0.548723
0.157560 0.365170 0.550007
0.273797 0.366456 0.551293
0.390034 0.367743 0.552579
0.506271 0.369029 0.553865
0.622508 0.370315 0.555151
0.738745 0.371601 0.556438
0.854982 0.372888 0.557724
0.971219 0.374174 0.559010
0.045698 0.477952 0.552861
0.161698 0.479236 0.554144
0.277935 0.480522 0.555431
0.394172 0.481808 0.556717
0.510409 0.483094 0.558003
0.626646 0.484381 0.559289
0.742882 0.485667 0.560576
0.859119 0.486953 0.561862
0.975356 0.488239 0.563148
0.049836 0.592017 0.556999
0.165836 0.593301 0.558282
0.282073 0.594587 0.559569
0.398309 0.595873 0.560855
0.514546 0.597160 0.562141
0.630783 0.598446 0.563427
0.747020 0.599732 0.564714
0.863257 0.601018 0.566000
0.979494 0.602305 0.567286
0.053974 0.706083 0.561137
0.169973 0.707366 0.562420
0.286210 0.708653 0.563706
0.402447 0.709939 0.564993
0.518684 0.711225 0.566279
0.634921 0.712511 0.567565
0.751158 0.713798 0.568851
0.867395 0.715084 0.570138
0.983632 0.716370 0.571424
0.058112 0.820148 0.565275
0.174111 0.821432 0.566558
0.290348 0.822718 0.567844
0.406585 0.824004 0.569131
0.522822 0.825291 0.570417
0.639059 0.826577 0.571703
0.755296 0.827863 0.572989
0.871533 0.829149 0.574276
0.987770 0.830436 0.575562
0.062250 0.934214 0.569412
0.178249 0.935497 0.570696
0.294486 0.936784 0.571982
0.410723 0.938070 0.573269
0.526960 0.939356 0.574555
0.643197 0.940642 0.575841
0.759434 0.941929 0.577127
0.875671 0.943215 0.578413
0.991908 0.944501 0.579700
0.029645 0.024895 0.641219
0.145645 0.026179 0.642503
0.261882 0.027465 0.643789
0.378119 0.028751 0.645075
0.494356 0.030038 0.646362
0.610593 0.031324 0.647648
0.726830 0.032610 0.648934
0.843066 0.033896 0.650220
0.959303 0.035182 0.651507
0.033681 0.136152 0.645255
0.149681 0.137436 0.646539
0.265918 0.138722 0.647825
0.382155 0.140009 0.649111
0.498392 0.141295 0.650398
0.614629 0.142581 0.651684
0.730866 0.143867 0.652970
0.847103 0.145154 0.654256
0.963339 0.146440 0.655543
0.037819 0.250218 0.649393
0.153819 0.251502 0.650677
0.270056 0.252788 0.651963
0.386293 0.254074 0.653249
0.502530 0.255360 0.654536
0.618766 0.256646 0.655822
0.735003 0.257933 0.657108
0.851240 0.259219 0.658394
0.967477 0.260505 0.659680
0.041957 0.364283 0.653531
0.157957 0.365567 0.654815
0.274193 0.366853 0.656101
0.390430 0.368139 0.657387
0.506667 0.369426 0.658673
0.622904 0.370712 0.659960
0.739141 0.371998 0.661246
0.855378 0.373284 0.662532
0.971615 0.374571 0.663818
0.046095 0.478349 0.657669
0.162094 0.479632 0.658953
0.278331 0.480919 0.660239
0.394568 0.482205 0.661525
0.510805 0.483491 0.662811
0.627042 0.484777 0.664098
0.743279 0.486064 0.665384
0.859516 0.487350 0.666670
0.975753 0.488636 0.667956
0.050233 0.592414 0.661807
0.166232 0.593698 0.663091
0.282469 0.594984 0.664377
0.398706 0.596270 0.665663
0.514943 0.597556 0.666949
0.631180 0.598843 0.668235
0.747417 0.600129 0.669522
0.863654 0.601415 0.670808
0.979891 0.602701 0.672094
0.054371 0.706480 0.665945
0.170370 0.707763 0.667228
0.286607 0.709049 0.668515
0.402844 0.710336 0.669801
0.519081 0.711622 0.671087
0.635318 0.712908 0.672373
0.751555 0.714194 0.673660
0.867792 0.715481 0.674946
0.984029 0.716767 0.676232
0.058509 0.820545 0.670083
0.174508 0.821829 0.671366
0.290745 0.823115 0.672653
0.406982 0.824401 0.673939
0.523219 0.825687 0.675225
0.639456 0.826974 0.676511
0.755693 0.828260 0.677798
0.871930 0.829546 0.679084
0.988167 0.830832 0.680370
0.062647 0.934610 0.674221
0.178646 0.935894 0.675504
0.294883 0.937180 0.676790
0.411120 0.938467 0.678077
0.527357 0.939753 0.679363
0.643594 0.941039 0.680649
0.759831 0.942325 0.681935
0.876068 0.943612 0.683222
0.992305 0.944898 0.684508
0.030042 0.025292 0.746028
0.146041 0.026576 0.747311
0.262278 0.027862 0.748597
0.378515 0.029148 0.749884
0.494752 0.030434 0.751170
0.610989 0.031721 0.752456
0.727226 0.033007 0.753742
0.843463 0.034293 0.755029
0.959700 0.035579 0.756315
0.034078 0.136549 0.750064
0.150078 0.137833 0.751347
0.266314 0.139119 0.752633
0.382551 0.140405 0.753920
0.498788 0.141692 0.755206
0.615025 0.142978 0.756492
0.731262 0.144264 0.757778
0.847499 0.145550 0.759065
0.963736 0.146837 0.760351
0.038216 0.250615 0.754201
0.154215 0.251898 0.755485
0.270452 0.253184 0.756771
0.386689 0.254471 0.758058
0.502926 0.255757 0.759344
0.619163 0.257043 0.760630
0.735400 0.258329 0.761916
0.851637 0.259616 0.763202
0.967874 0.260902 0.764489
0.042354 0.364680 0.758339
0.158353 0.365964 0.759623
0.274590 0.367250 0.760909
0.390827 0.368536 0.762195
0.507064 0.369822 0.763482
0.623301 0.371109 0.764768
0.739538 0.372395 0.766054
0.855775 0.373681 0.767340
0.972012 0.374967 0.768627
0.046492 0.478746 0.762477
0.162491 0.480029 0.763761
0.278728 0.481315 0.765047
0.394965 0.482602 0.766333
0.511202 0.483888 0.767620
0.627439 0.485174 0.768906
0.743676 0.486460 0.770192
0.859913 0.487747 0.771478
0.976150 0.489033 0.772765
0.050630 0.592811 0.766615
0.166629 0.594095 0.767899
0.282866 0.595381 0.769185
0.399103 0.596667 0.770471
0.515340 0.597953 0.771757
0.631577 0.599240 0.773044
0.747814 0.600526 0.774330
0.864051 0.601812 0.775616
0.980288 0.603098 0.776902
0.054767 0.706876 0.770753
0.170767 0.708160 0.772037
0.287004 0.709446 0.773323
0.403241 0.710732 0.774609
0.519478 0.712019 0.775895
0.635715 0.713305 0.777182
0.751952 0.714591 0.778468
0.868189 0.715877 0.779754
0.984426 0.717164 0.781040
0.058905 0.820942 0.774891
0.174905 0.822225 0.776175
0.291142 0.823512 0.777461
0.407379 0.824798 0.778747
0.523616 0.826084 0.780033
0.639853 0.827370 0.781319
0.756090 0.828657 0.782606
0.872327 0.829943 0.783892
0.988564 0.831229 0.785178
0.063043 0.935007 0.779029
0.179043 0.936291 0.780312
0.295280 0.937577 0.781599
0.411517 0.938863 0.782885
0.527754 0.940150 0.784171
0.643991 0.941436 0.785457
0.760228 0.942722 0.786744
0.876465 0.944008 0.788030
0.992702 0.945294 0.789316
0.030439 0.025689 0.850836
0.146438 0.026972 0.852119
0.262675 0.028259 0.853406
0.378912 0.029545 0.854692
0.495149 0.030831 0.855978
0.611386 0.032117 0.857264
0.727623 0.033404 0.858550
0.843860 0.034690 0.859837
0.960097 0.035976 0.861123
0.034475 0.136946 0.854872
0.150474 0.138230 0.856155
0.266711 0.139516 0.857442
0.382948 0.140802 0.858728
0.499185 0.142088 0.860014
0.615422 0.143375 0.861300
0.731659 0.144661 0.862587
0.847896 0.145947 0.863873
0.964133 0.147233 0.865159
0.038613 0.251011 0.859010
0.154612 0.252295 0.860293
0.270849 0.253581 0.861579
0.387086 0.254868 0.862866
0.503323 0.256154 0.864152
0.619560 0.257440 0.865438
0.735797 0.258726 0.866724
0.852034 0.260012 0.868011
0.968271 0.261299 0.869297
0.042751 0.365077 0.863148
0.158750 0.366360 0.864431
0.274987 0.367647 0.865717
0.391224 0.368933 0.867004
0.507461 0.370219 0.868290
0.623698 0.371505 0.869576
0.739935 0.372792 0.870862
0.856172 0.374078 0.872149
0.972409 0.375364 0.873435
0.046888 0.479142 0.867285
0.162888 0.480426 0.868569
0.279125 0.481712 0.869855
0.395362 0.482998 0.871142
0.511599 0.484285 0.872428
0.627836 0.485571 0.873714
0.744073 0.486857 0.875000
0.860310 0.488143 0.876287
0.976547 0.489430 0.877573
0.051026 0.593208 0.871423
0.167026 0.594491 0.872707
0.283263 0.595778 0.873993
0.399500 0.597064 0.875279
0.515737 0.598350 0.876566
0.631974 0.599636 0.877852
0.748211 0.600923 0.879138
0.864448 0.602209 0.880424
0.980685 0.603495 0.881711
0.055164 0.707273 0.875561
0.171164 0.708557 0.876845
0.287401 0.709843 0.878131
0.403638 0.711129 0.879417
0.519875 0.712415 0.880704
0.636112 0.713702 0.881990
0.752349 0.714988 0.883276
0.868586 0.716274 0.884562
0.984823 0.717560 0.885849
0.059302 0.821339 0.879699
0.175302 0.822622 0.880983
0.291539 0.823908 0.882269
0.407776 0.825195 0.883555
0.524013 0.826481 0.884842
0.640250 0.827767 0.886128
0.756486 0.829053 0.887414
0.872723 0.830340 0.888700
0.988960 0.831626 0.889986
0.063440 0.935404 0.883837
0.179440 0.936688 0.885121
0.295677 0.937974 0.886407
0.411914 0.939260 0.887693
0.528150 0.940546 0.888979
0.644387 0.941833 0.890266
0.760624 0.943119 0.891552
0.876861 0.944405 0.892838
0.993098 0.945691 0.894124
