assets/presets/luts/candlelight/lut.cube
TITLE "Candlelight"
LUT_3D_SIZE 5
0.027285 0.022535 0.017785
0.259522 0.025105 0.020355
0.491996 0.027677 0.022927
0.724469 0.030250 0.025500
0.956943 0.032822 0.028072
0.035459 0.247858 0.025959
0.267696 0.250428 0.028529
0.500169 0.253000 0.031101
0.732643 0.255573 0.033674
0.965117 0.258145 0.036246
0.043735 0.475989 0.034235
0.275971 0.478559 0.036805
0.508445 0.481131 0.039377
0.740919 0.483703 0.041950
0.973393 0.486276 0.044522
0.052011 0.704120 0.042511
0.284247 0.706689 0.045080
0.516721 0.709262 0.047653
0.749195 0.711834 0.050225
0.981669 0.714407 0.052798
0.060286 0.932250 0.050786
0.292523 0.934820 0.053356
0.524997 0.937393 0.055929
0.757471 0.939965 0.058501
0.989945 0.942538 0.061074
0.028058 0.023308 0.221986
0.260295 0.025878 0.224556
0.492769 0.028450 0.227129
0.725242 0.031023 0.229701
0.957716 0.033595 0.232274
0.036232 0.248631 0.230160
0.268469 0.251201 0.232730
0.500942 0.253773 0.235303
0.733416 0.256346 0.237875
0.965890 0.258918 0.240448
0.044508 0.476762 0.238436
0.276744 0.479332 0.241006
0.509218 0.481904 0.243579
0.741692 0.484477 0.246151
0.974166 0.487049 0.248723
0.052784 0.704893 0.246712
0.285020 0.707462 0.249282
0.517494 0.710035 0.251854
0.749968 0.712607 0.254427
0.982442 0.715180 0.256999
0.061059 0.933023 0.254988
0.293296 0.935593 0.257558
0.525770 0.938166 0.260130
0.758244 0.940738 0.262703
0.990718 0.943311 0.265275
0.028852 0.024102 0.431603
0.261088 0.026672 0.434173
0.493562 0.029244 0.436745
0.726036 0.031816 0.439318
0.958510 0.034389 0.441890
0.037026 0.249424 0.439777
0.269262 0.251994 0.442347
0.501736 0.254567 0.444919
0.734210 0.257139 0.447492
0.966684 0.259712 0.450064
0.045301 0.477555 0.448053
0.277538 0.480125 0.450622
0.510012 0.482698 0.453195
0.742486 0.485270 0.455767
0.974960 0.487843 0.458340
0.053577 0.705686 0.456328
0.285814 0.708256 0.458898
0.518288 0.710828 0.461471
0.750762 0.713401 0.464043
0.983235 0.715973 0.466616
0.061853 0.933817 0.464604
0.294089 0.936387 0.467174
0.526563 0.938959 0.469747
0.759037 0.941532 0.472319
0.991511 0.944104 0.474892
0.029645 0.024895 0.641219
0.261882 0.027465 0.643789
0.494356 0.030038 0.646362
0.726830 0.032610 0.648934
0.959303 0.035182 0.651507
0.037819 0.250218 0.649393
0.270056 0.252788 0.651963
0.502530 0.255360 0.654536
0.735003 0.257933 0.657108
0.967477 0.260505 0.659680
0.046095 0.478349 0.657669
0.278331 0.480919 0.660239
0.510805 0.483491 0.662811
0.743279 0.486064 0.665384
0.975753 0.488636 0.667956
0.054371 0.706480 0.665945
0.286607 0.709049 0.668515
0.519081 0.711622 0.671087
0.751555 0.714194 0.673660
0.984029 0.716767 0.676232
0.062647 0.934610 0.674221
0.294883 0.937180 0.676790
0.527357 0.939753 0.679363
0.759831 0.942325 0.681935
0.992305 0.944898 0.684508
0.030439 0.025689 0.850836
0.262675 0.028259 0.853406
0.495149 0.030831 0.855978
0.727623 0.033404 0.858550
0.960097 0.035976 0.861123
0.038613 0.251011 0.859010
0.270849 0.253581 0.861579
0.503323 0.256154 0.864152
0.735797 0.258726 0.866724
0.968271 0.261299 0.869297
0.046888 0.479142 0.867285
0.279125 0.481712 0.869855
0.511599 0.484285 0.872428
0.744073 0.486857 0.875000
0.976547 0.489430 0.877573
0.055164 0.707273 0.875561
0.287401 0.709843 0.878131
0.519875 0.712415 0.880704
0.752349 0.714988 0.883276
0.984823 0.717560 0.885849
0.063440 0.935404 0.883837
0.295677 0.937974 0.886407
0.528150 0.940546 0.888979
0.760624 0.943119 0.891552
0.993098 0.945691 0.894124
