assets/presets/luts/matte-dusty/lut.cube
TITLE "Matte Dusty"
LUT_3D_SIZE 17
0.115875 0.109007 0.098106
0.154319 0.112772 0.101841
0.192764 0.116537 0.105576
0.231209 0.120302 0.109310
0.269654 0.124067 0.113045
0.308099 0.127832 0.116780
0.346544 0.131597 0.120515
0.384988 0.135362 0.124249
0.423433 0.139127 0.127984
0.461878 0.142892 0.131719
0.500323 0.146657 0.135454
0.538768 0.150422 0.139188
0.577213 0.154187 0.142923
0.615657 0.157952 0.146658
0.654102 0.161717 0.150392
0.692547 0.165482 0.154127
0.730992 0.169247 0.157862
0.128769 0.156522 0.110796
0.167214 0.160287 0.114531
0.205659 0.164052 0.118266
0.244103 0.167817 0.122000
0.282548 0.171582 0.125735
0.320993 0.175347 0.129470
0.359438 0.179112 0.133205
0.397883 0.182877 0.136939
0.436328 0.186642 0.140674
0.474773 0.190407 0.144409
0.513217 0.194172 0.148144
0.551662 0.197937 0.151878
0.590107 0.201701 0.155613
0.628552 0.205466 0.159348
0.666997 0.209231 0.163082
0.705442 0.212996 0.166817
0.743886 0.216761 0.170552
0.141663 0.204036 0.123486
0.180108 0.207801 0.127221
0.218553 0.211566 0.130956
0.256998 0.215331 0.134690
0.295443 0.219096 0.138425
0.333888 0.222861 0.142160
0.372332 0.226626 0.145895
0.410777 0.230391 0.149629
0.449222 0.234156 0.153364
0.487667 0.237921 0.157099
0.526112 0.241686 0.160833
0.564557 0.245451 0.164568
0.603001 0.249216 0.168303
0.641446 0.252981 0.172038
0.679891 0.256746 0.175772
0.718336 0.260511 0.179507
0.756781 0.264276 0.183242
0.154558 0.251551 0.136176
0.193003 0.255316 0.139911
0.231448 0.259081 0.143646
0.269892 0.262846 0.147380
0.308337 0.266611 0.151115
0.346782 0.270376 0.154850
0.385227 0.274141 0.158585
0.423672 0.277906 0.162319
0.462117 0.281671 0.166054
0.500561 0.285436 0.169789
0.539006 0.289201 0.173523
0.577451 0.292966 0.177258
0.615896 0.296731 0.180993
0.654341 0.300496 0.184728
0.692786 0.304261 0.188462
0.731230 0.308026 0.192197
0.769675 0.311791 0.195932
0.167452 0.299065 0.148866
0.205897 0.302830 0.152601
0.244342 0.306595 0.156336
0.282787 0.310360 0.160070
0.321232 0.314125 0.163805
0.359676 0.317890 0.167540
0.398121 0.321655 0.171274
0.436566 0.325420 0.175009
0.475011 0.329185 0.178744
0.513456 0.332950 0.182479
0.551901 0.336715 0.186213
0.590346 0.340480 0.189948
0.628790 0.344245 0.193683
0.667235 0.348010 0.197418
0.705680 0.351775 0.201152
0.744125 0.355540 0.204887
0.782570 0.359305 0.208622
0.180347 0.346580 0.161556
0.218792 0.350345 0.165291
0.257236 0.354110 0.169026
0.295681 0.357875 0.172760
0.334126 0.361640 0.176495
0.372571 0.365405 0.180230
0.411016 0.369170 0.183964
0.449461 0.372935 0.187699
0.487905 0.376700 0.191434
0.526350 0.380465 0.195169
0.564795 0.384230 0.198903
0.603240 0.387995 0.202638
0.641685 0.391760 0.206373
0.680130 0.395525 0.210108
0.718574 0.399290 0.213842
0.757019 0.403055 0.217577
0.795464 0.406820 0.221312
0.193241 0.394094 0.174246
0.231686 0.397859 0.177981
0.270131 0.401624 0.181716
0.308576 0.405389 0.185450
0.347020 0.409154 0.189185
0.385465 0.412919 0.192920
0.423910 0.416684 0.196654
0.462355 0.420449 0.200389
0.500800 0.424214 0.204124
0.539245 0.427979 0.207859
0.577690 0.431744 0.211593
0.616134 0.435509 0.215328
0.654579 0.439274 0.219063
0.693024 0.443039 0.222798
0.731469 0.446804 0.226532
0.769914 0.450569 0.230267
0.808359 0.454334 0.234002
0.206136 0.441609 0.186936
0.244580 0.445374 0.190671
0.283025 0.449139 0.194405
0.321470 0.452904 0.198140
0.359915 0.456669 0.201875
0.398360 0.460434 0.205610
0.436805 0.464199 0.209344
0.475249 0.467964 0.213079
0.513694 0.471729 0.216814
0.552139 0.475494 0.220549
0.590584 0.479259 0.224283
0.629029 0.483024 0.228018
0.667474 0.486789 0.231753
0.705918 0.490554 0.235488
0.744363 0.494319 0.239222
0.782808 0.498084 0.242957
0.821253 0.501849 0.246692
0.219030 0.489124 0.199626
0.257475 0.492889 0.203361
0.295920 0.496654 0.207095
0.334364 0.500419 0.210830
0.372809 0.504184 0.214565
0.411254 0.507949 0.218300
0.449699 0.511714 0.222034
0.488144 0.515479 0.225769
0.526589 0.519244 0.229504
0.565033 0.523009 0.233239
0.603478 0.526774 0.236973
0.641923 0.530538 0.240708
0.680368 0.534303 0.244443
0.718813 0.538068 0.248178
0.757258 0.541833 0.251912
0.795703 0.545598 0.255647
0.834147 0.549363 0.259382
0.231924 0.536638 0.212316
0.270369 0.540403 0.216051
0.308814 0.544168 0.219785
0.347259 0.547933 0.223520
0.385704 0.551698 0.227255
0.424149 0.555463 0.230990
0.462593 0.559228 0.234724
0.501038 0.562993 0.238459
0.539483 0.566758 0.242194
0.577928 0.570523 0.245929
0.616373 0.574288 0.249663
0.654818 0.578053 0.253398
0.693262 0.581818 0.257133
0.731707 0.585583 0.260868
0.770152 0.589348 0.264602
0.808597 0.593113 0.268337
0.847042 0.596878 0.272072
0.244819 0.584153 0.225006
0.283264 0.587918 0.228741
0.321708 0.591683 0.232475
0.360153 0.595448 0.236210
0.398598 0.599213 0.239945
0.437043 0.602978 0.243680
0.475488 0.606743 0.247414
0.513933 0.610508 0.251149
0.552378 0.614273 0.254884
0.590822 0.618038 0.258619
0.629267 0.621803 0.262353
0.667712 0.625568 0.266088
0.706157 0.629333 0.269823
0.744602 0.633098 0.273557
0.783047 0.636863 0.277292
0.821491 0.640628 0.281027
0.859936 0.644393 0.284762
0.257713 0.631667 0.237696
0.296158 0.635432 0.241431
0.334603 0.639197 0.245165
0.373048 0.642962 0.248900
0.411493 0.646727 0.252635
0.449937 0.650492 0.256370
0.488382 0.654257 0.260104
0.526827 0.658022 0.263839
0.565272 0.661787 0.267574
0.603717 0.665552 0.271309
0.642162 0.669317 0.275043
0.680606 0.673082 0.278778
0.719051 0.676847 0.282513
0.757496 0.680612 0.286247
0.795941 0.684377 0.289982
0.834386 0.688142 0.293717
0.872831 0.691907 0.297452
0.270608 0.679182 0.250386
0.309052 0.682947 0.254121
0.347497 0.686712 0.257855
0.385942 0.690477 0.261590
0.424387 0.694242 0.265325
0.462832 0.698007 0.269060
0.501277 0.701772 0.272794
0.539722 0.705537 0.276529
0.578166 0.709302 0.280264
0.616611 0.713067 0.283998
0.655056 0.716832 0.287733
0.693501 0.720597 0.291468
0.731946 0.724362 0.295203
0.770391 0.728127 0.298937
0.808835 0.731892 0.302672
0.847280 0.735657 0.306407
0.885725 0.739422 0.310142
0.283502 0.726696 0.263076
0.321947 0.730461 0.266811
0.360392 0.734226 0.270545
0.398837 0.737991 0.274280
0.437281 0.741756 0.278015
0.475726 0.745521 0.281750
0.514171 0.749286 0.285484
0.552616 0.753051 0.289219
0.591061 0.756816 0.292954
0.629506 0.760581 0.296688
0.667951 0.764346 0.300423
0.706395 0.768111 0.304158
0.744840 0.771876 0.307893
0.783285 0.775641 0.311627
0.821730 0.779406 0.315362
0.860175 0.783171 0.319097
0.898620 0.786936 0.322832
0.296396 0.774211 0.275766
0.334841 0.777976 0.279501
0.373286 0.781741 0.283235
0.411731 0.785506 0.286970
0.450176 0.789271 0.290705
0.488621 0.793036 0.294440
0.527066 0.796801 0.298174
0.565510 0.800566 0.301909
0.603955 0.804331 0.305644
0.642400 0.808096 0.309378
0.680845 0.811861 0.313113
0.719290 0.815626 0.316848
0.757735 0.819391 0.320583
0.796179 0.823156 0.324317
0.834624 0.826921 0.328052
0.873069 0.830686 0.331787
0.911514 0.834451 0.335522
0.309291 0.821726 0.288456
0.347736 0.825491 0.292191
0.386181 0.829256 0.295925
0.424625 0.833021 0.299660
0.463070 0.836786 0.303395
0.501515 0.840551 0.307130
0.539960 0.844316 0.310864
0.578405 0.848081 0.314599
0.616850 0.851846 0.318334
0.655294 0.855610 0.322068
0.693739 0.859375 0.325803
0.732184 0.863140 0.329538
0.770629 0.866905 0.333273
0.809074 0.870670 0.337007
0.847519 0.874435 0.340742
0.885964 0.878200 0.344477
0.924408 0.881965 0.348212
0.322185 0.869240 0.301146
0.360630 0.873005 0.304881
0.399075 0.876770 0.308615
0.437520 0.880535 0.312350
0.475965 0.884300 0.316085
0.514410 0.888065 0.319819
0.552854 0.891830 0.323554
0.591299 0.895595 0.327289
0.629744 0.899360 0.331024
0.668189 0.903125 0.334758
0.706634 0.906890 0.338493
0.745079 0.910655 0.342228
0.783523 0.914420 0.345963
0.821968 0.918185 0.349697
0.860413 0.921950 0.353432
0.898858 0.925715 0.357167
0.937303 0.929480 0.360902
0.117199 0.110321 0.134451
0.155644 0.114086 0.138186
0.194089 0.117851 0.141921
0.232533 0.121616 0.145655
0.270978 0.125381 0.149390
0.309423 0.129146 0.153125
0.347868 0.132911 0.156860
0.386313 0.136676 0.160594
0.424758 0.140441 0.164329
0.463202 0.144206 0.168064
0.501647 0.147971 0.171799
0.540092 0.151736 0.175533
0.578537 0.155501 0.179268
0.616982 0.159266 0.183003
0.655427 0.163031 0.186738
0.693871 0.166796 0.190472
0.732316 0.170561 0.194207
0.130093 0.157836 0.147141
0.168538 0.161601 0.150876
0.206983 0.165366 0.154611
0.245428 0.169131 0.158345
0.283873 0.172896 0.162080
0.322318 0.176660 0.165815
0.360762 0.180425 0.169550
0.399207 0.184190 0.173284
0.437652 0.187955 0.177019
0.476097 0.191720 0.180754
0.514542 0.195485 0.184489
0.552987 0.199250 0.188223
0.591431 0.203015 0.191958
0.629876 0.206780 0.195693
0.668321 0.210545 0.199428
0.706766 0.214310 0.203162
0.745211 0.218075 0.206897
0.142988 0.205350 0.159831
0.181433 0.209115 0.163566
0.219877 0.212880 0.167301
0.258322 0.216645 0.171035
0.296767 0.220410 0.174770
0.335212 0.224175 0.178505
0.373657 0.227940 0.182240
0.412102 0.231705 0.185974
0.450546 0.235470 0.189709
0.488991 0.239235 0.193444
0.527436 0.243000 0.197179
0.565881 0.246765 0.200913
0.604326 0.250530 0.204648
0.642771 0.254295 0.208383
0.681216 0.258060 0.212117
0.719660 0.261825 0.215852
0.758105 0.265590 0.219587
0.155882 0.252865 0.172521
0.194327 0.256630 0.176256
0.232772 0.260395 0.179991
0.271217 0.264160 0.183725
0.309662 0.267925 0.187460
0.348106 0.271690 0.191195
0.386551 0.275455 0.194930
0.424996 0.279220 0.198664
0.463441 0.282985 0.202399
0.501886 0.286750 0.206134
0.540331 0.290515 0.209869
0.578775 0.294280 0.213603
0.617220 0.298045 0.217338
0.655665 0.301810 0.221073
0.694110 0.305575 0.224807
0.732555 0.309339 0.228542
0.771000 0.313104 0.232277
0.168777 0.300379 0.185211
0.207221 0.304144 0.188946
0.245666 0.307909 0.192681
0.284111 0.311674 0.196415
0.322556 0.315439 0.200150
0.361001 0.319204 0.203885
0.399446 0.322969 0.207620
0.437890 0.326734 0.211354
0.476335 0.330499 0.215089
0.514780 0.334264 0.218824
0.553225 0.338029 0.222558
0.591670 0.341794 0.226293
0.630115 0.345559 0.230028
0.668559 0.349324 0.233763
0.707004 0.353089 0.237497
0.745449 0.356854 0.241232
0.783894 0.360619 0.244967
0.181671 0.347894 0.197901
0.220116 0.351659 0.201636
0.258561 0.355424 0.205371
0.297006 0.359189 0.209105
0.335450 0.362954 0.212840
0.373895 0.366719 0.216575
0.412340 0.370484 0.220310
0.450785 0.374249 0.224044
0.489230 0.378014 0.227779
0.527675 0.381779 0.231514
0.566119 0.385544 0.235248
0.604564 0.389309 0.238983
0.643009 0.393074 0.242718
0.681454 0.396839 0.246453
0.719899 0.400604 0.250187
0.758344 0.404369 0.253922
0.796788 0.408134 0.257657
0.194565 0.395408 0.210591
0.233010 0.399173 0.214326
0.271455 0.402938 0.218061
0.309900 0.406703 0.221795
0.348345 0.410468 0.225530
0.386790 0.414233 0.229265
0.425234 0.417998 0.233000
0.463679 0.421763 0.236734
0.502124 0.425528 0.240469
0.540569 0.429293 0.244204
0.579014 0.433058 0.247938
0.617459 0.436823 0.251673
0.655904 0.440588 0.255408
0.694348 0.444353 0.259143
0.732793 0.448118 0.262877
0.771238 0.451883 0.266612
0.809683 0.455648 0.270347
0.207460 0.442923 0.223281
0.245905 0.446688 0.227016
0.284350 0.450453 0.230751
0.322794 0.454218 0.234485
0.361239 0.457983 0.238220
0.399684 0.461748 0.241955
0.438129 0.465513 0.245689
0.476574 0.469278 0.249424
0.515019 0.473043 0.253159
0.553463 0.476808 0.256894
0.591908 0.480573 0.260628
0.630353 0.484338 0.264363
0.668798 0.488103 0.268098
0.707243 0.491868 0.271833
0.745688 0.495633 0.275567
0.784132 0.499398 0.279302
0.822577 0.503163 0.283037
0.220354 0.490438 0.235971
0.258799 0.494203 0.239706
0.297244 0.497968 0.243441
0.335689 0.501732 0.247175
0.374134 0.505497 0.250910
0.412578 0.509262 0.254645
0.451023 0.513027 0.258379
0.489468 0.516792 0.262114
0.527913 0.520557 0.265849
0.566358 0.524322 0.269584
0.604803 0.528087 0.273318
0.643248 0.531852 0.277053
0.681692 0.535617 0.280788
0.720137 0.539382 0.284523
0.758582 0.543147 0.288257
0.797027 0.546912 0.291992
0.835472 0.550677 0.295727
0.233249 0.537952 0.248661
0.271694 0.541717 0.252396
0.310138 0.545482 0.256131
0.348583 0.549247 0.259865
0.387028 0.553012 0.263600
0.425473 0.556777 0.267335
0.463918 0.560542 0.271069
0.502363 0.564307 0.274804
0.540807 0.568072 0.278539
0.579252 0.571837 0.282274
0.617697 0.575602 0.286008
0.656142 0.579367 0.289743
0.694587 0.583132 0.293478
0.733032 0.586897 0.297213
0.771477 0.590662 0.300947
0.809921 0.594427 0.304682
0.848366 0.598192 0.308417
0.246143 0.585467 0.261351
0.284588 0.589232 0.265086
0.323033 0.592997 0.268820
0.361478 0.596762 0.272555
0.399922 0.600527 0.276290
0.438367 0.604292 0.280025
0.476812 0.608057 0.283759
0.515257 0.611822 0.287494
0.553702 0.615587 0.291229
0.592147 0.619352 0.294964
0.630592 0.623117 0.298698
0.669036 0.626882 0.302433
0.707481 0.630647 0.306168
0.745926 0.634412 0.309903
0.784371 0.638177 0.313637
0.822816 0.641941 0.317372
0.861261 0.645706 0.321107
0.259038 0.632981 0.274041
0.297482 0.636746 0.277776
0.335927 0.640511 0.281510
0.374372 0.644276 0.285245
0.412817 0.648041 0.288980
0.451262 0.651806 0.292715
0.489707 0.655571 0.296449
0.528151 0.659336 0.300184
0.566596 0.663101 0.303919
0.605041 0.666866 0.307654
0.643486 0.670631 0.311388
0.681931 0.674396 0.315123
0.720376 0.678161 0.318858
0.758820 0.681926 0.322593
0.797265 0.685691 0.326327
0.835710 0.689456 0.330062
0.874155 0.693221 0.333797
0.271932 0.680496 0.286731
0.310377 0.684261 0.290466
0.348822 0.688026 0.294200
0.387267 0.691791 0.297935
0.425711 0.695556 0.301670
0.464156 0.699321 0.305405
0.502601 0.703086 0.309139
0.541046 0.706851 0.312874
0.579491 0.710616 0.316609
0.617936 0.714381 0.320344
0.656380 0.718146 0.324078
0.694825 0.721911 0.327813
0.733270 0.725676 0.331548
0.771715 0.729441 0.335282
0.810160 0.733206 0.339017
0.848605 0.736971 0.342752
0.887049 0.740736 0.346487
0.284826 0.728010 0.299421
0.323271 0.731775 0.303156
0.361716 0.735540 0.306890
0.400161 0.739305 0.310625
0.438606 0.743070 0.314360
0.477051 0.746835 0.318095
0.515495 0.750600 0.321829
0.553940 0.754365 0.325564
0.592385 0.758130 0.329299
0.630830 0.761895 0.333034
0.669275 0.765660 0.336768
0.707720 0.769425 0.340503
0.746165 0.773190 0.344238
0.784609 0.776955 0.347972
0.823054 0.780720 0.351707
0.861499 0.784485 0.355442
0.899944 0.788250 0.359177
0.297721 0.775525 0.312111
0.336166 0.779290 0.315846
0.374611 0.783055 0.319580
0.413055 0.786820 0.323315
0.451500 0.790585 0.327050
0.489945 0.794350 0.330785
0.528390 0.798115 0.334519
0.566835 0.801880 0.338254
0.605280 0.805645 0.341989
0.643724 0.809410 0.345724
0.682169 0.813175 0.349458
0.720614 0.816940 0.353193
0.759059 0.820705 0.356928
0.797504 0.824470 0.360662
0.835949 0.828235 0.364397
0.874393 0.832000 0.368132
0.912838 0.835765 0.371867
0.310615 0.823040 0.324801
0.349060 0.826805 0.328536
0.387505 0.830570 0.332270
0.425950 0.834334 0.336005
0.464395 0.838099 0.339740
0.502839 0.841864 0.343475
0.541284 0.845629 0.347209
0.579729 0.849394 0.350944
0.618174 0.853159 0.354679
0.656619 0.856924 0.358413
0.695064 0.860689 0.362148
0.733509 0.864454 0.365883
0.771953 0.868219 0.369618
0.810398 0.871984 0.373352
0.848843 0.875749 0.377087
0.887288 0.879514 0.380822
0.925733 0.883279 0.384557
0.323510 0.870554 0.337491
0.361955 0.874319 0.341226
0.400399 0.878084 0.344960
0.438844 0.881849 0.348695
0.477289 0.885614 0.352430
0.515734 0.889379 0.356165
0.554179 0.893144 0.359899
0.592624 0.896909 0.363634
0.631068 0.900674 0.367369
0.669513 0.904439 0.371103
0.707958 0.908204 0.374838
0.746403 0.911969 0.378573
0.784848 0.915734 0.382308
0.823293 0.919499 0.386042
0.861737 0.923264 0.389777
0.900182 0.927029 0.393512
0.938627 0.930794 0.397247
0.118523 0.111635 0.170796
0.156968 0.115400 0.174531
0.195413 0.119165 0.178266
0.233858 0.122930 0.182001
0.272303 0.126695 0.185735
0.310747 0.130460 0.189470
0.349192 0.134225 0.193205
0.387637 0.137990 0.196939
0.426082 0.141755 0.200674
0.464527 0.145520 0.204409
0.502972 0.149285 0.208144
0.541416 0.153050 0.211878
0.579861 0.156815 0.215613
0.618306 0.160580 0.219348
0.656751 0.164345 0.223083
0.695196 0.168110 0.226817
0.733641 0.171875 0.230552
0.131418 0.159149 0.183486
0.169862 0.162914 0.187221
0.208307 0.166679 0.190956
0.246752 0.170444 0.194691
0.285197 0.174209 0.198425
0.323642 0.177974 0.202160
0.362087 0.181739 0.205895
0.400532 0.185504 0.209629
0.438976 0.189269 0.213364
0.477421 0.193034 0.217099
0.515866 0.196799 0.220834
0.554311 0.200564 0.224568
0.592756 0.204329 0.228303
0.631201 0.208094 0.232038
0.669645 0.211859 0.235773
0.708090 0.215624 0.239507
0.746535 0.219389 0.243242
0.144312 0.206664 0.196176
0.182757 0.210429 0.199911
0.221202 0.214194 0.203646
0.259647 0.217959 0.207380
0.298091 0.221724 0.211115
0.336536 0.225489 0.214850
0.374981 0.229254 0.218585
0.413426 0.233019 0.222319
0.451871 0.236784 0.226054
0.490316 0.240549 0.229789
0.528760 0.244314 0.233524
0.567205 0.248079 0.237258
0.605650 0.251844 0.240993
0.644095 0.255609 0.244728
0.682540 0.259374 0.248463
0.720985 0.263139 0.252197
0.759430 0.266904 0.255932
0.157206 0.254179 0.208866
0.195651 0.257944 0.212601
0.234096 0.261709 0.216336
0.272541 0.265474 0.220070
0.310986 0.269239 0.223805
0.349431 0.273004 0.227540
0.387876 0.276769 0.231275
0.426320 0.280533 0.235009
0.464765 0.284298 0.238744
0.503210 0.288063 0.242479
0.541655 0.291828 0.246214
0.580100 0.295593 0.249948
0.618545 0.299358 0.253683
0.656989 0.303123 0.257418
0.695434 0.306888 0.261153
0.733879 0.310653 0.264887
0.772324 0.314418 0.268622
0.170101 0.301693 0.221556
0.208546 0.305458 0.225291
0.246991 0.309223 0.229026
0.285435 0.312988 0.232760
0.323880 0.316753 0.236495
0.362325 0.320518 0.240230
0.400770 0.324283 0.243965
0.439215 0.328048 0.247699
0.477660 0.331813 0.251434
0.516104 0.335578 0.255169
0.554549 0.339343 0.258904
0.592994 0.343108 0.262638
0.631439 0.346873 0.266373
0.669884 0.350638 0.270108
0.708329 0.354403 0.273842
0.746774 0.358168 0.277577
0.785218 0.361933 0.281312
0.182995 0.349208 0.234246
0.221440 0.352973 0.237981
0.259885 0.356738 0.241716
0.298330 0.360503 0.245450
0.336775 0.364268 0.249185
0.375220 0.368033 0.252920
0.413664 0.371798 0.256655
0.452109 0.375563 0.260389
0.490554 0.379328 0.264124
0.528999 0.383093 0.267859
0.567444 0.386858 0.271594
0.605889 0.390623 0.275328
0.644333 0.394388 0.279063
0.682778 0.398153 0.282798
0.721223 0.401918 0.286532
0.759668 0.405683 0.290267
0.798113 0.409447 0.294002
0.195890 0.396722 0.246936
0.234335 0.400487 0.250671
0.272779 0.404252 0.254406
0.311224 0.408017 0.258140
0.349669 0.411782 0.261875
0.388114 0.415547 0.265610
0.426559 0.419312 0.269345
0.465004 0.423077 0.273079
0.503448 0.426842 0.276814
0.541893 0.430607 0.280549
0.580338 0.434372 0.284284
0.618783 0.438137 0.288018
0.657228 0.441902 0.291753
0.695673 0.445667 0.295488
0.734118 0.449432 0.299222
0.772562 0.453197 0.302957
0.811007 0.456962 0.306692
0.208784 0.444237 0.259626
0.247229 0.448002 0.263361
0.285674 0.451767 0.267096
0.324119 0.455532 0.270830
0.362564 0.459297 0.274565
0.401008 0.463062 0.278300
0.439453 0.466827 0.282035
0.477898 0.470592 0.285769
0.516343 0.474357 0.289504
0.554788 0.478122 0.293239
0.593233 0.481887 0.296973
0.631677 0.485652 0.300708
0.670122 0.489417 0.304443
0.708567 0.493182 0.308178
0.747012 0.496947 0.311912
0.785457 0.500712 0.315647
0.823902 0.504477 0.319382
0.221679 0.491751 0.272316
0.260123 0.495516 0.276051
0.298568 0.499281 0.279786
0.337013 0.503046 0.283520
0.375458 0.506811 0.287255
0.413903 0.510576 0.290990
0.452348 0.514341 0.294725
0.490793 0.518106 0.298459
0.529237 0.521871 0.302194
0.567682 0.525636 0.305929
0.606127 0.529401 0.309663
0.644572 0.533166 0.313398
0.683017 0.536931 0.317133
0.721462 0.540696 0.320868
0.759906 0.544461 0.324602
0.798351 0.548226 0.328337
0.836796 0.551991 0.332072
0.234573 0.539266 0.285006
0.273018 0.543031 0.288741
0.311463 0.546796 0.292476
0.349908 0.550561 0.296210
0.388352 0.554326 0.299945
0.426797 0.558091 0.303680
0.465242 0.561856 0.307415
0.503687 0.565621 0.311149
0.542132 0.569386 0.314884
0.580577 0.573151 0.318619
0.619021 0.576916 0.322353
0.657466 0.580681 0.326088
0.695911 0.584446 0.329823
0.734356 0.588211 0.333558
0.772801 0.591976 0.337292
0.811246 0.595741 0.341027
0.849690 0.599506 0.344762
0.247467 0.586781 0.297696
0.285912 0.590546 0.301431
0.324357 0.594311 0.305166
0.362802 0.598076 0.308900
0.401247 0.601840 0.312635
0.439692 0.605605 0.316370
0.478137 0.609370 0.320104
0.516581 0.613135 0.323839
0.555026 0.616900 0.327574
0.593471 0.620665 0.331309
0.631916 0.624430 0.335043
0.670361 0.628195 0.338778
0.708806 0.631960 0.342513
0.747250 0.635725 0.346248
0.785695 0.639490 0.349982
0.824140 0.643255 0.353717
0.862585 0.647020 0.357452
0.260362 0.634295 0.310386
0.298807 0.638060 0.314121
0.337252 0.641825 0.317856
0.375696 0.645590 0.321590
0.414141 0.649355 0.325325
0.452586 0.653120 0.329060
0.491031 0.656885 0.332794
0.529476 0.660650 0.336529
0.567921 0.664415 0.340264
0.606365 0.668180 0.343999
0.644810 0.671945 0.347733
0.683255 0.675710 0.351468
0.721700 0.679475 0.355203
0.760145 0.683240 0.358938
0.798590 0.687005 0.362672
0.837035 0.690770 0.366407
0.875479 0.694535 0.370142
0.273256 0.681810 0.323076
0.311701 0.685575 0.326811
0.350146 0.689340 0.330545
0.388591 0.693105 0.334280
0.427036 0.696870 0.338015
0.465481 0.700635 0.341750
0.503925 0.704400 0.345484
0.542370 0.708165 0.349219
0.580815 0.711930 0.352954
0.619260 0.715695 0.356689
0.657705 0.719460 0.360423
0.696150 0.723225 0.364158
0.734594 0.726990 0.367893
0.773039 0.730755 0.371628
0.811484 0.734519 0.375362
0.849929 0.738284 0.379097
0.888374 0.742049 0.382832
0.286151 0.729324 0.335766
0.324596 0.733089 0.339501
0.363040 0.736854 0.343235
0.401485 0.740619 0.346970
0.439930 0.744384 0.350705
0.478375 0.748149 0.354440
0.516820 0.751914 0.358174
0.555265 0.755679 0.361909
0.593709 0.759444 0.365644
0.632154 0.763209 0.369379
0.670599 0.766974 0.373113
0.709044 0.770739 0.376848
0.747489 0.774504 0.380583
0.785934 0.778269 0.384318
0.824378 0.782034 0.388052
0.862823 0.785799 0.391787
0.901268 0.789564 0.395522
0.299045 0.776839 0.348456
0.337490 0.780604 0.352191
0.375935 0.784369 0.355925
0.414380 0.788134 0.359660
0.452825 0.791899 0.363395
0.491269 0.795664 0.367130
0.529714 0.799429 0.370864
0.568159 0.803194 0.374599
0.606604 0.806959 0.378334
0.645049 0.810724 0.382069
0.683494 0.814489 0.385803
0.721938 0.818254 0.389538
0.760383 0.822019 0.393273
0.798828 0.825784 0.397007
0.837273 0.829549 0.400742
0.875718 0.833314 0.404477
0.914163 0.837079 0.408212
0.311940 0.824353 0.361146
0.350384 0.828118 0.364881
0.388829 0.831883 0.368615
0.427274 0.835648 0.372350
0.465719 0.839413 0.376085
0.504164 0.843178 0.379820
0.542609 0.846943 0.383554
0.581053 0.850708 0.387289
0.619498 0.854473 0.391024
0.657943 0.858238 0.394759
0.696388 0.862003 0.398493
0.734833 0.865768 0.402228
0.773278 0.869533 0.405963
0.811723 0.873298 0.409697
0.850167 0.877063 0.413432
0.888612 0.880828 0.417167
0.927057 0.884593 0.420902
0.324834 0.871868 0.373836
0.363279 0.875633 0.377571
0.401724 0.879398 0.381305
0.440169 0.883163 0.385040
0.478613 0.886928 0.388775
0.517058 0.890693 0.392510
0.555503 0.894458 0.396244
0.593948 0.898223 0.399979
0.632393 0.901988 0.403714
0.670838 0.905753 0.407449
0.709282 0.909518 0.411183
0.747727 0.913283 0.414918
0.786172 0.917048 0.418653
0.824617 0.920813 0.422387
0.863062 0.924578 0.426122
0.901507 0.928343 0.429857
0.939951 0.932108 0.433592
0.119848 0.112949 0.207141
0.158292 0.116714 0.210876
0.196737 0.120479 0.214611
0.235182 0.124244 0.218346
0.273627 0.128009 0.222080
0.312072 0.131774 0.225815
0.350517 0.135539 0.229550
0.388961 0.139304 0.233285
0.427406 0.143069 0.237019
0.465851 0.146834 0.240754
0.504296 0.150599 0.244489
0.542741 0.154364 0.248223
0.581186 0.158129 0.251958
0.619630 0.161894 0.255693
0.658075 0.165659 0.259428
0.696520 0.169424 0.263162
0.734965 0.173189 0.266897
0.132742 0.160463 0.219831
0.171187 0.164228 0.223566
0.209632 0.167993 0.227301
