assets/presets/luts/matte-dusty/lut.cube
TITLE "Matte Dusty"
LUT_3D_SIZE 5
0.115875 0.109007 0.098106
0.269654 0.124067 0.113045
0.423433 0.139127 0.127984
0.577213 0.154187 0.142923
0.730992 0.169247 0.157862
0.167452 0.299065 0.148866
0.321232 0.314125 0.163805
0.475011 0.329185 0.178744
0.628790 0.344245 0.193683
0.782570 0.359305 0.208622
0.219030 0.489124 0.199626
0.372809 0.504184 0.214565
0.526589 0.519244 0.229504
0.680368 0.534303 0.244443
0.834147 0.549363 0.259382
0.270608 0.679182 0.250386
0.424387 0.694242 0.265325
0.578166 0.709302 0.280264
0.731946 0.724362 0.295203
0.885725 0.739422 0.310142
0.322185 0.869240 0.301146
0.475965 0.884300 0.316085
0.629744 0.899360 0.331024
0.783523 0.914420 0.345963
0.937303 0.929480 0.360902
0.121172 0.114263 0.243486
0.274951 0.129323 0.258425
0.428731 0.144383 0.273364
0.582510 0.159443 0.288303
0.736289 0.174502 0.303242
0.172750 0.304321 0.294246
0.326529 0.319381 0.309185
0.480308 0.334441 0.324124
0.634088 0.349501 0.339063
0.787867 0.364561 0.354002
0.224327 0.494379 0.345006
0.378107 0.509439 0.359945
0.531886 0.524499 0.374884
0.685665 0.539559 0.389823
0.839445 0.554619 0.404762
0.275905 0.684438 0.395766
0.429684 0.699497 0.410705
0.583464 0.714557 0.425644
0.737243 0.729617 0.440583
0.891022 0.744677 0.455522
0.327483 0.874496 0.446526
0.481262 0.889556 0.461465
0.635041 0.904616 0.476404
0.788821 0.919676 0.491343
0.942600 0.934736 0.506282
0.126469 0.119518 0.388867
0.280249 0.134578 0.403806
0.434028 0.149638 0.418745
0.587807 0.164698 0.433684
0.741587 0.179758 0.448622
0.178047 0.309577 0.439627
0.331826 0.324636 0.454566
0.485606 0.339696 0.469504
0.639385 0.354756 0.484443
0.793164 0.369816 0.499382
0.229625 0.499635 0.490387
0.383404 0.514695 0.505325
0.537183 0.529755 0.520264
0.690963 0.544815 0.535203
0.844742 0.559875 0.550142
0.281202 0.689693 0.541146
0.434982 0.704753 0.556085
0.588761 0.719813 0.571024
0.742540 0.734873 0.585963
0.896320 0.749933 0.600902
0.332780 0.879751 0.591906
0.486559 0.894811 0.606845
0.640339 0.909871 0.621784
0.794118 0.924931 0.636723
0.947897 0.939991 0.651662
0.131767 0.124774 0.534247
0.285546 0.139834 0.549186
0.439325 0.154894 0.564125
0.593105 0.169954 0.579064
0.746884 0.185014 0.594003
0.183344 0.314832 0.585007
0.337124 0.329892 0.599946
0.490903 0.344952 0.614885
0.644682 0.360012 0.629824
0.798462 0.375072 0.644763
0.234922 0.504890 0.635767
0.388701 0.519950 0.650706
0.542481 0.535010 0.665645
0.696260 0.550070 0.680584
0.850039 0.565130 0.695522
0.286500 0.694949 0.686527
0.440279 0.710009 0.701466
0.594058 0.725069 0.716405
0.747838 0.740129 0.731343
0.901617 0.755188 0.746282
0.338077 0.885007 0.737287
0.491857 0.900067 0.752226
0.645636 0.915127 0.767164
0.799415 0.930187 0.782103
0.953195 0.945247 0.797042
0.137064 0.130029 0.679627
0.290843 0.145089 0.694566
0.444623 0.160149 0.709505
0.598402 0.175209 0.724444
0.752181 0.190269 0.739383
0.188642 0.320088 0.730387
0.342421 0.335148 0.745326
0.496200 0.350208 0.760265
0.649980 0.365268 0.775204
0.803759 0.380327 0.790143
0.240219 0.510146 0.781147
0.393999 0.525206 0.796086
0.547778 0.540266 0.811025
0.701557 0.555326 0.825964
0.855337 0.570386 0.840903
0.291797 0.700204 0.831907
0.445576 0.715264 0.846846
0.599356 0.730324 0.861785
0.753135 0.745384 0.876724
0.906915 0.760444 0.891663
0.343375 0.890263 0.882667
0.497154 0.905322 0.897606
0.650934 0.920382 0.912545
0.804713 0.935442 0.927484
0.958492 0.950502 0.942423
