assets/presets/luts/matte-dusty/lut.cube
TITLE "Matte Dusty"
LUT_3D_SIZE 9
0.115875 0.109007 0.098106
0.192764 0.116537 0.105576
0.269654 0.124067 0.113045
0.346544 0.131597 0.120515
0.423433 0.139127 0.127984
0.500323 0.146657 0.135454
0.577213 0.154187 0.142923
0.654102 0.161717 0.150392
0.730992 0.169247 0.157862
0.141663 0.204036 0.123486
0.218553 0.211566 0.130956
0.295443 0.219096 0.138425
0.372332 0.226626 0.145895
0.449222 0.234156 0.153364
0.526112 0.241686 0.160833
0.603001 0.249216 0.168303
0.679891 0.256746 0.175772
0.756781 0.264276 0.183242
0.167452 0.299065 0.148866
0.244342 0.306595 0.156336
0.321232 0.314125 0.163805
0.398121 0.321655 0.171274
0.475011 0.329185 0.178744
0.551901 0.336715 0.186213
0.628790 0.344245 0.193683
0.705680 0.351775 0.201152
0.782570 0.359305 0.208622
0.193241 0.394094 0.174246
0.270131 0.401624 0.181716
0.347020 0.409154 0.189185
0.423910 0.416684 0.196654
0.500800 0.424214 0.204124
0.577690 0.431744 0.211593
0.654579 0.439274 0.219063
0.731469 0.446804 0.226532
0.808359 0.454334 0.234002
0.219030 0.489124 0.199626
0.295920 0.496654 0.207095
0.372809 0.504184 0.214565
0.449699 0.511714 0.222034
0.526589 0.519244 0.229504
0.603478 0.526774 0.236973
0.680368 0.534303 0.244443
0.757258 0.541833 0.251912
0.834147 0.549363 0.259382
0.244819 0.584153 0.225006
0.321708 0.591683 0.232475
0.398598 0.599213 0.239945
0.475488 0.606743 0.247414
0.552378 0.614273 0.254884
0.629267 0.621803 0.262353
0.706157 0.629333 0.269823
0.783047 0.636863 0.277292
0.859936 0.644393 0.284762
0.270608 0.679182 0.250386
0.347497 0.686712 0.257855
0.424387 0.694242 0.265325
0.501277 0.701772 0.272794
0.578166 0.709302 0.280264
0.655056 0.716832 0.287733
0.731946 0.724362 0.295203
0.808835 0.731892 0.302672
0.885725 0.739422 0.310142
0.296396 0.774211 0.275766
0.373286 0.781741 0.283235
0.450176 0.789271 0.290705
0.527066 0.796801 0.298174
0.603955 0.804331 0.305644
0.680845 0.811861 0.313113
0.757735 0.819391 0.320583
0.834624 0.826921 0.328052
0.911514 0.834451 0.335522
0.322185 0.869240 0.301146
0.399075 0.876770 0.308615
0.475965 0.884300 0.316085
0.552854 0.891830 0.323554
0.629744 0.899360 0.331024
0.706634 0.906890 0.338493
0.783523 0.914420 0.345963
0.860413 0.921950 0.353432
0.937303 0.929480 0.360902
0.118523 0.111635 0.170796
0.195413 0.119165 0.178266
0.272303 0.126695 0.185735
0.349192 0.134225 0.193205
0.426082 0.141755 0.200674
0.502972 0.149285 0.208144
0.579861 0.156815 0.215613
0.656751 0.164345 0.223083
0.733641 0.171875 0.230552
0.144312 0.206664 0.196176
0.221202 0.214194 0.203646
0.298091 0.221724 0.211115
0.374981 0.229254 0.218585
0.451871 0.236784 0.226054
0.528760 0.244314 0.233524
0.605650 0.251844 0.240993
0.682540 0.259374 0.248463
0.759430 0.266904 0.255932
0.170101 0.301693 0.221556
0.246991 0.309223 0.229026
0.323880 0.316753 0.236495
0.400770 0.324283 0.243965
0.477660 0.331813 0.251434
0.554549 0.339343 0.258904
0.631439 0.346873 0.266373
0.708329 0.354403 0.273842
0.785218 0.361933 0.281312
0.195890 0.396722 0.246936
0.272779 0.404252 0.254406
0.349669 0.411782 0.261875
0.426559 0.419312 0.269345
0.503448 0.426842 0.276814
0.580338 0.434372 0.284284
0.657228 0.441902 0.291753
0.734118 0.449432 0.299222
0.811007 0.456962 0.306692
0.221679 0.491751 0.272316
0.298568 0.499281 0.279786
0.375458 0.506811 0.287255
0.452348 0.514341 0.294725
0.529237 0.521871 0.302194
0.606127 0.529401 0.309663
0.683017 0.536931 0.317133
0.759906 0.544461 0.324602
0.836796 0.551991 0.332072
0.247467 0.586781 0.297696
0.324357 0.594311 0.305166
0.401247 0.601840 0.312635
0.478137 0.609370 0.320104
0.555026 0.616900 0.327574
0.631916 0.624430 0.335043
0.708806 0.631960 0.342513
0.785695 0.639490 0.349982
0.862585 0.647020 0.357452
0.273256 0.681810 0.323076
0.350146 0.689340 0.330545
0.427036 0.696870 0.338015
0.503925 0.704400 0.345484
0.580815 0.711930 0.352954
0.657705 0.719460 0.360423
0.734594 0.726990 0.367893
0.811484 0.734519 0.375362
0.888374 0.742049 0.382832
0.299045 0.776839 0.348456
0.375935 0.784369 0.355925
0.452825 0.791899 0.363395
0.529714 0.799429 0.370864
0.606604 0.806959 0.378334
0.683494 0.814489 0.385803
0.760383 0.822019 0.393273
0.837273 0.829549 0.400742
0.914163 0.837079 0.408212
0.324834 0.871868 0.373836
0.401724 0.879398 0.381305
0.478613 0.886928 0.388775
0.555503 0.894458 0.396244
0.632393 0.901988 0.403714
0.709282 0.909518 0.411183
0.786172 0.917048 0.418653
0.863062 0.924578 0.426122
0.939951 0.932108 0.433592
0.121172 0.114263 0.243486
0.198062 0.121793 0.250956
0.274951 0.129323 0.258425
0.351841 0.136853 0.265895
0.428731 0.144383 0.273364
0.505620 0.151913 0.280834
0.582510 0.159443 0.288303
0.659400 0.166972 0.295773
0.736289 0.174502 0.303242
0.146961 0.209292 0.268866
0.223850 0.216822 0.276336
0.300740 0.224352 0.283805
0.377630 0.231882 0.291275
0.454519 0.239412 0.298744
0.531409 0.246942 0.306214
0.608299 0.254472 0.313683
0.685189 0.262002 0.321153
0.762078 0.269532 0.328622
0.172750 0.304321 0.294246
0.249639 0.311851 0.301716
0.326529 0.319381 0.309185
0.403419 0.326911 0.316655
0.480308 0.334441 0.324124
0.557198 0.341971 0.331594
0.634088 0.349501 0.339063
0.710977 0.357031 0.346533
0.787867 0.364561 0.354002
0.198538 0.399350 0.319626
0.275428 0.406880 0.327096
0.352318 0.414410 0.334565
0.429208 0.421940 0.342035
0.506097 0.429470 0.349504
0.582987 0.437000 0.356974
0.659877 0.444530 0.364443
0.736766 0.452060 0.371913
0.813656 0.459590 0.379382
0.224327 0.494379 0.345006
0.301217 0.501909 0.352476
0.378107 0.509439 0.359945
0.454996 0.516969 0.367415
0.531886 0.524499 0.374884
0.608776 0.532029 0.382354
0.685665 0.539559 0.389823
0.762555 0.547089 0.397293
0.839445 0.554619 0.404762
0.250116 0.589408 0.370386
0.327006 0.596938 0.377856
0.403896 0.604468 0.385325
0.480785 0.611998 0.392795
0.557675 0.619528 0.400264
0.634565 0.627058 0.407734
0.711454 0.634588 0.415203
0.788344 0.642118 0.422672
0.865234 0.649648 0.430142
0.275905 0.684438 0.395766
0.352795 0.691967 0.403236
0.429684 0.699497 0.410705
0.506574 0.707027 0.418175
0.583464 0.714557 0.425644
0.660353 0.722087 0.433113
0.737243 0.729617 0.440583
0.814133 0.737147 0.448052
0.891022 0.744677 0.455522
0.301694 0.779467 0.421146
0.378584 0.786997 0.428616
0.455473 0.794527 0.436085
0.532363 0.802057 0.443555
0.609253 0.809587 0.451024
0.686142 0.817116 0.458493
0.763032 0.824646 0.465963
0.839922 0.832176 0.473432
0.916811 0.839706 0.480902
0.327483 0.874496 0.446526
0.404372 0.882026 0.453996
0.481262 0.889556 0.461465
0.558152 0.897086 0.468934
0.635041 0.904616 0.476404
0.711931 0.912146 0.483873
0.788821 0.919676 0.491343
0.865710 0.927206 0.498812
0.942600 0.934736 0.506282
0.123821 0.116890 0.316177
0.200710 0.124420 0.323646
0.277600 0.131950 0.331116
0.354490 0.139480 0.338585
0.431379 0.147010 0.346054
0.508269 0.154540 0.353524
0.585159 0.162070 0.360993
0.662048 0.169600 0.368463
0.738938 0.177130 0.375932
0.149609 0.211920 0.341557
0.226499 0.219450 0.349026
0.303389 0.226980 0.356495
0.380278 0.234510 0.363965
0.457168 0.242040 0.371434
0.534058 0.249569 0.378904
0.610947 0.257099 0.386373
0.687837 0.264629 0.393843
0.764727 0.272159 0.401312
0.175398 0.306949 0.366936
0.252288 0.314479 0.374406
0.329178 0.322009 0.381875
0.406067 0.329539 0.389345
0.482957 0.337069 0.396814
0.559847 0.344599 0.404284
0.636736 0.352129 0.411753
0.713626 0.359659 0.419223
0.790516 0.367189 0.426692
0.201187 0.401978 0.392316
0.278077 0.409508 0.399786
0.354966 0.417038 0.407255
0.431856 0.424568 0.414725
0.508746 0.432098 0.422194
0.585636 0.439628 0.429664
0.662525 0.447158 0.437133
0.739415 0.454688 0.444603
0.816305 0.462218 0.452072
0.226976 0.497007 0.417696
0.303866 0.504537 0.425166
0.380755 0.512067 0.432635
0.457645 0.519597 0.440105
0.534535 0.527127 0.447574
0.611424 0.534657 0.455044
0.688314 0.542187 0.462513
0.765204 0.549717 0.469983
0.842093 0.557247 0.477452
0.252765 0.592036 0.443076
0.329655 0.599566 0.450546
0.406544 0.607096 0.458015
0.483434 0.614626 0.465485
0.560324 0.622156 0.472954
0.637213 0.629686 0.480424
0.714103 0.637216 0.487893
0.790993 0.644746 0.495363
0.867882 0.652276 0.502832
0.278554 0.687065 0.468456
0.355443 0.694595 0.475926
0.432333 0.702125 0.483395
0.509223 0.709655 0.490865
0.586112 0.717185 0.498334
0.663002 0.724715 0.505804
0.739892 0.732245 0.513273
0.816781 0.739775 0.520743
0.893671 0.747305 0.528212
0.304343 0.782094 0.493836
0.381232 0.789624 0.501306
0.458122 0.797154 0.508775
0.535012 0.804684 0.516245
0.611901 0.812214 0.523714
0.688791 0.819744 0.531184
0.765681 0.827274 0.538653
0.842570 0.834804 0.546122
0.919460 0.842334 0.553592
0.330131 0.877124 0.519216
0.407021 0.884654 0.526686
0.483911 0.892184 0.534155
0.560800 0.899714 0.541625
0.637690 0.907243 0.549094
0.714580 0.914773 0.556563
0.791469 0.922303 0.564033
0.868359 0.929833 0.571502
0.945249 0.937363 0.578972
0.126469 0.119518 0.388867
0.203359 0.127048 0.396336
0.280249 0.134578 0.403806
0.357138 0.142108 0.411275
0.434028 0.149638 0.418745
0.510918 0.157168 0.426214
0.587807 0.164698 0.433684
0.664697 0.172228 0.441153
0.741587 0.179758 0.448622
0.152258 0.214547 0.414247
0.229148 0.222077 0.421716
0.306037 0.229607 0.429186
0.382927 0.237137 0.436655
0.459817 0.244667 0.444125
0.536707 0.252197 0.451594
0.613596 0.259727 0.459063
0.690486 0.267257 0.466533
0.767376 0.274787 0.474002
0.178047 0.309577 0.439627
0.254937 0.317107 0.447096
0.331826 0.324636 0.454566
0.408716 0.332166 0.462035
0.485606 0.339696 0.469504
0.562495 0.347226 0.476974
0.639385 0.354756 0.484443
0.716275 0.362286 0.491913
0.793164 0.369816 0.499382
0.203836 0.404606 0.465007
0.280725 0.412136 0.472476
0.357615 0.419666 0.479946
0.434505 0.427196 0.487415
0.511395 0.434726 0.494884
0.588284 0.442256 0.502354
0.665174 0.449786 0.509823
0.742064 0.457315 0.517293
0.818953 0.464845 0.524762
0.229625 0.499635 0.490387
0.306514 0.507165 0.497856
0.383404 0.514695 0.505325
0.460294 0.522225 0.512795
0.537183 0.529755 0.520264
0.614073 0.537285 0.527734
0.690963 0.544815 0.535203
0.767852 0.552345 0.542673
0.844742 0.559875 0.550142
0.255414 0.594664 0.515766
0.332303 0.602194 0.523236
0.409193 0.609724 0.530705
0.486083 0.617254 0.538175
0.562972 0.624784 0.545644
0.639862 0.632314 0.553114
0.716752 0.639844 0.560583
0.793641 0.647374 0.568053
0.870531 0.654904 0.575522
0.281202 0.689693 0.541146
0.358092 0.697223 0.548616
0.434982 0.704753 0.556085
0.511871 0.712283 0.563555
0.588761 0.719813 0.571024
0.665651 0.727343 0.578494
0.742540 0.734873 0.585963
0.819430 0.742403 0.593433
0.896320 0.749933 0.600902
0.306991 0.784722 0.566526
0.383881 0.792252 0.573996
0.460771 0.799782 0.581465
0.537660 0.807312 0.588935
0.614550 0.814842 0.596404
0.691440 0.822372 0.603874
0.768329 0.829902 0.611343
0.845219 0.837432 0.618813
0.922109 0.844962 0.626282
0.332780 0.879751 0.591906
0.409670 0.887281 0.599376
0.486559 0.894811 0.606845
0.563449 0.902341 0.614315
0.640339 0.909871 0.621784
0.717228 0.917401 0.629254
0.794118 0.924931 0.636723
0.871008 0.932461 0.644193
0.947897 0.939991 0.651662
0.129118 0.122146 0.461557
0.206008 0.129676 0.469026
0.282897 0.137206 0.476496
0.359787 0.144736 0.483965
0.436677 0.152266 0.491435
0.513566 0.159796 0.498904
0.590456 0.167326 0.506374
0.667346 0.174856 0.513843
0.744235 0.182386 0.521313
0.154907 0.217175 0.486937
0.231796 0.224705 0.494406
0.308686 0.232235 0.501876
0.385576 0.239765 0.509345
0.462465 0.247295 0.516815
0.539355 0.254825 0.524284
0.616245 0.262355 0.531754
0.693135 0.269885 0.539223
0.770024 0.277415 0.546692
0.180696 0.312204 0.512317
0.257585 0.319734 0.519786
0.334475 0.327264 0.527256
0.411365 0.334794 0.534725
0.488254 0.342324 0.542195
0.565144 0.349854 0.549664
0.642034 0.357384 0.557134
0.718923 0.364914 0.564603
0.795813 0.372444 0.572072
0.206484 0.407233 0.537697
0.283374 0.414763 0.545166
0.360264 0.422293 0.552636
0.437154 0.429823 0.560105
0.514043 0.437353 0.567575
0.590933 0.444883 0.575044
0.667823 0.452413 0.582514
0.744712 0.459943 0.589983
0.821602 0.467473 0.597452
0.232273 0.502263 0.563077
0.309163 0.509793 0.570546
0.386053 0.517323 0.578016
0.462942 0.524853 0.585485
0.539832 0.532382 0.592955
0.616722 0.539912 0.600424
0.693611 0.547442 0.607893
0.770501 0.554972 0.615363
0.847391 0.562502 0.622832
0.258062 0.597292 0.588457
0.334952 0.604822 0.595926
0.411842 0.612352 0.603396
0.488731 0.619882 0.610865
0.565621 0.627412 0.618334
0.642511 0.634942 0.625804
0.719400 0.642472 0.633273
0.796290 0.650002 0.640743
0.873180 0.657531 0.648212
0.283851 0.692321 0.613837
0.360741 0.699851 0.621306
0.437630 0.707381 0.628775
0.514520 0.714911 0.636245
0.591410 0.722441 0.643714
0.668299 0.729971 0.651184
0.745189 0.737501 0.658653
0.822079 0.745031 0.666123
0.898968 0.752561 0.673592
0.309640 0.787350 0.639216
0.386530 0.794880 0.646686
0.463419 0.802410 0.654155
0.540309 0.809940 0.661625
0.617199 0.817470 0.669094
0.694088 0.825000 0.676564
0.770978 0.832530 0.684033
0.847868 0.840060 0.691503
0.924757 0.847590 0.698972
0.335429 0.882379 0.664596
0.412318 0.889909 0.672066
0.489208 0.897439 0.679535
0.566098 0.904969 0.687005
0.642987 0.912499 0.694474
0.719877 0.920029 0.701944
0.796767 0.927559 0.709413
0.873657 0.935089 0.716883
0.950546 0.942619 0.724352
0.131767 0.124774 0.534247
0.208656 0.132304 0.541716
0.285546 0.139834 0.549186
0.362436 0.147364 0.556655
0.439325 0.154894 0.564125
0.516215 0.162424 0.571594
0.593105 0.169954 0.579064
0.669994 0.177484 0.586533
0.746884 0.185014 0.594003
0.157555 0.219803 0.559627
0.234445 0.227333 0.567096
0.311335 0.234863 0.574566
0.388224 0.242393 0.582035
0.465114 0.249923 0.589505
0.542004 0.257453 0.596974
0.618894 0.264983 0.604444
0.695783 0.272513 0.611913
0.772673 0.280043 0.619383
0.183344 0.314832 0.585007
0.260234 0.322362 0.592476
0.337124 0.329892 0.599946
0.414013 0.337422 0.607415
0.490903 0.344952 0.614885
0.567793 0.352482 0.622354
0.644682 0.360012 0.629824
0.721572 0.367542 0.637293
0.798462 0.375072 0.644763
0.209133 0.409861 0.610387
0.286023 0.417391 0.617856
0.362913 0.424921 0.625326
0.439802 0.432451 0.632795
0.516692 0.439981 0.640265
0.593582 0.447511 0.647734
0.670471 0.455041 0.655204
0.747361 0.462571 0.662673
0.824251 0.470101 0.670143
0.234922 0.504890 0.635767
0.311812 0.512420 0.643236
0.388701 0.519950 0.650706
0.465591 0.527480 0.658175
0.542481 0.535010 0.665645
0.619370 0.542540 0.673114
0.696260 0.550070 0.680584
0.773150 0.557600 0.688053
0.850039 0.565130 0.695522
0.260711 0.599920 0.661147
0.337601 0.607450 0.668616
0.414490 0.614980 0.676086
0.491380 0.622509 0.683555
0.568270 0.630039 0.691025
0.645159 0.637569 0.698494
0.722049 0.645099 0.705963
0.798939 0.652629 0.713433
0.875828 0.660159 0.720902
0.286500 0.694949 0.686527
0.363389 0.702479 0.693996
0.440279 0.710009 0.701466
0.517169 0.717539 0.708935
0.594058 0.725069 0.716405
0.670948 0.732599 0.723874
0.747838 0.740129 0.731343
0.824727 0.747658 0.738813
0.901617 0.755188 0.746282
0.312289 0.789978 0.711907
0.389178 0.797508 0.719376
0.466068 0.805038 0.726846
0.542958 0.812568 0.734315
0.619847 0.820098 0.741785
0.696737 0.827628 0.749254
0.773627 0.835158 0.756723
0.850516 0.842688 0.764193
0.927406 0.850218 0.771662
0.338077 0.885007 0.737287
0.414967 0.892537 0.744756
0.491857 0.900067 0.752226
0.568746 0.907597 0.759695
0.645636 0.915127 0.767164
0.722526 0.922657 0.774634
0.799415 0.930187 0.782103
0.876305 0.937717 0.789573
0.953195 0.945247 0.797042
0.134415 0.127402 0.606937
0.211305 0.134932 0.614407
0.288195 0.142462 0.621876
0.365084 0.149992 0.629345
0.441974 0.157522 0.636815
0.518864 0.165052 0.644284
0.595753 0.172581 0.651754
0.672643 0.180111 0.659223
0.749533 0.187641 0.666693
0.160204 0.222431 0.632317
0.237094 0.229961 0.639787
0.313984 0.237491 0.647256
0.390873 0.245021 0.654725
0.467763 0.252551 0.662195
0.544653 0.260081 0.669664
0.621542 0.267611 0.677134
0.698432 0.275141 0.684603
0.775322 0.282671 0.692073
0.185993 0.317460 0.657697
0.262883 0.324990 0.665166
0.339772 0.332520 0.672636
0.416662 0.340050 0.680105
0.493552 0.347580 0.687575
0.570441 0.355110 0.695044
0.647331 0.362640 0.702514
0.724221 0.370170 0.709983
0.801110 0.377700 0.717453
0.211782 0.412489 0.683077
0.288672 0.420019 0.690546
0.365561 0.427549 0.698016
0.442451 0.435079 0.705485
0.519341 0.442609 0.712955
0.596230 0.450139 0.720424
0.673120 0.457669 0.727894
0.750010 0.465199 0.735363
0.826899 0.472729 0.742833
0.237571 0.507518 0.708457
0.314460 0.515048 0.715926
0.391350 0.522578 0.723396
0.468240 0.530108 0.730865
0.545129 0.537638 0.738335
0.622019 0.545168 0.745804
0.698909 0.552698 0.753274
0.775798 0.560228 0.760743
0.852688 0.567758 0.768213
0.263360 0.602547 0.733837
0.340249 0.610077 0.741306
0.417139 0.617607 0.748776
0.494029 0.625137 0.756245
0.570918 0.632667 0.763715
0.647808 0.640197 0.771184
0.724698 0.647727 0.778654
0.801587 0.655257 0.786123
0.878477 0.662787 0.793593
0.289148 0.697576 0.759217
0.366038 0.705106 0.766686
0.442928 0.712636 0.774156
0.519817 0.720166 0.781625
0.596707 0.727696 0.789095
0.673597 0.735226 0.796564
0.750486 0.742756 0.804034
0.827376 0.750286 0.811503
0.904266 0.757816 0.818973
0.314937 0.792606 0.784597
0.391827 0.800136 0.792066
0.468717 0.807666 0.799536
0.545606 0.815196 0.807005
0.622496 0.822725 0.814475
0.699386 0.830255 0.821944
0.776275 0.837785 0.829414
0.853165 0.845315 0.836883
0.930055 0.852845 0.844352
0.340726 0.887635 0.809977
0.417616 0.895165 0.817446
0.494505 0.902695 0.824916
0.571395 0.910225 0.832385
0.648285 0.917755 0.839855
0.725174 0.925285 0.847324
0.802064 0.932815 0.854793
0.878954 0.940345 0.862263
0.955844 0.947875 0.869732
0.137064 0.130029 0.679627
0.213954 0.137559 0.687097
0.290843 0.145089 0.694566
0.367733 0.152619 0.702036
0.444623 0.160149 0.709505
0.521512 0.167679 0.716975
0.598402 0.175209 0.724444
0.675292 0.182739 0.731914
0.752181 0.190269 0.739383
0.162853 0.225059 0.705007
0.239742 0.232589 0.712477
0.316632 0.240119 0.719946
0.393522 0.247649 0.727416
0.470412 0.255178 0.734885
0.547301 0.262708 0.742355
0.624191 0.270238 0.749824
0.701081 0.277768 0.757293
0.777970 0.285298 0.764763
0.188642 0.320088 0.730387
0.265531 0.327618 0.737857
0.342421 0.335148 0.745326
0.419311 0.342678 0.752796
0.496200 0.350208 0.760265
0.573090 0.357738 0.767734
0.649980 0.365268 0.775204
0.726869 0.372798 0.782673
0.803759 0.380327 0.790143
0.214431 0.415117 0.755767
0.291320 0.422647 0.763237
0.368210 0.430177 0.770706
0.445100 0.437707 0.778175
0.521989 0.445237 0.785645
0.598879 0.452767 0.793114
0.675769 0.460297 0.800584
0.752658 0.467827 0.808053
0.829548 0.475357 0.815523
0.240219 0.510146 0.781147
0.317109 0.517676 0.788616
0.393999 0.525206 0.796086
0.470888 0.532736 0.803555
0.547778 0.540266 0.811025
0.624668 0.547796 0.818494
0.701557 0.555326 0.825964
0.778447 0.562856 0.833433
0.855337 0.570386 0.840903
0.266008 0.605175 0.806527
0.342898 0.612705 0.813996
0.419788 0.620235 0.821466
0.496677 0.627765 0.828935
0.573567 0.635295 0.836405
0.650457 0.642825 0.843874
0.727346 0.650355 0.851344
0.804236 0.657885 0.858813
0.881126 0.665415 0.866283
0.291797 0.700204 0.831907
0.368687 0.707734 0.839376
0.445576 0.715264 0.846846
0.522466 0.722794 0.854315
0.599356 0.730324 0.861785
0.676245 0.737854 0.869254
0.753135 0.745384 0.876724
0.830025 0.752914 0.884193
0.906915 0.760444 0.891663
0.317586 0.795233 0.857287
0.394476 0.802763 0.864756
0.471365 0.810293 0.872226
0.548255 0.817823 0.879695
0.625145 0.825353 0.887165
0.702034 0.832883 0.894634
0.778924 0.840413 0.902104
0.855814 0.847943 0.909573
0.932703 0.855473 0.917043
0.343375 0.890263 0.882667
0.420264 0.897793 0.890136
0.497154 0.905322 0.897606
0.574044 0.912852 0.905075
0.650934 0.920382 0.912545
0.727823 0.927912 0.920014
0.804713 0.935442 0.927484
0.881603 0.942972 0.934953
0.958492 0.950502 0.942423
