assets/presets/luts/mist/lut.cube
TITLE "Mist"
LUT_3D_SIZE 17
0.159002 0.163297 0.168594
0.190239 0.167217 0.172555
0.221475 0.171137 0.176517
0.252711 0.175057 0.180478
0.283948 0.178977 0.184439
0.315184 0.182897 0.188401
0.346421 0.186817 0.192362
0.377657 0.190736 0.196324
0.408894 0.194656 0.200285
0.440130 0.198576 0.204247
0.471367 0.202496 0.208208
0.502603 0.206416 0.212169
0.533840 0.210336 0.216131
0.565076 0.214256 0.220092
0.596313 0.218175 0.224054
0.627549 0.222095 0.228015
0.658786 0.226015 0.231977
0.171989 0.203959 0.181861
0.203225 0.207879 0.185822
0.234462 0.211799 0.189784
0.265698 0.215719 0.193745
0.296935 0.219639 0.197707
0.328171 0.223558 0.201668
0.359408 0.227478 0.205630
0.390644 0.231398 0.209591
0.421881 0.235318 0.213552
0.453117 0.239238 0.217514
0.484354 0.243158 0.221475
0.515590 0.247078 0.225437
0.546827 0.250997 0.229398
0.578063 0.254917 0.233360
0.609299 0.258837 0.237321
0.640536 0.262757 0.241282
0.671772 0.266677 0.245244
0.184975 0.244621 0.195128
0.216212 0.248541 0.199090
0.247448 0.252460 0.203051
0.278685 0.256380 0.207013
0.309921 0.260300 0.210974
0.341158 0.264220 0.214935
0.372394 0.268140 0.218897
0.403631 0.272060 0.222858
0.434867 0.275980 0.226820
0.466104 0.279899 0.230781
0.497340 0.283819 0.234743
0.528577 0.287739 0.238704
0.559813 0.291659 0.242665
0.591050 0.295579 0.246627
0.622286 0.299499 0.250588
0.653523 0.303419 0.254550
0.684759 0.307338 0.258511
0.197962 0.285282 0.208396
0.229199 0.289202 0.212357
0.260435 0.293122 0.216318
0.291672 0.297042 0.220280
0.322908 0.300962 0.224241
0.354145 0.304882 0.228203
0.385381 0.308802 0.232164
0.416618 0.312721 0.236126
0.447854 0.316641 0.240087
0.479091 0.320561 0.244048
0.510327 0.324481 0.248010
0.541563 0.328401 0.251971
0.572800 0.332321 0.255933
0.604036 0.336241 0.259894
0.635273 0.340160 0.263855
0.666509 0.344080 0.267817
0.697746 0.348000 0.271778
0.210949 0.325944 0.221663
0.242185 0.329864 0.225624
0.273422 0.333784 0.229586
0.304658 0.337704 0.233547
0.335895 0.341623 0.237509
0.367131 0.345543 0.241470
0.398368 0.349463 0.245431
0.429604 0.353383 0.249393
0.460841 0.357303 0.253354
0.492077 0.361223 0.257316
0.523314 0.365143 0.261277
0.554550 0.369062 0.265238
0.585787 0.372982 0.269200
0.617023 0.376902 0.273161
0.648260 0.380822 0.277123
0.679496 0.384742 0.281084
0.710733 0.388662 0.285046
0.223936 0.366606 0.234930
0.255172 0.370526 0.238891
0.286409 0.374445 0.242853
0.317645 0.378365 0.246814
0.348882 0.382285 0.250776
0.380118 0.386205 0.254737
0.411354 0.390125 0.258699
0.442591 0.394045 0.262660
0.473827 0.397965 0.266621
0.505064 0.401884 0.270583
0.536300 0.405804 0.274544
0.567537 0.409724 0.278506
0.598773 0.413644 0.282467
0.630010 0.417564 0.286429
0.661246 0.421484 0.290390
0.692483 0.425404 0.294351
0.723719 0.429323 0.298313
0.236922 0.407267 0.248197
0.268159 0.411187 0.252159
0.299395 0.415107 0.256120
0.330632 0.419027 0.260082
0.361868 0.422947 0.264043
0.393105 0.426867 0.268004
0.424341 0.430787 0.271966
0.455578 0.434706 0.275927
0.486814 0.438626 0.279889
0.518051 0.442546 0.283850
0.549287 0.446466 0.287812
0.580524 0.450386 0.291773
0.611760 0.454306 0.295734
0.642997 0.458225 0.299696
0.674233 0.462145 0.303657
0.705470 0.466065 0.307619
0.736706 0.469985 0.311580
0.249909 0.447929 0.261465
0.281145 0.451849 0.265426
0.312382 0.455769 0.269387
0.343618 0.459689 0.273349
0.374855 0.463608 0.277310
0.406091 0.467528 0.281272
0.437328 0.471448 0.285233
0.468564 0.475368 0.289195
0.499801 0.479288 0.293156
0.531037 0.483208 0.297117
0.562274 0.487128 0.301079
0.593510 0.491047 0.305040
0.624747 0.494967 0.309002
0.655983 0.498887 0.312963
0.687220 0.502807 0.316925
0.718456 0.506727 0.320886
0.749693 0.510647 0.324847
0.262896 0.488591 0.274732
0.294132 0.492511 0.278693
0.325369 0.496430 0.282655
0.356605 0.500350 0.286616
0.387842 0.504270 0.290578
0.419078 0.508190 0.294539
0.450315 0.512110 0.298500
0.481551 0.516030 0.302462
0.512788 0.519950 0.306423
0.544024 0.523869 0.310385
0.575261 0.527789 0.314346
0.606497 0.531709 0.318307
0.637734 0.535629 0.322269
0.668970 0.539549 0.326230
0.700206 0.543469 0.330192
0.731443 0.547388 0.334153
0.762679 0.551308 0.338115
0.275882 0.529252 0.287999
0.307119 0.533172 0.291961
0.338355 0.537092 0.295922
0.369592 0.541012 0.299883
0.400828 0.544932 0.303845
0.432065 0.548852 0.307806
0.463301 0.552772 0.311768
0.494538 0.556691 0.315729
0.525774 0.560611 0.319690
0.557011 0.564531 0.323652
0.588247 0.568451 0.327613
0.619484 0.572371 0.331575
0.650720 0.576291 0.335536
0.681957 0.580210 0.339498
0.713193 0.584130 0.343459
0.744430 0.588050 0.347420
0.775666 0.591970 0.351382
0.288869 0.569914 0.301266
0.320106 0.573834 0.305228
0.351342 0.577754 0.309189
0.382579 0.581674 0.313151
0.413815 0.585593 0.317112
0.445052 0.589513 0.321073
0.476288 0.593433 0.325035
0.507525 0.597353 0.328996
0.538761 0.601273 0.332958
0.569997 0.605193 0.336919
0.601234 0.609113 0.340881
0.632470 0.613032 0.344842
0.663707 0.616952 0.348803
0.694943 0.620872 0.352765
0.726180 0.624792 0.356726
0.757416 0.628712 0.360688
0.788653 0.632632 0.364649
0.301856 0.610576 0.314534
0.333092 0.614496 0.318495
0.364329 0.618415 0.322456
0.395565 0.622335 0.326418
0.426802 0.626255 0.330379
0.458038 0.630175 0.334341
0.489275 0.634095 0.338302
0.520511 0.638015 0.342264
0.551748 0.641935 0.346225
0.582984 0.645854 0.350186
0.614221 0.649774 0.354148
0.645457 0.653694 0.358109
0.676694 0.657614 0.362071
0.707930 0.661534 0.366032
0.739167 0.665454 0.369994
0.770403 0.669373 0.373955
0.801640 0.673293 0.377916
0.314843 0.651237 0.327801
0.346079 0.655157 0.331762
0.377316 0.659077 0.335724
0.408552 0.662997 0.339685
0.439788 0.666917 0.343647
0.471025 0.670837 0.347608
0.502261 0.674756 0.351569
0.533498 0.678676 0.355531
0.564734 0.682596 0.359492
0.595971 0.686516 0.363454
0.627207 0.690436 0.367415
0.658444 0.694356 0.371377
0.689680 0.698276 0.375338
0.720917 0.702195 0.379299
0.752153 0.706115 0.383261
0.783390 0.710035 0.387222
0.814626 0.713955 0.391184
0.327829 0.691899 0.341068
0.359066 0.695819 0.345030
0.390302 0.699739 0.348991
0.421539 0.703659 0.352952
0.452775 0.707578 0.356914
0.484012 0.711498 0.360875
0.515248 0.715418 0.364837
0.546485 0.719338 0.368798
0.577721 0.723258 0.372759
0.608958 0.727178 0.376721
0.640194 0.731098 0.380682
0.671431 0.735017 0.384644
0.702667 0.738937 0.388605
0.733904 0.742857 0.392567
0.765140 0.746777 0.396528
0.796377 0.750697 0.400489
0.827613 0.754617 0.404451
0.340816 0.732561 0.354335
0.372052 0.736480 0.358297
0.403289 0.740400 0.362258
0.434525 0.744320 0.366220
0.465762 0.748240 0.370181
0.496998 0.752160 0.374142
0.528235 0.756080 0.378104
0.559471 0.760000 0.382065
0.590708 0.763919 0.386027
0.621944 0.767839 0.389988
0.653181 0.771759 0.393950
0.684417 0.775679 0.397911
0.715654 0.779599 0.401872
0.746890 0.783519 0.405834
0.778127 0.787439 0.409795
0.809363 0.791358 0.413757
0.840600 0.795278 0.417718
0.353803 0.773222 0.367603
0.385039 0.777142 0.371564
0.416276 0.781062 0.375525
0.447512 0.784982 0.379487
0.478749 0.788902 0.383448
0.509985 0.792822 0.387410
0.541222 0.796741 0.391371
0.572458 0.800661 0.395333
0.603695 0.804581 0.399294
0.634931 0.808501 0.403255
0.666167 0.812421 0.407217
0.697404 0.816341 0.411178
0.728640 0.820261 0.415140
0.759877 0.824180 0.419101
0.791113 0.828100 0.423063
0.822350 0.832020 0.427024
0.853586 0.835940 0.430985
0.366789 0.813884 0.380870
0.398026 0.817804 0.384831
0.429262 0.821724 0.388793
0.460499 0.825643 0.392754
0.491735 0.829563 0.396716
0.522972 0.833483 0.400677
0.554208 0.837403 0.404638
0.585445 0.841323 0.408600
0.616681 0.845243 0.412561
0.647918 0.849163 0.416523
0.679154 0.853082 0.420484
0.710391 0.857002 0.424446
0.741627 0.860922 0.428407
0.772864 0.864842 0.432368
0.804100 0.868762 0.436330
0.835337 0.872682 0.440291
0.866573 0.876602 0.444253
0.160304 0.164614 0.197563
0.191541 0.168534 0.201525
0.222777 0.172454 0.205486
0.254014 0.176373 0.209448
0.285250 0.180293 0.213409
0.316487 0.184213 0.217371
0.347723 0.188133 0.221332
0.378960 0.192053 0.225293
0.410196 0.195973 0.229255
0.441433 0.199893 0.233216
0.472669 0.203812 0.237178
0.503906 0.207732 0.241139
0.535142 0.211652 0.245101
0.566379 0.215572 0.249062
0.597615 0.219492 0.253023
0.628852 0.223412 0.256985
0.660088 0.227332 0.260946
0.173291 0.205276 0.210831
0.204527 0.209195 0.214792
0.235764 0.213115 0.218754
0.267000 0.217035 0.222715
0.298237 0.220955 0.226676
0.329473 0.224875 0.230638
0.360710 0.228795 0.234599
0.391946 0.232715 0.238561
0.423183 0.236634 0.242522
0.454419 0.240554 0.246484
0.485656 0.244474 0.250445
0.516892 0.248394 0.254406
0.548129 0.252314 0.258368
0.579365 0.256234 0.262329
0.610602 0.260153 0.266291
0.641838 0.264073 0.270252
0.673075 0.267993 0.274213
0.186278 0.245937 0.224098
0.217514 0.249857 0.228059
0.248751 0.253777 0.232021
0.279987 0.257697 0.235982
0.311224 0.261617 0.239944
0.342460 0.265536 0.243905
0.373697 0.269456 0.247867
0.404933 0.273376 0.251828
0.436170 0.277296 0.255789
0.467406 0.281216 0.259751
0.498643 0.285136 0.263712
0.529879 0.289056 0.267674
0.561116 0.292975 0.271635
0.592352 0.296895 0.275596
0.623588 0.300815 0.279558
0.654825 0.304735 0.283519
0.686061 0.308655 0.287481
0.199264 0.286599 0.237365
0.230501 0.290519 0.241327
0.261737 0.294439 0.245288
0.292974 0.298358 0.249249
0.324210 0.302278 0.253211
0.355447 0.306198 0.257172
0.386683 0.310118 0.261134
0.417920 0.314038 0.265095
0.449156 0.317958 0.269057
0.480393 0.321878 0.273018
0.511629 0.325797 0.276979
0.542866 0.329717 0.280941
0.574102 0.333637 0.284902
0.605339 0.337557 0.288864
0.636575 0.341477 0.292825
0.667812 0.345397 0.296787
0.699048 0.349317 0.300748
0.212251 0.327260 0.250632
0.243488 0.331180 0.254594
0.274724 0.335100 0.258555
0.305961 0.339020 0.262517
0.337197 0.342940 0.266478
0.368434 0.346860 0.270440
0.399670 0.350780 0.274401
0.430907 0.354699 0.278362
0.462143 0.358619 0.282324
0.493379 0.362539 0.286285
0.524616 0.366459 0.290247
0.555852 0.370379 0.294208
0.587089 0.374299 0.298170
0.618325 0.378219 0.302131
0.649562 0.382138 0.306092
0.680798 0.386058 0.310054
0.712035 0.389978 0.314015
0.225238 0.367922 0.263900
0.256474 0.371842 0.267861
0.287711 0.375762 0.271823
0.318947 0.379682 0.275784
0.350184 0.383602 0.279745
0.381420 0.387521 0.283707
0.412657 0.391441 0.287668
0.443893 0.395361 0.291630
0.475130 0.399281 0.295591
0.506366 0.403201 0.299553
0.537603 0.407121 0.303514
0.568839 0.411041 0.307475
0.600076 0.414960 0.311437
0.631312 0.418880 0.315398
0.662549 0.422800 0.319360
0.693785 0.426720 0.323321
0.725022 0.430640 0.327283
0.238225 0.408584 0.277167
0.269461 0.412504 0.281128
0.300698 0.416423 0.285090
0.331934 0.420343 0.289051
0.363170 0.424263 0.293013
0.394407 0.428183 0.296974
0.425643 0.432103 0.300936
0.456880 0.436023 0.304897
0.488116 0.439943 0.308858
0.519353 0.443862 0.312820
0.550589 0.447782 0.316781
0.581826 0.451702 0.320743
0.613062 0.455622 0.324704
0.644299 0.459542 0.328665
0.675535 0.463462 0.332627
0.706772 0.467382 0.336588
0.738008 0.471301 0.340550
0.251211 0.449245 0.290434
0.282448 0.453165 0.294396
0.313684 0.457085 0.298357
0.344921 0.461005 0.302319
0.376157 0.464925 0.306280
0.407394 0.468845 0.310241
0.438630 0.472765 0.314203
0.469867 0.476684 0.318164
0.501103 0.480604 0.322126
0.532340 0.484524 0.326087
0.563576 0.488444 0.330048
0.594813 0.492364 0.334010
0.626049 0.496284 0.337971
0.657286 0.500204 0.341933
0.688522 0.504123 0.345894
0.719759 0.508043 0.349856
0.750995 0.511963 0.353817
0.264198 0.489907 0.303701
0.295434 0.493827 0.307663
0.326671 0.497747 0.311624
0.357907 0.501667 0.315586
0.389144 0.505587 0.319547
0.420380 0.509506 0.323509
0.451617 0.513426 0.327470
0.482853 0.517346 0.331431
0.514090 0.521266 0.335393
0.545326 0.525186 0.339354
0.576563 0.529106 0.343316
0.607799 0.533026 0.347277
0.639036 0.536945 0.351239
0.670272 0.540865 0.355200
0.701509 0.544785 0.359161
0.732745 0.548705 0.363123
0.763982 0.552625 0.367084
0.277185 0.530569 0.316969
0.308421 0.534489 0.320930
0.339658 0.538408 0.324892
0.370894 0.542328 0.328853
0.402131 0.546248 0.332814
0.433367 0.550168 0.336776
0.464604 0.554088 0.340737
0.495840 0.558008 0.344699
0.527077 0.561928 0.348660
0.558313 0.565847 0.352622
0.589549 0.569767 0.356583
0.620786 0.573687 0.360544
0.652022 0.577607 0.364506
0.683259 0.581527 0.368467
0.714495 0.585447 0.372429
0.745732 0.589367 0.376390
0.776968 0.593286 0.380352
0.290171 0.571230 0.330236
0.321408 0.575150 0.334197
0.352644 0.579070 0.338159
0.383881 0.582990 0.342120
0.415117 0.586910 0.346082
0.446354 0.590830 0.350043
0.477590 0.594750 0.354005
0.508827 0.598669 0.357966
0.540063 0.602589 0.361927
0.571300 0.606509 0.365889
0.602536 0.610429 0.369850
0.633773 0.614349 0.373812
0.665009 0.618269 0.377773
0.696246 0.622189 0.381734
0.727482 0.626108 0.385696
0.758719 0.630028 0.389657
0.789955 0.633948 0.393619
0.303158 0.611892 0.343503
0.334395 0.615812 0.347465
0.365631 0.619732 0.351426
0.396868 0.623652 0.355388
0.428104 0.627571 0.359349
0.459341 0.631491 0.363310
0.490577 0.635411 0.367272
0.521813 0.639331 0.371233
0.553050 0.643251 0.375195
0.584286 0.647171 0.379156
0.615523 0.651091 0.383117
0.646759 0.655010 0.387079
0.677996 0.658930 0.391040
0.709232 0.662850 0.395002
0.740469 0.666770 0.398963
0.771705 0.670690 0.402925
0.802942 0.674610 0.406886
0.316145 0.652554 0.356771
0.347381 0.656474 0.360732
0.378618 0.660393 0.364693
0.409854 0.664313 0.368655
0.441091 0.668233 0.372616
0.472327 0.672153 0.376578
0.503564 0.676073 0.380539
0.534800 0.679993 0.384500
0.566037 0.683913 0.388462
0.597273 0.687832 0.392423
0.628510 0.691752 0.396385
0.659746 0.695672 0.400346
0.690983 0.699592 0.404308
0.722219 0.703512 0.408269
0.753456 0.707432 0.412230
0.784692 0.711352 0.416192
0.815929 0.715271 0.420153
0.329132 0.693215 0.370038
0.360368 0.697135 0.373999
0.391604 0.701055 0.377961
0.422841 0.704975 0.381922
0.454077 0.708895 0.385883
0.485314 0.712815 0.389845
0.516550 0.716735 0.393806
0.547787 0.720654 0.397768
0.579023 0.724574 0.401729
0.610260 0.728494 0.405691
0.641496 0.732414 0.409652
0.672733 0.736334 0.413613
0.703969 0.740254 0.417575
0.735206 0.744173 0.421536
0.766442 0.748093 0.425498
0.797679 0.752013 0.429459
0.828915 0.755933 0.433421
0.342118 0.733877 0.383305
0.373355 0.737797 0.387266
0.404591 0.741717 0.391228
0.435828 0.745637 0.395189
0.467064 0.749556 0.399151
0.498301 0.753476 0.403112
0.529537 0.757396 0.407074
0.560774 0.761316 0.411035
0.592010 0.765236 0.414996
0.623247 0.769156 0.418958
0.654483 0.773076 0.422919
0.685720 0.776995 0.426881
0.716956 0.780915 0.430842
0.748192 0.784835 0.434804
0.779429 0.788755 0.438765
0.810665 0.792675 0.442726
0.841902 0.796595 0.446688
0.355105 0.774539 0.396572
0.386341 0.778459 0.400534
0.417578 0.782378 0.404495
0.448814 0.786298 0.408457
0.480051 0.790218 0.412418
0.511287 0.794138 0.416379
0.542524 0.798058 0.420341
0.573760 0.801978 0.424302
0.604997 0.805898 0.428264
0.636233 0.809817 0.432225
0.667470 0.813737 0.436186
0.698706 0.817657 0.440148
0.729943 0.821577 0.444109
0.761179 0.825497 0.448071
0.792416 0.829417 0.452032
0.823652 0.833337 0.455994
0.854889 0.837256 0.459955
0.368092 0.815200 0.409840
0.399328 0.819120 0.413801
0.430565 0.823040 0.417762
0.461801 0.826960 0.421724
0.493038 0.830880 0.425685
0.524274 0.834800 0.429647
0.555511 0.838719 0.433608
0.586747 0.842639 0.437569
0.617984 0.846559 0.441531
0.649220 0.850479 0.445492
0.680456 0.854399 0.449454
0.711693 0.858319 0.453415
0.742929 0.862239 0.457377
0.774166 0.866158 0.461338
0.805402 0.870078 0.465299
0.836639 0.873998 0.469261
0.867875 0.877918 0.473222
0.161607 0.165930 0.226533
0.192843 0.169850 0.230495
0.224079 0.173770 0.234456
0.255316 0.177690 0.238417
0.286552 0.181610 0.242379
0.317789 0.185530 0.246340
0.349025 0.189449 0.250302
0.380262 0.193369 0.254263
0.411498 0.197289 0.258224
0.442735 0.201209 0.262186
0.473971 0.205129 0.266147
0.505208 0.209049 0.270109
0.536444 0.212969 0.274070
0.567681 0.216888 0.278032
0.598917 0.220808 0.281993
0.630154 0.224728 0.285954
0.661390 0.228648 0.289916
0.174593 0.206592 0.239800
0.205830 0.210512 0.243762
0.237066 0.214432 0.247723
0.268303 0.218351 0.251685
0.299539 0.222271 0.255646
0.330776 0.226191 0.259607
0.362012 0.230111 0.263569
0.393249 0.234031 0.267530
0.424485 0.237951 0.271492
0.455722 0.241871 0.275453
0.486958 0.245790 0.279415
0.518195 0.249710 0.283376
0.549431 0.253630 0.287337
0.580667 0.257550 0.291299
0.611904 0.261470 0.295260
0.643140 0.265390 0.299222
0.674377 0.269310 0.303183
0.187580 0.247254 0.253068
0.218816 0.251173 0.257029
0.250053 0.255093 0.260990
0.281289 0.259013 0.264952
0.312526 0.262933 0.268913
0.343762 0.266853 0.272875
0.374999 0.270773 0.276836
0.406235 0.274693 0.280798
0.437472 0.278612 0.284759
0.468708 0.282532 0.288720
0.499945 0.286452 0.292682
0.531181 0.290372 0.296643
0.562418 0.294292 0.300605
0.593654 0.298212 0.304566
0.624891 0.302132 0.308528
0.656127 0.306051 0.312489
0.687364 0.309971 0.316450
0.200567 0.287915 0.266335
0.231803 0.291835 0.270296
0.263040 0.295755 0.274258
0.294276 0.299675 0.278219
0.325513 0.303595 0.282181
0.356749 0.307515 0.286142
0.387986 0.311434 0.290103
0.419222 0.315354 0.294065
0.450458 0.319274 0.298026
0.481695 0.323194 0.301988
0.512931 0.327114 0.305949
0.544168 0.331034 0.309911
0.575404 0.334953 0.313872
0.606641 0.338873 0.317833
0.637877 0.342793 0.321795
0.669114 0.346713 0.325756
0.700350 0.350633 0.329718
0.213553 0.328577 0.279602
0.244790 0.332497 0.283564
0.276026 0.336417 0.287525
0.307263 0.340336 0.291486
0.338499 0.344256 0.295448
0.369736 0.348176 0.299409
0.400972 0.352096 0.303371
0.432209 0.356016 0.307332
0.463445 0.359936 0.311294
0.494682 0.363856 0.315255
0.525918 0.367775 0.319216
0.557155 0.371695 0.323178
0.588391 0.375615 0.327139
0.619628 0.379535 0.331101
0.650864 0.383455 0.335062
0.682101 0.387375 0.339023
0.713337 0.391295 0.342985
0.226540 0.369239 0.292869
0.257777 0.373158 0.296831
0.289013 0.377078 0.300792
0.320249 0.380998 0.304754
0.351486 0.384918 0.308715
0.382722 0.388838 0.312676
0.413959 0.392758 0.316638
0.445195 0.396678 0.320599
0.476432 0.400597 0.324561
0.507668 0.404517 0.328522
0.538905 0.408437 0.332484
0.570141 0.412357 0.336445
0.601378 0.416277 0.340406
0.632614 0.420197 0.344368
0.663851 0.424117 0.348329
0.695087 0.428036 0.352291
0.726324 0.431956 0.356252
0.239527 0.409900 0.306137
0.270763 0.413820 0.310098
0.302000 0.417740 0.314059
0.333236 0.421660 0.318021
0.364473 0.425580 0.321982
0.395709 0.429499 0.325944
0.426946 0.433419 0.329905
0.458182 0.437339 0.333867
0.489419 0.441259 0.337828
0.520655 0.445179 0.341789
0.551892 0.449099 0.345751
0.583128 0.453019 0.349712
0.614365 0.456938 0.353674
0.645601 0.460858 0.357635
0.676838 0.464778 0.361597
0.708074 0.468698 0.365558
0.739311 0.472618 0.369519
0.252513 0.450562 0.319404
0.283750 0.454482 0.323365
0.314986 0.458402 0.327327
0.346223 0.462321 0.331288
0.377459 0.466241 0.335250
0.408696 0.470161 0.339211
0.439932 0.474081 0.343172
0.471169 0.478001 0.347134
0.502405 0.481921 0.351095
0.533642 0.485841 0.355057
0.564878 0.489760 0.359018
0.596115 0.493680 0.362980
0.627351 0.497600 0.366941
0.658588 0.501520 0.370902
0.689824 0.505440 0.374864
0.721061 0.509360 0.378825
0.752297 0.513280 0.382787
0.265500 0.491224 0.332671
0.296737 0.495143 0.336633
0.327973 0.499063 0.340594
0.359210 0.502983 0.344555
0.390446 0.506903 0.348517
0.421683 0.510823 0.352478
0.452919 0.514743 0.356440
0.484156 0.518663 0.360401
0.515392 0.522582 0.364363
0.546629 0.526502 0.368324
0.577865 0.530422 0.372285
0.609102 0.534342 0.376247
0.640338 0.538262 0.380208
0.671574 0.542182 0.384170
0.702811 0.546101 0.388131
0.734047 0.550021 0.392092
0.765284 0.553941 0.396054
0.278487 0.531885 0.345938
0.309723 0.535805 0.349900
0.340960 0.539725 0.353861
0.372196 0.543645 0.357823
0.403433 0.547565 0.361784
0.434669 0.551484 0.365746
0.465906 0.555404 0.369707
0.497142 0.559324 0.373668
0.528379 0.563244 0.377630
0.559615 0.567164 0.381591
0.590852 0.571084 0.385553
0.622088 0.575004 0.389514
0.653325 0.578923 0.393475
0.684561 0.582843 0.397437
0.715798 0.586763 0.401398
0.747034 0.590683 0.405360
0.778271 0.594603 0.409321
0.291474 0.572547 0.359206
0.322710 0.576467 0.363167
0.353947 0.580387 0.367128
0.385183 0.584306 0.371090
0.416420 0.588226 0.375051
0.447656 0.592146 0.379013
0.478893 0.596066 0.382974
0.510129 0.599986 0.386936
0.541366 0.603906 0.390897
0.572602 0.607826 0.394858
0.603838 0.611745 0.398820
0.635075 0.615665 0.402781
0.666311 0.619585 0.406743
0.697548 0.623505 0.410704
0.728784 0.627425 0.414666
0.760021 0.631345 0.418627
0.791257 0.635265 0.422588
0.304460 0.613208 0.372473
0.335697 0.617128 0.376434
0.366933 0.621048 0.380396
0.398170 0.624968 0.384357
0.429406 0.628888 0.388319
0.460643 0.632808 0.392280
0.491879 0.636728 0.396241
0.523116 0.640647 0.400203
0.554352 0.644567 0.404164
0.585589 0.648487 0.408126
0.616825 0.652407 0.412087
0.648062 0.656327 0.416049
0.679298 0.660247 0.420010
0.710535 0.664167 0.423971
0.741771 0.668086 0.427933
0.773008 0.672006 0.431894
0.804244 0.675926 0.435856
0.317447 0.653870 0.385740
0.348684 0.657790 0.389702
0.379920 0.661710 0.393663
0.411157 0.665630 0.397624
0.442393 0.669550 0.401586
0.473629 0.673469 0.405547
0.504866 0.677389 0.409509
0.536102 0.681309 0.413470
0.567339 0.685229 0.417432
0.598575 0.689149 0.421393
0.629812 0.693069 0.425354
0.661048 0.696989 0.429316
0.692285 0.700908 0.433277
0.723521 0.704828 0.437239
0.754758 0.708748 0.441200
0.785994 0.712668 0.445162
0.817231 0.716588 0.449123
0.330434 0.694532 0.399007
0.361670 0.698452 0.402969
0.392907 0.702371 0.406930
0.424143 0.706291 0.410892
0.455380 0.710211 0.414853
0.486616 0.714131 0.418815
0.517853 0.718051 0.422776
0.549089 0.721971 0.426737
0.580326 0.725891 0.430699
0.611562 0.729810 0.434660
0.642799 0.733730 0.438622
0.674035 0.737650 0.442583
0.705272 0.741570 0.446544
0.736508 0.745490 0.450506
0.767745 0.749410 0.454467
0.798981 0.753330 0.458429
0.830217 0.757249 0.462390
0.343420 0.735193 0.412275
0.374657 0.739113 0.416236
0.405893 0.743033 0.420198
0.437130 0.746953 0.424159
0.468366 0.750873 0.428120
0.499603 0.754793 0.432082
0.530839 0.758713 0.436043
0.562076 0.762632 0.440005
0.593312 0.766552 0.443966
0.624549 0.770472 0.447927
0.655785 0.774392 0.451889
0.687022 0.778312 0.455850
0.718258 0.782232 0.459812
0.749495 0.786152 0.463773
0.780731 0.790071 0.467735
0.811968 0.793991 0.471696
0.843204 0.797911 0.475657
0.356407 0.775855 0.425542
0.387644 0.779775 0.429503
0.418880 0.783695 0.433465
0.450117 0.787615 0.437426
0.481353 0.791535 0.441388
0.512590 0.795454 0.445349
0.543826 0.799374 0.449310
0.575063 0.803294 0.453272
0.606299 0.807214 0.457233
0.637536 0.811134 0.461195
0.668772 0.815054 0.465156
0.700009 0.818973 0.469118
0.731245 0.822893 0.473079
0.762481 0.826813 0.477040
0.793718 0.830733 0.481002
0.824954 0.834653 0.484963
0.856191 0.838573 0.488925
0.369394 0.816517 0.438809
0.400630 0.820437 0.442771
0.431867 0.824356 0.446732
0.463103 0.828276 0.450693
0.494340 0.832196 0.454655
0.525576 0.836116 0.458616
0.556813 0.840036 0.462578
0.588049 0.843956 0.466539
0.619286 0.847876 0.470501
0.650522 0.851795 0.474462
0.681759 0.855715 0.478423
0.712995 0.859635 0.482385
0.744232 0.863555 0.486346
0.775468 0.867475 0.490308
0.806705 0.871395 0.494269
0.837941 0.875315 0.498231
0.869178 0.879234 0.502192
0.162909 0.167247 0.255503
0.194145 0.171167 0.259464
0.225382 0.175086 0.263426
0.256618 0.179006 0.267387
0.287855 0.182926 0.271348
0.319091 0.186846 0.275310
0.350328 0.190766 0.279271
0.381564 0.194686 0.283233
0.412801 0.198606 0.287194
0.444037 0.202525 0.291156
0.475274 0.206445 0.295117
0.506510 0.210365 0.299078
0.537747 0.214285 0.303040
0.568983 0.218205 0.307001
0.600219 0.222125 0.310963
0.631456 0.226045 0.314924
0.662692 0.229964 0.318886
0.175895 0.207908 0.268770
0.207132 0.211828 0.272731
0.238368 0.215748 0.276693
