assets/presets/luts/mist/lut.cube
TITLE "Mist"
LUT_3D_SIZE 5
0.159002 0.163297 0.168594
0.283948 0.178977 0.184439
0.408894 0.194656 0.200285
0.533840 0.210336 0.216131
0.658786 0.226015 0.231977
0.210949 0.325944 0.221663
0.335895 0.341623 0.237509
0.460841 0.357303 0.253354
0.585787 0.372982 0.269200
0.710733 0.388662 0.285046
0.262896 0.488591 0.274732
0.387842 0.504270 0.290578
0.512788 0.519950 0.306423
0.637734 0.535629 0.322269
0.762679 0.551308 0.338115
0.314843 0.651237 0.327801
0.439788 0.666917 0.343647
0.564734 0.682596 0.359492
0.689680 0.698276 0.375338
0.814626 0.713955 0.391184
0.366789 0.813884 0.380870
0.491735 0.829563 0.396716
0.616681 0.845243 0.412561
0.741627 0.860922 0.428407
0.866573 0.876602 0.444253
0.164211 0.168563 0.284472
0.289157 0.184243 0.300318
0.414103 0.199922 0.316164
0.539049 0.215601 0.332009
0.663995 0.231281 0.347855
0.216158 0.331210 0.337541
0.341104 0.346889 0.353387
0.466050 0.362569 0.369233
0.590996 0.378248 0.385079
0.715942 0.393927 0.400924
0.268105 0.493856 0.390610
0.393051 0.509536 0.406456
0.517997 0.525215 0.422302
0.642942 0.540895 0.438148
0.767888 0.556574 0.453993
0.320052 0.656503 0.443679
0.444997 0.672182 0.459525
0.569943 0.687862 0.475371
0.694889 0.703541 0.491217
0.819835 0.719221 0.507062
0.371998 0.819150 0.496748
0.496944 0.834829 0.512594
0.621890 0.850508 0.528440
0.746836 0.866188 0.544286
0.871782 0.881867 0.560131
0.169420 0.173829 0.400351
0.294366 0.189508 0.416197
0.419312 0.205188 0.432042
0.544258 0.220867 0.447888
0.669204 0.236546 0.463734
0.221367 0.336475 0.453420
0.346313 0.352155 0.469266
0.471259 0.367834 0.485111
0.596205 0.383514 0.500957
0.721151 0.399193 0.516803
0.273314 0.499122 0.506489
0.398260 0.514801 0.522335
0.523206 0.530481 0.538180
0.648151 0.546160 0.554026
0.773097 0.561840 0.569872
0.325260 0.661769 0.559558
0.450206 0.677448 0.575404
0.575152 0.693127 0.591249
0.700098 0.708807 0.607095
0.825044 0.724486 0.622941
0.377207 0.824415 0.612627
0.502153 0.840095 0.628473
0.627099 0.855774 0.644318
0.752045 0.871453 0.660164
0.876991 0.887133 0.676010
0.174629 0.179094 0.516230
0.299575 0.194774 0.532075
0.424521 0.210453 0.547921
0.549467 0.226133 0.563767
0.674413 0.241812 0.579612
0.226576 0.341741 0.569299
0.351522 0.357420 0.585144
0.476468 0.373100 0.600990
0.601414 0.388779 0.616836
0.726359 0.404459 0.632681
0.278523 0.504388 0.622368
0.403469 0.520067 0.638213
0.528414 0.535746 0.654059
0.653360 0.551426 0.669905
0.778306 0.567105 0.685750
0.330469 0.667034 0.675437
0.455415 0.682714 0.691282
0.580361 0.698393 0.707128
0.705307 0.714072 0.722974
0.830253 0.729752 0.738819
0.382416 0.829681 0.728506
0.507362 0.845360 0.744351
0.632308 0.861040 0.760197
0.757254 0.876719 0.776043
0.882200 0.892399 0.791888
0.179838 0.184360 0.632108
0.304784 0.200039 0.647954
0.429730 0.215719 0.663800
0.554676 0.231398 0.679645
0.679622 0.247078 0.695491
0.231785 0.347007 0.685177
0.356731 0.362686 0.701023
0.481677 0.378365 0.716869
0.606623 0.394045 0.732714
0.731568 0.409724 0.748560
0.283732 0.509653 0.738246
0.408677 0.525333 0.754092
0.533623 0.541012 0.769938
0.658569 0.556692 0.785783
0.783515 0.572371 0.801629
0.335678 0.672300 0.791315
0.460624 0.687979 0.807161
0.585570 0.703659 0.823007
0.710516 0.719338 0.838852
0.835462 0.735018 0.854698
0.387625 0.834947 0.844384
0.512571 0.850626 0.860230
0.637517 0.866305 0.876076
0.762463 0.881985 0.891921
0.887409 0.897664 0.907767
