assets/presets/luts/mist/lut.cube
TITLE "Mist"
LUT_3D_SIZE 9
0.159002 0.163297 0.168594
0.221475 0.171137 0.176517
0.283948 0.178977 0.184439
0.346421 0.186817 0.192362
0.408894 0.194656 0.200285
0.471367 0.202496 0.208208
0.533840 0.210336 0.216131
0.596313 0.218175 0.224054
0.658786 0.226015 0.231977
0.184975 0.244621 0.195128
0.247448 0.252460 0.203051
0.309921 0.260300 0.210974
0.372394 0.268140 0.218897
0.434867 0.275980 0.226820
0.497340 0.283819 0.234743
0.559813 0.291659 0.242665
0.622286 0.299499 0.250588
0.684759 0.307338 0.258511
0.210949 0.325944 0.221663
0.273422 0.333784 0.229586
0.335895 0.341623 0.237509
0.398368 0.349463 0.245431
0.460841 0.357303 0.253354
0.523314 0.365143 0.261277
0.585787 0.372982 0.269200
0.648260 0.380822 0.277123
0.710733 0.388662 0.285046
0.236922 0.407267 0.248197
0.299395 0.415107 0.256120
0.361868 0.422947 0.264043
0.424341 0.430787 0.271966
0.486814 0.438626 0.279889
0.549287 0.446466 0.287812
0.611760 0.454306 0.295734
0.674233 0.462145 0.303657
0.736706 0.469985 0.311580
0.262896 0.488591 0.274732
0.325369 0.496430 0.282655
0.387842 0.504270 0.290578
0.450315 0.512110 0.298500
0.512788 0.519950 0.306423
0.575261 0.527789 0.314346
0.637734 0.535629 0.322269
0.700206 0.543469 0.330192
0.762679 0.551308 0.338115
0.288869 0.569914 0.301266
0.351342 0.577754 0.309189
0.413815 0.585593 0.317112
0.476288 0.593433 0.325035
0.538761 0.601273 0.332958
0.601234 0.609113 0.340881
0.663707 0.616952 0.348803
0.726180 0.624792 0.356726
0.788653 0.632632 0.364649
0.314843 0.651237 0.327801
0.377316 0.659077 0.335724
0.439788 0.666917 0.343647
0.502261 0.674756 0.351569
0.564734 0.682596 0.359492
0.627207 0.690436 0.367415
0.689680 0.698276 0.375338
0.752153 0.706115 0.383261
0.814626 0.713955 0.391184
0.340816 0.732561 0.354335
0.403289 0.740400 0.362258
0.465762 0.748240 0.370181
0.528235 0.756080 0.378104
0.590708 0.763919 0.386027
0.653181 0.771759 0.393950
0.715654 0.779599 0.401872
0.778127 0.787439 0.409795
0.840600 0.795278 0.417718
0.366789 0.813884 0.380870
0.429262 0.821724 0.388793
0.491735 0.829563 0.396716
0.554208 0.837403 0.404638
0.616681 0.845243 0.412561
0.679154 0.853082 0.420484
0.741627 0.860922 0.428407
0.804100 0.868762 0.436330
0.866573 0.876602 0.444253
0.161607 0.165930 0.226533
0.224079 0.173770 0.234456
0.286552 0.181610 0.242379
0.349025 0.189449 0.250302
0.411498 0.197289 0.258224
0.473971 0.205129 0.266147
0.536444 0.212969 0.274070
0.598917 0.220808 0.281993
0.661390 0.228648 0.289916
0.187580 0.247254 0.253068
0.250053 0.255093 0.260990
0.312526 0.262933 0.268913
0.374999 0.270773 0.276836
0.437472 0.278612 0.284759
0.499945 0.286452 0.292682
0.562418 0.294292 0.300605
0.624891 0.302132 0.308528
0.687364 0.309971 0.316450
0.213553 0.328577 0.279602
0.276026 0.336417 0.287525
0.338499 0.344256 0.295448
0.400972 0.352096 0.303371
0.463445 0.359936 0.311294
0.525918 0.367775 0.319216
0.588391 0.375615 0.327139
0.650864 0.383455 0.335062
0.713337 0.391295 0.342985
0.239527 0.409900 0.306137
0.302000 0.417740 0.314059
0.364473 0.425580 0.321982
0.426946 0.433419 0.329905
0.489419 0.441259 0.337828
0.551892 0.449099 0.345751
0.614365 0.456938 0.353674
0.676838 0.464778 0.361597
0.739311 0.472618 0.369519
0.265500 0.491224 0.332671
0.327973 0.499063 0.340594
0.390446 0.506903 0.348517
0.452919 0.514743 0.356440
0.515392 0.522582 0.364363
0.577865 0.530422 0.372285
0.640338 0.538262 0.380208
0.702811 0.546101 0.388131
0.765284 0.553941 0.396054
0.291474 0.572547 0.359206
0.353947 0.580387 0.367128
0.416420 0.588226 0.375051
0.478893 0.596066 0.382974
0.541366 0.603906 0.390897
0.603838 0.611745 0.398820
0.666311 0.619585 0.406743
0.728784 0.627425 0.414666
0.791257 0.635265 0.422588
0.317447 0.653870 0.385740
0.379920 0.661710 0.393663
0.442393 0.669550 0.401586
0.504866 0.677389 0.409509
0.567339 0.685229 0.417432
0.629812 0.693069 0.425354
0.692285 0.700908 0.433277
0.754758 0.708748 0.441200
0.817231 0.716588 0.449123
0.343420 0.735193 0.412275
0.405893 0.743033 0.420198
0.468366 0.750873 0.428120
0.530839 0.758713 0.436043
0.593312 0.766552 0.443966
0.655785 0.774392 0.451889
0.718258 0.782232 0.459812
0.780731 0.790071 0.467735
0.843204 0.797911 0.475657
0.369394 0.816517 0.438809
0.431867 0.824356 0.446732
0.494340 0.832196 0.454655
0.556813 0.840036 0.462578
0.619286 0.847876 0.470501
0.681759 0.855715 0.478423
0.744232 0.863555 0.486346
0.806705 0.871395 0.494269
0.869178 0.879234 0.502192
0.164211 0.168563 0.284472
0.226684 0.176403 0.292395
0.289157 0.184243 0.300318
0.351630 0.192082 0.308241
0.414103 0.199922 0.316164
0.476576 0.207762 0.324087
0.539049 0.215601 0.332009
0.601522 0.223441 0.339932
0.663995 0.231281 0.347855
0.190184 0.249886 0.311007
0.252657 0.257726 0.318930
0.315130 0.265566 0.326853
0.377603 0.273406 0.334775
0.440076 0.281245 0.342698
0.502549 0.289085 0.350621
0.565022 0.296925 0.358544
0.627495 0.304764 0.366467
0.689968 0.312604 0.374390
0.216158 0.331210 0.337541
0.278631 0.339049 0.345464
0.341104 0.346889 0.353387
0.403577 0.354729 0.361310
0.466050 0.362569 0.369233
0.528523 0.370408 0.377156
0.590996 0.378248 0.385079
0.653469 0.386088 0.393001
0.715942 0.393927 0.400924
0.242131 0.412533 0.364076
0.304604 0.420373 0.371999
0.367077 0.428212 0.379922
0.429550 0.436052 0.387844
0.492023 0.443892 0.395767
0.554496 0.451732 0.403690
0.616969 0.459571 0.411613
0.679442 0.467411 0.419536
0.741915 0.475251 0.427459
0.268105 0.493856 0.390610
0.330578 0.501696 0.398533
0.393051 0.509536 0.406456
0.455524 0.517375 0.414379
0.517997 0.525215 0.422302
0.580469 0.533055 0.430225
0.642942 0.540895 0.438148
0.705415 0.548734 0.446070
0.767888 0.556574 0.453993
0.294078 0.575180 0.417145
0.356551 0.583019 0.425068
0.419024 0.590859 0.432991
0.481497 0.598699 0.440913
0.543970 0.606538 0.448836
0.606443 0.614378 0.456759
0.668916 0.622218 0.464682
0.731389 0.630058 0.472605
0.793862 0.637897 0.480528
0.320052 0.656503 0.443679
0.382524 0.664343 0.451602
0.444997 0.672182 0.459525
0.507470 0.680022 0.467448
0.569943 0.687862 0.475371
0.632416 0.695701 0.483294
0.694889 0.703541 0.491217
0.757362 0.711381 0.499139
0.819835 0.719221 0.507062
0.346025 0.737826 0.470214
0.408498 0.745666 0.478137
0.470971 0.753506 0.486060
0.533444 0.761345 0.493983
0.595917 0.769185 0.501905
0.658390 0.777025 0.509828
0.720863 0.784865 0.517751
0.783336 0.792704 0.525674
0.845809 0.800544 0.533597
0.371998 0.819150 0.496748
0.434471 0.826989 0.504671
0.496944 0.834829 0.512594
0.559417 0.842669 0.520517
0.621890 0.850508 0.528440
0.684363 0.858348 0.536363
0.746836 0.866188 0.544286
0.809309 0.874028 0.552208
0.871782 0.881867 0.560131
0.166815 0.171196 0.342412
0.229288 0.179036 0.350335
0.291761 0.186875 0.358257
0.354234 0.194715 0.366180
0.416707 0.202555 0.374103
0.479180 0.210394 0.382026
0.541653 0.218234 0.389949
0.604126 0.226074 0.397872
0.666599 0.233914 0.405795
0.192789 0.252519 0.368946
0.255262 0.260359 0.376869
0.317735 0.268199 0.384792
0.380208 0.276038 0.392715
0.442681 0.283878 0.400638
0.505154 0.291718 0.408560
0.567627 0.299557 0.416483
0.630100 0.307397 0.424406
0.692573 0.315237 0.432329
0.218762 0.333843 0.395481
0.281235 0.341682 0.403404
0.343708 0.349522 0.411326
0.406181 0.357362 0.419249
0.468654 0.365201 0.427172
0.531127 0.373041 0.435095
0.593600 0.380881 0.443018
0.656073 0.388720 0.450941
0.718546 0.396560 0.458864
0.244736 0.415166 0.422015
0.307209 0.423006 0.429938
0.369682 0.430845 0.437861
0.432155 0.438685 0.445784
0.494628 0.446525 0.453707
0.557101 0.454364 0.461629
0.619574 0.462204 0.469552
0.682046 0.470044 0.477475
0.744519 0.477884 0.485398
0.270709 0.496489 0.448550
0.333182 0.504329 0.456473
0.395655 0.512169 0.464395
0.458128 0.520008 0.472318
0.520601 0.527848 0.480241
0.583074 0.535688 0.488164
0.645547 0.543527 0.496087
0.708020 0.551367 0.504010
0.770493 0.559207 0.511933
0.296683 0.577812 0.475084
0.359156 0.585652 0.483007
0.421629 0.593492 0.490930
0.484101 0.601332 0.498853
0.546574 0.609171 0.506776
0.609047 0.617011 0.514699
0.671520 0.624851 0.522621
0.733993 0.632690 0.530544
0.796466 0.640530 0.538467
0.322656 0.659136 0.501619
0.385129 0.666975 0.509542
0.447602 0.674815 0.517464
0.510075 0.682655 0.525387
0.572548 0.690495 0.533310
0.635021 0.698334 0.541233
0.697494 0.706174 0.549156
0.759967 0.714014 0.557079
0.822440 0.721853 0.565002
0.348629 0.740459 0.528153
0.411102 0.748299 0.536076
0.473575 0.756139 0.543999
0.536048 0.763978 0.551922
0.598521 0.771818 0.559845
0.660994 0.779658 0.567768
0.723467 0.787497 0.575690
0.785940 0.795337 0.583613
0.848413 0.803177 0.591536
0.374603 0.821782 0.554688
0.437076 0.829622 0.562611
0.499549 0.837462 0.570533
0.562022 0.845302 0.578456
0.624495 0.853141 0.586379
0.686968 0.860981 0.594302
0.749441 0.868821 0.602225
0.811914 0.876660 0.610148
0.874387 0.884500 0.618071
0.169420 0.173829 0.400351
0.231893 0.181668 0.408274
0.294366 0.189508 0.416197
0.356839 0.197348 0.424120
0.419312 0.205188 0.432042
0.481785 0.213027 0.439965
0.544258 0.220867 0.447888
0.606731 0.228707 0.455811
0.669204 0.236546 0.463734
0.195393 0.255152 0.426886
0.257866 0.262992 0.434808
0.320339 0.270831 0.442731
0.382812 0.278671 0.450654
0.445285 0.286511 0.458577
0.507758 0.294351 0.466500
0.570231 0.302190 0.474423
0.632704 0.310030 0.482345
0.695177 0.317870 0.490268
0.221367 0.336475 0.453420
0.283840 0.344315 0.461343
0.346313 0.352155 0.469266
0.408786 0.359995 0.477189
0.471259 0.367834 0.485111
0.533732 0.375674 0.493034
0.596205 0.383514 0.500957
0.658678 0.391353 0.508880
0.721151 0.399193 0.516803
0.247340 0.417799 0.479955
0.309813 0.425638 0.487877
0.372286 0.433478 0.495800
0.434759 0.441318 0.503723
0.497232 0.449158 0.511646
0.559705 0.456997 0.519569
0.622178 0.464837 0.527492
0.684651 0.472677 0.535415
0.747124 0.480516 0.543337
0.273314 0.499122 0.506489
0.335787 0.506962 0.514412
0.398260 0.514801 0.522335
0.460733 0.522641 0.530258
0.523206 0.530481 0.538180
0.585678 0.538321 0.546103
0.648151 0.546160 0.554026
0.710624 0.554000 0.561949
0.773097 0.561840 0.569872
0.299287 0.580445 0.533024
0.361760 0.588285 0.540946
0.424233 0.596125 0.548869
0.486706 0.603964 0.556792
0.549179 0.611804 0.564715
0.611652 0.619644 0.572638
0.674125 0.627484 0.580561
0.736598 0.635323 0.588484
0.799071 0.643163 0.596406
0.325260 0.661769 0.559558
0.387733 0.669608 0.567481
0.450206 0.677448 0.575404
0.512679 0.685288 0.583327
0.575152 0.693127 0.591249
0.637625 0.700967 0.599172
0.700098 0.708807 0.607095
0.762571 0.716647 0.615018
0.825044 0.724486 0.622941
0.351234 0.743092 0.586093
0.413707 0.750932 0.594015
0.476180 0.758771 0.601938
0.538653 0.766611 0.609861
0.601126 0.774451 0.617784
0.663599 0.782290 0.625707
0.726072 0.790130 0.633630
0.788545 0.797970 0.641553
0.851018 0.805810 0.649475
0.377207 0.824415 0.612627
0.439680 0.832255 0.620550
0.502153 0.840095 0.628473
0.564626 0.847934 0.636396
0.627099 0.855774 0.644318
0.689572 0.863614 0.652241
0.752045 0.871453 0.660164
0.814518 0.879293 0.668087
0.876991 0.887133 0.676010
0.172024 0.176462 0.458290
0.234497 0.184301 0.466213
0.296970 0.192141 0.474136
0.359443 0.199981 0.482059
0.421916 0.207820 0.489982
0.484389 0.215660 0.497905
0.546862 0.223500 0.505827
0.609335 0.231340 0.513750
0.671808 0.239179 0.521673
0.197998 0.257785 0.484825
0.260471 0.265625 0.492748
0.322944 0.273464 0.500671
0.385417 0.281304 0.508593
0.447890 0.289144 0.516516
0.510363 0.296983 0.524439
0.572836 0.304823 0.532362
0.635309 0.312663 0.540285
0.697782 0.320503 0.548208
0.223971 0.339108 0.511359
0.286444 0.346948 0.519282
0.348917 0.354788 0.527205
0.411390 0.362627 0.535128
0.473863 0.370467 0.543051
0.536336 0.378307 0.550974
0.598809 0.386146 0.558896
0.661282 0.393986 0.566819
0.723755 0.401826 0.574742
0.249945 0.420431 0.537894
0.312418 0.428271 0.545817
0.374891 0.436111 0.553740
0.437364 0.443951 0.561662
0.499837 0.451790 0.569585
0.562310 0.459630 0.577508
0.624783 0.467470 0.585431
0.687255 0.475309 0.593354
0.749728 0.483149 0.601277
0.275918 0.501755 0.564428
0.338391 0.509595 0.572351
0.400864 0.517434 0.580274
0.463337 0.525274 0.588197
0.525810 0.533114 0.596120
0.588283 0.540953 0.604043
0.650756 0.548793 0.611965
0.713229 0.556633 0.619888
0.775702 0.564472 0.627811
0.301892 0.583078 0.590963
0.364365 0.590918 0.598886
0.426837 0.598758 0.606809
0.489310 0.606597 0.614731
0.551783 0.614437 0.622654
0.614256 0.622277 0.630577
0.676729 0.630116 0.638500
0.739202 0.637956 0.646423
0.801675 0.645796 0.654346
0.327865 0.664401 0.617497
0.390338 0.672241 0.625420
0.452811 0.680081 0.633343
0.515284 0.687921 0.641266
0.577757 0.695760 0.649189
0.640230 0.703600 0.657112
0.702703 0.711440 0.665034
0.765176 0.719279 0.672957
0.827649 0.727119 0.680880
0.353838 0.745725 0.644032
0.416311 0.753564 0.651955
0.478784 0.761404 0.659878
0.541257 0.769244 0.667800
0.603730 0.777084 0.675723
0.666203 0.784923 0.683646
0.728676 0.792763 0.691569
0.791149 0.800603 0.699492
0.853622 0.808442 0.707415
0.379812 0.827048 0.670566
0.442285 0.834888 0.678489
0.504758 0.842727 0.686412
0.567231 0.850567 0.694335
0.629704 0.858407 0.702258
0.692177 0.866247 0.710181
0.754650 0.874086 0.718103
0.817123 0.881926 0.726026
0.879596 0.889766 0.733949
0.174629 0.179094 0.516230
0.237102 0.186934 0.524153
0.299575 0.194774 0.532075
0.362048 0.202614 0.539998
0.424521 0.210453 0.547921
0.486994 0.218293 0.555844
0.549467 0.226133 0.563767
0.611940 0.233972 0.571690
0.674413 0.241812 0.579612
0.200602 0.260418 0.542764
0.263075 0.268257 0.550687
0.325548 0.276097 0.558610
0.388021 0.283937 0.566533
0.450494 0.291777 0.574456
0.512967 0.299616 0.582378
0.575440 0.307456 0.590301
0.637913 0.315296 0.598224
0.700386 0.323135 0.606147
0.226576 0.341741 0.569299
0.289049 0.349581 0.577222
0.351522 0.357420 0.585144
0.413995 0.365260 0.593067
0.476468 0.373100 0.600990
0.538941 0.380940 0.608913
0.601414 0.388779 0.616836
0.663886 0.396619 0.624759
0.726359 0.404459 0.632681
0.252549 0.423064 0.595833
0.315022 0.430904 0.603756
0.377495 0.438744 0.611679
0.439968 0.446583 0.619602
0.502441 0.454423 0.627525
0.564914 0.462263 0.635447
0.627387 0.470103 0.643370
0.689860 0.477942 0.651293
0.752333 0.485782 0.659216
0.278523 0.504388 0.622368
0.340996 0.512227 0.630291
0.403469 0.520067 0.638213
0.465941 0.527907 0.646136
0.528414 0.535746 0.654059
0.590887 0.543586 0.661982
0.653360 0.551426 0.669905
0.715833 0.559266 0.677828
0.778306 0.567105 0.685750
0.304496 0.585711 0.648902
0.366969 0.593551 0.656825
0.429442 0.601390 0.664748
0.491915 0.609230 0.672671
0.554388 0.617070 0.680594
0.616861 0.624909 0.688516
0.679334 0.632749 0.696439
0.741807 0.640589 0.704362
0.804280 0.648429 0.712285
0.330469 0.667034 0.675437
0.392942 0.674874 0.683360
0.455415 0.682714 0.691282
0.517888 0.690553 0.699205
0.580361 0.698393 0.707128
0.642834 0.706233 0.715051
0.705307 0.714072 0.722974
0.767780 0.721912 0.730897
0.830253 0.729752 0.738819
0.356443 0.748358 0.701971
0.418916 0.756197 0.709894
0.481389 0.764037 0.717817
0.543862 0.771877 0.725740
0.606335 0.779716 0.733663
0.668808 0.787556 0.741585
0.731281 0.795396 0.749508
0.793754 0.803236 0.757431
0.856227 0.811075 0.765354
0.382416 0.829681 0.728506
0.444889 0.837521 0.736429
0.507362 0.845360 0.744351
0.569835 0.853200 0.752274
0.632308 0.861040 0.760197
0.694781 0.868879 0.768120
0.757254 0.876719 0.776043
0.819727 0.884559 0.783966
0.882200 0.892399 0.791888
0.177233 0.181727 0.574169
0.239706 0.189567 0.582092
0.302179 0.197407 0.590015
0.364652 0.205246 0.597938
0.427125 0.213086 0.605860
0.489598 0.220926 0.613783
0.552071 0.228765 0.621706
0.614544 0.236605 0.629629
0.677017 0.244445 0.637552
0.203207 0.263051 0.600703
0.265680 0.270890 0.608626
0.328153 0.278730 0.616549
0.390626 0.286570 0.624472
0.453099 0.294409 0.632395
0.515572 0.302249 0.640318
0.578045 0.310089 0.648241
0.640518 0.317928 0.656163
0.702991 0.325768 0.664086
0.229180 0.344374 0.627238
0.291653 0.352214 0.635161
0.354126 0.360053 0.643084
0.416599 0.367893 0.651007
0.479072 0.375733 0.658929
0.541545 0.383572 0.666852
0.604018 0.391412 0.674775
0.666491 0.399252 0.682698
0.728964 0.407091 0.690621
0.255154 0.425697 0.653772
0.317627 0.433537 0.661695
0.380100 0.441377 0.669618
0.442573 0.449216 0.677541
0.505046 0.457056 0.685464
0.567518 0.464896 0.693387
0.629991 0.472735 0.701310
0.692464 0.480575 0.709232
0.754937 0.488415 0.717155
0.281127 0.507020 0.680307
0.343600 0.514860 0.688230
0.406073 0.522700 0.696153
0.468546 0.530540 0.704076
0.531019 0.538379 0.711998
0.593492 0.546219 0.719921
0.655965 0.554059 0.727844
0.718438 0.561898 0.735767
0.780911 0.569738 0.743690
0.307101 0.588344 0.706841
0.369573 0.596183 0.714764
0.432046 0.604023 0.722687
0.494519 0.611863 0.730610
0.556992 0.619703 0.738533
0.619465 0.627542 0.746456
0.681938 0.635382 0.754379
0.744411 0.643222 0.762301
0.806884 0.651061 0.770224
0.333074 0.669667 0.733376
0.395547 0.677507 0.741299
0.458020 0.685346 0.749222
0.520493 0.693186 0.757145
0.582966 0.701026 0.765067
0.645439 0.708866 0.772990
0.707912 0.716705 0.780913
0.770385 0.724545 0.788836
0.832858 0.732385 0.796759
0.359047 0.750990 0.759911
0.421520 0.758830 0.767833
0.483993 0.766670 0.775756
0.546466 0.774509 0.783679
0.608939 0.782349 0.791602
0.671412 0.790189 0.799525
0.733885 0.798029 0.807448
0.796358 0.805868 0.815370
0.858831 0.813708 0.823293
0.385021 0.832314 0.786445
0.447494 0.840153 0.794368
0.509967 0.847993 0.802291
0.572440 0.855833 0.810214
0.634913 0.863672 0.818136
0.697386 0.871512 0.826059
0.759859 0.879352 0.833982
0.822332 0.887192 0.841905
0.884804 0.895031 0.849828
0.179838 0.184360 0.632108
0.242311 0.192200 0.640031
0.304784 0.200039 0.647954
0.367257 0.207879 0.655877
0.429730 0.215719 0.663800
0.492203 0.223559 0.671723
0.554676 0.231398 0.679645
0.617149 0.239238 0.687568
0.679622 0.247078 0.695491
0.205811 0.265683 0.658643
0.268284 0.273523 0.666566
0.330757 0.281363 0.674488
0.393230 0.289202 0.682411
0.455703 0.297042 0.690334
0.518176 0.304882 0.698257
0.580649 0.312722 0.706180
0.643122 0.320561 0.714103
0.705595 0.328401 0.722026
0.231785 0.347007 0.685177
0.294258 0.354846 0.693100
0.356731 0.362686 0.701023
0.419204 0.370526 0.708946
0.481677 0.378365 0.716869
0.544150 0.386205 0.724792
0.606623 0.394045 0.732714
0.669095 0.401885 0.740637
0.731568 0.409724 0.748560
0.257758 0.428330 0.711712
0.320231 0.436170 0.719635
0.382704 0.444009 0.727557
0.445177 0.451849 0.735480
0.507650 0.459689 0.743403
0.570123 0.467528 0.751326
0.632596 0.475368 0.759249
0.695069 0.483208 0.767172
0.757542 0.491048 0.775095
0.283732 0.509653 0.738246
0.346205 0.517493 0.746169
0.408677 0.525333 0.754092
0.471150 0.533172 0.762015
0.533623 0.541012 0.769938
0.596096 0.548852 0.777861
0.658569 0.556692 0.785783
0.721042 0.564531 0.793706
0.783515 0.572371 0.801629
0.309705 0.590977 0.764781
0.372178 0.598816 0.772704
0.434651 0.606656 0.780626
0.497124 0.614496 0.788549
0.559597 0.622335 0.796472
0.622070 0.630175 0.804395
0.684543 0.638015 0.812318
0.747016 0.645855 0.820241
0.809489 0.653694 0.828164
0.335678 0.672300 0.791315
0.398151 0.680140 0.799238
0.460624 0.687979 0.807161
0.523097 0.695819 0.815084
0.585570 0.703659 0.823007
0.648043 0.711498 0.830930
0.710516 0.719338 0.838852
0.772989 0.727178 0.846775
0.835462 0.735018 0.854698
0.361652 0.753623 0.817850
0.424125 0.761463 0.825773
0.486598 0.769303 0.833696
0.549071 0.777142 0.841618
0.611544 0.784982 0.849541
0.674017 0.792822 0.857464
0.736490 0.800661 0.865387
0.798963 0.808501 0.873310
0.861436 0.816341 0.881233
0.387625 0.834947 0.844384
0.450098 0.842786 0.852307
0.512571 0.850626 0.860230
0.575044 0.858466 0.868153
0.637517 0.866305 0.876076
0.699990 0.874145 0.883999
0.762463 0.881985 0.891921
0.824936 0.889824 0.899844
0.887409 0.897664 0.907767
