assets/presets/luts/portrait-neg/lut.cube
TITLE "Portrait Neg"
LUT_3D_SIZE 5
0.000000 0.000000 0.000000
0.182830 0.000000 0.000043
0.533700 0.000000 0.000116
0.866351 0.000000 0.000208
1.000000 0.000000 0.000316
0.007161 0.154992 0.007161
0.173385 0.165667 0.000000
0.545016 0.146534 0.000000
0.881460 0.133553 0.000000
1.000000 0.123407 0.000000
0.020169 0.459611 0.020169
0.187860 0.482524 0.011658
0.509078 0.488561 0.000000
0.867178 0.461414 0.000000
1.000000 0.436294 0.000000
0.037434 0.782301 0.037434
0.224282 0.800218 0.030764
0.511316 0.817612 0.010410
0.840148 0.816985 0.000000
1.000000 0.797027 0.000000
0.058471 0.983081 0.058471
0.264612 0.989185 0.053177
0.545500 0.995084 0.032018
0.834744 0.998065 0.005470
1.000000 0.997142 0.000000
0.000000 0.000000 0.168638
0.168638 0.000000 0.168638
0.496664 0.000000 0.168737
0.832884 0.000000 0.172177
1.000000 0.000000 0.175406
0.000120 0.168065 0.168065
0.168638 0.168638 0.168638
0.515065 0.160216 0.169672
0.853344 0.151961 0.170708
1.000000 0.143875 0.171746
0.010196 0.477008 0.183573
0.204598 0.478086 0.204598
0.502769 0.492538 0.157222
0.861335 0.466258 0.142270
1.000000 0.447349 0.145300
0.027996 0.794357 0.218234
0.243015 0.797346 0.243015
0.521715 0.815358 0.219421
0.835490 0.820045 0.146116
1.000000 0.799491 0.121577
0.049430 0.987005 0.257613
0.283608 0.988448 0.283608
0.565706 0.993928 0.267329
0.836453 0.998068 0.209897
1.000000 0.997796 0.137375
0.000000 0.000000 0.496501
0.168638 0.000000 0.496501
0.496501 0.000000 0.496501
0.826090 0.000000 0.496501
0.999390 0.000000 0.496607
0.000000 0.168638 0.496501
0.168638 0.168638 0.496501
0.496501 0.168638 0.496501
0.826223 0.168559 0.496642
0.999987 0.164972 0.500757
0.000328 0.494973 0.494973
0.170756 0.495739 0.495739
0.496501 0.496501 0.496501
0.839940 0.485147 0.497879
1.000000 0.473802 0.499258
0.010030 0.812196 0.503843
0.214893 0.811072 0.516212
0.542707 0.811922 0.542707
0.830815 0.823077 0.481057
1.000000 0.802768 0.460424
0.027919 0.992766 0.534793
0.261023 0.992310 0.558590
0.588532 0.993031 0.588532
0.843828 0.997615 0.557406
1.000000 0.998390 0.467605
0.000000 0.000000 0.826090
0.168638 0.000000 0.826090
0.496501 0.000000 0.826090
0.826090 0.000000 0.826090
0.999377 0.000000 0.826090
0.000000 0.168638 0.826090
0.168638 0.168638 0.826090
0.496501 0.168638 0.826090
0.826090 0.168638 0.826090
0.999377 0.168638 0.826090
0.000000 0.496501 0.826090
0.168638 0.496501 0.826090
0.496501 0.496501 0.826090
0.826090 0.496501 0.826090
0.999378 0.496495 0.826096
0.000590 0.824352 0.824352
0.172884 0.824934 0.824934
0.499322 0.825512 0.825512
0.826090 0.826090 0.826090
1.000000 0.817405 0.827133
0.008880 0.997150 0.827097
0.211020 0.997032 0.831261
0.552223 0.996742 0.840017
0.859766 0.996752 0.859766
0.999892 0.998920 0.815004
0.000000 0.000000 0.999377
0.168638 0.000000 0.999377
0.496501 0.000000 0.999377
0.826090 0.000000 0.999377
0.999377 0.000000 0.999377
0.000000 0.168638 0.999377
0.168638 0.168638 0.999377
0.496501 0.168638 0.999377
0.826090 0.168638 0.999377
0.999377 0.168638 0.999377
0.000000 0.496501 0.999377
0.168638 0.496501 0.999377
0.496501 0.496501 0.999377
0.826090 0.496501 0.999377
0.999377 0.496501 0.999377
0.000000 0.826090 0.999377
0.168638 0.826090 0.999377
0.496501 0.826090 0.999377
0.826090 0.826090 0.999377
0.999377 0.826090 0.999377
0.000897 0.999038 0.999038
0.175022 0.999128 0.999128
0.502143 0.999214 0.999214
0.828222 0.999297 0.999297
0.999377 0.999377 0.999377
