assets/presets/luts/portrait-neg/lut.cube
TITLE "Portrait Neg"
LUT_3D_SIZE 17
0.000000 0.000000 0.000000
0.021235 0.000000 0.000005
0.061249 0.000000 0.000016
0.115662 0.000000 0.000028
0.182830 0.000000 0.000043
0.260854 0.000000 0.000059
0.347350 0.000000 0.000076
0.439404 0.000000 0.000095
0.533700 0.000000 0.000116
0.626746 0.000000 0.000137
0.715151 0.000000 0.000160
0.795866 0.000000 0.000184
0.866351 0.000000 0.000208
0.924587 0.000000 0.000234
0.968832 0.000000 0.000261
0.996450 0.000000 0.000288
1.000000 0.000000 0.000316
0.000833 0.018421 0.000833
0.020281 0.019505 0.000000
0.062670 0.017371 0.000000
0.119357 0.015929 0.000000
0.188259 0.014833 0.000000
0.267644 0.013873 0.000000
0.355151 0.012985 0.000000
0.447848 0.012142 0.000000
0.542402 0.011335 0.000000
0.635324 0.010555 0.000000
0.723246 0.009802 0.000000
0.803169 0.009072 0.000000
0.872609 0.008364 0.000000
0.929594 0.007679 0.000000
0.972380 0.007015 0.000000
0.998009 0.006374 0.000000
1.000000 0.005715 0.000000
0.002594 0.052149 0.002594
0.021881 0.054925 0.001507
0.058161 0.055639 0.000000
0.115828 0.052389 0.000000
0.187221 0.049408 0.000000
0.268875 0.047080 0.000000
0.358148 0.045168 0.000000
0.452146 0.043489 0.000000
0.547554 0.041954 0.000000
0.640901 0.040514 0.000000
0.728854 0.039143 0.000000
0.808459 0.037824 0.000000
0.877287 0.036546 0.000000
0.933416 0.035303 0.000000
0.975103 0.034089 0.000000
0.999043 0.032902 0.000000
1.000000 0.031607 0.000000
0.004689 0.098174 0.004689
0.025826 0.101600 0.003864
0.058415 0.105015 0.001343
0.109724 0.104876 0.000000
0.180611 0.100784 0.000000
0.263885 0.096555 0.000000
0.355459 0.092883 0.000000
0.451547 0.089789 0.000000
0.548568 0.087125 0.000000
0.643050 0.084746 0.000000
0.731681 0.082563 0.000000
0.811554 0.080522 0.000000
0.880293 0.078585 0.000000
0.936028 0.076730 0.000000
0.977031 0.074940 0.000000
0.999646 0.073203 0.000000
1.000000 0.071277 0.000000
0.007161 0.154992 0.007161
0.030274 0.158874 0.006584
0.062843 0.163442 0.004165
0.108590 0.166624 0.000932
0.173385 0.165667 0.000000
0.255563 0.160895 0.000000
0.347896 0.155676 0.000000
0.445843 0.150834 0.000000
0.545016 0.146534 0.000000
0.641374 0.142756 0.000000
0.731406 0.139405 0.000000
0.812211 0.136364 0.000000
0.881460 0.133553 0.000000
0.937333 0.130917 0.000000
0.978134 0.128417 0.000000
0.999917 0.126025 0.000000
1.000000 0.123407 0.000000
0.009969 0.221298 0.009969
0.035003 0.225522 0.009601
0.068480 0.230797 0.007309
0.112657 0.235569 0.004118
0.170967 0.238172 0.000519
0.247464 0.236500 0.000000
0.338605 0.231190 0.000000
0.436899 0.225202 0.000000
0.537523 0.219408 0.000000
0.635842 0.214057 0.000000
0.727841 0.209205 0.000000
0.810263 0.204831 0.000000
0.880663 0.200869 0.000000
0.937254 0.197226 0.000000
0.978385 0.193833 0.000000
0.999985 0.190636 0.000000
1.000000 0.187259 0.000000
0.013085 0.295515 0.013085
0.039967 0.299976 0.012896
0.074702 0.305678 0.010789
0.118794 0.311327 0.007590
0.174209 0.315899 0.003720
0.243918 0.317778 0.000181
0.329876 0.315510 0.000000
0.427153 0.309818 0.000000
0.528015 0.303277 0.000000
0.627608 0.296768 0.000000
0.721397 0.290582 0.000000
0.805716 0.284827 0.000000
0.877815 0.279527 0.000000
0.935719 0.274661 0.000000
0.977747 0.270185 0.000000
0.999948 0.266025 0.000000
1.000000 0.261847 0.000000
0.016490 0.375708 0.016490
0.045152 0.380296 0.016457
0.081286 0.386200 0.014543
0.125900 0.392355 0.011372
0.180326 0.397913 0.007629
0.246138 0.401991 0.003174
0.325393 0.403144 0.000000
0.418061 0.400414 0.000000
0.518240 0.394512 0.000000
0.618145 0.387641 0.000000
0.713179 0.380670 0.000000
0.799214 0.373900 0.000000
0.873136 0.367473 0.000000
0.932726 0.361443 0.000000
0.976172 0.355820 0.000000
0.999727 0.350588 0.000000
1.000000 0.345621 0.000000
0.020169 0.459611 0.020169
0.050552 0.464209 0.020276
0.088140 0.470119 0.018549
0.133606 0.476470 0.015475
0.187860 0.482524 0.011658
0.251788 0.487718 0.007313
0.326546 0.491114 0.002580
0.412873 0.491607 0.000000
0.509078 0.488561 0.000000
0.608700 0.482631 0.000000
0.704229 0.475665 0.000000
0.791559 0.468495 0.000000
0.867178 0.461414 0.000000
0.928559 0.454579 0.000000
0.973719 0.448067 0.000000
0.999163 0.441908 0.000000
1.000000 0.436294 0.000000
0.024111 0.544734 0.024111
0.056165 0.549223 0.024345
0.095220 0.554960 0.022794
0.141723 0.561244 0.019850
0.196238 0.567447 0.016003
0.259355 0.573088 0.011761
0.331438 0.577693 0.006780
0.413012 0.580353 0.001991
0.503444 0.580291 0.000000
0.599779 0.577085 0.000000
0.695415 0.571307 0.000000
0.783480 0.564479 0.000000
0.860476 0.557371 0.000000
0.923570 0.550258 0.000000
0.970559 0.543296 0.000000
0.998165 0.536574 0.000000
1.000000 0.530623 0.000000
0.028308 0.628506 0.028308
0.061989 0.632771 0.028659
0.102505 0.638180 0.027272
0.150146 0.644174 0.024471
0.205198 0.650231 0.020661
0.268016 0.655937 0.016301
0.338630 0.660980 0.011533
0.416983 0.664839 0.006129
0.502696 0.666792 0.001435
0.593973 0.666302 0.000000
0.687042 0.663089 0.000000
0.775554 0.657635 0.000000
0.853531 0.651163 0.000000
0.918099 0.644363 0.000000
0.966878 0.637483 0.000000
0.996722 0.630669 0.000000
1.000000 0.624754 0.000000
0.032751 0.708445 0.032751
0.068023 0.712382 0.033211
0.109984 0.717331 0.031978
0.158815 0.722853 0.029325
0.214580 0.728525 0.025589
0.277419 0.734000 0.021166
0.347227 0.739011 0.016454
0.423493 0.743314 0.011052
0.505692 0.746383 0.005421
0.592519 0.747711 0.000933
0.681333 0.746929 0.000000
0.767987 0.743852 0.000000
0.846699 0.738871 0.000000
0.912478 0.732949 0.000000
0.962867 0.726671 0.000000
0.994880 0.720261 0.000000
1.000000 0.714756 0.000000
0.037434 0.782301 0.037434
0.074263 0.785822 0.037998
0.117649 0.790207 0.036908
0.167696 0.795118 0.034402
0.224282 0.800218 0.030764
0.287363 0.805226 0.026335
0.356703 0.809920 0.021479
0.431651 0.814137 0.016309
0.511316 0.817612 0.010410
0.594572 0.819928 0.004694
0.679385 0.820739 0.000502
0.762625 0.819799 0.000000
0.840148 0.816985 0.000000
0.906904 0.812602 0.000000
0.958733 0.807383 0.000000
0.992724 0.801805 0.000000
1.000000 0.797027 0.000000
0.042352 0.848157 0.042352
0.080707 0.851193 0.043014
0.125497 0.854937 0.042060
0.176765 0.859135 0.039697
0.234239 0.863525 0.036170
0.297710 0.867887 0.031774
0.366821 0.872046 0.026832
0.440874 0.875863 0.021670
0.518733 0.879229 0.015893
0.599206 0.881875 0.009668
0.680596 0.883519 0.003972
0.760406 0.883935 0.000166
0.835347 0.882962 0.000000
0.901530 0.880518 0.000000
0.954564 0.876828 0.000000
0.990373 0.872431 0.000000
1.000000 0.868597 0.000000
0.047501 0.904453 0.047501
0.087354 0.906951 0.048256
0.133523 0.909999 0.047430
0.186007 0.913412 0.045206
0.244405 0.916994 0.041797
0.308367 0.920579 0.037461
0.377419 0.924033 0.032483
0.450805 0.927252 0.027162
0.527361 0.930162 0.021601
0.605677 0.932653 0.015288
0.684227 0.934523 0.008866
0.760923 0.935598 0.003272
0.833075 0.935740 0.000000
0.897469 0.934847 0.000000
0.950507 0.932864 0.000000
0.987868 0.929945 0.000000
1.000000 0.927193 0.000000
0.052875 0.949893 0.052875
0.094201 0.951806 0.053720
0.141724 0.954111 0.053015
0.195412 0.956680 0.050927
0.254750 0.959371 0.047639
0.319267 0.962067 0.043380
0.388381 0.964673 0.038403
0.461273 0.967116 0.032979
0.536796 0.969344 0.027381
0.613433 0.971320 0.021254
0.689641 0.972945 0.014551
0.763610 0.974107 0.008035
0.833073 0.974716 0.002606
0.895343 0.974700 0.000000
0.947345 0.973999 0.000000
0.985342 0.972574 0.000000
1.000000 0.970954 0.000000
0.058471 0.983081 0.058471
0.101201 0.984344 0.059363
0.149919 0.985845 0.058666
0.204583 0.987492 0.056544
0.264612 0.989185 0.053177
0.329464 0.990845 0.048786
0.398506 0.992408 0.043619
0.470894 0.993831 0.037940
0.545500 0.995084 0.032018
0.620848 0.996156 0.025816
0.695331 0.997029 0.018865
0.767303 0.997669 0.011814
0.834744 0.998065 0.005470
0.895257 0.998214 0.000851
0.946086 0.998107 0.000000
0.983836 0.997714 0.000000
1.000000 0.997142 0.000000
0.000000 0.000000 0.019804
0.019804 0.000000 0.019804
0.056625 0.000000 0.019813
0.108121 0.000000 0.020184
0.173009 0.000000 0.020570
0.249220 0.000000 0.020881
0.334377 0.000000 0.021140
0.425614 0.000000 0.021362
0.519649 0.000000 0.021561
0.612997 0.000000 0.021743
0.702228 0.000000 0.021913
0.784227 0.000000 0.022074
0.856369 0.000000 0.022228
0.916559 0.000000 0.022378
0.963045 0.000000 0.022523
0.993532 0.000000 0.022665
1.000000 0.000000 0.022786
0.000014 0.019746 0.019746
0.019804 0.019804 0.019804
0.058650 0.018980 0.019902
0.112618 0.017977 0.020030
0.179188 0.017087 0.020144
0.256720 0.016214 0.020257
0.342857 0.015358 0.020371
0.434709 0.014519 0.020485
0.528975 0.013696 0.020600
0.622167 0.012890 0.020714
0.710880 0.012102 0.020829
0.792045 0.011332 0.020944
0.863095 0.010580 0.021059
0.921987 0.009846 0.021175
0.966978 0.009130 0.021291
0.995561 0.008434 0.021407
1.000000 0.007756 0.021523
0.001321 0.054257 0.021410
0.023300 0.054614 0.023300
0.057291 0.056180 0.018696
0.114444 0.052970 0.016911
0.183528 0.050783 0.017262
0.262760 0.049095 0.017639
0.350092 0.047595 0.017944
0.442706 0.046187 0.018195
0.537320 0.044835 0.018411
0.630460 0.043521 0.018603
0.718756 0.042236 0.018779
0.799187 0.040976 0.018943
0.869245 0.039737 0.019098
0.926934 0.038517 0.019246
0.970519 0.037316 0.019389
0.997225 0.036131 0.019528
1.000000 0.034884 0.019666
0.003526 0.100469 0.025163
0.027893 0.101036 0.027893
0.059714 0.104559 0.025331
0.108712 0.105504 0.017334
0.179432 0.101302 0.014499
0.261692 0.097433 0.014186
0.351512 0.094397 0.014461
0.445901 0.091887 0.014848
0.541697 0.089671 0.015224
0.635500 0.087633 0.015566
0.724000 0.085712 0.015874
0.804244 0.083873 0.016151
0.873788 0.082095 0.016404
0.930696 0.080364 0.016636
0.973245 0.078672 0.016853
0.998382 0.077012 0.017056
1.000000 0.075187 0.017237
0.006137 0.157387 0.029498
0.032313 0.158413 0.032313
0.065441 0.162451 0.030710
0.109063 0.166577 0.024884
0.172173 0.166418 0.016144
0.254272 0.161503 0.012701
0.346185 0.156405 0.011755
0.443179 0.151968 0.011636
0.541164 0.148217 0.011857
0.636538 0.144975 0.012199
0.726048 0.142070 0.012567
0.806808 0.139396 0.012927
0.876451 0.136886 0.013269
0.933109 0.134498 0.013588
0.975089 0.132204 0.013886
0.999092 0.129984 0.014165
1.000000 0.127520 0.014396
0.009067 0.223749 0.034146
0.036973 0.225199 0.036973
0.071723 0.229551 0.035974
0.114754 0.234781 0.031347
0.170827 0.238459 0.023682
0.246086 0.237353 0.014985
0.337183 0.231903 0.011189
0.435339 0.225922 0.009811
0.535493 0.220361 0.009316
0.633157 0.215408 0.009269
0.724535 0.211048 0.009452
0.806600 0.207169 0.009745
0.877039 0.203641 0.010079
0.934056 0.200371 0.010424
0.976010 0.197296 0.010764
0.999443 0.194374 0.011093
1.000000 0.191201 0.011358
0.012288 0.297982 0.039042
0.041869 0.299799 0.041869
0.078254 0.304349 0.041287
0.121894 0.310148 0.037321
0.175719 0.315404 0.031247
0.243341 0.318302 0.022328
0.328370 0.316443 0.013858
0.425636 0.310621 0.009842
0.526516 0.304034 0.008190
0.625930 0.297645 0.007403
0.719416 0.291732 0.007108
0.803449 0.286357 0.007095
0.875411 0.281502 0.007249
0.933444 0.277094 0.007497
0.975968 0.273033 0.007791
0.999519 0.269241 0.008105
1.000000 0.265304 0.008371
0.015783 0.378147 0.044167
0.046996 0.380258 0.046996
0.084978 0.384897 0.046726
0.129685 0.390945 0.043318
0.183028 0.396939 0.037834
0.247041 0.401819 0.030381
0.324505 0.403830 0.020959
0.416478 0.401398 0.012761
0.516684 0.395379 0.008607
0.616704 0.388441 0.006792
0.711741 0.381520 0.005802
0.797699 0.374927 0.005310
0.871558 0.368780 0.005123
0.931198 0.363107 0.005129
0.974913 0.357888 0.005258
0.999334 0.353077 0.005466
1.000000 0.348369 0.005681
0.019541 0.461976 0.049512
0.052349 0.464295 0.052349
0.091883 0.468911 0.052326
0.137845 0.474968 0.049383
0.191419 0.481283 0.044298
0.254019 0.486985 0.037905
0.326921 0.491211 0.029170
0.411772 0.492392 0.019614
0.507470 0.489566 0.011698
0.607171 0.483535 0.007463
0.702874 0.476493 0.005562
0.790322 0.469331 0.004443
0.866008 0.462358 0.003814
0.927473 0.455723 0.003494
0.972822 0.449485 0.003375
0.998808 0.443655 0.003390
1.000000 0.438249 0.003501
0.023554 0.546979 0.055074
0.057924 0.549410 0.057924
0.098969 0.553891 0.058105
0.146256 0.559759 0.055554
0.200455 0.566066 0.050861
0.262537 0.572071 0.044775
0.333116 0.577242 0.037301
0.412960 0.580647 0.027810
0.502214 0.581122 0.018305
0.598204 0.578076 0.010667
0.693969 0.572214 0.006418
0.782247 0.565312 0.004466
0.859434 0.558188 0.003282
0.922688 0.551135 0.002574
0.969864 0.544310 0.002169
0.997844 0.537793 0.001963
1.000000 0.531963 0.001949
0.027813 0.630588 0.060849
0.063718 0.633034 0.063718
0.106235 0.637270 0.064074
0.154868 0.642786 0.061856
0.209906 0.648825 0.057530
0.271949 0.654780 0.051692
0.341379 0.660189 0.044948
0.418122 0.664641 0.036280
0.502321 0.667213 0.026392
0.592691 0.667132 0.017034
0.685552 0.664034 0.009670
0.774235 0.658513 0.005461
0.852456 0.651975 0.003487
0.917261 0.645147 0.002292
0.966264 0.638296 0.001561
0.996419 0.631573 0.001127
1.000000 0.625701 0.000992
0.032314 0.710326 0.066836
0.069727 0.712694 0.069727
0.113682 0.716587 0.070237
0.163655 0.721616 0.068309
0.219650 0.727186 0.064318
0.281963 0.732808 0.058751
0.350761 0.738093 0.052160
0.425714 0.742773 0.044545
0.506355 0.746380 0.035024
0.591921 0.748196 0.024961
0.680069 0.747718 0.015802
0.766630 0.744723 0.008707
0.845547 0.739690 0.004579
0.911593 0.733711 0.002613
0.962251 0.727403 0.001458
0.994568 0.721003 0.000764
1.000000 0.715487 0.000518
0.037050 0.783953 0.073030
0.075948 0.786156 0.075948
0.121309 0.789624 0.076595
0.172604 0.794063 0.074923
0.229616 0.799012 0.071238
0.292391 0.804087 0.065944
0.360896 0.808975 0.059507
0.434738 0.813439 0.052399
0.512993 0.817296 0.043699
0.594847 0.820055 0.033638
0.678656 0.821235 0.023538
0.761437 0.820515 0.014609
0.838964 0.817758 0.007780
0.905952 0.813335 0.003766
0.958068 0.808071 0.001841
0.992379 0.802466 0.000777
1.000000 0.797651 0.000393
0.042017 0.849558 0.079430
0.082378 0.851522 0.082378
0.129116 0.854501 0.083150
0.181707 0.858275 0.081705
0.239761 0.862498 0.078300
0.303117 0.866872 0.073274
0.371564 0.871155 0.067023
0.444615 0.875158 0.059976
0.521291 0.878751 0.052153
0.600382 0.881732 0.042570
0.680577 0.883715 0.032181
0.759628 0.884397 0.022138
0.834286 0.883577 0.013454
0.900550 0.881172 0.006890
0.953842 0.877455 0.003019
0.989977 0.873025 0.001172
1.000000 0.869154 0.000559
0.047212 0.905589 0.086034
0.089014 0.907252 0.089014
0.137101 0.909692 0.089901
0.190960 0.912750 0.088661
0.250060 0.916171 0.085512
0.314067 0.919735 0.080743
0.382614 0.923262 0.074694
0.455115 0.926608 0.067739
0.530614 0.929666 0.060261
0.607681 0.932368 0.051462
0.684973 0.934496 0.041258
0.760704 0.935811 0.030692
0.832316 0.936132 0.020765
0.896573 0.935341 0.012337
0.949758 0.933384 0.006037
0.987421 0.930448 0.002335
1.000000 0.927674 0.001211
0.052629 0.950752 0.092838
0.095852 0.952057 0.095852
0.145262 0.953913 0.096847
0.200359 0.956210 0.095794
0.260495 0.958769 0.092881
0.325190 0.961433 0.088357
0.393940 0.964077 0.082516
0.466066 0.966602 0.075687
0.540591 0.968931 0.068214
0.616139 0.971020 0.060145
0.691123 0.972807 0.050459
0.764014 0.974140 0.039830
0.832740 0.974898 0.029194
0.894661 0.974989 0.019425
0.946647 0.974349 0.011258
0.984864 0.972942 0.005223
1.000000 0.971322 0.003108
0.058228 0.983648 0.099797
0.102891 0.984511 0.102891
0.153539 0.985719 0.103932
0.209677 0.987190 0.102899
0.270586 0.988801 0.099973
0.335706 0.990446 0.095395
0.404467 0.992039 0.089449
0.476150 0.993517 0.082451
0.549785 0.994836 0.074735
0.624076 0.995973 0.066594
0.697368 0.996924 0.057045
0.768197 0.997645 0.046252
0.834773 0.998109 0.035147
0.894796 0.998309 0.024614
0.945485 0.998237 0.015407
0.983369 0.997869 0.008087
1.000000 0.997313 0.005191
0.000000 0.000000 0.056610
0.019804 0.000000 0.056610
0.056610 0.000000 0.056610
0.106742 0.000000 0.056610
0.168695 0.000000 0.056640
0.242145 0.000000 0.057123
0.325226 0.000000 0.057754
0.415018 0.000000 0.058356
0.508234 0.000000 0.058898
0.601372 0.000000 0.059383
0.690963 0.000000 0.059821
0.773826 0.000000 0.060219
0.847248 0.000000 0.060585
0.909057 0.000000 0.060925
0.957466 0.000000 0.061244
0.990383 0.000000 0.061546
1.000000 0.000000 0.061763
0.000000 0.019804 0.056610
0.019804 0.019804 0.056610
0.056610 0.019804 0.056610
0.106769 0.019795 0.056627
0.170348 0.019358 0.057187
0.245792 0.018650 0.057753
0.330447 0.017856 0.058207
0.421388 0.017034 0.058581
0.515319 0.016204 0.058904
0.608744 0.015378 0.059192
0.698219 0.014559 0.059456
0.780605 0.013752 0.059702
0.853250 0.012958 0.059936
0.914035 0.012178 0.060160
0.961200 0.011414 0.060376
0.992528 0.010666 0.060587
1.000000 0.009987 0.060764
0.000044 0.056422 0.056422
0.020011 0.056527 0.056527
0.056610 0.056610 0.056610
0.109359 0.055380 0.056755
0.175644 0.053870 0.056946
0.252689 0.052520 0.057114
0.338466 0.051184 0.057283
0.430112 0.049861 0.057452
0.524340 0.048551 0.057621
0.617666 0.047255 0.057790
0.706675 0.045973 0.057959
0.788275 0.044705 0.058129
0.859874 0.043450 0.058298
0.919404 0.042209 0.058468
0.965121 0.040981 0.058639
0.994627 0.039768 0.058809
1.000000 0.038569 0.058979
0.001299 0.103930 0.057492
0.024840 0.103705 0.059031
0.061743 0.104172 0.061743
0.107617 0.106189 0.054953
0.177814 0.102045 0.052251
0.257589 0.099204 0.052786
0.345007 0.097000 0.053359
0.437658 0.095034 0.053820
0.532387 0.093182 0.054200
0.625768 0.091396 0.054525
0.714437 0.089654 0.054814
0.795361 0.087944 0.055078
0.866010 0.086261 0.055324
0.924371 0.084599 0.055556
0.968711 0.082956 0.055777
0.996406 0.081331 0.055991
1.000000 0.079605 0.056201
0.003649 0.161400 0.061444
0.030012 0.161109 0.064504
0.068313 0.161794 0.068313
0.110719 0.166024 0.064670
0.170992 0.167156 0.052896
0.252964 0.162114 0.048521
0.343852 0.157450 0.048029
0.439137 0.153776 0.048461
0.535596 0.150730 0.049067
0.630008 0.148033 0.049653
0.719140 0.145545 0.050184
0.800063 0.143194 0.050659
0.870335 0.140938 0.051086
0.928017 0.138752 0.051474
0.971403 0.136618 0.051831
0.997649 0.134528 0.052162
1.000000 0.132218 0.052452
0.006557 0.228009 0.066743
0.035159 0.227874 0.070655
0.074485 0.229047 0.074485
0.117993 0.233667 0.072261
0.171410 0.238376 0.064029
0.244741 0.238194 0.051076
0.335809 0.232584 0.045669
0.433586 0.226744 0.044141
0.532863 0.221644 0.043946
0.629492 0.217321 0.044306
0.720108 0.213575 0.044861
0.801896 0.210211 0.045454
0.872523 0.207107 0.046032
0.930145 0.204187 0.046577
0.973111 0.201405 0.047085
0.998408 0.198727 0.047557
1.000000 0.195763 0.047941
0.009838 0.302314 0.072720
0.040389 0.302429 0.077099
0.080867 0.304016 0.080867
0.125887 0.308804 0.079508
0.178182 0.314545 0.073147
0.243212 0.318573 0.062296
0.326903 0.317363 0.049281
0.424177 0.311388 0.043216
0.524975 0.304812 0.040924
0.623997 0.298679 0.040085
0.716955 0.293203 0.040005
0.800541 0.288369 0.040316
0.872346 0.284060 0.040811
0.930614 0.280131 0.041374
0.973777 0.276484 0.041949
0.998757 0.273049 0.042514
1.000000 0.269368 0.042969
0.013421 0.382423 0.079114
0.045760 0.382813 0.083755
0.087455 0.384729 0.087455
0.134011 0.389563 0.086678
0.186626 0.395712 0.081338
0.248763 0.401271 0.073007
0.323909 0.404332 0.060328
0.414934 0.402369 0.047511
0.515181 0.396212 0.040975
0.615274 0.389229 0.038145
0.710200 0.382437 0.036758
0.795953 0.376133 0.036229
0.869656 0.370389 0.036207
0.929315 0.365189 0.036483
0.973347 0.360458 0.036924
0.998741 0.356090 0.037445
1.000000 0.351664 0.037905
0.017275 0.466090 0.085809
0.051301 0.466740 0.090603
0.094247 0.468889 0.094247
0.142294 0.473659 0.093891
0.195780 0.479865 0.089384
0.257025 0.486000 0.082033
0.327944 0.490985 0.071803
0.410869 0.493037 0.058320
0.505903 0.490556 0.045766
0.605685 0.484406 0.038869
0.701548 0.477297 0.035659
0.789051 0.470188 0.033833
0.864733 0.463397 0.032902
0.926230 0.457051 0.032544
0.971760 0.451179 0.032555
0.998339 0.445766 0.032803
1.000000 0.440631 0.033154
0.021382 0.550840 0.092753
0.057028 0.551706 0.097637
0.101239 0.553989 0.101239
0.150725 0.558586 0.101209
0.205303 0.564604 0.097377
0.266464 0.570865 0.090685
0.335535 0.576505 0.082128
0.413410 0.580677 0.070109
0.501123 0.581842 0.056327
0.596668 0.579054 0.044047
0.692573 0.573094 0.036864
0.781045 0.566118 0.033381
0.858389 0.559003 0.031211
0.921762 0.552059 0.029937
0.969099 0.545433 0.029272
0.997465 0.539189 0.029020
1.000000 0.533530 0.029126
0.025733 0.634123 0.099916
0.062946 0.635145 0.104856
0.108428 0.637461 0.108428
0.159304 0.641781 0.108661
0.215057 0.647427 0.105383
0.276578 0.653482 0.099306
0.344766 0.659232 0.091317
0.419916 0.664173 0.081312
0.502331 0.667421 0.068195
0.591509 0.667873 0.054365
0.684099 0.664968 0.042353
0.772971 0.659369 0.034978
0.851409 0.652759 0.031258
0.916430 0.645917 0.028822
0.965633 0.639126 0.027266
0.996090 0.632536 0.026330
1.000000 0.626739 0.026088
0.030320 0.713478 0.107284
0.069062 0.714587 0.112258
0.115813 0.716840 0.115813
0.168031 0.720790 0.116264
0.224979 0.725923 0.113450
0.287102 0.731530 0.107924
0.354924 0.737043 0.100387
0.428567 0.742040 0.091546
0.507571 0.746143 0.079925
0.591615 0.748510 0.066185
0.678875 0.748435 0.052439
0.765307 0.745584 0.040685
0.844448 0.740492 0.033190
0.910729 0.734448 0.029256
0.961644 0.728117 0.026618
0.994250 0.721745 0.024832
1.000000 0.716233 0.024147
0.035138 0.786681 0.114846
0.075375 0.787807 0.119843
0.123388 0.789910 0.123388
0.176909 0.793412 0.124027
0.235042 0.797927 0.121608
0.297895 0.802914 0.116573
0.365683 0.807932 0.109488
0.438355 0.812638 0.100994
0.515260 0.816792 0.091012
0.595574 0.819988 0.078212
0.678144 0.821595 0.064139
0.760300 0.821172 0.050548
0.837809 0.818521 0.039043
0.905045 0.814056 0.031482
0.957417 0.808737 0.027354
0.992037 0.803108 0.024565
1.000000 0.798260 0.023353
0.040182 0.851840 0.122596
0.081885 0.852914 0.127609
0.131152 0.854792 0.131152
0.185937 0.857787 0.131955
0.245230 0.861610 0.129877
0.308876 0.865860 0.125281
0.376836 0.870202 0.118629
0.448887 0.874369 0.110455
0.524370 0.878162 0.101305
0.602077 0.881428 0.089890
0.680919 0.883759 0.076311
0.759008 0.884754 0.062089
0.833259 0.884147 0.048693
0.899594 0.881819 0.037426
0.953155 0.878073 0.029839
0.989586 0.873599 0.025536
1.000000 0.869690 0.023718
0.045448 0.907413 0.130530
0.088594 0.908374 0.135555
0.139100 0.909963 0.139100
0.195114 0.912404 0.140050
0.255534 0.915487 0.138272
0.319998 0.918920 0.134068
0.388256 0.922459 0.127824
0.459927 0.925907 0.119989
0.534304 0.929113 0.111054
0.610183 0.931977 0.100986
0.686160 0.934342 0.088389
0.760764 0.935910 0.074302
0.831670 0.936448 0.060051
0.895700 0.935801 0.046872
0.949027 0.933898 0.035836
0.986994 0.930945 0.028254
1.000000 0.928143 0.025454
0.050934 0.952111 0.138643
0.095498 0.952899 0.143678
0.147231 0.954142 0.147231
0.204438 0.955986 0.148313
0.265950 0.958284 0.146801
0.331231 0.960835 0.142950
0.399858 0.963470 0.137086
0.471313 0.966052 0.129593
0.544825 0.968476 0.120891
0.619260 0.970669 0.111417
0.693054 0.972588 0.100087
0.764779 0.974086 0.086638
0.832615 0.975004 0.072236
0.894056 0.975228 0.058035
0.945962 0.974676 0.045084
0.984396 0.973305 0.034272
1.000000 0.971686 0.029884
0.056493 0.984539 0.146761
0.102543 0.985059 0.151919
0.155539 0.985869 0.155539
0.213833 0.987049 0.156669
0.276196 0.988495 0.155192
0.342002 0.990071 0.151352
0.410741 0.991663 0.145462
0.481839 0.993181 0.137886
0.554515 0.994563 0.129025
0.627681 0.995768 0.119303
0.699851 0.996783 0.108388
0.769501 0.997580 0.095110
0.835088 0.998115 0.080513
0.894476 0.998374 0.065736
0.944925 0.998348 0.051814
0.982907 0.998014 0.039584
1.000000 0.997478 0.034111
0.000000 0.000000 0.106742
0.019804 0.000000 0.106742
0.056610 0.000000 0.106742
0.106742 0.000000 0.106742
0.168638 0.000000 0.106742
0.240723 0.000000 0.106742
0.321160 0.000000 0.106802
0.408658 0.000000 0.107361
0.500292 0.000000 0.108142
0.592532 0.000000 0.108957
0.681866 0.000000 0.109742
0.765046 0.000000 0.110477
0.839274 0.000000 0.111160
0.902290 0.000000 0.111794
0.952257 0.000000 0.112384
0.987194 0.000000 0.112936
1.000000 0.000000 0.113292
0.000000 0.019804 0.106742
0.019804 0.019804 0.106742
0.056610 0.019804 0.106742
