assets/presets/luts/portrait-neg/lut.cube
TITLE "Portrait Neg"
LUT_3D_SIZE 9
0.000000 0.000000 0.000000
0.061249 0.000000 0.000016
0.182830 0.000000 0.000043
0.347350 0.000000 0.000076
0.533700 0.000000 0.000116
0.715151 0.000000 0.000160
0.866351 0.000000 0.000208
0.968832 0.000000 0.000261
1.000000 0.000000 0.000316
0.002594 0.052149 0.002594
0.058161 0.055639 0.000000
0.187221 0.049408 0.000000
0.358148 0.045168 0.000000
0.547554 0.041954 0.000000
0.728854 0.039143 0.000000
0.877287 0.036546 0.000000
0.975103 0.034089 0.000000
1.000000 0.031607 0.000000
0.007161 0.154992 0.007161
0.062843 0.163442 0.004165
0.173385 0.165667 0.000000
0.347896 0.155676 0.000000
0.545016 0.146534 0.000000
0.731406 0.139405 0.000000
0.881460 0.133553 0.000000
0.978134 0.128417 0.000000
1.000000 0.123407 0.000000
0.013085 0.295515 0.013085
0.074702 0.305678 0.010789
0.174209 0.315899 0.003720
0.329876 0.315510 0.000000
0.528015 0.303277 0.000000
0.721397 0.290582 0.000000
0.877815 0.279527 0.000000
0.977747 0.270185 0.000000
1.000000 0.261847 0.000000
0.020169 0.459611 0.020169
0.088140 0.470119 0.018549
0.187860 0.482524 0.011658
0.326546 0.491114 0.002580
0.509078 0.488561 0.000000
0.704229 0.475665 0.000000
0.867178 0.461414 0.000000
0.973719 0.448067 0.000000
1.000000 0.436294 0.000000
0.028308 0.628506 0.028308
0.102505 0.638180 0.027272
0.205198 0.650231 0.020661
0.338630 0.660980 0.011533
0.502696 0.666792 0.001435
0.687042 0.663089 0.000000
0.853531 0.651163 0.000000
0.966878 0.637483 0.000000
1.000000 0.624754 0.000000
0.037434 0.782301 0.037434
0.117649 0.790207 0.036908
0.224282 0.800218 0.030764
0.356703 0.809920 0.021479
0.511316 0.817612 0.010410
0.679385 0.820739 0.000502
0.840148 0.816985 0.000000
0.958733 0.807383 0.000000
1.000000 0.797027 0.000000
0.047501 0.904453 0.047501
0.133523 0.909999 0.047430
0.244405 0.916994 0.041797
0.377419 0.924033 0.032483
0.527361 0.930162 0.021601
0.684227 0.934523 0.008866
0.833075 0.935740 0.000000
0.950507 0.932864 0.000000
1.000000 0.927193 0.000000
0.058471 0.983081 0.058471
0.149919 0.985845 0.058666
0.264612 0.989185 0.053177
0.398506 0.992408 0.043619
0.545500 0.995084 0.032018
0.695331 0.997029 0.018865
0.834744 0.998065 0.005470
0.946086 0.998107 0.000000
1.000000 0.997142 0.000000
0.000000 0.000000 0.056610
0.056610 0.000000 0.056610
0.168695 0.000000 0.056640
0.325226 0.000000 0.057754
0.508234 0.000000 0.058898
0.690963 0.000000 0.059821
0.847248 0.000000 0.060585
0.957466 0.000000 0.061244
1.000000 0.000000 0.061763
0.000044 0.056422 0.056422
0.056610 0.056610 0.056610
0.175644 0.053870 0.056946
0.338466 0.051184 0.057283
0.524340 0.048551 0.057621
0.706675 0.045973 0.057959
0.859874 0.043450 0.058298
0.965121 0.040981 0.058639
1.000000 0.038569 0.058979
0.003649 0.161400 0.061444
0.068313 0.161794 0.068313
0.170992 0.167156 0.052896
0.343852 0.157450 0.048029
0.535596 0.150730 0.049067
0.719140 0.145545 0.050184
0.870335 0.140938 0.051086
0.971403 0.136618 0.051831
1.000000 0.132218 0.052452
0.009838 0.302314 0.072720
0.080867 0.304016 0.080867
0.178182 0.314545 0.073147
0.326903 0.317363 0.049281
0.524975 0.304812 0.040924
0.716955 0.293203 0.040005
0.872346 0.284060 0.040811
0.973777 0.276484 0.041949
1.000000 0.269368 0.042969
0.017275 0.466090 0.085809
0.094247 0.468889 0.094247
0.195780 0.479865 0.089384
0.327944 0.490985 0.071803
0.505903 0.490556 0.045766
0.701548 0.477297 0.035659
0.864733 0.463397 0.032902
0.971760 0.451179 0.032555
1.000000 0.440631 0.033154
0.025733 0.634123 0.099916
0.108428 0.637461 0.108428
0.215057 0.647427 0.105383
0.344766 0.659232 0.091317
0.502331 0.667421 0.068195
0.684099 0.664968 0.042353
0.851409 0.652759 0.031258
0.965633 0.639126 0.027266
1.000000 0.626739 0.026088
0.035138 0.786681 0.114846
0.123388 0.789910 0.123388
0.235042 0.797927 0.121608
0.365683 0.807932 0.109488
0.515260 0.816792 0.091012
0.678144 0.821595 0.064139
0.837809 0.818521 0.039043
0.957417 0.808737 0.027354
1.000000 0.798260 0.023353
0.045448 0.907413 0.130530
0.139100 0.909963 0.139100
0.255534 0.915487 0.138272
0.388256 0.922459 0.127824
0.534304 0.929113 0.111054
0.686160 0.934342 0.088389
0.831670 0.936448 0.060051
0.949027 0.933898 0.035836
1.000000 0.928143 0.025454
0.056493 0.984539 0.146761
0.155539 0.985869 0.155539
0.276196 0.988495 0.155192
0.410741 0.991663 0.145462
0.554515 0.994563 0.129025
0.699851 0.996783 0.108388
0.835088 0.998115 0.080513
0.944925 0.998348 0.051814
1.000000 0.997478 0.034111
0.000000 0.000000 0.168638
0.056610 0.000000 0.168638
0.168638 0.000000 0.168638
0.321049 0.000000 0.168638
0.496664 0.000000 0.168737
0.675582 0.000000 0.170237
0.832884 0.000000 0.172177
0.947683 0.000000 0.174023
1.000000 0.000000 0.175406
0.000000 0.056610 0.168638
0.056610 0.056610 0.168638
0.168638 0.056610 0.168638
0.321131 0.056584 0.168691
0.501059 0.055285 0.170414
0.683464 0.053179 0.172154
0.841064 0.050827 0.173548
0.953601 0.048393 0.174700
1.000000 0.046121 0.175564
0.000120 0.168065 0.168065
0.057299 0.168353 0.168353
0.168638 0.168638 0.168638
0.329728 0.164406 0.169155
0.515065 0.160216 0.169672
0.698210 0.156067 0.170189
0.853344 0.151961 0.170708
0.961293 0.147896 0.171227
1.000000 0.143875 0.171746
0.003590 0.312665 0.171381
0.071669 0.311997 0.176081
0.186294 0.312500 0.186294
0.323972 0.319205 0.162891
0.520752 0.307036 0.155238
0.708483 0.298523 0.156883
0.863022 0.291902 0.158645
0.967494 0.285981 0.160063
1.000000 0.280024 0.161180
0.010196 0.477008 0.183573
0.087270 0.476228 0.192905
0.204598 0.478086 0.204598
0.332853 0.489500 0.193414
0.502769 0.492538 0.157222
0.698792 0.478953 0.143781
0.861335 0.466258 0.142270
0.968659 0.456172 0.143596
1.000000 0.447349 0.145300
0.018499 0.643904 0.199881
0.102900 0.643603 0.211784
0.223516 0.646279 0.223516
0.354281 0.656733 0.216705
0.503881 0.667237 0.191443
0.681188 0.666834 0.151629
0.849325 0.654296 0.135031
0.964201 0.641014 0.130344
1.000000 0.629412 0.129888
0.027996 0.794357 0.218234
0.118860 0.794562 0.231512
0.243015 0.797346 0.243015
0.377287 0.805636 0.238871
0.521715 0.815358 0.219421
0.677862 0.822041 0.186120
0.835490 0.820045 0.146116
0.956121 0.810040 0.127510
1.000000 0.799491 0.121577
0.038496 0.912560 0.237801
0.135310 0.913025 0.251814
0.263058 0.915289 0.263058
0.400666 0.920889 0.260699
0.543557 0.927772 0.244451
0.689857 0.933764 0.218992
0.830713 0.936969 0.180070
0.947554 0.934921 0.140682
1.000000 0.929053 0.123222
0.049430 0.987005 0.257613
0.152054 0.987304 0.272333
0.283608 0.988448 0.283608
0.423779 0.990968 0.282075
0.565706 0.993928 0.267329
0.706121 0.996421 0.243700
0.836453 0.998068 0.209897
0.943905 0.998548 0.167216
1.000000 0.997796 0.137375
0.000000 0.000000 0.321049
0.056610 0.000000 0.321049
0.168638 0.000000 0.321049
0.321049 0.000000 0.321049
0.496501 0.000000 0.321049
0.672414 0.000000 0.321049
0.826280 0.000000 0.321238
0.941406 0.000000 0.322914
0.999929 0.000000 0.324783
0.000000 0.056610 0.321049
0.056610 0.056610 0.321049
0.168638 0.056610 0.321049
0.321049 0.056610 0.321049
0.496501 0.056610 0.321049
0.672578 0.056558 0.321181
0.828690 0.055610 0.323061
0.944419 0.053972 0.325467
1.000000 0.052258 0.327349
0.000000 0.168638 0.321049
0.056610 0.168638 0.321049
0.168638 0.168638 0.321049
0.321049 0.168638 0.321049
0.496589 0.168599 0.321115
0.676676 0.166597 0.323256
0.834982 0.163333 0.325413
0.949631 0.159656 0.327139
1.000000 0.156139 0.328363
0.000216 0.319982 0.319982
0.057991 0.320340 0.320340
0.169696 0.320694 0.320694
0.321049 0.321049 0.321049
0.505784 0.315772 0.321691
0.689677 0.310519 0.322334
0.846698 0.305290 0.322977
0.957314 0.300087 0.323620
1.000000 0.294911 0.324264
0.003567 0.487805 0.321709
0.071499 0.487464 0.324493
0.191247 0.486747 0.330266
0.342784 0.487291 0.342784
0.499635 0.494519 0.313876
0.694917 0.481371 0.304242
0.854756 0.472092 0.306321
0.963182 0.464828 0.308542
1.000000 0.457844 0.310228
0.010134 0.654800 0.332475
0.088099 0.654012 0.339551
0.213721 0.653279 0.350809
0.364863 0.655045 0.364863
0.509111 0.665839 0.351424
0.678271 0.668696 0.306748
0.847157 0.655868 0.289639
0.962172 0.643760 0.287697
1.000000 0.633830 0.289247
0.018756 0.803398 0.348810
0.105338 0.802708 0.359337
0.235475 0.802463 0.373414
0.387240 0.804684 0.387240
0.531696 0.813309 0.379233
0.679307 0.821891 0.349039
0.833159 0.821563 0.299667
0.954828 0.811305 0.278331
1.000000 0.800852 0.273082
0.028836 0.918779 0.368267
0.122964 0.918402 0.381179
0.257043 0.918548 0.396571
0.409866 0.920486 0.409866
0.555519 0.926202 0.405093
0.695801 0.932800 0.382432
0.830486 0.937265 0.342571
0.946063 0.935938 0.292634
1.000000 0.929916 0.271479
0.039224 0.989907 0.388565
0.140094 0.989752 0.403237
0.278248 0.989888 0.419561
0.432694 0.990839 0.432694
0.578764 0.993247 0.429306
0.714602 0.995934 0.409130
0.839180 0.997912 0.376813
0.943100 0.998711 0.326955
1.000000 0.998101 0.287880
0.000000 0.000000 0.496501
0.056610 0.000000 0.496501
0.168638 0.000000 0.496501
0.321049 0.000000 0.496501
0.496501 0.000000 0.496501
0.672414 0.000000 0.496501
0.826090 0.000000 0.496501
0.939941 0.000000 0.496501
0.999390 0.000000 0.496607
0.000000 0.056610 0.496501
0.056610 0.056610 0.496501
0.168638 0.056610 0.496501
0.321049 0.056610 0.496501
0.496501 0.056610 0.496501
0.672414 0.056610 0.496501
0.826090 0.056610 0.496501
0.940072 0.056533 0.496713
0.999604 0.055923 0.498096
0.000000 0.168638 0.496501
0.056610 0.168638 0.496501
0.168638 0.168638 0.496501
0.321049 0.168638 0.496501
0.496501 0.168638 0.496501
0.672414 0.168638 0.496501
0.826223 0.168559 0.496642
0.941647 0.167098 0.498659
0.999987 0.164972 0.500757
0.000000 0.321049 0.496501
0.056610 0.321049 0.496501
0.168638 0.321049 0.496501
0.321049 0.321049 0.496501
0.496501 0.321049 0.496501
0.672496 0.321000 0.496571
0.829531 0.318507 0.498868
0.945736 0.314428 0.501177
1.000000 0.310278 0.502745
0.000328 0.494973 0.494973
0.058686 0.495358 0.495358
0.170756 0.495739 0.495739
0.322364 0.496120 0.496120
0.496501 0.496501 0.496501
0.681077 0.490823 0.497190
0.839940 0.485147 0.497879
0.953188 0.479473 0.498569
1.000000 0.473802 0.499258
0.003615 0.664334 0.495462
0.071428 0.664240 0.497230
0.190996 0.663921 0.500192
0.348802 0.663245 0.506358
0.519626 0.663758 0.519626
0.675346 0.670556 0.488778
0.844097 0.658161 0.478332
0.958182 0.649338 0.480593
1.000000 0.641928 0.482839
0.010030 0.812196 0.503843
0.087962 0.811714 0.508768
0.214893 0.811072 0.516212
0.375708 0.810468 0.528062
0.542707 0.811922 0.542707
0.684167 0.820754 0.528707
0.830815 0.823077 0.481057
0.953475 0.812598 0.462336
1.000000 0.802768 0.460424
0.018703 0.925131 0.518013
0.105849 0.924662 0.526060
0.238810 0.924192 0.536969
0.401168 0.924024 0.551539
0.565693 0.925550 0.565693
0.704934 0.931420 0.557514
0.831648 0.937166 0.526207
0.944557 0.936948 0.473342
1.000000 0.930724 0.452541
0.027919 0.992766 0.534793
0.122835 0.992522 0.545304
0.261023 0.992310 0.558590
0.425194 0.992293 0.574656
0.588532 0.993031 0.588532
0.725782 0.995317 0.582654
0.843828 0.997615 0.557406
0.942697 0.998818 0.511136
1.000000 0.998390 0.467605
0.000000 0.000000 0.672414
0.056610 0.000000 0.672414
0.168638 0.000000 0.672414
0.321049 0.000000 0.672414
0.496501 0.000000 0.672414
0.672414 0.000000 0.672414
0.826090 0.000000 0.672414
0.939941 0.000000 0.672414
0.999377 0.000000 0.672414
0.000000 0.056610 0.672414
0.056610 0.056610 0.672414
0.168638 0.056610 0.672414
0.321049 0.056610 0.672414
0.496501 0.056610 0.672414
0.672414 0.056610 0.672414
0.826090 0.056610 0.672414
0.939941 0.056610 0.672414
0.999377 0.056610 0.672414
0.000000 0.168638 0.672414
0.056610 0.168638 0.672414
0.168638 0.168638 0.672414
0.321049 0.168638 0.672414
0.496501 0.168638 0.672414
0.672414 0.168638 0.672414
0.826090 0.168638 0.672414
0.939941 0.168638 0.672414
0.999384 0.168608 0.672464
0.000000 0.321049 0.672414
0.056610 0.321049 0.672414
0.168638 0.321049 0.672414
0.321049 0.321049 0.672414
0.496501 0.321049 0.672414
0.672414 0.321049 0.672414
0.826090 0.321049 0.672414
0.940028 0.320951 0.672546
0.999634 0.319548 0.673994
0.000000 0.496501 0.672414
0.056610 0.496501 0.672414
0.168638 0.496501 0.672414
0.321049 0.496501 0.672414
0.496501 0.496501 0.672414
0.672414 0.496501 0.672414
0.826156 0.496448 0.672480
0.942197 0.493769 0.674629
1.000000 0.489933 0.676438
0.000453 0.670625 0.670625
0.059385 0.670986 0.670986
0.171819 0.671343 0.671343
0.323680 0.671700 0.671700
0.497911 0.672057 0.672057
0.672414 0.672414 0.672414
0.833070 0.667085 0.673059
0.948915 0.661734 0.673704
1.000000 0.656362 0.674349
0.003716 0.819495 0.670314
0.071567 0.819528 0.671454
0.190892 0.819451 0.673097
0.348498 0.819191 0.675866
0.525958 0.818639 0.681611
0.693881 0.819058 0.693881
0.828459 0.824586 0.665159
0.951552 0.814481 0.655279
1.000000 0.806899 0.657214
0.009969 0.930886 0.676103
0.087729 0.930665 0.679309
0.214698 0.930342 0.683849
0.377093 0.929906 0.690736
0.553898 0.929497 0.701617
0.714927 0.930482 0.714927
0.835545 0.936410 0.702207
0.943034 0.937952 0.657864
1.000000 0.931473 0.641689
0.017346 0.995245 0.686283
0.103535 0.995084 0.691657
0.236908 0.994883 0.698850
0.402809 0.994658 0.708785
0.578755 0.994512 0.722258
0.735511 0.995009 0.735511
0.851215 0.997146 0.726571
0.943118 0.998828 0.693535
1.000000 0.998663 0.651941
0.000000 0.000000 0.826090
0.056610 0.000000 0.826090
0.168638 0.000000 0.826090
0.321049 0.000000 0.826090
0.496501 0.000000 0.826090
0.672414 0.000000 0.826090
0.826090 0.000000 0.826090
0.939941 0.000000 0.826090
0.999377 0.000000 0.826090
0.000000 0.056610 0.826090
0.056610 0.056610 0.826090
0.168638 0.056610 0.826090
0.321049 0.056610 0.826090
0.496501 0.056610 0.826090
0.672414 0.056610 0.826090
0.826090 0.056610 0.826090
0.939941 0.056610 0.826090
0.999377 0.056610 0.826090
0.000000 0.168638 0.826090
0.056610 0.168638 0.826090
0.168638 0.168638 0.826090
0.321049 0.168638 0.826090
0.496501 0.168638 0.826090
0.672414 0.168638 0.826090
0.826090 0.168638 0.826090
0.939941 0.168638 0.826090
0.999377 0.168638 0.826090
0.000000 0.321049 0.826090
0.056610 0.321049 0.826090
0.168638 0.321049 0.826090
0.321049 0.321049 0.826090
0.496501 0.321049 0.826090
0.672414 0.321049 0.826090
0.826090 0.321049 0.826090
0.939941 0.321049 0.826090
0.999377 0.321049 0.826090
0.000000 0.496501 0.826090
0.056610 0.496501 0.826090
0.168638 0.496501 0.826090
0.321049 0.496501 0.826090
0.496501 0.496501 0.826090
0.672414 0.496501 0.826090
0.826090 0.496501 0.826090
0.939941 0.496501 0.826090
0.999378 0.496495 0.826096
0.000000 0.672414 0.826090
0.056610 0.672414 0.826090
0.168638 0.672414 0.826090
0.321049 0.672414 0.826090
0.496501 0.672414 0.826090
0.672414 0.672414 0.826090
0.826090 0.672414 0.826090
0.939985 0.672364 0.826143
0.999713 0.670372 0.827516
0.000590 0.824352 0.824352
0.060086 0.824645 0.824645
0.172884 0.824934 0.824934
0.324998 0.825223 0.825223
0.499322 0.825512 0.825512
0.673734 0.825801 0.825801
0.826090 0.826090 0.826090
0.944499 0.821768 0.826612
1.000000 0.817405 0.827133
0.003855 0.935504 0.823690
0.071861 0.935572 0.824397
0.191097 0.935593 0.825313
0.348371 0.935542 0.826642
0.525638 0.935368 0.828878
0.699692 0.935000 0.833497
0.843277 0.935280 0.843277
0.941495 0.938949 0.820200
1.000000 0.932364 0.812357
0.008880 0.997150 0.827097
0.085143 0.997106 0.828872
0.211020 0.997032 0.831261
0.373204 0.996916 0.834703
0.552223 0.996742 0.840017
0.723429 0.996532 0.848688
0.859766 0.996752 0.859766
0.945420 0.998642 0.847217
0.999892 0.998920 0.815004
0.000000 0.000000 0.939941
0.056610 0.000000 0.939941
0.168638 0.000000 0.939941
0.321049 0.000000 0.939941
0.496501 0.000000 0.939941
0.672414 0.000000 0.939941
0.826090 0.000000 0.939941
0.939941 0.000000 0.939941
0.999377 0.000000 0.939941
0.000000 0.056610 0.939941
0.056610 0.056610 0.939941
0.168638 0.056610 0.939941
0.321049 0.056610 0.939941
0.496501 0.056610 0.939941
0.672414 0.056610 0.939941
0.826090 0.056610 0.939941
0.939941 0.056610 0.939941
0.999377 0.056610 0.939941
0.000000 0.168638 0.939941
0.056610 0.168638 0.939941
0.168638 0.168638 0.939941
0.321049 0.168638 0.939941
0.496501 0.168638 0.939941
0.672414 0.168638 0.939941
0.826090 0.168638 0.939941
0.939941 0.168638 0.939941
0.999377 0.168638 0.939941
0.000000 0.321049 0.939941
0.056610 0.321049 0.939941
0.168638 0.321049 0.939941
0.321049 0.321049 0.939941
0.496501 0.321049 0.939941
0.672414 0.321049 0.939941
0.826090 0.321049 0.939941
0.939941 0.321049 0.939941
0.999377 0.321049 0.939941
0.000000 0.496501 0.939941
0.056610 0.496501 0.939941
0.168638 0.496501 0.939941
0.321049 0.496501 0.939941
0.496501 0.496501 0.939941
0.672414 0.496501 0.939941
0.826090 0.496501 0.939941
0.939941 0.496501 0.939941
0.999377 0.496501 0.939941
0.000000 0.672414 0.939941
0.056610 0.672414 0.939941
0.168638 0.672414 0.939941
0.321049 0.672414 0.939941
0.496501 0.672414 0.939941
0.672414 0.672414 0.939941
0.826090 0.672414 0.939941
0.939941 0.672414 0.939941
0.999377 0.672414 0.939941
0.000002 0.826053 0.939896
0.056610 0.826090 0.939941
0.168638 0.826090 0.939941
0.321049 0.826090 0.939941
0.496501 0.826090 0.939941
0.672414 0.826090 0.939941
0.826090 0.826090 0.939941
0.939941 0.826090 0.939941
0.999377 0.826090 0.939941
0.000738 0.938604 0.938604
0.060792 0.938797 0.938797
0.173951 0.938988 0.938988
0.326317 0.939179 0.939179
0.500733 0.939370 0.939370
0.675053 0.939560 0.939560
0.827157 0.939751 0.939751
0.939941 0.939941 0.939941
1.000000 0.937084 0.940284
0.003276 0.998428 0.938234
0.070040 0.998458 0.938578
0.188197 0.998481 0.938985
0.344503 0.998492 0.939505
0.521145 0.998484 0.940250
0.695540 0.998437 0.941507
0.845484 0.998306 0.944243
0.951034 0.998228 0.951034
0.999667 0.999158 0.936294
0.000000 0.000000 0.999377
0.056610 0.000000 0.999377
0.168638 0.000000 0.999377
0.321049 0.000000 0.999377
0.496501 0.000000 0.999377
0.672414 0.000000 0.999377
0.826090 0.000000 0.999377
0.939941 0.000000 0.999377
0.999377 0.000000 0.999377
0.000000 0.056610 0.999377
0.056610 0.056610 0.999377
0.168638 0.056610 0.999377
0.321049 0.056610 0.999377
0.496501 0.056610 0.999377
0.672414 0.056610 0.999377
0.826090 0.056610 0.999377
0.939941 0.056610 0.999377
0.999377 0.056610 0.999377
0.000000 0.168638 0.999377
0.056610 0.168638 0.999377
0.168638 0.168638 0.999377
0.321049 0.168638 0.999377
0.496501 0.168638 0.999377
0.672414 0.168638 0.999377
0.826090 0.168638 0.999377
0.939941 0.168638 0.999377
0.999377 0.168638 0.999377
0.000000 0.321049 0.999377
0.056610 0.321049 0.999377
0.168638 0.321049 0.999377
0.321049 0.321049 0.999377
0.496501 0.321049 0.999377
0.672414 0.321049 0.999377
0.826090 0.321049 0.999377
0.939941 0.321049 0.999377
0.999377 0.321049 0.999377
0.000000 0.496501 0.999377
0.056610 0.496501 0.999377
0.168638 0.496501 0.999377
0.321049 0.496501 0.999377
0.496501 0.496501 0.999377
0.672414 0.496501 0.999377
0.826090 0.496501 0.999377
0.939941 0.496501 0.999377
0.999377 0.496501 0.999377
0.000000 0.672414 0.999377
0.056610 0.672414 0.999377
0.168638 0.672414 0.999377
0.321049 0.672414 0.999377
0.496501 0.672414 0.999377
0.672414 0.672414 0.999377
0.826090 0.672414 0.999377
0.939941 0.672414 0.999377
0.999377 0.672414 0.999377
0.000000 0.826090 0.999377
0.056610 0.826090 0.999377
0.168638 0.826090 0.999377
0.321049 0.826090 0.999377
0.496501 0.826090 0.999377
0.672414 0.826090 0.999377
0.826090 0.826090 0.999377
0.939941 0.826090 0.999377
0.999377 0.826090 0.999377
0.000050 0.939745 0.999307
0.056985 0.939844 0.999340
0.168799 0.939914 0.999366
0.321049 0.939941 0.999377
0.496501 0.939941 0.999377
0.672414 0.939941 0.999377
0.826090 0.939941 0.999377
0.939941 0.939941 0.999377
0.999377 0.939941 0.999377
0.000897 0.999038 0.999038
0.061500 0.999084 0.999084
0.175022 0.999128 0.999128
0.327637 0.999171 0.999171
0.502143 0.999214 0.999214
0.676371 0.999255 0.999255
0.828222 0.999297 0.999297
0.940642 0.999337 0.999337
0.999377 0.999377 0.999377
