assets/presets/luts/amber-dusk/lut.cube
TITLE "Amber Dusk"
LUT_3D_SIZE 17
0.000000 0.000000 0.000486
0.011550 0.000000 0.000485
0.040976 0.000000 0.000482
0.085396 0.000000 0.000477
0.144099 0.000000 0.000471
0.216019 0.000000 0.000463
0.299268 0.000000 0.000453
0.391000 0.000000 0.000442
0.487523 0.000000 0.000430
0.584621 0.000000 0.000416
0.678010 0.000000 0.000402
0.763813 0.000000 0.000386
0.838928 0.000000 0.000370
0.901202 0.000000 0.000353
0.949364 0.000000 0.000336
0.982668 0.000000 0.000319
0.999533 0.000000 0.000301
0.000000 0.010571 0.000476
0.011608 0.010595 0.000469
0.041111 0.010625 0.000460
0.085630 0.010660 0.000450
0.144451 0.010700 0.000439
0.216501 0.010745 0.000426
0.299879 0.010794 0.000412
0.391725 0.010848 0.000397
0.488333 0.010906 0.000382
0.585477 0.010968 0.000366
0.678866 0.011033 0.000349
0.764623 0.011102 0.000331
0.839652 0.011173 0.000314
0.901807 0.011247 0.000296
0.949826 0.011324 0.000277
0.982966 0.011402 0.000259
0.999607 0.011483 0.000241
0.000000 0.038513 0.000447
0.011729 0.038587 0.000435
0.041348 0.038667 0.000422
0.085999 0.038754 0.000408
0.144965 0.038849 0.000393
0.217163 0.038950 0.000377
0.300679 0.039058 0.000361
0.392639 0.039172 0.000344
0.489323 0.039290 0.000326
0.586495 0.039414 0.000309
0.679860 0.039542 0.000290
0.765544 0.039674 0.000272
0.840459 0.039809 0.000254
0.902470 0.039947 0.000236
0.950324 0.040087 0.000218
0.983282 0.040229 0.000201
0.999679 0.040373 0.000184
0.000000 0.080992 0.000404
0.011904 0.081130 0.000389
0.041671 0.081274 0.000373
0.086480 0.081427 0.000356
0.145610 0.081587 0.000339
0.217968 0.081754 0.000321
0.301627 0.081928 0.000304
0.393698 0.082108 0.000285
0.490447 0.082292 0.000267
0.587629 0.082481 0.000249
0.680950 0.082674 0.000231
0.766539 0.082869 0.000214
0.841318 0.083067 0.000196
0.903166 0.083267 0.000179
0.950839 0.083467 0.000163
0.983603 0.083668 0.000147
0.999747 0.083868 0.000132
0.000000 0.137400 0.000352
0.012122 0.137611 0.000334
0.042061 0.137825 0.000316
0.087046 0.138048 0.000298
0.146353 0.138277 0.000280
0.218879 0.138512 0.000262
0.302681 0.138753 0.000244
0.394855 0.138998 0.000226
0.491656 0.139247 0.000209
0.588833 0.139498 0.000191
0.682091 0.139750 0.000175
0.767567 0.140004 0.000158
0.842195 0.140257 0.000143
0.903872 0.140511 0.000127
0.951389 0.140772 0.000110
0.983980 0.141041 0.000091
0.999828 0.141315 0.000072
0.000000 0.206821 0.000294
0.012373 0.207103 0.000275
0.042502 0.207385 0.000257
0.087673 0.207673 0.000239
0.147163 0.207966 0.000221
0.219856 0.208262 0.000204
0.303797 0.208562 0.000187
0.396064 0.208862 0.000170
0.492905 0.209164 0.000154
0.590060 0.209465 0.000138
0.683262 0.209768 0.000123
0.768692 0.210081 0.000105
0.843266 0.210402 0.000086
0.904851 0.210729 0.000067
0.952193 0.211061 0.000047
0.984524 0.211397 0.000029
0.999921 0.211734 0.000014
0.000000 0.287559 0.000235
0.012648 0.287900 0.000216
0.042975 0.288236 0.000199
0.088337 0.288575 0.000182
0.148008 0.288916 0.000166
0.220864 0.289257 0.000150
0.304932 0.289597 0.000134
0.397324 0.289942 0.000118
0.494311 0.290298 0.000100
0.591619 0.290663 0.000081
0.684928 0.291035 0.000061
0.770352 0.291411 0.000042
0.844810 0.291791 0.000025
0.906182 0.292171 0.000010
0.953231 0.292552 0.000001
0.985194 0.292930 0.000000
0.999992 0.293304 0.000000
0.000000 0.376988 0.000178
0.012935 0.377365 0.000161
0.043462 0.377733 0.000145
0.089014 0.378101 0.000130
0.148906 0.378478 0.000113
0.222036 0.378865 0.000095
0.306434 0.379261 0.000075
0.399152 0.379664 0.000056
0.496390 0.380071 0.000037
0.593841 0.380482 0.000020
0.687167 0.380893 0.000007
0.772481 0.381302 0.000000
0.846712 0.381709 0.000000
0.907767 0.382111 0.000000
0.954428 0.382505 0.000000
0.985942 0.382891 0.000000
1.000000 0.383266 0.000000
0.000000 0.471639 0.000126
0.013249 0.472041 0.000108
0.044049 0.472444 0.000089
0.089944 0.472856 0.000070
0.150227 0.473274 0.000050
0.223764 0.473696 0.000032
0.308546 0.474120 0.000016
0.401582 0.474545 0.000004
0.499033 0.474967 0.000000
0.596564 0.475386 0.000000
0.689825 0.475799 0.000000
0.774937 0.476204 0.000000
0.848853 0.476600 0.000000
0.909509 0.476983 0.000000
0.955715 0.477352 0.000000
0.986723 0.477705 0.000000
1.000000 0.478040 0.000000
0.000000 0.567584 0.000065
0.013718 0.568009 0.000045
0.044912 0.568428 0.000027
0.091234 0.568849 0.000012
0.151967 0.569269 0.000002
0.225945 0.569686 0.000000
0.311119 0.570100 0.000000
0.404454 0.570506 0.000000
0.502075 0.570905 0.000000
0.599623 0.571293 0.000000
0.692746 0.571668 0.000000
0.777582 0.572029 0.000000
0.851114 0.572373 0.000000
0.911313 0.572700 0.000000
0.957021 0.573005 0.000000
0.987495 0.573289 0.000000
1.000000 0.573548 0.000000
0.000000 0.660683 0.000009
0.014336 0.661091 0.000000
0.045997 0.661486 0.000000
0.092800 0.661876 0.000000
0.154017 0.662260 0.000000
0.228448 0.662635 0.000000
0.314004 0.663000 0.000000
0.407607 0.663352 0.000000
0.505348 0.663690 0.000000
0.602854 0.664012 0.000000
0.695776 0.664315 0.000000
0.780278 0.664599 0.000000
0.853379 0.664861 0.000000
0.913090 0.665100 0.000000
0.958282 0.665312 0.000000
0.988221 0.665499 0.000000
1.000000 0.665677 0.000000
0.000028 0.747046 0.000000
0.015069 0.747400 0.000000
0.047243 0.747738 0.000000
0.094555 0.748066 0.000000
0.156266 0.748382 0.000000
0.231142 0.748684 0.000000
0.317052 0.748972 0.000000
0.410879 0.749242 0.000000
0.508687 0.749494 0.000000
0.606093 0.749726 0.000000
0.698764 0.749936 0.000000
0.782891 0.750122 0.000000
0.855539 0.750286 0.000000
0.914769 0.750447 0.000000
0.959475 0.750609 0.000000
0.988910 0.750770 0.000000
1.000000 0.750930 0.000000
0.000127 0.823485 0.000000
0.015882 0.823762 0.000000
0.048588 0.824020 0.000000
0.096411 0.824265 0.000000
0.158601 0.824495 0.000000
0.233890 0.824708 0.000000
0.320109 0.824903 0.000000
0.414106 0.825079 0.000000
0.511924 0.825234 0.000000
0.609190 0.825374 0.000000
0.701606 0.825513 0.000000
0.785392 0.825653 0.000000
0.857637 0.825792 0.000000
0.916414 0.825930 0.000000
0.960640 0.826067 0.000000
0.989569 0.826201 0.000000
1.000000 0.826334 0.000000
0.000277 0.887739 0.000000
0.016734 0.887928 0.000000
0.049965 0.888099 0.000000
0.098276 0.888255 0.000000
0.160905 0.888394 0.000000
0.236556 0.888516 0.000000
0.323038 0.888630 0.000000
0.417193 0.888744 0.000000
0.515050 0.888858 0.000000
0.612224 0.888972 0.000000
0.704410 0.889085 0.000000
0.787851 0.889196 0.000000
0.859674 0.889306 0.000000
0.917988 0.889413 0.000000
0.961737 0.889518 0.000000
0.990175 0.889620 0.000000
1.000000 0.889719 0.000000
0.000464 0.938462 0.000000
0.017585 0.938567 0.000000
0.051305 0.938657 0.000000
0.100071 0.938744 0.000000
0.163125 0.938831 0.000000
0.239154 0.938918 0.000000
0.325930 0.939004 0.000000
0.420252 0.939090 0.000000
0.518129 0.939174 0.000000
0.615175 0.939257 0.000000
0.707099 0.939338 0.000000
0.790178 0.939417 0.000000
0.861574 0.939494 0.000000
0.919433 0.939568 0.000000
0.962725 0.939640 0.000000
0.990705 0.939708 0.000000
1.000000 0.939772 0.000000
0.000674 0.974978 0.000000
0.018418 0.975038 0.000000
0.052628 0.975096 0.000000
0.101858 0.975154 0.000000
0.165334 0.975211 0.000000
0.241717 0.975268 0.000000
0.328746 0.975323 0.000000
0.423190 0.975377 0.000000
0.521045 0.975430 0.000000
0.617929 0.975481 0.000000
0.709570 0.975530 0.000000
0.792280 0.975577 0.000000
0.863259 0.975622 0.000000
0.920689 0.975664 0.000000
0.963564 0.975704 0.000000
0.991141 0.975741 0.000000
1.000000 0.975775 0.000000
0.000908 0.996500 0.000000
0.019258 0.996526 0.000000
0.053939 0.996551 0.000000
0.103600 0.996576 0.000000
0.167458 0.996600 0.000000
0.244146 0.996624 0.000000
0.331373 0.996646 0.000000
0.425888 0.996668 0.000000
0.523678 0.996688 0.000000
0.620370 0.996708 0.000000
0.711718 0.996727 0.000000
0.794066 0.996744 0.000000
0.864656 0.996760 0.000000
0.921699 0.996774 0.000000
0.964215 0.996788 0.000000
0.991463 0.996799 0.000000
1.000000 0.996809 0.000000
0.000000 0.000000 0.015001
0.011552 0.000000 0.014994
0.040984 0.000000 0.014980
0.085411 0.000000 0.014959
0.144124 0.000000 0.014931
0.216057 0.000000 0.014897
0.299317 0.000000 0.014857
0.391060 0.000000 0.014811
0.487591 0.000000 0.014759
0.584695 0.000000 0.014703
0.678085 0.000000 0.014641
0.763884 0.000000 0.014576
0.838993 0.000000 0.014506
0.901257 0.000000 0.014433
0.949406 0.000000 0.014357
0.982696 0.000000 0.014277
0.999540 0.000000 0.014196
0.000000 0.010577 0.014953
0.011617 0.010604 0.014922
0.041130 0.010635 0.014886
0.085660 0.010672 0.014844
0.144494 0.010714 0.014797
0.216558 0.010760 0.014744
0.299948 0.010811 0.014686
0.391805 0.010866 0.014623
0.488421 0.010925 0.014556
0.585568 0.010988 0.014486
0.678956 0.011054 0.014412
0.764707 0.011124 0.014335
0.839726 0.011196 0.014255
0.901868 0.011271 0.014172
0.949873 0.011348 0.014087
0.982996 0.011427 0.014001
0.999614 0.011508 0.013913
0.000000 0.038535 0.014833
0.011744 0.038611 0.014782
0.041376 0.038693 0.014728
0.086041 0.038783 0.014669
0.145022 0.038880 0.014605
0.217235 0.038984 0.014537
0.300765 0.039093 0.014466
0.392735 0.039208 0.014391
0.489426 0.039329 0.014313
0.586599 0.039454 0.014232
0.679961 0.039583 0.014149
0.765637 0.039716 0.014063
0.840540 0.039852 0.013977
0.902536 0.039991 0.013888
0.950373 0.040131 0.013799
0.983312 0.040274 0.013709
0.999686 0.040418 0.013619
0.000000 0.081034 0.014653
0.011923 0.081175 0.014587
0.041706 0.081321 0.014518
0.086531 0.081476 0.014445
0.145677 0.081639 0.014369
0.218052 0.081808 0.014290
0.301725 0.081984 0.014209
0.393805 0.082165 0.014125
0.490560 0.082351 0.014039
0.587742 0.082541 0.013952
0.681058 0.082735 0.013864
0.766637 0.082931 0.013774
0.841402 0.083130 0.013684
0.903233 0.083330 0.013594
0.950889 0.083530 0.013503
0.983633 0.083731 0.013413
0.999753 0.083932 0.013321
0.000000 0.137464 0.014426
0.012144 0.137677 0.014347
0.042102 0.137894 0.014268
0.087104 0.138119 0.014186
0.146428 0.138350 0.014101
0.218970 0.138588 0.014015
0.302786 0.138830 0.013928
0.394969 0.139076 0.013839
0.491775 0.139325 0.013749
0.588951 0.139577 0.013659
0.682201 0.139830 0.013568
0.767666 0.140084 0.013478
0.842279 0.140337 0.013388
0.903948 0.140592 0.013293
0.951454 0.140856 0.013181
0.984025 0.141126 0.013053
0.999837 0.141402 0.012911
0.000000 0.206907 0.014164
0.012398 0.207191 0.014078
0.042546 0.207475 0.013991
0.087736 0.207765 0.013903
0.147243 0.208059 0.013814
0.219952 0.208356 0.013724
0.303905 0.208656 0.013634
0.396182 0.208957 0.013543
0.493025 0.209259 0.013453
0.590178 0.209559 0.013363
0.683393 0.209866 0.013263
0.768827 0.210181 0.013147
0.843395 0.210504 0.013015
0.904965 0.210833 0.012869
0.952283 0.211167 0.012710
0.984584 0.211503 0.012540
0.999929 0.211840 0.012359
0.000000 0.287663 0.013880
0.012675 0.288005 0.013789
0.043021 0.288343 0.013699
0.088402 0.288682 0.013608
0.148090 0.289023 0.013518
0.220961 0.289364 0.013428
0.305046 0.289704 0.013337
0.397469 0.290053 0.013233
0.494482 0.290412 0.013112
0.591806 0.290779 0.012976
0.685120 0.291153 0.012826
0.770538 0.291530 0.012664
0.844979 0.291910 0.012490
0.906325 0.292291 0.012307
0.953340 0.292671 0.012116
0.985263 0.293048 0.011917
0.999996 0.293420 0.011712
0.000000 0.377104 0.013585
0.012963 0.377481 0.013493
0.043509 0.377849 0.013403
0.089085 0.378218 0.013310
0.149012 0.378599 0.013200
0.222178 0.378989 0.013075
0.306613 0.379387 0.012935
0.399361 0.379792 0.012782
0.496622 0.380200 0.012617
0.594084 0.380611 0.012440
0.687407 0.381022 0.012255
0.772704 0.381431 0.012061
0.846909 0.381836 0.011860
0.907929 0.382236 0.011654
0.954549 0.382628 0.011443
0.986017 0.383010 0.011228
1.000000 0.383381 0.011011
0.000000 0.471761 0.013284
0.013287 0.472167 0.013167
0.044121 0.472573 0.013038
0.090053 0.472987 0.012894
0.150377 0.473406 0.012737
0.223955 0.473829 0.012569
0.308775 0.474254 0.012390
0.401841 0.474678 0.012202
0.499310 0.475100 0.012006
0.596846 0.475517 0.011803
0.690096 0.475928 0.011595
0.775185 0.476330 0.011383
0.849067 0.476721 0.011168
0.909680 0.477101 0.010951
0.955840 0.477465 0.010733
0.986798 0.477813 0.010515
1.000000 0.478142 0.010299
0.000000 0.567714 0.012855
0.013772 0.568141 0.012691
0.045007 0.568560 0.012520
0.091373 0.568981 0.012338
0.152152 0.569401 0.012148
0.226173 0.569817 0.011950
0.311385 0.570228 0.011746
0.404747 0.570633 0.011537
0.502382 0.571028 0.011323
0.599928 0.571412 0.011107
0.693034 0.571783 0.010890
0.777840 0.572139 0.010672
0.851333 0.572478 0.010455
0.911486 0.572798 0.010239
0.957145 0.573097 0.010025
0.987568 0.573373 0.009816
1.000000 0.573624 0.009610
0.000000 0.660809 0.012290
0.014402 0.661215 0.012093
0.046110 0.661609 0.011894
0.092961 0.661998 0.011688
0.154226 0.662379 0.011477
0.228701 0.662751 0.011263
0.314292 0.663112 0.011047
0.407919 0.663460 0.010829
0.505668 0.663793 0.010611
0.603167 0.664109 0.010394
0.696067 0.664407 0.010179
0.780534 0.664684 0.009966
0.853593 0.664939 0.009758
0.913255 0.665169 0.009554
0.958398 0.665374 0.009356
0.988288 0.665555 0.009163
1.000000 0.665733 0.008972
0.000035 0.747155 0.011635
0.015144 0.747507 0.011418
0.047369 0.747842 0.011203
0.094730 0.748166 0.010986
0.156488 0.748478 0.010769
0.231405 0.748776 0.010551
0.317347 0.749059 0.010334
0.411193 0.749323 0.010119
0.509005 0.749569 0.009908
0.606399 0.749794 0.009701
0.699043 0.749997 0.009498
0.783133 0.750175 0.009302
0.855741 0.750337 0.009110
0.914928 0.750498 0.008919
0.959589 0.750660 0.008729
0.988975 0.750821 0.008542
1.000000 0.750981 0.008358
0.000139 0.823572 0.010931
0.015962 0.823845 0.010708
0.048719 0.824099 0.010490
0.096591 0.824339 0.010274
0.158825 0.824564 0.010060
0.234152 0.824771 0.009850
0.320397 0.824961 0.009644
0.414407 0.825130 0.009443
0.512224 0.825278 0.009248
0.609482 0.825418 0.009056
0.701877 0.825557 0.008866
0.785632 0.825697 0.008677
0.857836 0.825836 0.008491
0.916569 0.825973 0.008307
0.960749 0.826109 0.008128
0.989630 0.826243 0.007953
1.000000 0.826375 0.007782
0.000293 0.887799 0.010219
0.016817 0.887984 0.010001
0.050096 0.888150 0.009792
0.098452 0.888300 0.009587
0.161121 0.888434 0.009388
0.236804 0.888552 0.009194
0.323316 0.888666 0.009003
0.417488 0.888780 0.008813
0.515349 0.888894 0.008625
0.612513 0.889008 0.008439
0.704674 0.889120 0.008257
0.788082 0.889231 0.008079
0.859864 0.889340 0.007905
0.918133 0.889446 0.007736
0.961837 0.889551 0.007573
0.990229 0.889651 0.007416
1.000000 0.889749 0.007265
0.000483 0.938496 0.009536
0.017665 0.938597 0.009333
0.051432 0.938684 0.009141
0.100243 0.938771 0.008950
0.163338 0.938858 0.008760
0.239403 0.938945 0.008573
0.326206 0.939031 0.008388
0.420541 0.939116 0.008207
0.518418 0.939200 0.008030
0.615450 0.939283 0.007857
0.707348 0.939363 0.007690
0.790391 0.939442 0.007528
0.861746 0.939518 0.007373
0.919562 0.939591 0.007224
0.962812 0.939661 0.007083
0.990751 0.939728 0.006947
1.000000 0.939792 0.006821
0.000695 0.974996 0.008901
0.018499 0.975056 0.008708
0.052756 0.975114 0.008521
0.102028 0.975172 0.008337
0.165543 0.975229 0.008157
0.241958 0.975285 0.007981
0.329008 0.975340 0.007810
0.423461 0.975394 0.007644
0.521312 0.975446 0.007484
0.618178 0.975496 0.007331
0.709792 0.975545 0.007184
0.792466 0.975591 0.007044
0.863407 0.975636 0.006911
0.920797 0.975677 0.006788
0.963635 0.975716 0.006674
0.991177 0.975752 0.006569
1.000000 0.975785 0.006475
0.000932 0.996508 0.008291
0.019338 0.996534 0.008108
0.054062 0.996559 0.007933
0.103762 0.996584 0.007763
0.167655 0.996608 0.007599
0.244368 0.996631 0.007441
0.331611 0.996653 0.007289
0.426130 0.996674 0.007145
0.523912 0.996695 0.007006
0.620584 0.996714 0.006876
0.711903 0.996732 0.006755
0.794218 0.996749 0.006643
0.864772 0.996765 0.006542
0.921781 0.996779 0.006450
0.964267 0.996791 0.006369
0.991488 0.996802 0.006299
1.000000 0.996812 0.006241
0.000000 0.000000 0.044721
0.011555 0.000000 0.044707
0.040993 0.000000 0.044681
0.085429 0.000000 0.044643
0.144153 0.000000 0.044595
0.216097 0.000000 0.044537
0.299370 0.000000 0.044469
0.391123 0.000000 0.044392
0.487664 0.000000 0.044306
0.584772 0.000000 0.044213
0.678163 0.000000 0.044112
0.763959 0.000000 0.044004
0.839060 0.000000 0.043890
0.901313 0.000000 0.043770
0.949450 0.000000 0.043645
0.982724 0.000000 0.043515
0.999548 0.000000 0.043382
0.000000 0.010585 0.044632
0.011627 0.010613 0.044579
0.041150 0.010646 0.044518
0.085692 0.010685 0.044448
0.144539 0.010728 0.044368
0.216617 0.010776 0.044280
0.300021 0.010828 0.044185
0.391889 0.010885 0.044082
0.488512 0.010945 0.043972
0.585663 0.011009 0.043856
0.679049 0.011076 0.043735
0.764794 0.011147 0.043609
0.839803 0.011220 0.043478
0.901932 0.011296 0.043343
0.949920 0.011373 0.043205
0.983026 0.011453 0.043063
0.999621 0.011535 0.042920
0.000000 0.038558 0.044428
0.011759 0.038637 0.044345
0.041405 0.038721 0.044255
0.086085 0.038814 0.044157
0.145081 0.038913 0.044052
0.217310 0.039018 0.043941
0.300853 0.039130 0.043823
0.392834 0.039247 0.043700
0.489532 0.039368 0.043573
0.586707 0.039495 0.043441
0.680065 0.039625 0.043305
0.765733 0.039759 0.043166
0.840623 0.039896 0.043024
0.902604 0.040036 0.042880
0.950423 0.040177 0.042734
0.983344 0.040320 0.042587
0.999692 0.040464 0.042440
0.000000 0.081077 0.044131
0.011943 0.081221 0.044022
0.041742 0.081370 0.043908
0.086584 0.081528 0.043790
0.145747 0.081693 0.043665
0.218138 0.081864 0.043536
0.301825 0.082042 0.043403
0.393916 0.082225 0.043266
0.490676 0.082412 0.043126
0.587859 0.082603 0.042984
0.681169 0.082798 0.042839
0.766737 0.082995 0.042693
0.841488 0.083194 0.042546
0.903302 0.083394 0.042399
0.950940 0.083595 0.042251
0.983665 0.083795 0.042104
0.999760 0.083998 0.041947
0.000000 0.137530 0.043758
0.012168 0.137746 0.043630
0.042144 0.137966 0.043500
0.087164 0.138193 0.043365
0.146506 0.138426 0.043228
0.219064 0.138665 0.043087
0.302894 0.138909 0.042944
0.395087 0.139156 0.042799
0.491897 0.139406 0.042652
0.589071 0.139658 0.042505
0.682315 0.139912 0.042358
0.767767 0.140165 0.042210
0.842365 0.140418 0.042063
0.904030 0.140676 0.041898
0.951523 0.140942 0.041706
0.984073 0.141215 0.041488
0.999846 0.141492 0.041246
0.000000 0.206995 0.043331
0.012425 0.207282 0.043189
0.042592 0.207568 0.043047
0.087800 0.207859 0.042903
0.147325 0.208154 0.042758
0.220051 0.208453 0.042611
0.304017 0.208753 0.042464
0.396302 0.209054 0.042316
0.493148 0.209356 0.042169
0.590305 0.209657 0.042020
0.683533 0.209966 0.041847
0.768971 0.210284 0.041647
0.843532 0.210610 0.041423
0.905085 0.210940 0.041175
0.952378 0.211275 0.040906
0.984646 0.211612 0.040619
0.999938 0.211949 0.040314
0.000000 0.287770 0.042867
0.012703 0.288113 0.042717
0.043069 0.288452 0.042570
0.088468 0.288792 0.042423
0.148174 0.289133 0.042275
0.221060 0.289473 0.042128
0.305169 0.289815 0.041975
0.397625 0.290168 0.041794
0.494663 0.290530 0.041587
0.592004 0.290899 0.041356
0.685323 0.291274 0.041102
0.770733 0.291652 0.040828
0.845155 0.292033 0.040535
0.906473 0.292414 0.040226
0.953453 0.292793 0.039903
0.985335 0.293168 0.039567
0.999999 0.293539 0.039220
0.000000 0.377223 0.042385
0.012992 0.377600 0.042234
0.043556 0.377967 0.042088
0.089162 0.378340 0.041927
0.149125 0.378723 0.041739
0.222330 0.379117 0.041525
0.306801 0.379517 0.041287
0.399581 0.379923 0.041028
0.496864 0.380332 0.040748
0.594336 0.380743 0.040451
0.687655 0.381154 0.040138
0.772936 0.381562 0.039810
0.847113 0.381965 0.039471
0.908096 0.382363 0.039122
0.954673 0.382752 0.038764
0.986093 0.383131 0.038400
1.000000 0.383498 0.038031
0.000000 0.471887 0.041882
0.013327 0.472297 0.041682
0.044197 0.472705 0.041461
0.090168 0.473121 0.041217
0.150535 0.473542 0.040952
0.224156 0.473966 0.040667
0.309014 0.474391 0.040365
0.402110 0.474814 0.040048
0.499598 0.475235 0.039717
0.597137 0.475650 0.039375
0.690376 0.476058 0.039023
0.775440 0.476457 0.038663
0.849286 0.476845 0.038297
0.909857 0.477220 0.037928
0.955969 0.477579 0.037556
0.986875 0.477921 0.037184
1.000000 0.478244 0.036813
0.000000 0.567848 0.041151
0.013828 0.568276 0.040874
0.045107 0.568696 0.040585
0.091519 0.569116 0.040278
0.152344 0.569535 0.039957
0.226410 0.569950 0.039623
0.311659 0.570359 0.039277
0.405050 0.570761 0.038923
0.502697 0.571153 0.038562
0.600242 0.571533 0.038195
0.693330 0.571900 0.037825
0.778105 0.572250 0.037452
0.851557 0.572583 0.037080
0.911663 0.572897 0.036710
0.957272 0.573188 0.036343
0.987641 0.573456 0.035982
1.000000 0.573699 0.035627
0.000000 0.660937 0.040198
0.014471 0.661343 0.039865
0.046228 0.661735 0.039527
0.093128 0.662121 0.039180
0.154441 0.662500 0.038823
0.228961 0.662868 0.038460
0.314588 0.663225 0.038092
0.408238 0.663569 0.037721
0.505997 0.663897 0.037349
0.603487 0.664207 0.036977
0.696364 0.664498 0.036608
0.780796 0.664769 0.036242
0.853810 0.665016 0.035882
0.913424 0.665238 0.035529
0.958516 0.665434 0.035185
0.988356 0.665612 0.034848
1.000000 0.665790 0.034510
0.000042 0.747267 0.039089
0.015222 0.747616 0.038723
0.047498 0.747948 0.038358
0.094910 0.748268 0.037989
0.156716 0.748576 0.037617
0.231675 0.748869 0.037245
0.317649 0.749146 0.036874
0.411514 0.749405 0.036505
0.509329 0.749644 0.036141
0.606710 0.749862 0.035783
0.699326 0.750057 0.035433
0.783378 0.750227 0.035091
0.855947 0.750389 0.034754
0.915091 0.750550 0.034417
0.959705 0.750712 0.034082
0.989041 0.750872 0.033749
1.000000 0.751032 0.033421
0.000152 0.823659 0.037894
0.016045 0.823928 0.037514
0.048855 0.824178 0.037141
0.096776 0.824413 0.036771
0.159054 0.824632 0.036403
0.234418 0.824834 0.036041
0.320691 0.825017 0.035685
0.414714 0.825180 0.035337
0.512530 0.825323 0.034997
0.609780 0.825463 0.034660
0.702155 0.825602 0.034323
0.785876 0.825742 0.033989
0.858040 0.825880 0.033657
0.916727 0.826017 0.033331
0.960860 0.826153 0.033010
0.989692 0.826286 0.032695
1.000000 0.826416 0.032388
0.000311 0.887859 0.036677
0.016901 0.888039 0.036302
0.050230 0.888200 0.035941
0.098631 0.888345 0.035587
0.161339 0.888474 0.035241
0.237058 0.888588 0.034903
0.323601 0.888703 0.034566
0.417791 0.888817 0.034230
0.515655 0.888931 0.033896
0.612807 0.889044 0.033566
0.704944 0.889156 0.033241
0.788316 0.889266 0.032921
0.860056 0.889374 0.032609
0.918281 0.889480 0.032305
0.961939 0.889583 0.032009
0.990284 0.889683 0.031724
1.000000 0.889780 0.031451
0.000503 0.938529 0.035498
0.017746 0.938626 0.035147
0.051561 0.938712 0.034809
0.100418 0.938800 0.034472
0.163557 0.938886 0.034136
0.239657 0.938973 0.033804
0.326486 0.939059 0.033475
0.420836 0.939144 0.033151
0.518712 0.939227 0.032834
0.615729 0.939309 0.032523
0.707600 0.939389 0.032221
0.790606 0.939467 0.031929
0.861920 0.939542 0.031647
0.919693 0.939614 0.031377
0.962900 0.939683 0.031119
0.990798 0.939749 0.030874
1.000000 0.939811 0.030645
0.000718 0.975015 0.034386
0.018582 0.975075 0.034043
0.052885 0.975133 0.033712
0.102202 0.975191 0.033384
0.165756 0.975247 0.033062
0.242203 0.975303 0.032746
0.329274 0.975358 0.032438
0.423736 0.975411 0.032139
0.521582 0.975462 0.031849
0.618430 0.975512 0.031571
0.710016 0.975560 0.031303
0.792654 0.975606 0.031049
0.863555 0.975649 0.030809
0.920906 0.975690 0.030583
0.963706 0.975728 0.030374
0.991213 0.975763 0.030181
1.000000 0.975795 0.030005
0.000956 0.996516 0.033301
0.019419 0.996542 0.032973
0.054187 0.996567 0.032660
0.103927 0.996592 0.032354
0.167854 0.996615 0.032057
0.244593 0.996638 0.031771
0.331852 0.996660 0.031495
0.426374 0.996681 0.031231
0.524147 0.996701 0.030981
0.620798 0.996720 0.030744
0.712088 0.996738 0.030523
0.794369 0.996754 0.030318
0.864887 0.996769 0.030130
0.921862 0.996783 0.029960
0.964317 0.996795 0.029809
0.991511 0.996806 0.029678
1.000000 0.996815 0.029568
0.000000 0.000000 0.087812
0.011559 0.000000 0.087786
0.041004 0.000000 0.087746
0.085449 0.000000 0.087690
0.144183 0.000000 0.087620
0.216139 0.000000 0.087537
0.299424 0.000000 0.087440
0.391189 0.000000 0.087332
0.487738 0.000000 0.087212
0.584851 0.000000 0.087081
0.678243 0.000000 0.086941
0.764035 0.000000 0.086791
0.839129 0.000000 0.086634
0.901371 0.000000 0.086468
0.949494 0.000000 0.086295
0.982753 0.000000 0.086117
0.999555 0.000000 0.085933
0.000000 0.010593 0.087673
0.011637 0.010623 0.087598
0.041171 0.010658 0.087511
