assets/presets/luts/amber-dusk/lut.cube
TITLE "Amber Dusk"
LUT_3D_SIZE 5
0.000000 0.000000 0.000486
0.144099 0.000000 0.000471
0.487523 0.000000 0.000430
0.838928 0.000000 0.000370
0.999533 0.000000 0.000301
0.000000 0.137400 0.000352
0.146353 0.138277 0.000280
0.491656 0.139247 0.000209
0.842195 0.140257 0.000143
0.999828 0.141315 0.000072
0.000000 0.471639 0.000126
0.150227 0.473274 0.000050
0.499033 0.474967 0.000000
0.848853 0.476600 0.000000
1.000000 0.478040 0.000000
0.000127 0.823485 0.000000
0.158601 0.824495 0.000000
0.511924 0.825234 0.000000
0.857637 0.825792 0.000000
1.000000 0.826334 0.000000
0.000908 0.996500 0.000000
0.167458 0.996600 0.000000
0.523678 0.996688 0.000000
0.864656 0.996760 0.000000
1.000000 0.996809 0.000000
0.000000 0.000000 0.143673
0.144215 0.000000 0.143409
0.487814 0.000000 0.142879
0.839198 0.000000 0.142141
0.999562 0.000000 0.141253
0.000000 0.137665 0.141910
0.146663 0.138579 0.140986
0.492142 0.139568 0.139992
0.842552 0.140584 0.138966
0.999865 0.141672 0.137446
0.000000 0.472144 0.138620
0.150863 0.473815 0.136912
0.500183 0.475503 0.134700
0.849729 0.477088 0.132182
1.000000 0.478440 0.129562
0.000180 0.823830 0.131470
0.159511 0.824765 0.128841
0.513143 0.825413 0.126361
0.858444 0.825969 0.123961
1.000000 0.826498 0.121690
0.001005 0.996533 0.123324
0.168246 0.996630 0.121099
0.524605 0.996713 0.119183
0.865107 0.996778 0.117690
1.000000 0.996819 0.116745
0.000000 0.000000 0.465997
0.144360 0.000000 0.465467
0.488139 0.000000 0.464569
0.839486 0.000000 0.463386
0.999591 0.000000 0.462006
0.000000 0.137945 0.463025
0.146983 0.138892 0.461596
0.492634 0.139895 0.460089
0.842991 0.140924 0.458411
0.999901 0.142037 0.455802
0.000000 0.472668 0.457795
0.151560 0.474362 0.454924
0.501391 0.476031 0.451372
0.850620 0.477555 0.447426
1.000000 0.478805 0.443389
0.000241 0.824156 0.446322
0.160415 0.825006 0.442289
0.514373 0.825593 0.438481
0.859242 0.826144 0.434747
1.000000 0.826658 0.431259
0.001104 0.996565 0.433763
0.169006 0.996659 0.430359
0.525467 0.996737 0.427494
0.865501 0.996794 0.425357
1.000000 0.996827 0.424161
0.000000 0.000000 0.807428
0.144530 0.000000 0.806924
0.488494 0.000000 0.806158
0.839788 0.000000 0.805194
0.999619 0.000000 0.804096
0.000000 0.138238 0.804904
0.147310 0.139211 0.803774
0.493125 0.140221 0.802602
0.843507 0.141275 0.801111
0.999936 0.142403 0.798859
0.000000 0.473204 0.800564
0.152309 0.474907 0.798124
0.502640 0.476544 0.795212
0.851516 0.477994 0.792046
1.000000 0.479128 0.788860
0.000308 0.824457 0.791170
0.161300 0.825213 0.788002
0.515600 0.825772 0.784966
0.860022 0.826315 0.781992
1.000000 0.826811 0.779255
0.001203 0.996596 0.781215
0.169729 0.996686 0.778559
0.526254 0.996758 0.776384
0.865830 0.996808 0.774856
1.000000 0.996831 0.774156
0.000000 0.000000 0.990433
0.144725 0.000000 0.990273
0.488876 0.000000 0.990046
0.840102 0.000000 0.989769
0.999648 0.000000 0.989458
0.000000 0.138541 0.989686
0.147642 0.139534 0.989367
0.493632 0.140548 0.989035
0.844094 0.141634 0.988539
0.999967 0.142768 0.987834
0.000000 0.473747 0.988366
0.153103 0.475447 0.987607
0.503920 0.477037 0.986714
0.852410 0.478400 0.985747
1.000000 0.479404 0.984776
0.000380 0.824732 0.985479
0.162168 0.825394 0.984511
0.516816 0.825950 0.983549
0.860777 0.826481 0.982605
1.000000 0.826956 0.981743
0.001302 0.996626 0.982359
0.170408 0.996711 0.981525
0.526956 0.996776 0.980861
0.866089 0.996818 0.980428
1.000000 0.996831 0.980292
