assets/presets/luts/amber-dusk/lut.cube
TITLE "Amber Dusk"
LUT_3D_SIZE 9
0.000000 0.000000 0.000486
0.040976 0.000000 0.000482
0.144099 0.000000 0.000471
0.299268 0.000000 0.000453
0.487523 0.000000 0.000430
0.678010 0.000000 0.000402
0.838928 0.000000 0.000370
0.949364 0.000000 0.000336
0.999533 0.000000 0.000301
0.000000 0.038513 0.000447
0.041348 0.038667 0.000422
0.144965 0.038849 0.000393
0.300679 0.039058 0.000361
0.489323 0.039290 0.000326
0.679860 0.039542 0.000290
0.840459 0.039809 0.000254
0.950324 0.040087 0.000218
0.999679 0.040373 0.000184
0.000000 0.137400 0.000352
0.042061 0.137825 0.000316
0.146353 0.138277 0.000280
0.302681 0.138753 0.000244
0.491656 0.139247 0.000209
0.682091 0.139750 0.000175
0.842195 0.140257 0.000143
0.951389 0.140772 0.000110
0.999828 0.141315 0.000072
0.000000 0.287559 0.000235
0.042975 0.288236 0.000199
0.148008 0.288916 0.000166
0.304932 0.289597 0.000134
0.494311 0.290298 0.000100
0.684928 0.291035 0.000061
0.844810 0.291791 0.000025
0.953231 0.292552 0.000001
0.999992 0.293304 0.000000
0.000000 0.471639 0.000126
0.044049 0.472444 0.000089
0.150227 0.473274 0.000050
0.308546 0.474120 0.000016
0.499033 0.474967 0.000000
0.689825 0.475799 0.000000
0.848853 0.476600 0.000000
0.955715 0.477352 0.000000
1.000000 0.478040 0.000000
0.000000 0.660683 0.000009
0.045997 0.661486 0.000000
0.154017 0.662260 0.000000
0.314004 0.663000 0.000000
0.505348 0.663690 0.000000
0.695776 0.664315 0.000000
0.853379 0.664861 0.000000
0.958282 0.665312 0.000000
1.000000 0.665677 0.000000
0.000127 0.823485 0.000000
0.048588 0.824020 0.000000
0.158601 0.824495 0.000000
0.320109 0.824903 0.000000
0.511924 0.825234 0.000000
0.701606 0.825513 0.000000
0.857637 0.825792 0.000000
0.960640 0.826067 0.000000
1.000000 0.826334 0.000000
0.000464 0.938462 0.000000
0.051305 0.938657 0.000000
0.163125 0.938831 0.000000
0.325930 0.939004 0.000000
0.518129 0.939174 0.000000
0.707099 0.939338 0.000000
0.861574 0.939494 0.000000
0.962725 0.939640 0.000000
1.000000 0.939772 0.000000
0.000908 0.996500 0.000000
0.053939 0.996551 0.000000
0.167458 0.996600 0.000000
0.331373 0.996646 0.000000
0.523678 0.996688 0.000000
0.711718 0.996727 0.000000
0.864656 0.996760 0.000000
0.964215 0.996788 0.000000
1.000000 0.996809 0.000000
0.000000 0.000000 0.044721
0.040993 0.000000 0.044681
0.144153 0.000000 0.044595
0.299370 0.000000 0.044469
0.487664 0.000000 0.044306
0.678163 0.000000 0.044112
0.839060 0.000000 0.043890
0.949450 0.000000 0.043645
0.999548 0.000000 0.043382
0.000000 0.038558 0.044428
0.041405 0.038721 0.044255
0.145081 0.038913 0.044052
0.300853 0.039130 0.043823
0.489532 0.039368 0.043573
0.680065 0.039625 0.043305
0.840623 0.039896 0.043024
0.950423 0.040177 0.042734
0.999692 0.040464 0.042440
0.000000 0.137530 0.043758
0.042144 0.137966 0.043500
0.146506 0.138426 0.043228
0.302894 0.138909 0.042944
0.491897 0.139406 0.042652
0.682315 0.139912 0.042358
0.842365 0.140418 0.042063
0.951523 0.140942 0.041706
0.999846 0.141492 0.041246
0.000000 0.287770 0.042867
0.043069 0.288452 0.042570
0.148174 0.289133 0.042275
0.305169 0.289815 0.041975
0.494663 0.290530 0.041587
0.685323 0.291274 0.041102
0.845155 0.292033 0.040535
0.953453 0.292793 0.039903
0.999999 0.293539 0.039220
0.000000 0.471887 0.041882
0.044197 0.472705 0.041461
0.150535 0.473542 0.040952
0.309014 0.474391 0.040365
0.499598 0.475235 0.039717
0.690376 0.476058 0.039023
0.849286 0.476845 0.038297
0.955969 0.477579 0.037556
1.000000 0.478244 0.036813
0.000000 0.660937 0.040198
0.046228 0.661735 0.039527
0.154441 0.662500 0.038823
0.314588 0.663225 0.038092
0.505997 0.663897 0.037349
0.696364 0.664498 0.036608
0.853810 0.665016 0.035882
0.958516 0.665434 0.035185
1.000000 0.665790 0.034510
0.000152 0.823659 0.037894
0.048855 0.824178 0.037141
0.159054 0.824632 0.036403
0.320691 0.825017 0.035685
0.512530 0.825323 0.034997
0.702155 0.825602 0.034323
0.858040 0.825880 0.033657
0.960860 0.826153 0.033010
1.000000 0.826416 0.032388
0.000503 0.938529 0.035498
0.051561 0.938712 0.034809
0.163557 0.938886 0.034136
0.326486 0.939059 0.033475
0.518712 0.939227 0.032834
0.707600 0.939389 0.032221
0.861920 0.939542 0.031647
0.962900 0.939683 0.031119
1.000000 0.939811 0.030645
0.000956 0.996516 0.033301
0.054187 0.996567 0.032660
0.167854 0.996615 0.032057
0.331852 0.996660 0.031495
0.524147 0.996701 0.030981
0.712088 0.996738 0.030523
0.864887 0.996769 0.030130
0.964317 0.996795 0.029809
1.000000 0.996815 0.029568
0.000000 0.000000 0.143673
0.041015 0.000000 0.143578
0.144215 0.000000 0.143409
0.299481 0.000000 0.143174
0.487814 0.000000 0.142879
0.678324 0.000000 0.142532
0.839198 0.000000 0.142141
0.949539 0.000000 0.141712
0.999562 0.000000 0.141253
0.000000 0.038606 0.143100
0.041465 0.038780 0.142787
0.145203 0.038980 0.142427
0.301034 0.039204 0.142024
0.489749 0.039449 0.141586
0.680277 0.039711 0.141120
0.840791 0.039986 0.140633
0.950524 0.040269 0.140133
0.999706 0.040558 0.139627
0.000000 0.137665 0.141910
0.042228 0.138111 0.141458
0.146663 0.138579 0.140986
0.303112 0.139068 0.140495
0.492142 0.139568 0.139992
0.682541 0.140075 0.139486
0.842552 0.140584 0.138966
0.951670 0.141117 0.138290
0.999865 0.141672 0.137446
0.000000 0.287986 0.140362
0.043164 0.288671 0.139851
0.148341 0.289352 0.139345
0.305437 0.290041 0.138796
0.495045 0.290767 0.138071
0.685743 0.291517 0.137184
0.845517 0.292278 0.136162
0.953683 0.293035 0.135031
1.000000 0.293774 0.133816
0.000000 0.472144 0.138620
0.044356 0.472973 0.137839
0.150863 0.473815 0.136912
0.309504 0.474664 0.135857
0.500183 0.475503 0.134700
0.690943 0.476316 0.133466
0.849729 0.477088 0.132182
0.956226 0.477801 0.130873
1.000000 0.478440 0.129562
0.000000 0.661193 0.135557
0.046468 0.661985 0.134363
0.154878 0.662739 0.133113
0.315184 0.663448 0.131819
0.506654 0.664099 0.130507
0.696957 0.664675 0.129200
0.854241 0.665162 0.127924
0.958750 0.665549 0.126698
1.000000 0.665905 0.125489
0.000180 0.823830 0.131470
0.049125 0.824331 0.130141
0.159511 0.824765 0.128841
0.321272 0.825125 0.127577
0.513143 0.825413 0.126361
0.702708 0.825692 0.125153
0.858444 0.825969 0.123961
0.961079 0.826239 0.122801
1.000000 0.826498 0.121690
0.000544 0.938592 0.127249
0.051820 0.938769 0.126024
0.163993 0.938942 0.124819
0.327045 0.939114 0.123634
0.519295 0.939280 0.122486
0.708096 0.939439 0.121392
0.862262 0.939589 0.120367
0.963072 0.939726 0.119427
1.000000 0.939849 0.118589
0.001005 0.996533 0.123324
0.054436 0.996583 0.122175
0.168246 0.996630 0.121099
0.332324 0.996674 0.120096
0.524605 0.996713 0.119183
0.712446 0.996749 0.118376
0.865107 0.996778 0.117690
0.964411 0.996802 0.117141
1.000000 0.996819 0.116745
0.000000 0.000000 0.289357
0.041042 0.000000 0.289198
0.144284 0.000000 0.288944
0.299601 0.000000 0.288604
0.487973 0.000000 0.288189
0.678492 0.000000 0.287707
0.839340 0.000000 0.287168
0.949629 0.000000 0.286582
0.999576 0.000000 0.285959
0.000000 0.038658 0.288500
0.041529 0.038841 0.288060
0.145330 0.039050 0.287561
0.301221 0.039281 0.287008
0.489969 0.039532 0.286410
0.680491 0.039798 0.285779
0.840960 0.040076 0.285122
0.950626 0.040362 0.284450
0.999719 0.040651 0.283773
0.000000 0.137804 0.286852
0.042315 0.138259 0.286237
0.146822 0.138735 0.285598
0.303331 0.139228 0.284936
0.492388 0.139731 0.284262
0.682767 0.140238 0.283584
0.842761 0.140752 0.282842
0.951828 0.141294 0.281859
0.999883 0.141854 0.280661
0.000000 0.288203 0.284757
0.043260 0.288890 0.284073
0.148508 0.289571 0.283397
0.305731 0.290271 0.282592
0.495454 0.291006 0.281546
0.686183 0.291762 0.280293
0.845891 0.292523 0.278868
0.953919 0.293276 0.277304
1.000000 0.294005 0.275636
0.000000 0.472404 0.282335
0.044525 0.473242 0.281216
0.151204 0.474088 0.279912
0.310010 0.474936 0.278445
0.500781 0.475768 0.276849
0.691518 0.476570 0.275158
0.850173 0.477325 0.273405
0.956484 0.478016 0.271625
1.000000 0.478628 0.269851
0.000006 0.661447 0.278030
0.046713 0.662231 0.276386
0.155320 0.662973 0.274674
0.315783 0.663665 0.272911
0.507311 0.664293 0.271129
0.697545 0.664842 0.269362
0.854666 0.665297 0.267642
0.958984 0.665663 0.265984
1.000000 0.666020 0.264331
0.000209 0.823995 0.272436
0.049396 0.824478 0.270634
0.159965 0.824889 0.268877
0.321846 0.825223 0.267176
0.513758 0.825503 0.265523
0.703260 0.825782 0.263874
0.858845 0.826057 0.262249
0.961295 0.826324 0.260674
1.000000 0.826579 0.259170
0.000584 0.938649 0.266736
0.052081 0.938825 0.265062
0.164427 0.938998 0.263418
0.327600 0.939168 0.261805
0.519869 0.939332 0.260247
0.708583 0.939489 0.258767
0.862594 0.939634 0.257387
0.963238 0.939767 0.256131
1.000000 0.939885 0.255020
0.001054 0.996549 0.261383
0.054681 0.996598 0.259826
0.168630 0.996644 0.258372
0.332782 0.996687 0.257024
0.525045 0.996725 0.255806
0.712786 0.996759 0.254739
0.865312 0.996787 0.253846
0.964495 0.996808 0.253149
1.000000 0.996823 0.252671
0.000000 0.000000 0.465997
0.041072 0.000000 0.465783
0.144360 0.000000 0.465467
0.299728 0.000000 0.465059
0.488139 0.000000 0.464569
0.678666 0.000000 0.464008
0.839486 0.000000 0.463386
0.949722 0.000000 0.462716
0.999591 0.000000 0.462006
0.000000 0.038713 0.464935
0.041595 0.038906 0.464418
0.145461 0.039122 0.463839
0.301412 0.039360 0.463203
0.490194 0.039616 0.462520
0.680708 0.039887 0.461801
0.841130 0.040168 0.461058
0.950727 0.040455 0.460301
0.999732 0.040744 0.459540
0.000000 0.137945 0.463025
0.042403 0.138410 0.462323
0.146983 0.138892 0.461596
0.303552 0.139389 0.460848
0.492634 0.139895 0.460089
0.682992 0.140401 0.459329
0.842991 0.140924 0.458411
0.951996 0.141473 0.457223
0.999901 0.142037 0.455802
0.000000 0.288421 0.460646
0.043356 0.289110 0.459877
0.148686 0.289792 0.459103
0.306052 0.290505 0.458106
0.495886 0.291248 0.456849
0.686642 0.292007 0.455370
0.846276 0.292767 0.453707
0.954159 0.293514 0.451897
1.000000 0.294233 0.449978
0.000000 0.472668 0.457795
0.044704 0.473513 0.456458
0.151560 0.474362 0.454924
0.310530 0.475206 0.453216
0.501391 0.476031 0.451372
0.692099 0.476819 0.449429
0.850620 0.477555 0.447426
0.956740 0.478222 0.445401
1.000000 0.478805 0.443389
0.000015 0.661699 0.452736
0.046962 0.662474 0.450839
0.155767 0.663202 0.448876
0.316386 0.663875 0.446863
0.507967 0.664479 0.444837
0.698128 0.665000 0.442837
0.855084 0.665421 0.440898
0.959218 0.665778 0.439008
1.000000 0.666134 0.437119
0.000241 0.824156 0.446322
0.049667 0.824618 0.444276
0.160415 0.825006 0.442289
0.322413 0.825314 0.440373
0.514373 0.825593 0.438481
0.703809 0.825871 0.436597
0.859242 0.826144 0.434747
0.961507 0.826407 0.432959
1.000000 0.826658 0.431259
0.000626 0.938704 0.439869
0.052341 0.938881 0.437954
0.164860 0.939053 0.436077
0.328148 0.939222 0.434242
0.520434 0.939384 0.432475
0.709059 0.939537 0.430804
0.862916 0.939679 0.429255
0.963397 0.939807 0.427854
1.000000 0.939919 0.426628
0.001104 0.996565 0.433763
0.054923 0.996614 0.431999
0.169006 0.996659 0.430359
0.333227 0.996700 0.428849
0.525467 0.996737 0.427494
0.713107 0.996768 0.426321
0.865501 0.996794 0.425357
0.964570 0.996814 0.424628
1.000000 0.996827 0.424161
0.000000 0.000000 0.647894
0.041107 0.000000 0.647657
0.144442 0.000000 0.647328
0.299864 0.000000 0.646913
0.488313 0.000000 0.646424
0.678846 0.000000 0.645870
0.839635 0.000000 0.645262
0.949816 0.000000 0.644610
0.999605 0.000000 0.643924
0.000000 0.038771 0.646789
0.041664 0.038973 0.646275
0.145596 0.039196 0.645705
0.301607 0.039441 0.645083
0.490423 0.039702 0.644420
0.680927 0.039976 0.643726
0.841301 0.040260 0.643012
0.950829 0.040548 0.642286
0.999745 0.040837 0.641559
0.000000 0.138090 0.644910
0.042493 0.138563 0.644230
0.147146 0.139051 0.643529
0.303774 0.139551 0.642810
0.492880 0.140058 0.642084
0.683236 0.140566 0.641339
0.843239 0.141098 0.640374
0.952174 0.141653 0.639161
0.999919 0.142220 0.637735
0.000000 0.288639 0.642617
0.043452 0.289329 0.641881
0.148885 0.290017 0.641098
0.306397 0.290742 0.640060
0.496342 0.291492 0.638784
0.687118 0.292252 0.637304
0.846672 0.293010 0.635658
0.954403 0.293749 0.633879
1.000000 0.294456 0.632004
0.000000 0.472934 0.639741
0.044892 0.473786 0.638390
0.151928 0.474635 0.636861
0.311064 0.475475 0.635174
0.502011 0.476289 0.633365
0.692686 0.477063 0.631469
0.851068 0.477778 0.629524
0.956995 0.478420 0.627565
1.000000 0.478972 0.625628
0.000026 0.661949 0.634702
0.047217 0.662714 0.632844
0.156219 0.663425 0.630931
0.316990 0.664078 0.628978
0.508620 0.664657 0.627021
0.698705 0.665147 0.625097
0.855497 0.665536 0.623239
0.959451 0.665893 0.621398
1.000000 0.666248 0.619563
0.000273 0.824310 0.628455
0.049937 0.824751 0.626480
0.160860 0.825114 0.624572
0.322980 0.825403 0.622727
0.514987 0.825683 0.620885
0.704354 0.825959 0.619056
0.859635 0.826230 0.617266
0.961716 0.826490 0.615542
1.000000 0.826736 0.613910
0.000669 0.938761 0.622236
0.052602 0.938936 0.620373
0.165291 0.939108 0.618553
0.328691 0.939274 0.616778
0.520989 0.939434 0.615077
0.709523 0.939584 0.613475
0.863228 0.939722 0.611999
0.963548 0.939845 0.610675
1.000000 0.939952 0.609530
0.001153 0.996581 0.616316
0.055160 0.996628 0.614620
0.169372 0.996672 0.613050
0.333656 0.996712 0.611614
0.525870 0.996747 0.610337
0.713409 0.996777 0.609246
0.865673 0.996801 0.608369
0.964635 0.996819 0.607730
1.000000 0.996829 0.607358
0.000000 0.000000 0.807428
0.041146 0.000000 0.807212
0.144530 0.000000 0.806924
0.300006 0.000000 0.806570
0.488494 0.000000 0.806158
0.679031 0.000000 0.805697
0.839788 0.000000 0.805194
0.949911 0.000000 0.804658
0.999619 0.000000 0.804096
0.000000 0.038833 0.806464
0.041736 0.039042 0.806033
0.145734 0.039273 0.805559
0.301807 0.039523 0.805046
0.490655 0.039789 0.804502
0.681148 0.040067 0.803935
0.841473 0.040352 0.803353
0.950930 0.040641 0.802765
0.999759 0.040931 0.802159
0.000000 0.138238 0.804904
0.042583 0.138718 0.804346
0.147310 0.139211 0.803774
0.303997 0.139714 0.803190
0.493125 0.140221 0.802602
0.683507 0.140734 0.801961
0.843507 0.141275 0.801111
0.952361 0.141835 0.800067
0.999936 0.142403 0.798859
0.000000 0.288859 0.803033
0.043548 0.289548 0.802438
0.149104 0.290247 0.801745
0.306766 0.290981 0.800838
0.496820 0.291736 0.799746
0.687610 0.292497 0.798496
0.847076 0.293250 0.797118
0.954651 0.293981 0.795638
1.000000 0.294674 0.794087
0.000000 0.473204 0.800564
0.045089 0.474059 0.799412
0.152309 0.474907 0.798124
0.311609 0.475741 0.796714
0.502640 0.476544 0.795212
0.693277 0.477300 0.793646
0.851516 0.477994 0.792046
0.957249 0.478608 0.790441
1.000000 0.479128 0.788860
0.000041 0.662196 0.796322
0.047475 0.662948 0.794781
0.156674 0.663642 0.793203
0.317595 0.664273 0.791598
0.509270 0.664825 0.789997
0.699275 0.665284 0.788429
0.855910 0.665651 0.786910
0.959684 0.666008 0.785389
1.000000 0.666361 0.783877
0.000308 0.824457 0.791170
0.050206 0.824876 0.789555
0.161300 0.825213 0.788002
0.323549 0.825493 0.786487
0.515600 0.825772 0.784966
0.704895 0.826047 0.783461
0.860022 0.826315 0.781992
0.961920 0.826571 0.780583
1.000000 0.826811 0.779255
0.000713 0.938817 0.786081
0.052862 0.938992 0.784544
0.165718 0.939162 0.783047
0.329226 0.939327 0.781593
0.521534 0.939483 0.780204
0.709975 0.939630 0.778903
0.863528 0.939763 0.777711
0.963693 0.939881 0.776653
1.000000 0.939982 0.775749
0.001203 0.996596 0.781215
0.055393 0.996643 0.779832
0.169729 0.996686 0.778559
0.334070 0.996724 0.777402
0.526254 0.996758 0.776384
0.713690 0.996786 0.775528
0.865830 0.996808 0.774856
0.964691 0.996823 0.774392
1.000000 0.996831 0.774156
0.000000 0.000000 0.924712
0.041188 0.000000 0.924554
0.144625 0.000000 0.924350
0.300156 0.000000 0.924104
0.488682 0.000000 0.923822
0.679221 0.000000 0.923509
0.839944 0.000000 0.923170
0.950008 0.000000 0.922811
0.999634 0.000000 0.922436
0.000000 0.038896 0.924032
0.041810 0.039114 0.923737
0.145877 0.039352 0.923416
0.302010 0.039607 0.923071
0.490890 0.039877 0.922707
0.681371 0.040158 0.922329
0.841645 0.040445 0.921942
0.951032 0.040734 0.921553
0.999774 0.041028 0.921124
0.000000 0.138389 0.922976
0.042675 0.138875 0.922603
0.147476 0.139372 0.922222
0.304220 0.139877 0.921834
0.493370 0.140384 0.921445
0.683806 0.140906 0.920979
0.843792 0.141454 0.920372
0.952556 0.142018 0.919641
0.999952 0.142586 0.918804
0.000000 0.289078 0.921730
0.043648 0.289768 0.921330
0.149343 0.290480 0.920823
0.307158 0.291223 0.920180
0.497318 0.291981 0.919418
0.688118 0.292741 0.918555
0.847489 0.293489 0.917611
0.954901 0.294209 0.916602
1.000000 0.294887 0.915550
0.000000 0.473475 0.919987
0.045294 0.474333 0.919187
0.152701 0.475178 0.918299
0.312166 0.476003 0.917335
0.503277 0.476793 0.916313
0.693871 0.477531 0.915251
0.851964 0.478201 0.914170
0.957500 0.478787 0.913089
1.000000 0.479272 0.912029
0.000058 0.662440 0.917068
0.047736 0.663178 0.916020
0.157132 0.663853 0.914951
0.318199 0.664460 0.913868
0.509915 0.664984 0.912791
0.699837 0.665409 0.911741
0.856323 0.665766 0.910711
0.959915 0.666122 0.909676
1.000000 0.666474 0.908650
0.000343 0.824599 0.913580
0.050472 0.824994 0.912495
0.161734 0.825304 0.911455
0.324118 0.825583 0.910423
0.516209 0.825861 0.909389
0.705431 0.826135 0.908368
0.860403 0.826399 0.907374
0.962120 0.826650 0.906424
1.000000 0.826885 0.905532
0.000759 0.938873 0.910147
0.053121 0.939047 0.909103
0.166141 0.939216 0.908087
0.329753 0.939378 0.907104
0.522066 0.939532 0.906169
0.710414 0.939674 0.905296
0.863817 0.939803 0.904503
0.963830 0.939916 0.903806
1.000000 0.940010 0.903219
0.001252 0.996611 0.906850
0.055620 0.996657 0.905919
0.170074 0.996698 0.905067
0.334467 0.996735 0.904299
0.526616 0.996767 0.903630
0.713950 0.996794 0.903078
0.865968 0.996813 0.902658
0.964735 0.996826 0.902385
1.000000 0.996831 0.902277
0.000000 0.000000 0.990433
0.041234 0.000000 0.990362
0.144725 0.000000 0.990273
0.300313 0.000000 0.990167
0.488876 0.000000 0.990046
0.679416 0.000000 0.989912
0.840102 0.000000 0.989769
0.950106 0.000000 0.989616
0.999648 0.000000 0.989458
0.000000 0.038963 0.990135
0.041886 0.039188 0.990009
0.146022 0.039432 0.989873
0.302217 0.039693 0.989726
0.491128 0.039967 0.989572
0.681596 0.040250 0.989412
0.841817 0.040538 0.989249
0.951133 0.040827 0.989085
0.999790 0.041126 0.988884
0.000000 0.138541 0.989686
0.042768 0.139034 0.989528
0.147642 0.139534 0.989367
0.304443 0.140041 0.989203
0.493632 0.140548 0.989035
0.684131 0.141080 0.988817
0.844094 0.141634 0.988539
0.952760 0.142201 0.988209
0.999967 0.142768 0.987834
0.000000 0.289298 0.989159
0.043761 0.289993 0.988981
0.149600 0.290717 0.988745
0.307571 0.291466 0.988452
0.497836 0.292226 0.988109
0.688639 0.292984 0.987722
0.847910 0.293724 0.987298
0.955154 0.294432 0.986845
1.000000 0.295094 0.986370
0.000000 0.473747 0.988366
0.045506 0.474606 0.988005
0.153103 0.475447 0.987607
0.312733 0.476262 0.987174
0.503920 0.477037 0.986714
0.694467 0.477755 0.986236
0.852410 0.478400 0.985747
0.957749 0.478955 0.985257
1.000000 0.479404 0.984776
0.000077 0.662680 0.987054
0.048000 0.663402 0.986583
0.157592 0.664057 0.986100
0.318801 0.664638 0.985610
0.510553 0.665132 0.985122
0.700390 0.665524 0.984644
0.856736 0.665881 0.984166
0.960144 0.666236 0.983683
1.000000 0.666585 0.983203
0.000380 0.824732 0.985479
0.050737 0.825103 0.984987
0.162168 0.825394 0.984511
0.324687 0.825673 0.984031
0.516816 0.825950 0.983549
0.705961 0.826221 0.983071
0.860777 0.826481 0.982605
0.962315 0.826728 0.982160
1.000000 0.826956 0.981743
0.000805 0.938928 0.983903
0.053379 0.939102 0.983415
0.166560 0.939269 0.982940
0.330272 0.939429 0.982479
0.522586 0.939579 0.982040
0.710839 0.939717 0.981632
0.864094 0.939841 0.981263
0.963960 0.939948 0.980941
1.000000 0.940036 0.980674
0.001302 0.996626 0.982359
0.055843 0.996671 0.981923
0.170408 0.996711 0.981525
0.334846 0.996746 0.981168
0.526956 0.996776 0.980861
0.714188 0.996801 0.980611
0.866089 0.996818 0.980428
0.964769 0.996829 0.980320
1.000000 0.996831 0.980292
