assets/presets/luts/teal-orange/lut.cube
TITLE "Teal & Orange"
LUT_3D_SIZE 9
0.000000 0.000038 0.001655
0.031329 0.000008 0.001497
0.135930 0.000000 0.001187
0.308935 0.000000 0.000851
0.524573 0.000000 0.000540
0.734719 0.000000 0.000277
0.894242 0.000000 0.000082
0.982846 0.000000 0.000000
1.000000 0.000000 0.000000
0.000000 0.040893 0.001270
0.030100 0.040672 0.001027
0.143370 0.038779 0.000000
0.331812 0.036066 0.000000
0.555832 0.033995 0.000000
0.764171 0.032220 0.000000
0.914364 0.030600 0.000000
0.990920 0.029079 0.000000
1.000000 0.027628 0.000000
0.000000 0.144031 0.000927
0.031658 0.143188 0.000989
0.127983 0.144305 0.000016
0.310436 0.141780 0.000000
0.548228 0.135864 0.000000
0.767940 0.130385 0.000000
0.920796 0.125700 0.000000
0.993949 0.121590 0.000000
1.000000 0.117886 0.000000
0.000000 0.304931 0.000545
0.033571 0.303606 0.000608
0.131538 0.303444 0.000500
0.291454 0.306116 0.000000
0.517631 0.303493 0.000000
0.748102 0.296048 0.000000
0.914136 0.287767 0.000000
0.993386 0.280024 0.000000
1.000000 0.273063 0.000000
0.000000 0.502773 0.000225
0.035711 0.501162 0.000283
0.135899 0.501032 0.000196
0.295153 0.501949 0.000000
0.499881 0.505299 0.000000
0.723433 0.503088 0.000000
0.898986 0.495966 0.000000
0.989465 0.487058 0.000000
1.000000 0.477940 0.000000
0.000000 0.700251 0.000013
0.038365 0.698764 0.000038
0.141104 0.698749 0.000004
0.303438 0.698765 0.000000
0.502109 0.701069 0.000000
0.708902 0.703968 0.000000
0.883054 0.702468 0.000000
0.982821 0.697018 0.000000
1.000000 0.689663 0.000000
0.000000 0.860062 0.000000
0.041158 0.858966 0.000000
0.146151 0.859028 0.000000
0.310021 0.859112 0.000000
0.510082 0.859477 0.000000
0.707129 0.861901 0.000000
0.871959 0.863875 0.000000
0.975402 0.863072 0.000000
1.000000 0.859694 0.000000
0.000067 0.961594 0.000000
0.043442 0.960994 0.000000
0.149985 0.961054 0.000000
0.314886 0.961119 0.000000
0.515712 0.961184 0.000000
0.711886 0.961748 0.000000
0.869145 0.963132 0.000000
0.970044 0.964084 0.000000
1.000000 0.963677 0.000000
0.000212 1.000000 0.000000
0.045252 1.000000 0.000000
0.153331 1.000000 0.000000
0.319307 1.000000 0.000000
0.520314 1.000000 0.000000
0.716990 1.000000 0.000000
0.870994 1.000000 0.000000
0.967878 1.000000 0.000000
1.000000 1.000000 0.000000
0.000000 0.000020 0.059152
0.029548 0.000032 0.051042
0.122617 0.000033 0.050703
0.276556 0.000027 0.050464
0.480911 0.000000 0.050286
0.693269 0.000000 0.049550
0.865024 0.000000 0.048343
0.969325 0.000000 0.046820
1.000000 0.000000 0.045091
0.000000 0.042955 0.054465
0.029946 0.040554 0.050380
0.129250 0.039698 0.049036
0.300090 0.038150 0.047009
0.515621 0.036620 0.044805
0.727629 0.035114 0.042570
0.889914 0.033634 0.040340
0.981138 0.032181 0.038137
1.000000 0.030756 0.035975
0.000000 0.148218 0.046509
0.030653 0.144073 0.046901
0.127916 0.143496 0.044906
0.312639 0.139639 0.032011
0.542293 0.134459 0.029567
0.755444 0.130421 0.028038
0.909690 0.126920 0.026519
0.989431 0.123704 0.024936
1.000000 0.120670 0.023277
0.000000 0.310066 0.042729
0.032710 0.304714 0.044542
0.131955 0.303376 0.044934
0.291128 0.305047 0.036028
0.520130 0.301171 0.021234
0.749733 0.292955 0.015931
0.912537 0.285316 0.013651
0.991940 0.278738 0.012236
1.000000 0.272937 0.011065
0.000000 0.507915 0.039852
0.034878 0.502403 0.042069
0.136399 0.500996 0.042373
0.296725 0.500993 0.041353
0.499667 0.504176 0.027270
0.725066 0.501025 0.013438
0.900681 0.492806 0.007453
0.989733 0.483656 0.004715
1.000000 0.475016 0.003314
0.000000 0.704523 0.036939
0.037546 0.699913 0.039229
0.141640 0.698751 0.039495
0.304164 0.698777 0.038669
0.503458 0.699982 0.034869
0.708598 0.703006 0.019600
0.883679 0.700898 0.007791
0.983383 0.694575 0.002649
1.000000 0.686698 0.000666
0.000000 0.862906 0.034126
0.040260 0.859837 0.036482
0.146607 0.859054 0.036903
0.310581 0.859146 0.036271
0.511126 0.859259 0.035726
0.707663 0.861156 0.028399
0.871613 0.863203 0.013978
0.975540 0.862064 0.004119
1.000000 0.858168 0.000479
0.000000 0.962985 0.031892
0.042361 0.961500 0.034349
0.150331 0.961076 0.035041
0.315354 0.961141 0.034546
0.516212 0.961205 0.034064
0.713115 0.961453 0.032537
0.869271 0.962752 0.022622
0.969843 0.963728 0.009529
1.000000 0.963190 0.002089
0.000000 1.000000 0.030211
0.044067 1.000000 0.032602
0.153649 1.000000 0.033439
0.319713 1.000000 0.033013
0.520720 1.000000 0.032621
0.717409 1.000000 0.032269
0.871656 1.000000 0.028451
0.967810 1.000000 0.017646
1.000000 1.000000 0.007237
0.000000 0.000005 0.188730
0.030513 0.000005 0.170367
0.122761 0.000033 0.161813
0.276109 0.000031 0.161217
0.471844 0.000029 0.160472
0.673565 0.000027 0.159613
0.844749 0.000005 0.159146
0.957094 0.000000 0.158435
1.000000 0.000000 0.157156
0.000000 0.042212 0.188057
0.029156 0.040093 0.176300
0.125086 0.040400 0.159343
0.279915 0.040363 0.158223
0.478094 0.040156 0.157285
0.688318 0.039101 0.156399
0.861101 0.037734 0.154560
0.967367 0.036282 0.151991
1.000000 0.034812 0.148961
0.000000 0.151423 0.168498
0.024546 0.147430 0.163149
0.128086 0.143061 0.155904
0.293632 0.141113 0.153187
0.508755 0.138161 0.149084
0.721892 0.135239 0.144877
0.886190 0.132348 0.140694
0.979600 0.129495 0.136450
1.000000 0.126684 0.132135
0.000000 0.316007 0.151331
0.026978 0.310202 0.148462
0.130814 0.304164 0.149872
0.290892 0.303970 0.143674
0.522633 0.298189 0.120523
0.744951 0.290981 0.115489
0.904862 0.285313 0.112134
0.988038 0.280392 0.108754
1.000000 0.275872 0.105267
0.000000 0.514509 0.141228
0.029967 0.507921 0.141350
0.135491 0.501839 0.145060
0.297563 0.500890 0.144872
0.499454 0.503056 0.125804
0.727407 0.498437 0.097431
0.901737 0.489392 0.086019
0.989147 0.480923 0.080786
1.000000 0.473527 0.077464
0.000000 0.710180 0.133418
0.033198 0.704381 0.135410
0.140752 0.699542 0.139689
0.304880 0.698792 0.139581
0.505161 0.699056 0.137274
0.708275 0.702045 0.109106
0.884681 0.699059 0.080652
0.984015 0.691763 0.066151
1.000000 0.683611 0.058593
0.000000 0.866749 0.126945
0.036238 0.862788 0.130233
0.145509 0.859688 0.134808
0.311115 0.859182 0.135182
0.511643 0.859301 0.134187
0.708564 0.860379 0.126566
0.871270 0.862530 0.095786
0.975821 0.860942 0.068158
1.000000 0.856415 0.052917
0.000000 0.964915 0.122146
0.038500 0.962972 0.126364
0.148901 0.961466 0.131140
0.315819 0.961163 0.131927
0.516706 0.961227 0.131006
0.714131 0.961289 0.130108
0.869569 0.962340 0.115098
0.969640 0.963372 0.084108
1.000000 0.962671 0.059711
0.000000 1.000000 0.118568
0.040354 1.000000 0.123106
0.151914 1.000000 0.127848
0.320109 1.000000 0.129006
0.521113 1.000000 0.128265
0.717714 1.000000 0.127605
0.872464 1.000000 0.124546
0.967794 1.000000 0.104319
1.000000 1.000000 0.077621
0.000000 0.000000 0.380687
0.030880 0.000000 0.355093
0.124561 0.000012 0.334402
0.276409 0.000031 0.328388
0.472255 0.000029 0.327325
0.673908 0.000026 0.326092
0.841751 0.000024 0.324716
0.952021 0.000021 0.323218
0.999331 0.000008 0.322133
0.000000 0.041352 0.383933
0.028959 0.039602 0.364160
0.127271 0.039691 0.335545
0.280387 0.040344 0.324183
0.477321 0.040285 0.322647
0.678976 0.040224 0.321024
0.845944 0.040123 0.319407
0.956514 0.039446 0.318420
1.000000 0.038359 0.317081
0.000000 0.150742 0.366223
0.023819 0.146165 0.356955
0.126708 0.142213 0.340169
0.285621 0.142837 0.318711
0.483502 0.142713 0.316974
0.686819 0.142131 0.315567
0.858355 0.139995 0.314010
0.965772 0.137376 0.311036
1.000000 0.134622 0.307014
0.000000 0.319848 0.336556
0.021031 0.314366 0.329191
0.118238 0.308916 0.321890
0.291271 0.303119 0.312894
0.502874 0.299856 0.308306
0.717231 0.295794 0.302108
0.883469 0.291775 0.295796
0.978552 0.287802 0.289468
1.000000 0.283879 0.283180
0.000000 0.520515 0.311708
0.023456 0.514280 0.305968
0.124498 0.507730 0.302198
0.297265 0.501329 0.304735
0.499242 0.501941 0.291388
0.729617 0.495145 0.260312
0.898751 0.487176 0.252907
0.986276 0.480849 0.248154
1.000000 0.475291 0.243482
0.000000 0.715959 0.293788
0.026945 0.710179 0.291180
0.131624 0.704258 0.291928
0.304519 0.699237 0.297359
0.506178 0.698888 0.296469
0.707935 0.701085 0.266944
0.886123 0.696748 0.227700
0.984373 0.688720 0.211368
1.000000 0.681077 0.203753
0.000000 0.870895 0.280509
0.030283 0.866788 0.280936
0.137433 0.862750 0.284667
0.310320 0.859594 0.291166
0.512162 0.859343 0.291138
0.709838 0.859690 0.287853
0.870928 0.861854 0.246771
0.976259 0.859613 0.204817
1.000000 0.854383 0.182872
0.000000 0.967040 0.271297
0.032807 0.964974 0.274131
0.141449 0.962971 0.279561
0.314634 0.961435 0.286286
0.517194 0.961248 0.286681
0.714545 0.961307 0.285455
0.870097 0.961924 0.273757
0.969433 0.963012 0.228453
1.000000 0.962086 0.189131
0.000000 1.000000 0.264576
0.034918 1.000000 0.268741
0.144882 1.000000 0.275025
0.318469 1.000000 0.281859
0.521491 1.000000 0.282893
0.718005 1.000000 0.281995
0.873113 1.000000 0.281116
0.967854 1.000000 0.258893
1.000000 1.000000 0.218222
0.000000 0.000000 0.599876
0.030939 0.000000 0.572950
0.126682 0.000000 0.546999
0.278065 0.000019 0.531057
0.472688 0.000028 0.527312
0.674360 0.000026 0.525923
0.842119 0.000023 0.524384
0.952241 0.000021 0.522721
0.999199 0.000018 0.520958
0.000000 0.040643 0.605152
0.028741 0.039127 0.582659
0.128309 0.039027 0.551055
0.283012 0.039900 0.528627
0.477911 0.040265 0.522089
0.679543 0.040202 0.520297
0.846157 0.040137 0.518440
0.954564 0.040071 0.516545
0.999560 0.039999 0.514646
0.000000 0.148982 0.593489
0.024147 0.144559 0.580238
0.126394 0.141304 0.557408
0.288843 0.141606 0.527017
0.484150 0.142671 0.515850
0.685361 0.142547 0.513943
0.850504 0.142433 0.511955
0.957307 0.142187 0.509949
1.000000 0.140801 0.508465
0.000000 0.319644 0.567364
0.019320 0.313554 0.559018
0.116505 0.307263 0.549105
0.289870 0.301947 0.530446
0.491043 0.302938 0.508957
0.692027 0.302851 0.506609
0.857979 0.301787 0.504678
0.965005 0.298704 0.502147
1.000000 0.295089 0.498224
0.000000 0.524384 0.534866
0.018043 0.518465 0.526516
0.111503 0.512576 0.518034
0.279739 0.506716 0.509473
0.499157 0.500843 0.500843
0.714000 0.496455 0.493775
0.881254 0.492073 0.486763
0.977493 0.487733 0.479899
1.000000 0.483435 0.473231
0.000000 0.720850 0.505589
0.020614 0.715508 0.498313
0.118008 0.710011 0.492124
0.289970 0.704274 0.488741
0.506611 0.699023 0.492801
0.707590 0.700120 0.473699
0.887416 0.693823 0.440452
0.983104 0.686706 0.432625
1.000000 0.680883 0.427541
0.000000 0.874793 0.483576
0.023745 0.870909 0.479336
0.124711 0.866896 0.477457
0.298106 0.862816 0.479697
0.512064 0.859547 0.486647
0.710673 0.859508 0.485796
0.870594 0.861171 0.450147
0.976901 0.857940 0.404874
1.000000 0.852140 0.385411
0.000000 0.969125 0.468339
0.026326 0.967129 0.467254
0.129694 0.965053 0.468699
0.303863 0.962984 0.473745
0.516676 0.961407 0.481246
0.714945 0.961327 0.480964
0.870897 0.961540 0.476725
0.969225 0.962648 0.428183
1.000000 0.961395 0.381583
0.000000 1.000000 0.457215
0.028597 1.000000 0.458338
0.133900 1.000000 0.462027
0.308496 1.000000 0.468742
0.520433 1.000000 0.476615
0.718280 1.000000 0.477174
0.873291 1.000000 0.476364
0.968025 1.000000 0.462363
1.000000 1.000000 0.415927
0.000000 0.000000 0.796084
0.030861 0.000000 0.774208
0.128105 0.000000 0.750967
0.281598 0.000000 0.732854
0.473814 0.000022 0.722681
0.674828 0.000025 0.720551
0.842496 0.000022 0.719163
0.952465 0.000020 0.717670
0.999238 0.000017 0.716095
0.000000 0.040020 0.801081
0.028521 0.038660 0.782083
0.128689 0.038447 0.755613
0.286386 0.039137 0.732922
0.479776 0.040040 0.718897
0.680117 0.040180 0.715505
0.846589 0.040115 0.713854
0.954805 0.040048 0.712172
0.999590 0.039981 0.710483
0.000000 0.147295 0.795141
0.024359 0.143213 0.782226
0.126048 0.140414 0.761314
0.290697 0.140323 0.734155
0.486869 0.141972 0.715014
0.685955 0.142506 0.709863
0.850983 0.142399 0.708039
0.957319 0.142314 0.706060
0.999879 0.142250 0.703968
0.000000 0.317538 0.778857
0.019409 0.311185 0.770338
0.117259 0.305065 0.758694
0.289471 0.300725 0.738515
0.494584 0.301472 0.712119
0.692767 0.302828 0.703186
0.856176 0.302782 0.701003
0.960192 0.302766 0.698803
1.000000 0.302367 0.696894
0.000000 0.524743 0.754075
0.015848 0.518399 0.746958
0.107430 0.511884 0.739390
0.276853 0.505108 0.730317
0.498627 0.499562 0.712892
0.700131 0.500873 0.695848
0.861379 0.500935 0.693771
0.964632 0.499375 0.692339
1.000000 0.496009 0.690152
0.000000 0.724087 0.724799
0.015620 0.719019 0.717316
0.105547 0.713948 0.709826
0.270466 0.708876 0.702382
0.487917 0.703804 0.695049
0.706526 0.699076 0.689339
0.877593 0.694598 0.681914
0.975615 0.690792 0.676390
1.000000 0.686962 0.670781
0.000000 0.878005 0.698640
0.017765 0.874425 0.692159
0.110760 0.870764 0.686354
0.278320 0.866978 0.681813
0.496833 0.862976 0.680046
0.711101 0.859558 0.684620
0.870296 0.860472 0.664878
0.977473 0.855826 0.634416
1.000000 0.850536 0.626470
0.000000 0.970985 0.679264
0.019993 0.969138 0.674938
0.115957 0.967194 0.671802
0.285880 0.965142 0.670763
0.503970 0.963021 0.673470
0.715059 0.961390 0.679965
0.871487 0.961399 0.679160
0.969021 0.962278 0.644202
1.000000 0.960519 0.603566
0.000000 1.000000 0.664588
0.022171 1.000000 0.662286
0.120677 1.000000 0.661682
0.291979 1.000000 0.663585
0.508979 1.000000 0.668935
0.717909 1.000000 0.676214
0.873436 1.000000 0.676254
0.968339 1.000000 0.672267
1.000000 1.000000 0.632689
0.000000 0.000000 0.931988
0.030716 0.000000 0.918669
0.128999 0.000000 0.903360
0.284756 0.000000 0.889701
0.477579 0.000003 0.879470
0.675482 0.000023 0.874218
0.842882 0.000021 0.873064
0.952693 0.000019 0.871994
0.999276 0.000016 0.870870
0.000000 0.039447 0.935208
0.028303 0.038196 0.923438
0.128767 0.037913 0.906775
0.288762 0.038416 0.890770
0.483998 0.039347 0.878019
0.681133 0.040084 0.870875
0.847023 0.040092 0.869275
0.955045 0.040025 0.868082
0.999621 0.039959 0.866882
0.000000 0.145782 0.933005
0.024459 0.142026 0.924269
0.125694 0.139532 0.910496
0.291497 0.139207 0.892562
0.490901 0.140551 0.876919
0.687442 0.142185 0.867362
0.851473 0.142367 0.865087
0.957602 0.142290 0.863646
0.999903 0.142234 0.862128
0.000000 0.315094 0.925495
0.019734 0.308872 0.919199
0.117753 0.303230 0.910219
0.289067 0.299517 0.895753
0.497154 0.299670 0.876790
0.694993 0.302104 0.863435
0.856720 0.302773 0.859989
0.960479 0.302768 0.858407
1.000000 0.302792 0.856848
0.000000 0.522957 0.912630
0.015516 0.516189 0.907578
0.107731 0.509332 0.901527
0.278101 0.502742 0.893237
0.498225 0.498272 0.878573
0.702982 0.499581 0.860141
0.861861 0.500963 0.854815
0.963077 0.501070 0.853433
1.000000 0.501211 0.852179
0.000000 0.724809 0.894602
0.013159 0.719514 0.889772
0.099954 0.714107 0.884845
0.263620 0.708507 0.879704
0.483612 0.702629 0.873614
0.706489 0.697984 0.861123
0.865807 0.699299 0.850717
0.964944 0.699471 0.849700
1.000000 0.697921 0.849046
0.000000 0.880200 0.874721
0.013136 0.876793 0.869775
0.098758 0.873366 0.864911
0.259210 0.869912 0.860105
0.474111 0.866411 0.855230
0.695398 0.862852 0.850327
0.869184 0.859682 0.846996
0.973200 0.856141 0.840796
1.000000 0.853304 0.836811
0.000000 0.972485 0.857345
0.014521 0.970783 0.852857
0.102436 0.969012 0.848535
0.265335 0.967159 0.844591
0.481806 0.965198 0.841519
0.702471 0.963093 0.840734
0.871731 0.961416 0.844352
0.968842 0.961892 0.828370
1.000000 0.959368 0.805996
0.000000 1.000000 0.843093
0.016283 1.000000 0.839525
0.106862 1.000000 0.836558
0.271971 1.000000 0.834582
0.488824 1.000000 0.834307
0.707052 1.000000 0.836974
0.873465 1.000000 0.842190
0.968590 1.000000 0.841985
1.000000 1.000000 0.819871
0.000000 0.000000 0.995980
0.030534 0.000000 0.991840
0.129540 0.000000 0.986023
0.287239 0.000000 0.979821
0.481713 0.000000 0.974157
0.678378 0.000007 0.969959
0.843279 0.000021 0.968001
0.952923 0.000018 0.967443
0.999314 0.000015 0.966860
0.000000 0.038905 0.996872
0.028090 0.037736 0.993389
0.128689 0.037404 0.987453
0.290351 0.037756 0.980593
0.487870 0.038583 0.973941
0.684600 0.039526 0.968732
0.847515 0.040057 0.966068
0.955284 0.040003 0.965413
0.999652 0.039938 0.964780
0.000000 0.144409 0.996537
0.024486 0.140932 0.993802
0.125338 0.138654 0.988876
0.291799 0.138179 0.981615
0.493820 0.139179 0.973978
0.691303 0.140945 0.967568
0.852160 0.142259 0.963945
0.957887 0.142268 0.963042
0.999924 0.142220 0.962231
0.000000 0.312735 0.994915
0.020028 0.306783 0.992655
0.118012 0.301614 0.989070
0.288673 0.298317 0.983011
0.498418 0.298110 0.974397
0.698882 0.300207 0.966363
0.857665 0.302519 0.961406
0.960764 0.302773 0.960246
1.000000 0.302808 0.959417
0.000000 0.520446 0.991514
0.015735 0.513571 0.989443
0.108588 0.506839 0.986669
0.278914 0.500785 0.982560
0.497813 0.496987 0.975452
0.705596 0.497568 0.965804
0.863092 0.500439 0.959049
0.963301 0.501114 0.957610
1.000000 0.501266 0.956955
0.000000 0.723702 0.985629
0.012426 0.718046 0.983609
0.099047 0.712232 0.981330
0.263909 0.706297 0.978567
0.484810 0.700573 0.974658
0.705890 0.696868 0.967220
0.867431 0.698382 0.957876
0.965113 0.699529 0.955622
1.000000 0.699698 0.955066
0.000000 0.880925 0.977518
0.010562 0.877422 0.975384
0.092206 0.873851 0.973238
0.249968 0.870166 0.971025
0.465277 0.866295 0.968636
0.690689 0.862163 0.965670
0.869220 0.858940 0.958947
0.966696 0.859861 0.953807
1.000000 0.859966 0.953317
0.000000 0.973529 0.968488
0.010345 0.971907 0.966111
0.091052 0.970237 0.963664
0.246953 0.968520 0.961158
0.459388 0.966754 0.958605
0.681696 0.964937 0.956023
0.861391 0.963058 0.953460
0.968167 0.961442 0.951886
1.000000 0.959367 0.948216
0.000000 1.000000 0.959608
0.011378 1.000000 0.957198
0.093929 1.000000 0.954837
0.251566 1.000000 0.952595
0.464980 1.000000 0.950602
0.686942 1.000000 0.949163
0.864872 1.000000 0.949133
0.968628 1.000000 0.951485
1.000000 1.000000 0.944791
0.000000 0.000000 1.000000
0.030332 0.000000 1.000000
0.129783 0.000000 1.000000
0.288906 0.000000 1.000000
0.485001 0.000000 1.000000
0.681821 0.000000 1.000000
0.844694 0.000011 1.000000
0.953156 0.000017 1.000000
0.999352 0.000015 1.000000
0.000000 0.038379 1.000000
0.027880 0.037277 1.000000
0.128516 0.036927 1.000000
0.291306 0.037181 1.000000
0.490722 0.037900 1.000000
0.688225 0.038849 1.000000
0.849371 0.039691 1.000000
0.955522 0.039980 1.000000
0.999683 0.039919 1.000000
0.000000 0.143143 1.000000
0.024447 0.139890 1.000000
0.124982 0.137778 1.000000
0.291822 0.137226 1.000000
0.495708 0.137971 1.000000
0.694818 0.139590 1.000000
0.854509 0.141361 1.000000
0.958178 0.142248 1.000000
0.999944 0.142209 1.000000
0.000000 0.310552 1.000000
0.020229 0.304891 1.000000
0.118098 0.300121 1.000000
0.288289 0.297123 1.000000
0.499045 0.296705 1.000000
0.701802 0.298346 1.000000
0.860408 0.300955 1.000000
0.961082 0.302739 0.999991
1.000000 0.302826 0.999950
0.000000 0.517824 1.000000
0.016060 0.511039 1.000000
0.109345 0.504596 1.000000
0.279355 0.499066 1.000000
0.497392 0.495705 1.000000
0.706895 0.495828 1.000000
0.865807 0.498430 1.000000
0.963633 0.501007 0.999825
1.000000 0.501326 0.999741
0.000000 0.721782 1.000000
0.012394 0.715903 1.000000
0.099527 0.709964 1.000000
0.265056 0.704129 1.000000
0.485456 0.698890 1.000000
0.705247 0.695757 1.000000
0.869278 0.696570 1.000000
0.965573 0.699217 0.999648
1.000000 0.699755 0.999504
0.000000 0.880441 1.000000
0.009526 0.876723 1.000000
0.090071 0.872886 1.000000
0.248231 0.868889 1.000000
0.465329 0.864750 1.000000
0.691624 0.860704 1.000000
0.868780 0.858128 1.000000
0.967409 0.859305 0.999529
1.000000 0.860000 0.999240
0.000000 0.973954 1.000000
0.007869 0.972303 1.000000
0.084123 0.970590 1.000000
0.236446 0.968805 1.000000
0.447931 0.966929 1.000000
0.672929 0.964929 1.000000
0.857515 0.962756 1.000000
0.968103 0.961071 0.999710
1.000000 0.961524 0.999022
0.000000 1.000000 1.000000
0.007693 1.000000 1.000000
0.083117 1.000000 1.000000
0.233785 1.000000 1.000000
0.442960 1.000000 0.999937
0.665847 1.000000 0.999722
0.849635 1.000000 0.999413
0.963384 1.000000 0.999045
1.000000 1.000000 0.998889
