assets/presets/luts/teal-orange/lut.cube
TITLE "Teal & Orange"
LUT_3D_SIZE 17
0.000000 0.000038 0.001655
0.006262 0.000034 0.001547
0.031329 0.000008 0.001497
0.074548 0.000000 0.001352
0.135930 0.000000 0.001187
0.214814 0.000000 0.001018
0.308935 0.000000 0.000851
0.414127 0.000000 0.000691
0.524573 0.000000 0.000540
0.633591 0.000000 0.000401
0.734719 0.000000 0.000277
0.822736 0.000000 0.000169
0.894242 0.000000 0.000082
0.947684 0.000000 0.000021
0.982846 0.000000 0.000000
0.999451 0.000000 0.000000
1.000000 0.000000 0.000000
0.000000 0.012481 0.001408
0.006358 0.012250 0.001492
0.033396 0.011877 0.000384
0.080924 0.011110 0.000239
0.146274 0.010541 0.000167
0.228770 0.010050 0.000101
0.325882 0.009599 0.000044
0.433101 0.009170 0.000006
0.544337 0.008757 0.000000
0.652817 0.008357 0.000000
0.752204 0.007967 0.000000
0.837570 0.007587 0.000000
0.905879 0.007216 0.000000
0.955902 0.006853 0.000000
0.987589 0.006499 0.000000
1.000000 0.006153 0.000000
1.000000 0.005816 0.000000
0.000000 0.040893 0.001270
0.006568 0.040509 0.001380
0.030100 0.040672 0.001027
0.074755 0.040339 0.000000
0.143370 0.038779 0.000000
0.230461 0.037310 0.000000
0.331812 0.036066 0.000000
0.442407 0.034979 0.000000
0.555832 0.033995 0.000000
0.665174 0.033082 0.000000
0.764171 0.032220 0.000000
0.848137 0.031395 0.000000
0.914364 0.030600 0.000000
0.961923 0.029829 0.000000
0.990920 0.029079 0.000000
1.000000 0.028345 0.000000
1.000000 0.027628 0.000000
0.000000 0.084736 0.001111
0.006875 0.084163 0.001226
0.030853 0.084129 0.001174
0.070469 0.084703 0.000404
0.132997 0.084384 0.000000
0.219971 0.082405 0.000000
0.324808 0.080096 0.000000
0.439762 0.077931 0.000000
0.556984 0.075991 0.000000
0.669029 0.074239 0.000000
0.769474 0.072634 0.000000
0.853732 0.071142 0.000000
0.919345 0.069737 0.000000
0.965665 0.068402 0.000000
0.992972 0.067123 0.000000
1.000000 0.065891 0.000000
1.000000 0.064697 0.000000
0.000000 0.144031 0.000927
0.007259 0.143252 0.001042
0.031658 0.143188 0.000989
0.071685 0.143209 0.000885
0.127983 0.144305 0.000016
0.207987 0.143987 0.000000
0.310436 0.141780 0.000000
0.427119 0.138868 0.000000
0.548228 0.135864 0.000000
0.664325 0.133015 0.000000
0.767940 0.130385 0.000000
0.854227 0.127957 0.000000
0.920796 0.125700 0.000000
0.967209 0.123585 0.000000
0.993949 0.121590 0.000000
1.000000 0.119696 0.000000
1.000000 0.117886 0.000000
0.000000 0.218069 0.000734
0.007702 0.217092 0.000842
0.032575 0.216978 0.000795
0.073153 0.216906 0.000738
0.129118 0.217400 0.000411
0.202284 0.218757 0.000000
0.297803 0.218435 0.000000
0.411388 0.216121 0.000000
0.533186 0.212828 0.000000
0.652462 0.209197 0.000000
0.760066 0.205564 0.000000
0.849863 0.202088 0.000000
0.918916 0.198827 0.000000
0.966778 0.195772 0.000000
0.994071 0.192905 0.000000
1.000000 0.190199 0.000000
1.000000 0.187634 0.000000
0.000000 0.304931 0.000545
0.008193 0.303782 0.000645
0.033571 0.303606 0.000608
0.074643 0.303520 0.000555
0.131538 0.303444 0.000500
0.202945 0.304668 0.000042
0.291454 0.306116 0.000000
0.398664 0.305800 0.000000
0.517631 0.303493 0.000000
0.637560 0.300039 0.000000
0.748102 0.296048 0.000000
0.841649 0.291888 0.000000
0.914136 0.287767 0.000000
0.964523 0.283797 0.000000
0.993386 0.280024 0.000000
1.000000 0.276451 0.000000
1.000000 0.273063 0.000000
0.000000 0.401327 0.000372
0.008717 0.400053 0.000464
0.034607 0.399812 0.000437
0.076171 0.399719 0.000391
0.133585 0.399633 0.000345
0.205969 0.399918 0.000206
0.291617 0.401656 0.000000
0.392264 0.403122 0.000000
0.505939 0.402846 0.000000
0.623768 0.400661 0.000000
0.735145 0.397254 0.000000
0.831352 0.393167 0.000000
0.907122 0.388765 0.000000
0.960558 0.384277 0.000000
0.991841 0.379842 0.000000
1.000000 0.375542 0.000000
1.000000 0.371420 0.000000
0.000000 0.502773 0.000225
0.009267 0.501444 0.000303
0.035711 0.501162 0.000283
0.077860 0.501093 0.000238
0.135899 0.501032 0.000196
0.209251 0.500980 0.000156
0.295153 0.501949 0.000000
0.392204 0.503894 0.000000
0.499881 0.505299 0.000000
0.613438 0.505068 0.000000
0.723433 0.503088 0.000000
0.820710 0.499902 0.000000
0.898986 0.495966 0.000000
0.955378 0.491609 0.000000
0.989465 0.487058 0.000000
1.000000 0.482466 0.000000
1.000000 0.477940 0.000000
0.000000 0.604134 0.000099
0.009913 0.602835 0.000157
0.036984 0.602542 0.000142
0.079766 0.602503 0.000106
0.138450 0.602471 0.000074
0.212412 0.602448 0.000046
0.299531 0.602619 0.000009
0.395661 0.604138 0.000000
0.499323 0.606065 0.000000
0.607662 0.607349 0.000000
0.714456 0.607175 0.000000
0.811102 0.605468 0.000000
0.890721 0.602641 0.000000
0.949529 0.599059 0.000000
0.986401 0.595006 0.000000
1.000000 0.590688 0.000000
1.000000 0.586281 0.000000
0.000000 0.700251 0.000013
0.010639 0.699049 0.000046
0.038365 0.698764 0.000038
0.081788 0.698753 0.000017
0.141104 0.698749 0.000004
0.215638 0.698753 0.000000
0.303438 0.698765 0.000000
0.400303 0.699395 0.000000
0.502109 0.701069 0.000000
0.606380 0.702833 0.000000
0.708902 0.703968 0.000000
0.803390 0.703862 0.000000
0.883054 0.702468 0.000000
0.943478 0.700093 0.000000
0.982821 0.697018 0.000000
0.999900 0.693471 0.000000
1.000000 0.689663 0.000000
0.000000 0.786649 0.000000
0.011409 0.785595 0.000000
0.039782 0.785335 0.000000
0.083819 0.785347 0.000000
0.143720 0.785366 0.000000
0.218758 0.785392 0.000000
0.306925 0.785424 0.000000
0.404659 0.785520 0.000000
0.506174 0.786526 0.000000
0.608018 0.788114 0.000000
0.706802 0.789629 0.000000
0.798077 0.790590 0.000000
0.876572 0.790550 0.000000
0.937690 0.789478 0.000000
0.978995 0.787586 0.000000
0.999093 0.785078 0.000000
1.000000 0.782157 0.000000
0.000000 0.860062 0.000000
0.012164 0.859208 0.000000
0.041158 0.858966 0.000000
0.085748 0.858994 0.000000
0.146151 0.859028 0.000000
0.221595 0.859067 0.000000
0.310021 0.859112 0.000000
0.407931 0.859163 0.000000
0.510082 0.859477 0.000000
0.610846 0.860548 0.000000
0.707129 0.861901 0.000000
0.795441 0.863115 0.000000
0.871959 0.863875 0.000000
0.932882 0.863868 0.000000
0.975402 0.863072 0.000000
0.997854 0.861634 0.000000
1.000000 0.859694 0.000000
0.000012 0.918604 0.000000
0.012868 0.917960 0.000000
0.042410 0.917750 0.000000
0.087459 0.917785 0.000000
0.148248 0.917825 0.000000
0.223969 0.917869 0.000000
0.312548 0.917916 0.000000
0.410522 0.917964 0.000000
0.513162 0.918016 0.000000
0.614114 0.918496 0.000000
0.709122 0.919420 0.000000
0.795274 0.920458 0.000000
0.869630 0.921351 0.000000
0.929450 0.921905 0.000000
0.972350 0.921913 0.000000
0.996449 0.921359 0.000000
1.000000 0.920296 0.000000
0.000067 0.961594 0.000000
0.013469 0.961154 0.000000
0.043442 0.960994 0.000000
0.088860 0.961021 0.000000
0.149985 0.961054 0.000000
0.226027 0.961087 0.000000
0.314886 0.961119 0.000000
0.413028 0.961152 0.000000
0.515712 0.961184 0.000000
0.617294 0.961283 0.000000
0.711886 0.961748 0.000000
0.796599 0.962426 0.000000
0.869145 0.963132 0.000000
0.927515 0.963722 0.000000
0.970044 0.964084 0.000000
0.995094 0.964095 0.000000
1.000000 0.963677 0.000000
0.000134 0.989047 0.000000
0.013968 0.988801 0.000000
0.044356 0.988699 0.000000
0.090188 0.988709 0.000000
0.151689 0.988727 0.000000
0.228062 0.988745 0.000000
0.317169 0.988763 0.000000
0.415443 0.988780 0.000000
0.518124 0.988797 0.000000
0.619828 0.988813 0.000000
0.714685 0.988937 0.000000
0.798617 0.989245 0.000000
0.869803 0.989631 0.000000
0.926831 0.990011 0.000000
0.968591 0.990319 0.000000
0.993952 0.990507 0.000000
1.000000 0.990449 0.000000
0.000212 1.000000 0.000000
0.014465 1.000000 0.000000
0.045252 1.000000 0.000000
0.091485 1.000000 0.000000
0.153331 1.000000 0.000000
0.229995 1.000000 0.000000
0.319307 1.000000 0.000000
0.417671 1.000000 0.000000
0.520314 1.000000 0.000000
0.621858 1.000000 0.000000
0.716990 1.000000 0.000000
0.800701 1.000000 0.000000
0.870994 1.000000 0.000000
0.926930 1.000000 0.000000
0.967878 1.000000 0.000000
0.993135 1.000000 0.000000
1.000000 1.000000 0.000000
0.000000 0.000031 0.021409
0.006368 0.000028 0.018872
0.029462 0.000034 0.018432
0.068182 0.000034 0.018381
0.123814 0.000022 0.018386
0.197765 0.000004 0.018321
0.287904 0.000000 0.018107
0.390401 0.000000 0.017778
0.499735 0.000000 0.017367
0.609319 0.000000 0.016898
0.712537 0.000000 0.016388
0.803796 0.000000 0.015848
0.879233 0.000000 0.015287
0.936877 0.000000 0.014710
0.976258 0.000000 0.014125
0.997367 0.000000 0.013533
1.000000 0.000000 0.012939
0.000000 0.013062 0.020343
0.006154 0.012301 0.018697
0.029772 0.012236 0.018202
0.071733 0.011855 0.017957
0.132245 0.011424 0.017438
0.210445 0.010996 0.016851
0.304116 0.010573 0.016237
0.409144 0.010156 0.015610
0.519730 0.009746 0.014978
0.629163 0.009341 0.014344
0.730915 0.008943 0.013712
0.819671 0.008552 0.013082
0.891945 0.008168 0.012457
0.946120 0.007790 0.011839
0.981954 0.007420 0.011229
0.999239 0.007057 0.010628
1.000000 0.006702 0.010037
0.000000 0.042160 0.017661
0.005840 0.041110 0.017428
0.030254 0.040484 0.017806
0.075302 0.039791 0.013782
0.141219 0.038423 0.013033
0.223729 0.037386 0.012575
0.320802 0.036484 0.012090
0.428123 0.035645 0.011575
0.539668 0.034843 0.011041
0.648655 0.034065 0.010499
0.748696 0.033304 0.009955
0.834788 0.032556 0.009411
0.903826 0.031821 0.008873
0.954535 0.031096 0.008342
0.986853 0.030380 0.007820
1.000000 0.029674 0.007309
1.000000 0.028977 0.006810
0.000000 0.086363 0.016478
0.006235 0.084970 0.016740
0.030928 0.084117 0.017285
0.070494 0.084381 0.015931
0.133587 0.083805 0.010466
0.220730 0.081545 0.008415
0.323224 0.079413 0.007616
0.434919 0.077595 0.007147
0.549428 0.075995 0.006755
0.659861 0.074541 0.006377
0.759935 0.073186 0.005999
0.844925 0.071903 0.005618
0.912083 0.070672 0.005236
0.960463 0.069482 0.004856
0.990191 0.068325 0.004481
1.000000 0.067195 0.004114
1.000000 0.066089 0.003755
0.000000 0.145934 0.015644
0.006670 0.144229 0.016113
0.031746 0.143170 0.016671
0.071891 0.143114 0.016476
0.127912 0.143906 0.013393
0.208445 0.143371 0.007965
0.311753 0.140762 0.005360
0.427851 0.137746 0.004121
0.547081 0.134909 0.003467
0.661150 0.132357 0.003056
0.763461 0.130044 0.002742
0.849360 0.127918 0.002471
0.916363 0.125936 0.002220
0.963839 0.124067 0.001981
0.992141 0.122290 0.001747
1.000000 0.120587 0.001516
1.000000 0.118947 0.001291
0.000000 0.220182 0.014881
0.007144 0.218209 0.015442
0.032672 0.216955 0.015995
0.073300 0.216881 0.015789
0.129615 0.216951 0.015326
0.202158 0.218284 0.010872
0.298154 0.217771 0.005831
0.412674 0.215045 0.003195
0.534573 0.211499 0.001869
0.653005 0.207843 0.001169
0.759347 0.204369 0.000776
0.848136 0.201157 0.000531
0.916815 0.198188 0.000359
0.964917 0.195427 0.000229
0.992991 0.192838 0.000129
1.000000 0.190393 0.000054
1.000000 0.188067 0.000008
0.000000 0.307178 0.014131
0.007655 0.304998 0.014740
0.033656 0.303598 0.015277
0.074797 0.303491 0.015081
0.131751 0.303405 0.014871
0.203416 0.304070 0.013389
0.291285 0.305582 0.008533
0.398938 0.305098 0.004014
0.518760 0.302408 0.001629
0.639016 0.298640 0.000508
0.749199 0.294500 0.000061
0.842019 0.290356 0.000000
0.913814 0.286383 0.000000
0.963856 0.282646 0.000000
0.992859 0.279139 0.000000
1.000000 0.275839 0.000000
1.000000 0.272720 0.000000
0.000000 0.403620 0.013390
0.008190 0.401318 0.014031
0.034667 0.399837 0.014550
0.076329 0.399689 0.014379
0.133804 0.399605 0.014162
0.206565 0.399565 0.013893
0.292014 0.401015 0.011155
0.392134 0.402560 0.006342
0.506200 0.402136 0.002429
0.624721 0.399609 0.000523
0.736417 0.395875 0.000000
0.832446 0.391572 0.000000
0.907754 0.387085 0.000000
0.960725 0.382631 0.000000
0.991755 0.378330 0.000000
1.000000 0.374234 0.000000
1.000000 0.370341 0.000000
0.000000 0.505016 0.012669
0.008751 0.502705 0.013316
0.035755 0.501237 0.013794
0.078044 0.501071 0.013619
0.136148 0.501014 0.013379
0.209562 0.500964 0.013135
0.295955 0.501396 0.012275
0.392509 0.503262 0.008807
0.499774 0.504737 0.004338
0.613657 0.504377 0.001152
0.724172 0.502105 0.000001
0.821690 0.498613 0.000000
0.899839 0.494437 0.000000
0.955897 0.489938 0.000000
0.989649 0.485344 0.000000
1.000000 0.480796 0.000000
1.000000 0.476376 0.000000
0.000000 0.606234 0.011896
0.009411 0.604028 0.012534
0.037008 0.602663 0.012965
0.079966 0.602491 0.012798
0.138716 0.602462 0.012550
0.212737 0.602442 0.012303
0.300134 0.602431 0.012055
0.396438 0.603542 0.010284
0.499516 0.605476 0.006592
0.607547 0.606815 0.002654
0.714589 0.606530 0.000297
0.811586 0.604583 0.000000
0.891344 0.601491 0.000000
0.950048 0.597683 0.000000
0.986681 0.593468 0.000000
1.000000 0.589059 0.000000
1.000000 0.584627 0.000000
0.000000 0.702125 0.011080
0.010147 0.700120 0.011716
0.038361 0.698920 0.012113
0.081994 0.698751 0.011968
0.141373 0.698750 0.011726
0.215961 0.698756 0.011488
0.303802 0.698770 0.011256
0.401144 0.699028 0.010728
0.502724 0.700527 0.008272
0.606448 0.702324 0.004672
0.708752 0.703486 0.001374
0.803416 0.703286 0.000000
0.883309 0.701705 0.000000
0.943812 0.699115 0.000000
0.983069 0.695842 0.000000
0.999929 0.692137 0.000000
1.000000 0.688221 0.000000
0.000000 0.788240 0.010266
0.010920 0.786508 0.010909
0.039741 0.785510 0.011285
0.084020 0.785353 0.011173
0.143976 0.785374 0.010950
0.219061 0.785402 0.010734
0.307259 0.785436 0.010527
0.405106 0.785477 0.010329
0.506964 0.786145 0.009218
0.608417 0.787663 0.006460
0.706746 0.789207 0.003136
0.797877 0.790178 0.000525
0.876508 0.790064 0.000000
0.937794 0.788849 0.000000
0.979149 0.786788 0.000000
0.999151 0.784116 0.000000
1.000000 0.781061 0.000000
0.000000 0.861303 0.009517
0.011684 0.859931 0.010149
0.041068 0.859144 0.010520
0.085933 0.859005 0.010453
0.146381 0.859041 0.010259
0.221859 0.859082 0.010076
0.310304 0.859129 0.009904
0.408215 0.859181 0.009744
0.510701 0.859316 0.009474
0.611459 0.860219 0.007789
0.707349 0.861546 0.004951
0.795334 0.862779 0.001968
0.871785 0.863538 0.000064
0.932818 0.863473 0.000000
0.975442 0.862574 0.000000
0.997898 0.861011 0.000000
1.000000 0.858956 0.000000
0.000000 0.919500 0.008850
0.012389 0.918497 0.009473
0.042258 0.917916 0.009853
0.087615 0.917798 0.009844
0.148435 0.917840 0.009690
0.224176 0.917885 0.009548
0.312784 0.917933 0.009411
0.410776 0.917980 0.009275
0.513434 0.918027 0.009140
0.614772 0.918317 0.008486
0.709597 0.919163 0.006417
0.795394 0.920194 0.003618
0.869519 0.921098 0.001043
0.929312 0.921647 0.000000
0.972294 0.921613 0.000000
0.996455 0.920988 0.000000
1.000000 0.919849 0.000000
0.000002 0.962183 0.008283
0.012982 0.961519 0.008909
0.043225 0.961127 0.009314
0.088994 0.961032 0.009362
0.150158 0.961065 0.009226
0.226235 0.961098 0.009091
0.315120 0.961130 0.008958
0.413277 0.961163 0.008827
0.515962 0.961195 0.008699
0.617748 0.961237 0.008542
0.712460 0.961603 0.007373
0.796923 0.962249 0.005107
0.869186 0.962954 0.002471
0.927410 0.963549 0.000386
0.969943 0.963906 0.000000
0.995060 0.963890 0.000000
1.000000 0.963433 0.000000
0.000034 0.989362 0.007820
0.013482 0.989001 0.008433
0.044101 0.988781 0.008831
0.090319 0.988715 0.008909
0.151859 0.988733 0.008780
0.228263 0.988751 0.008653
0.317392 0.988768 0.008528
0.415678 0.988786 0.008407
0.518356 0.988802 0.008290
0.620046 0.988819 0.008177
0.715182 0.988887 0.007799
0.799050 0.989158 0.006253
0.869992 0.989534 0.003931
0.926818 0.989915 0.001543
0.968502 0.990225 0.000032
0.993896 0.990409 0.000000
1.000000 0.990339 0.000000
0.000090 1.000000 0.007380
0.013982 1.000000 0.007974
0.044964 1.000000 0.008370
0.091597 1.000000 0.008477
0.153491 1.000000 0.008364
0.230182 1.000000 0.008248
0.319511 1.000000 0.008137
0.417882 1.000000 0.008030
0.520519 1.000000 0.007928
0.622045 1.000000 0.007831
0.717249 1.000000 0.007739
0.801126 1.000000 0.006962
0.871277 1.000000 0.005168
0.927013 1.000000 0.002882
0.967837 1.000000 0.000807
0.993079 1.000000 0.000000
1.000000 1.000000 0.000000
0.000000 0.000020 0.059152
0.006516 0.000013 0.054542
0.029548 0.000032 0.051042
0.068221 0.000034 0.050820
0.122617 0.000033 0.050703
0.192313 0.000032 0.050562
0.276556 0.000027 0.050464
0.374467 0.000011 0.050434
0.480911 0.000000 0.050286
0.589414 0.000000 0.049987
0.693269 0.000000 0.049550
0.786573 0.000000 0.048994
0.865024 0.000000 0.048343
0.926207 0.000000 0.047613
0.969325 0.000000 0.046820
0.994377 0.000000 0.045976
1.000000 0.000000 0.045091
0.000000 0.012813 0.059396
0.005783 0.012192 0.056601
0.029992 0.012169 0.051092
0.068788 0.012229 0.050331
0.123495 0.012219 0.050137
0.195329 0.012060 0.050045
0.284310 0.011724 0.049820
0.386207 0.011333 0.049357
0.495375 0.010925 0.048714
0.605153 0.010511 0.047946
0.708836 0.010098 0.047091
0.800727 0.009688 0.046173
0.876869 0.009283 0.045211
0.935213 0.008885 0.044217
0.975248 0.008492 0.043200
0.996988 0.008107 0.042168
1.000000 0.007728 0.041127
0.000000 0.042955 0.054465
0.004432 0.041860 0.053056
0.029946 0.040554 0.050380
0.069736 0.040433 0.049611
0.129250 0.039698 0.049036
0.206827 0.038923 0.048068
0.300090 0.038150 0.047009
0.404949 0.037382 0.045915
0.515621 0.036620 0.044805
0.625375 0.035864 0.043689
0.727629 0.035114 0.042570
0.816994 0.034371 0.041453
0.889914 0.033634 0.040340
0.944717 0.032904 0.039234
0.981138 0.032181 0.038137
0.999023 0.031465 0.037050
1.000000 0.030756 0.035975
0.000000 0.088085 0.049488
0.004699 0.086587 0.048474
0.029658 0.084869 0.048179
0.070739 0.084069 0.048666
0.134359 0.083006 0.041720
0.218196 0.081022 0.040381
0.315742 0.079501 0.039535
0.423376 0.078172 0.038649
0.535299 0.076935 0.037713
0.644785 0.075750 0.036746
0.745430 0.074599 0.035760
0.832181 0.073471 0.034766
0.901883 0.072362 0.033771
0.953222 0.071268 0.032778
0.986130 0.070188 0.031793
0.999988 0.069120 0.030817
1.000000 0.068063 0.029851
0.000000 0.148218 0.046509
0.005284 0.146260 0.046189
0.030653 0.144073 0.046901
0.072027 0.143095 0.047621
0.127916 0.143496 0.044906
0.209249 0.142596 0.035679
0.312639 0.139639 0.032011
0.426191 0.136851 0.030488
0.542293 0.134459 0.029567
0.654120 0.132347 0.028789
0.755444 0.130421 0.028038
0.841550 0.128625 0.027283
0.909690 0.126920 0.026519
0.958932 0.125284 0.025740
0.989431 0.123704 0.024936
1.000000 0.122169 0.024113
1.000000 0.120670 0.023277
0.000000 0.222844 0.044426
0.005885 0.220489 0.044610
0.031674 0.217979 0.045737
0.073448 0.216856 0.046474
0.129956 0.216782 0.046123
0.202055 0.217807 0.040430
0.298750 0.217003 0.030959
0.414113 0.213801 0.025987
0.535302 0.210134 0.023407
0.651918 0.206679 0.021958
0.756567 0.203562 0.020999
0.844488 0.200734 0.020226
0.913164 0.198133 0.019523
0.961971 0.195708 0.018844
0.991310 0.193421 0.018168
1.000000 0.191244 0.017491
1.000000 0.189155 0.016809
0.000000 0.310066 0.042729
0.006488 0.307411 0.043254
0.032710 0.304714 0.044542
0.074950 0.303462 0.045288
0.131955 0.303376 0.044934
0.204019 0.303529 0.043962
0.291128 0.305047 0.036028
0.399389 0.304326 0.026781
0.520130 0.301171 0.021234
0.640385 0.297122 0.017960
0.749733 0.292955 0.015931
0.841470 0.288991 0.014601
0.912537 0.285316 0.013651
0.962467 0.281911 0.012893
0.991940 0.278738 0.012236
1.000000 0.275757 0.011634
1.000000 0.272937 0.011065
0.000000 0.406585 0.041232
0.007090 0.403755 0.041994
0.033750 0.401004 0.043341
0.076484 0.399664 0.044094
0.134027 0.399578 0.043726
0.206889 0.399505 0.043338
0.292562 0.400376 0.040433
0.392010 0.401999 0.031621
0.506586 0.401374 0.022767
0.625883 0.398432 0.017080
0.737764 0.394364 0.013494
0.833381 0.389901 0.011165
0.908047 0.385429 0.009593
0.960512 0.381132 0.008491
0.991416 0.377080 0.007679
1.000000 0.373270 0.007037
1.000000 0.369665 0.006490
0.000000 0.507915 0.039852
0.007708 0.505060 0.040757
0.034878 0.502403 0.042069
0.078202 0.501076 0.042762
0.136399 0.500996 0.042373
0.209876 0.500949 0.041951
0.296725 0.500993 0.041353
0.392926 0.502621 0.036249
0.499667 0.504176 0.027270
0.613961 0.503648 0.018970
0.725066 0.501025 0.013438
0.822768 0.497202 0.009835
0.900681 0.492806 0.007453
0.956324 0.488218 0.005839
0.989733 0.483656 0.004715
1.000000 0.479241 0.003912
1.000000 0.475016 0.003314
0.000000 0.608936 0.038420
0.008413 0.606202 0.039415
0.036167 0.603767 0.040673
0.080107 0.602531 0.041314
0.138982 0.602454 0.040936
0.213063 0.602436 0.040504
0.300510 0.602427 0.040075
0.397304 0.602995 0.038337
0.499783 0.604880 0.031972
0.607430 0.606282 0.023205
0.714790 0.605860 0.015536
0.812204 0.603629 0.010334
0.892094 0.600241 0.006907
0.950634 0.596200 0.004653
0.986968 0.591842 0.003158
1.000000 0.587386 0.002157
1.000000 0.582980 0.001490
0.000000 0.704523 0.036939
0.009181 0.702031 0.038019
0.037546 0.699913 0.039229
0.082102 0.698824 0.039837
0.141640 0.698751 0.039495
0.216282 0.698760 0.039078
0.304164 0.698777 0.038669
0.401842 0.698815 0.038238
0.503458 0.699982 0.034869
0.606561 0.701797 0.027948
0.708598 0.703006 0.019600
0.803500 0.702700 0.012580
0.883679 0.700898 0.007791
0.944260 0.698062 0.004656
0.983383 0.694575 0.002649
0.999959 0.690711 0.001393
1.000000 0.686698 0.000666
0.000000 0.790262 0.035470
0.009976 0.788110 0.036633
0.038937 0.786360 0.037810
0.084079 0.785451 0.038408
0.144231 0.785383 0.038127
0.219360 0.785413 0.037745
0.307588 0.785450 0.037378
0.405446 0.785493 0.037027
0.507790 0.785804 0.036017
0.608928 0.787184 0.031469
0.706714 0.788765 0.024407
0.797672 0.789768 0.016572
0.876496 0.789576 0.010163
0.937989 0.788194 0.005793
0.979382 0.785938 0.002977
0.999230 0.783082 0.001268
1.000000 0.779883 0.000398
0.000000 0.862906 0.034126
0.010753 0.861203 0.035321
0.040260 0.859837 0.036482
0.085923 0.859118 0.037098
0.146607 0.859054 0.036903
0.222118 0.859097 0.036577
0.310581 0.859146 0.036271
0.408492 0.859200 0.035987
0.511126 0.859259 0.035726
0.612182 0.859880 0.033639
0.707663 0.861156 0.028399
0.795243 0.862424 0.021359
0.871613 0.863203 0.013978
0.932793 0.863082 0.008082
0.975540 0.862064 0.004119
0.997970 0.860356 0.001674
1.000000 0.858168 0.000479
0.000000 0.920692 0.032919
0.011462 0.919444 0.034143
0.041427 0.918448 0.035311
0.087514 0.917913 0.035973
0.148617 0.917855 0.035889
0.224383 0.917901 0.035635
0.313020 0.917949 0.035383
0.411030 0.917996 0.035132
0.513693 0.918043 0.034883
0.615427 0.918165 0.034350
0.710192 0.918880 0.031114
0.795582 0.919898 0.025434
0.869416 0.920830 0.018519
0.929177 0.921391 0.011615
0.972264 0.921319 0.006248
0.996484 0.920615 0.002738
1.000000 0.919385 0.000962
0.000000 0.962985 0.031892
0.012051 0.962160 0.033158
0.042361 0.961500 0.034349
0.088801 0.961133 0.035051
0.150331 0.961076 0.035041
0.226442 0.961109 0.034792
0.315354 0.961141 0.034546
0.413526 0.961174 0.034303
0.516212 0.961205 0.034064
0.618028 0.961236 0.033830
0.713115 0.961453 0.032537
0.797353 0.962044 0.028514
0.869271 0.962752 0.022622
0.927305 0.963365 0.015936
0.969843 0.963728 0.009529
0.995038 0.963690 0.004691
1.000000 0.963190 0.002089
0.000000 0.989795 0.031039
0.012558 0.989351 0.032300
0.043223 0.988991 0.033460
0.090047 0.988784 0.034164
0.152028 0.988739 0.034215
0.228463 0.988757 0.033978
0.317615 0.988774 0.033746
0.415911 0.988791 0.033520
0.518587 0.988808 0.033300
0.620260 0.988824 0.033088
0.715640 0.988848 0.032802
0.799586 0.989059 0.030533
0.870263 0.989418 0.025996
0.926831 0.989804 0.020053
0.968412 0.990124 0.013658
0.993839 0.990311 0.007745
1.000000 0.990232 0.004155
0.000000 1.000000 0.030211
0.013061 1.000000 0.031460
0.044067 1.000000 0.032602
0.091248 1.000000 0.033318
0.153649 1.000000 0.033439
0.230366 1.000000 0.033222
0.319713 1.000000 0.033013
0.418090 1.000000 0.032812
0.520720 1.000000 0.032621
0.622229 1.000000 0.032440
0.717409 1.000000 0.032269
0.801601 1.000000 0.031514
0.871656 1.000000 0.028451
0.927152 1.000000 0.023560
0.967810 1.000000 0.017646
0.993021 1.000000 0.011563
1.000000 1.000000 0.007237
0.000000 0.000012 0.115037
0.006531 0.000004 0.108406
0.030101 0.000017 0.101564
0.068268 0.000033 0.098744
0.122687 0.000033 0.098563
0.192415 0.000032 0.098356
0.275967 0.000031 0.098116
0.370456 0.000031 0.097847
0.471968 0.000028 0.097591
0.577064 0.000016 0.097484
0.679460 0.000002 0.097339
0.773015 0.000000 0.097066
0.853035 0.000000 0.096643
0.916653 0.000000 0.096073
0.962689 0.000000 0.095372
0.990987 0.000000 0.094555
1.000000 0.000000 0.093637
0.000000 0.012566 0.116537
0.005744 0.012038 0.111630
0.030343 0.011962 0.103021
