assets/presets/luts/teal-orange/lut.cube
TITLE "Teal & Orange"
LUT_3D_SIZE 5
0.000000 0.000038 0.001655
0.135930 0.000000 0.001187
0.524573 0.000000 0.000540
0.894242 0.000000 0.000082
1.000000 0.000000 0.000000
0.000000 0.144031 0.000927
0.127983 0.144305 0.000016
0.548228 0.135864 0.000000
0.920796 0.125700 0.000000
1.000000 0.117886 0.000000
0.000000 0.502773 0.000225
0.135899 0.501032 0.000196
0.499881 0.505299 0.000000
0.898986 0.495966 0.000000
1.000000 0.477940 0.000000
0.000000 0.860062 0.000000
0.146151 0.859028 0.000000
0.510082 0.859477 0.000000
0.871959 0.863875 0.000000
1.000000 0.859694 0.000000
0.000212 1.000000 0.000000
0.153331 1.000000 0.000000
0.520314 1.000000 0.000000
0.870994 1.000000 0.000000
1.000000 1.000000 0.000000
0.000000 0.000005 0.188730
0.122761 0.000033 0.161813
0.471844 0.000029 0.160472
0.844749 0.000005 0.159146
1.000000 0.000000 0.157156
0.000000 0.151423 0.168498
0.128086 0.143061 0.155904
0.508755 0.138161 0.149084
0.886190 0.132348 0.140694
1.000000 0.126684 0.132135
0.000000 0.514509 0.141228
0.135491 0.501839 0.145060
0.499454 0.503056 0.125804
0.901737 0.489392 0.086019
1.000000 0.473527 0.077464
0.000000 0.866749 0.126945
0.145509 0.859688 0.134808
0.511643 0.859301 0.134187
0.871270 0.862530 0.095786
1.000000 0.856415 0.052917
0.000000 1.000000 0.118568
0.151914 1.000000 0.127848
0.521113 1.000000 0.128265
0.872464 1.000000 0.124546
1.000000 1.000000 0.077621
0.000000 0.000000 0.599876
0.126682 0.000000 0.546999
0.472688 0.000028 0.527312
0.842119 0.000023 0.524384
0.999199 0.000018 0.520958
0.000000 0.148982 0.593489
0.126394 0.141304 0.557408
0.484150 0.142671 0.515850
0.850504 0.142433 0.511955
1.000000 0.140801 0.508465
0.000000 0.524384 0.534866
0.111503 0.512576 0.518034
0.499157 0.500843 0.500843
0.881254 0.492073 0.486763
1.000000 0.483435 0.473231
0.000000 0.874793 0.483576
0.124711 0.866896 0.477457
0.512064 0.859547 0.486647
0.870594 0.861171 0.450147
1.000000 0.852140 0.385411
0.000000 1.000000 0.457215
0.133900 1.000000 0.462027
0.520433 1.000000 0.476615
0.873291 1.000000 0.476364
1.000000 1.000000 0.415927
0.000000 0.000000 0.931988
0.128999 0.000000 0.903360
0.477579 0.000003 0.879470
0.842882 0.000021 0.873064
0.999276 0.000016 0.870870
0.000000 0.145782 0.933005
0.125694 0.139532 0.910496
0.490901 0.140551 0.876919
0.851473 0.142367 0.865087
0.999903 0.142234 0.862128
0.000000 0.522957 0.912630
0.107731 0.509332 0.901527
0.498225 0.498272 0.878573
0.861861 0.500963 0.854815
1.000000 0.501211 0.852179
0.000000 0.880200 0.874721
0.098758 0.873366 0.864911
0.474111 0.866411 0.855230
0.869184 0.859682 0.846996
1.000000 0.853304 0.836811
0.000000 1.000000 0.843093
0.106862 1.000000 0.836558
0.488824 1.000000 0.834307
0.873465 1.000000 0.842190
1.000000 1.000000 0.819871
0.000000 0.000000 1.000000
0.129783 0.000000 1.000000
0.485001 0.000000 1.000000
0.844694 0.000011 1.000000
0.999352 0.000015 1.000000
0.000000 0.143143 1.000000
0.124982 0.137778 1.000000
0.495708 0.137971 1.000000
0.854509 0.141361 1.000000
0.999944 0.142209 1.000000
0.000000 0.517824 1.000000
0.109345 0.504596 1.000000
0.497392 0.495705 1.000000
0.865807 0.498430 1.000000
1.000000 0.501326 0.999741
0.000000 0.880441 1.000000
0.090071 0.872886 1.000000
0.465329 0.864750 1.000000
0.868780 0.858128 1.000000
1.000000 0.860000 0.999240
0.000000 1.000000 1.000000
0.083117 1.000000 1.000000
0.442960 1.000000 0.999937
0.849635 1.000000 0.999413
1.000000 1.000000 0.998889
