assets/presets/luts/vivid-pop/lut.cube
TITLE "Vivid Pop"
LUT_3D_SIZE 17
0.000000 0.000000 0.000000
0.051895 0.000000 0.000000
0.143852 0.000000 0.000000
0.232372 0.000000 0.000000
0.317455 0.000000 0.000000
0.399100 0.000000 0.000000
0.477308 0.000000 0.000000
0.552078 0.000000 0.000000
0.623411 0.000000 0.000000
0.691307 0.000000 0.000000
0.755765 0.000000 0.000000
0.816786 0.000000 0.000000
0.874370 0.000000 0.000000
0.928516 0.000000 0.000000
0.979225 0.000000 0.000000
1.000000 0.000000 0.000000
1.000000 0.000000 0.000000
0.000000 0.037304 0.000000
0.027906 0.027906 0.000000
0.108750 0.022841 0.000000
0.197074 0.017893 0.000000
0.285255 0.012761 0.000000
0.370643 0.008247 0.000000
0.452606 0.004588 0.000000
0.530944 0.001869 0.000000
0.605580 0.000125 0.000000
0.676481 0.000000 0.000000
0.743631 0.000000 0.000000
0.807024 0.000884 0.000000
0.866657 0.003151 0.000000
0.922530 0.006430 0.000000
0.974643 0.010721 0.000000
1.000000 0.016165 0.000000
1.000000 0.022667 0.000000
0.000000 0.116762 0.000000
0.000000 0.108492 0.000000
0.098988 0.098988 0.000000
0.176958 0.092960 0.000000
0.255088 0.090147 0.000000
0.336912 0.086784 0.000000
0.418276 0.083439 0.000000
0.497434 0.080567 0.000000
0.573634 0.078402 0.000000
0.646522 0.077067 0.000000
0.715917 0.076629 0.000000
0.781720 0.077127 0.000000
0.843876 0.078585 0.000000
0.902351 0.081018 0.000000
0.957128 0.084434 0.000000
1.000000 0.089227 0.000000
1.000000 0.095067 0.000000
0.000000 0.194873 0.000000
0.000000 0.187417 0.000000
0.072061 0.179246 0.000000
0.169746 0.169746 0.000000
0.247977 0.162816 0.000000
0.320403 0.160403 0.000000
0.395594 0.158406 0.000000
0.471885 0.156323 0.000000
0.547190 0.154458 0.000000
0.620377 0.153078 0.000000
0.690821 0.152357 0.000000
0.758166 0.152405 0.000000
0.822198 0.153294 0.000000
0.882787 0.155071 0.000000
0.939848 0.157767 0.000000
0.991041 0.161955 0.000000
1.000000 0.167189 0.000000
0.000000 0.271639 0.000000
0.000000 0.265012 0.000000
0.047060 0.257562 0.000000
0.144717 0.249634 0.000000
0.240179 0.240179 0.000000
0.318627 0.232801 0.000000
0.388860 0.230046 0.000000
0.459025 0.228699 0.000000
0.530356 0.227604 0.000000
0.601505 0.226690 0.000000
0.671247 0.226137 0.000000
0.738810 0.226112 0.000000
0.803704 0.226741 0.000000
0.865617 0.228115 0.000000
0.924343 0.230297 0.000000
0.977171 0.233923 0.000000
1.000000 0.238611 0.000000
0.000000 0.347058 0.000000
0.000000 0.341265 0.000000
0.025186 0.334595 0.000000
0.121012 0.327284 0.000000
0.217063 0.319671 0.000000
0.310288 0.310288 0.000000
0.388573 0.302779 0.000000
0.457953 0.299580 0.000000
0.525148 0.298355 0.000000
0.592309 0.297872 0.000000
0.659465 0.297724 0.000000
0.725693 0.297922 0.000000
0.790197 0.298581 0.000000
0.852427 0.299812 0.000000
0.912001 0.301709 0.000000
0.966366 0.304833 0.000000
1.000000 0.309025 0.000000
0.000000 0.421132 0.000000
0.000000 0.416174 0.000000
0.006580 0.410309 0.000000
0.100236 0.403708 0.000000
0.194761 0.396625 0.000000
0.289082 0.389361 0.000000
0.380073 0.380073 0.000000
0.457860 0.372635 0.000000
0.526811 0.369081 0.000000
0.592253 0.367756 0.000000
0.656494 0.367545 0.000000
0.720146 0.367934 0.000000
0.783016 0.368752 0.000000
0.844481 0.370024 0.000000
0.903985 0.371827 0.000000
0.959585 0.374544 0.000000
1.000000 0.378270 0.000000
0.000000 0.493859 0.000000
0.000000 0.489738 0.000000
0.000000 0.484690 0.000000
0.082598 0.478847 0.000000
0.175216 0.472403 0.000000
0.268244 0.465602 0.000000
0.360813 0.458594 0.000000
0.449534 0.449534 0.000000
0.526568 0.442295 0.000000
0.595157 0.438518 0.000000
0.659470 0.437036 0.000000
0.721696 0.436906 0.000000
0.782675 0.437602 0.000000
0.842549 0.438884 0.000000
0.901115 0.440671 0.000000
0.957358 0.443089 0.000000
1.000000 0.446347 0.007836
0.000000 0.565240 0.000000
0.000000 0.561957 0.000000
0.000000 0.557733 0.000000
0.068201 0.552674 0.000000
0.158676 0.546933 0.000000
0.250023 0.540707 0.000000
0.341432 0.534223 0.000000
0.432212 0.527357 0.000000
0.518670 0.518670 0.000000
0.594761 0.511717 0.000000
0.662921 0.507840 0.000000
0.726402 0.506220 0.000000
0.787164 0.506085 0.000000
0.846131 0.506943 0.000000
0.903610 0.508526 0.000000
0.959728 0.510690 0.000000
1.000000 0.513435 0.012826
0.000000 0.635275 0.000000
0.000000 0.632829 0.000000
0.000000 0.629434 0.000000
0.057098 0.625175 0.000000
0.145278 0.620176 0.000000
0.234681 0.614600 0.000000
0.324598 0.608637 0.000000
0.414308 0.602494 0.000000
0.503234 0.595720 0.000000
0.587482 0.587482 0.000000
0.662486 0.580873 0.000000
0.730102 0.577002 0.000000
0.792871 0.575295 0.000000
0.852495 0.575131 0.000000
0.909891 0.576071 0.000000
0.965669 0.577821 0.000000
1.000000 0.579975 0.011947
0.000000 0.703964 0.000000
0.000000 0.702356 0.000000
0.000000 0.699791 0.000000
0.049317 0.696342 0.000000
0.135103 0.692112 0.000000
0.222380 0.687234 0.000000
0.310532 0.681871 0.000000
0.398906 0.676203 0.000000
0.486862 0.670417 0.000000
0.573870 0.663718 0.000000
0.655970 0.655970 0.000000
0.729776 0.649746 0.000000
0.796724 0.645967 0.000000
0.858807 0.644234 0.000000
0.917473 0.644051 0.000000
0.973586 0.645037 0.000000
1.000000 0.646556 0.005218
0.000000 0.771306 0.000000
0.000000 0.770537 0.000000
0.000000 0.768805 0.000000
0.044878 0.766173 0.000000
0.128199 0.762727 0.000000
0.213223 0.758582 0.000000
0.299408 0.753874 0.000000
0.386174 0.748762 0.000000
0.472926 0.743412 0.000000
0.559091 0.737993 0.000000
0.644126 0.731368 0.000000
0.724134 0.724134 0.000000
0.796656 0.718323 0.000000
0.862817 0.714707 0.000000
0.924186 0.713007 0.000000
0.981982 0.712832 0.000000
1.000000 0.713627 0.000000
0.000000 0.837303 0.000000
0.000000 0.837372 0.000000
0.000000 0.836474 0.000000
0.043791 0.834663 0.000000
0.124599 0.832015 0.000000
0.207276 0.828625 0.000000
0.291348 0.824613 0.000000
0.376295 0.820115 0.000000
0.461574 0.815281 0.000000
0.546643 0.810267 0.000000
0.631040 0.805129 0.000000
0.714008 0.798682 0.000000
0.791973 0.791973 0.000000
0.863144 0.786597 0.000000
0.928409 0.783200 0.000000
0.989010 0.781589 0.000000
1.000000 0.781472 0.000000
0.000000 0.901953 0.000000
0.000000 0.902861 0.000000
0.000000 0.902797 0.000000
0.046063 0.901811 0.000000
0.124323 0.899968 0.000000
0.204586 0.897352 0.000000
0.286432 0.894065 0.000000
0.369399 0.890227 0.000000
0.452991 0.885970 0.000000
0.536706 0.881437 0.000000
0.620048 0.876773 0.000000
0.702687 0.871823 0.000000
0.783524 0.865664 0.000000
0.859488 0.859488 0.000000
0.929251 0.854562 0.000000
0.993524 0.851429 0.000000
1.000000 0.850198 0.000000
0.000000 0.965258 0.000000
0.000000 0.967004 0.000000
0.000000 0.967776 0.000000
0.051700 0.967617 0.000000
0.127384 0.966586 0.000000
0.205182 0.964755 0.000000
0.284719 0.962215 0.000000
0.365580 0.959070 0.000000
0.447317 0.955438 0.000000
0.529464 0.951449 0.000000
0.611554 0.947235 0.000000
0.693134 0.942930 0.000000
0.773993 0.938114 0.000000
0.852682 0.932318 0.000000
0.926679 0.926679 0.000000
0.994989 0.922213 0.000000
1.000000 0.919746 0.000000
0.000000 1.000000 0.000000
0.000000 1.000000 0.000000
0.000000 1.000000 0.000000
0.060706 1.000000 0.000000
0.133793 1.000000 0.000000
0.209086 1.000000 0.000000
0.286249 1.000000 0.000000
0.364907 1.000000 0.000000
0.444652 1.000000 0.000000
0.525058 1.000000 0.000000
0.605687 1.000000 0.000000
0.686106 1.000000 0.000000
0.765897 1.000000 0.000000
0.844941 1.000000 0.000000
0.921486 0.998648 0.000000
0.993546 0.993546 0.000000
1.000000 0.989902 0.000000
0.000000 1.000000 0.000000
0.000000 1.000000 0.000000
0.005157 1.000000 0.000000
0.073082 1.000000 0.000000
0.143557 1.000000 0.000000
0.216314 1.000000 0.000000
0.291051 1.000000 0.000000
0.367429 1.000000 0.000000
0.445076 1.000000 0.000000
0.523599 1.000000 0.000000
0.602592 1.000000 0.000000
0.681643 1.000000 0.000000
0.760352 1.000000 0.000000
0.838461 1.000000 0.000000
0.915597 1.000000 0.000000
0.989864 1.000000 0.000000
1.000000 1.000000 0.000000
0.000000 0.000000 0.064518
0.055520 0.000000 0.055520
0.154997 0.000000 0.045653
0.250543 0.000000 0.036368
0.338401 0.000000 0.027939
0.420508 0.000000 0.021043
0.498503 0.000000 0.015568
0.572943 0.000000 0.011322
0.644056 0.000000 0.008174
0.711947 0.000000 0.006043
0.776670 0.000000 0.004874
0.838252 0.000000 0.004636
0.896704 0.000000 0.005304
0.952031 0.000000 0.006865
1.000000 0.000000 0.009302
1.000000 0.000000 0.012489
1.000000 0.000000 0.016531
0.000000 0.034248 0.034248
0.025250 0.025250 0.025250
0.120645 0.018056 0.018056
0.212602 0.011790 0.011790
0.301122 0.006452 0.006452
0.386205 0.002042 0.002042
0.467850 0.000000 0.000000
0.546058 0.000000 0.000000
0.620828 0.000000 0.000000
0.692161 0.000000 0.000000
0.760057 0.000000 0.000000
0.824515 0.000000 0.000000
0.885536 0.000000 0.000000
0.943120 0.000175 0.000175
0.997266 0.004118 0.004118
1.000000 0.008989 0.008989
1.000000 0.014788 0.014788
0.000000 0.114192 0.004847
0.000000 0.106054 0.000000
0.096656 0.096656 0.000000
0.176613 0.091736 0.006859
0.258268 0.088263 0.003260
0.342002 0.084299 0.000000
0.424438 0.080609 0.000000
0.504411 0.077526 0.000000
0.581454 0.075195 0.000000
0.655348 0.073689 0.000000
0.725982 0.073044 0.000000
0.793296 0.073284 0.000000
0.857251 0.074421 0.000000
0.917824 0.076464 0.000000
0.974850 0.079458 0.004842
1.000000 0.083688 0.011106
1.000000 0.088800 0.018260
0.000000 0.192814 0.000000
0.000000 0.185512 0.000000
0.067898 0.177242 0.000000
0.167738 0.167738 0.000000
0.248249 0.161524 0.000000
0.322338 0.159142 0.000000
0.399107 0.156824 0.000000
0.476808 0.154379 0.000000
0.553415 0.152191 0.000000
0.627829 0.150534 0.000000
0.699451 0.149576 0.000000
0.767939 0.149419 0.000000
0.833090 0.150129 0.000000
0.894778 0.151746 0.003139
0.953125 0.154247 0.008996
1.000000 0.157969 0.016497
1.000000 0.162526 0.024855
0.000000 0.270090 0.000000
0.000000 0.263623 0.000000
0.041798 0.256167 0.000000
0.140811 0.247996 0.000000
0.238496 0.238496 0.000000
0.319076 0.231575 0.000000
0.390902 0.228950 0.000000
0.462633 0.227436 0.000000
0.535489 0.226042 0.000000
0.608056 0.224815 0.000000
0.679134 0.223970 0.000000
0.747967 0.223682 0.000000
0.814084 0.224078 0.002826
0.877181 0.225243 0.007931
0.937059 0.227238 0.014292
0.990296 0.230891 0.023781
1.000000 0.235281 0.033889
0.000000 0.346019 0.000000
0.000000 0.340389 0.000000
0.019012 0.333762 0.000000
0.115810 0.326312 0.000000
0.213467 0.318384 0.000000
0.308929 0.308929 0.000000
0.389249 0.301684 0.000000
0.460183 0.298608 0.000000
0.528862 0.297306 0.000000
0.597543 0.296609 0.000000
0.666186 0.296185 0.000185
0.733826 0.296101 0.004285
0.799678 0.296491 0.008956
0.863199 0.297475 0.014612
0.924019 0.299145 0.021423
0.978842 0.302255 0.031620
1.000000 0.306320 0.043164
0.000000 0.420601 0.000000
0.000000 0.415808 0.000000
0.000000 0.410015 0.000000
0.093936 0.403345 0.000000
0.189762 0.396034 0.000000
0.285813 0.388421 0.000000
0.379038 0.379038 0.000000
0.458792 0.371719 0.000000
0.529277 0.368245 0.000000
0.596150 0.366876 0.000000
0.661837 0.366513 0.000000
0.726966 0.366678 0.006390
0.791293 0.367239 0.013860
0.854156 0.368250 0.021175
0.915004 0.369804 0.029053
0.971274 0.372434 0.039746
1.000000 0.376015 0.052138
0.000000 0.493836 0.000000
0.000000 0.489882 0.000000
0.000000 0.484924 0.000000
0.075330 0.479059 0.000000
0.168986 0.472458 0.000000
0.263511 0.465375 0.000000
0.357877 0.458031 0.000000
0.448823 0.448823 0.000000
0.527774 0.441595 0.000000
0.597890 0.437840 0.000000
0.663600 0.436315 0.000000
0.727216 0.436066 0.000000
0.789610 0.436581 0.012946
0.850922 0.437640 0.024359
0.910912 0.439185 0.034848
0.968179 0.441435 0.046377
1.000000 0.444529 0.059507
0.000000 0.565726 0.000000
0.000000 0.562609 0.000000
0.000000 0.558488 0.000000
0.060046 0.553440 0.000000
0.151348 0.547597 0.000000
0.243966 0.541153 0.000000
0.336994 0.534352 0.000000
0.429633 0.527167 0.000000
0.518284 0.518284 0.000000
0.596254 0.511257 0.000000
0.665939 0.507346 0.000000
0.730801 0.505667 0.000000
0.792914 0.505423 0.002313
0.853244 0.506124 0.020156
0.912106 0.507515 0.035493
0.969653 0.509456 0.049259
1.000000 0.512017 0.063073
0.000000 0.636269 0.000000
0.000000 0.633990 0.000000
0.000000 0.630707 0.000000
0.048109 0.626483 0.000000
0.136951 0.621424 0.000000
0.227426 0.615683 0.000000
0.318773 0.609457 0.000000
0.410182 0.602973 0.000000
0.501018 0.595896 0.000000
0.587420 0.587420 0.000000
0.664274 0.580671 0.000000
0.733419 0.576714 0.000000
0.797565 0.574921 0.000000
0.858514 0.574645 0.006907
0.917235 0.575440 0.028568
0.974727 0.576964 0.046615
1.000000 0.578911 0.061078
0.000000 0.705465 0.000000
0.000000 0.704025 0.000000
0.000000 0.701579 0.000000
0.039531 0.698184 0.000000
0.125848 0.693925 0.000000
0.214028 0.688926 0.000000
0.303431 0.683350 0.000000
0.393348 0.677387 0.000000
0.483058 0.671244 0.000000
0.572018 0.664254 0.000000
0.656232 0.656232 0.000000
0.731866 0.649815 0.000000
0.800350 0.645903 0.000000
0.863810 0.644054 0.000000
0.923789 0.643747 0.013653
0.981382 0.644574 0.038318
1.000000 0.645828 0.053365
0.000000 0.773316 0.000000
0.000000 0.772714 0.000000
0.000000 0.771106 0.000000
0.034320 0.768541 0.000000
0.118067 0.765092 0.000000
0.203853 0.760862 0.000000
0.291130 0.755984 0.000000
0.379282 0.750621 0.000000
0.467656 0.744953 0.000000
0.555612 0.739167 0.000000
0.642635 0.732258 0.000000
0.724720 0.724720 0.000000
0.799053 0.718674 0.000000
0.866757 0.714883 0.000000
0.929511 0.713037 0.000000
0.988616 0.712721 0.022985
1.000000 0.713251 0.040445
0.000000 0.839820 0.000000
0.000000 0.840056 0.000000
0.000000 0.839287 0.000000
0.032480 0.837555 0.000000
0.113628 0.834923 0.000000
0.196949 0.831477 0.000000
0.281973 0.827332 0.000000
0.368158 0.822624 0.000000
0.454924 0.817512 0.000000
0.541676 0.812162 0.000000
0.627881 0.806681 0.000000
0.712874 0.799921 0.000000
0.792884 0.792884 0.000000
0.865850 0.787237 0.000000
0.932668 0.783629 0.000000
0.994665 0.781843 0.001495
1.000000 0.781490 0.023333
0.000000 0.904978 0.000000
0.000000 0.906053 0.000000
0.000000 0.906122 0.000000
0.034013 0.905224 0.000000
0.112541 0.903413 0.000000
0.193349 0.900764 0.000000
0.276026 0.897375 0.000000
0.360098 0.893363 0.000000
0.445045 0.888865 0.000000
0.530324 0.884031 0.000000
0.615393 0.879017 0.000000
0.699864 0.873744 0.000000
0.782745 0.867249 0.000000
0.860723 0.860723 0.000000
0.932271 0.855497 0.000000
0.998105 0.852121 0.000000
1.000000 0.850673 0.003489
0.000000 0.968790 0.000000
0.000000 0.970703 0.000000
0.000000 0.971611 0.000000
0.038921 0.971547 0.000000
0.114813 0.970561 0.000000
0.193073 0.968718 0.000000
0.273336 0.966102 0.000000
0.355182 0.962815 0.000000
0.438149 0.958977 0.000000
0.521741 0.954720 0.000000
0.605456 0.950187 0.000000
0.688798 0.945523 0.000000
0.771518 0.940399 0.000000
0.852252 0.934246 0.000000
0.928238 0.928238 0.000000
0.998325 0.923448 0.000000
1.000000 0.920748 0.000000
0.000000 1.000000 0.000000
0.000000 1.000000 0.000000
0.000000 1.000000 0.000000
0.047205 1.000000 0.000000
0.120450 1.000000 0.000000
0.196134 1.000000 0.000000
0.273932 1.000000 0.000000
0.353469 1.000000 0.000000
0.434330 1.000000 0.000000
0.516067 1.000000 0.000000
0.598214 1.000000 0.000000
0.680304 1.000000 0.000000
0.761884 1.000000 0.000000
0.842818 1.000000 0.000000
0.921404 1.000000 0.000000
0.995429 0.995429 0.000000
1.000000 0.991502 0.000000
0.000000 1.000000 0.000000
0.000000 1.000000 0.000000
0.000000 1.000000 0.000000
0.058867 1.000000 0.000000
0.129456 1.000000 0.000000
0.202543 1.000000 0.000000
0.277836 1.000000 0.000000
0.354999 1.000000 0.000000
0.433657 1.000000 0.000000
0.513403 1.000000 0.000000
0.593808 1.000000 0.000000
0.674437 1.000000 0.000000
0.754856 1.000000 0.000000
0.834762 1.000000 0.000000
0.913857 1.000000 0.000000
0.990125 1.000000 0.000000
1.000000 1.000000 0.000000
0.000000 0.000000 0.168152
0.051352 0.000000 0.160696
0.151160 0.000000 0.151160
0.247991 0.000000 0.140806
0.341192 0.000000 0.130691
0.430663 0.000000 0.121254
0.516163 0.000000 0.112636
0.595694 0.000000 0.104811
0.670057 0.000000 0.098114
0.740134 0.000000 0.092627
0.806383 0.000000 0.088319
0.869062 0.000000 0.085136
0.928320 0.000000 0.083024
0.984248 0.000000 0.081941
1.000000 0.000000 0.081819
1.000000 0.000000 0.082520
1.000000 0.000000 0.084150
0.000000 0.030949 0.140294
0.022194 0.022194 0.133268
0.124270 0.013196 0.124270
0.223747 0.005058 0.114403
0.319516 0.000000 0.105146
0.410662 0.000000 0.096777
0.495695 0.000000 0.089568
0.576011 0.000000 0.083664
0.652241 0.000000 0.078985
0.724665 0.000000 0.075452
0.793425 0.000000 0.073004
0.858598 0.000000 0.071601
0.920231 0.000000 0.071213
0.978353 0.000000 0.071821
1.000000 0.000000 0.073347
1.000000 0.000000 0.075682
1.000000 0.003600 0.078989
0.000000 0.110991 0.110991
0.000000 0.102998 0.102998
0.094000 0.094000 0.094000
0.189395 0.086806 0.086806
0.281352 0.080540 0.080540
0.369872 0.075202 0.075202
0.454955 0.070792 0.070792
0.536600 0.067310 0.067310
0.614808 0.064757 0.064757
0.689578 0.063131 0.063131
0.760911 0.062434 0.062434
0.828807 0.062664 0.062664
0.893265 0.063823 0.063823
0.954286 0.065910 0.065910
1.000000 0.068925 0.068925
1.000000 0.072868 0.072868
1.000000 0.077739 0.077739
0.000000 0.190039 0.082854
0.000000 0.182942 0.073597
0.063730 0.174804 0.063730
0.165406 0.165406 0.059868
0.245363 0.160486 0.075609
0.327018 0.157013 0.072010
0.410752 0.153049 0.067149
0.493188 0.149359 0.063402
0.573161 0.146276 0.060899
0.650204 0.143945 0.059569
0.724098 0.142439 0.059345
0.794732 0.141794 0.060177
0.862046 0.142034 0.062033
0.926001 0.143171 0.064888
0.986174 0.145318 0.068876
1.000000 0.148687 0.074265
1.000000 0.152934 0.080538
0.000000 0.267811 0.057309
0.000000 0.261564 0.047194
0.036840 0.254262 0.036840
0.136648 0.245992 0.027304
0.236488 0.236488 0.029902
0.317382 0.230246 0.055975
0.391263 0.227864 0.064464
0.467018 0.225739 0.064886
0.543703 0.223526 0.063438
0.619545 0.221531 0.062325
0.693537 0.219991 0.062142
0.765106 0.219061 0.063048
0.833916 0.218839 0.065070
0.899757 0.219389 0.068196
0.962032 0.220865 0.072632
1.000000 0.223808 0.079296
1.000000 0.227574 0.086812
0.000000 0.344251 0.034842
0.000000 0.338840 0.024090
0.013330 0.332373 0.013330
0.110548 0.324917 0.003363
0.209561 0.316746 0.000000
0.307246 0.307246 0.004103
0.388929 0.300329 0.034531
0.461114 0.297529 0.052153
0.531701 0.296134 0.060567
0.602795 0.295064 0.064265
0.673921 0.294153 0.066292
0.744054 0.293541 0.068284
0.812469 0.293375 0.070907
0.878679 0.293774 0.074435
0.942236 0.294852 0.079057
0.999469 0.297484 0.086889
1.000000 0.300893 0.095552
0.000000 0.419346 0.015617
0.000000 0.414769 0.004338
0.000000 0.409139 0.000000
0.087762 0.402512 0.000000
0.184560 0.395062 0.000000
0.282217 0.387134 0.000000
0.377679 0.377679 0.000000
0.459348 0.370529 0.015255
0.531291 0.367186 0.038975
0.599528 0.365804 0.054172
0.666676 0.365296 0.063916
0.733507 0.365197 0.070549
0.799765 0.365405 0.075831
0.864794 0.365993 0.080963
0.928071 0.367056 0.086549
0.986144 0.369354 0.095225
1.000000 0.372470 0.105026
0.000000 0.493094 0.000000
0.000000 0.489351 0.000000
0.000000 0.484558 0.000000
0.068335 0.478765 0.000000
0.162686 0.472095 0.000000
0.258512 0.464784 0.000000
0.354603 0.457118 0.000000
0.447788 0.447788 0.000000
0.528686 0.440617 0.000272
0.600327 0.436918 0.028398
0.667418 0.435370 0.048622
0.732399 0.435011 0.063275
0.796179 0.435352 0.074525
0.858933 0.436188 0.083901
0.920679 0.437428 0.092248
0.979411 0.439427 0.101938
1.000000 0.442238 0.112942
0.000000 0.565496 0.000000
0.000000 0.562586 0.000000
0.000000 0.558632 0.000000
0.052278 0.553674 0.000000
0.144080 0.547809 0.000000
0.237736 0.541208 0.000000
0.332261 0.534125 0.000000
0.426711 0.526628 0.000000
0.517573 0.517573 0.000000
0.597448 0.510512 0.000000
0.668662 0.506598 0.020407
0.734895 0.504879 0.044848
0.798342 0.504539 0.063835
0.860014 0.505093 0.079187
0.920236 0.506298 0.092361
0.979047 0.508044 0.104328
1.000000 0.510449 0.116643
0.000000 0.636550 0.000000
0.000000 0.634476 0.000000
0.000000 0.631359 0.000000
0.039596 0.627238 0.000000
0.128796 0.622190 0.000000
0.220098 0.616347 0.000000
0.312716 0.609903 0.000000
0.405744 0.603102 0.000000
0.498458 0.595725 0.000000
0.587034 0.587034 0.000000
0.665761 0.580178 0.000000
0.736440 0.576163 0.015195
0.801953 0.574306 0.043127
0.864217 0.573932 0.065931
0.924247 0.574591 0.085074
0.983376 0.575894 0.100499
1.000000 0.577703 0.113924
0.000000 0.706258 0.000000
0.000000 0.705019 0.000000
0.000000 0.702740 0.000000
0.030291 0.699457 0.000000
0.116859 0.695233 0.000000
0.205701 0.690174 0.000000
0.296176 0.684433 0.000000
0.387523 0.678207 0.000000
0.478932 0.671723 0.000000
0.569822 0.664444 0.000000
0.656170 0.656170 0.000000
0.733652 0.649589 0.000000
0.803676 0.645570 0.013146
0.868509 0.643626 0.043937
0.929792 0.643210 0.070047
0.989188 0.643845 0.091298
1.000000 0.644877 0.104928
0.000000 0.774618 0.000000
0.000000 0.774215 0.000000
0.000000 0.772775 0.000000
0.024364 0.770329 0.000000
0.108281 0.766934 0.000000
0.194598 0.762675 0.000000
0.282778 0.757676 0.000000
0.372181 0.752100 0.000000
0.462098 0.746137 0.000000
0.551808 0.739994 0.000000
0.640800 0.732805 0.000000
0.724982 0.724982 0.000000
0.801143 0.718725 0.000000
0.870395 0.714784 0.014532
0.934530 0.712812 0.047656
0.994936 0.712371 0.076598
1.000000 0.712626 0.091186
0.000000 0.841632 0.000000
0.000000 0.842066 0.000000
0.000000 0.841464 0.000000
0.021817 0.839856 0.000000
0.103070 0.837291 0.000000
0.186817 0.833842 0.000000
0.272603 0.829612 0.000000
0.359880 0.824734 0.000000
0.448032 0.819371 0.000000
0.536406 0.813703 0.000000
0.624390 0.807880 0.000000
0.711398 0.800819 0.000000
0.793470 0.793470 0.000000
0.868249 0.787574 0.000000
0.936622 0.783777 0.019551
1.000000 0.781835 0.054576
1.000000 0.781236 0.073159
0.000000 0.907300 0.000000
0.000000 0.908570 0.000000
0.000000 0.908806 0.000000
0.022649 0.908037 0.000000
0.101230 0.906305 0.000000
0.182378 0.903673 0.000000
0.265699 0.900227 0.000000
0.350723 0.896082 0.000000
0.436908 0.891374 0.000000
0.523674 0.886262 0.000000
0.610426 0.880912 0.000000
0.696705 0.875314 0.000000
0.781623 0.868494 0.000000
0.861634 0.861634 0.000000
0.934981 0.856127 0.000000
1.000000 0.852529 0.028348
1.000000 0.850853 0.052224
0.000000 0.971621 0.000000
0.000000 0.973728 0.000000
0.000000 0.974803 0.000000
0.026861 0.974872 0.000000
0.102763 0.973974 0.000000
0.181291 0.972163 0.000000
0.262099 0.969514 0.000000
0.344776 0.966125 0.000000
0.428848 0.962113 0.000000
0.513795 0.957615 0.000000
0.599074 0.952781 0.000000
0.684143 0.947767 0.000000
0.768702 0.942334 0.000000
0.851483 0.935835 0.000000
0.929473 0.929473 0.000000
1.000000 0.924376 0.000709
1.000000 0.921437 0.030163
0.000000 1.000000 0.000000
0.000000 1.000000 0.000000
0.000000 1.000000 0.000000
0.034453 1.000000 0.000000
0.107671 1.000000 0.000000
0.183563 1.000000 0.000000
0.261823 1.000000 0.000000
0.342086 1.000000 0.000000
0.423932 1.000000 0.000000
0.506899 1.000000 0.000000
0.590491 1.000000 0.000000
0.674206 1.000000 0.000000
0.757548 1.000000 0.000000
0.840353 1.000000 0.000000
0.920983 1.000000 0.000000
0.996988 0.996988 0.000000
1.000000 0.992774 0.009066
0.000000 1.000000 0.007685
0.000000 1.000000 0.000000
0.000000 1.000000 0.000000
0.045425 1.000000 0.000000
0.115955 1.000000 0.000000
0.189200 1.000000 0.000000
0.264884 1.000000 0.000000
0.342682 1.000000 0.000000
0.422219 1.000000 0.000000
0.503080 1.000000 0.000000
0.584817 1.000000 0.000000
0.666964 1.000000 0.000000
0.749054 1.000000 0.000000
0.830733 1.000000 0.000000
0.911777 1.000000 0.000000
0.990057 1.000000 0.000000
1.000000 1.000000 0.000000
0.000000 0.000000 0.267399
0.047189 0.000000 0.261558
0.146202 0.000000 0.253387
0.243420 0.000000 0.243420
0.337577 0.000000 0.232660
0.428180 0.000000 0.221908
0.515087 0.000000 0.211614
0.598259 0.000000 0.202010
0.677692 0.000000 0.193219
0.753264 0.000000 0.185293
0.823783 0.000000 0.178185
0.889575 0.000000 0.172064
0.951161 0.000000 0.167017
1.000000 0.000000 0.163060
1.000000 0.000000 0.160168
1.000000 0.000000 0.158266
1.000000 0.000000 0.157344
0.000000 0.027871 0.242241
0.019480 0.019480 0.236902
0.120102 0.010758 0.229446
