assets/presets/luts/vivid-pop/lut.cube
TITLE "Vivid Pop"
LUT_3D_SIZE 9
0.000000 0.000000 0.000000
0.143852 0.000000 0.000000
0.317455 0.000000 0.000000
0.477308 0.000000 0.000000
0.623411 0.000000 0.000000
0.755765 0.000000 0.000000
0.874370 0.000000 0.000000
0.979225 0.000000 0.000000
1.000000 0.000000 0.000000
0.000000 0.116762 0.000000
0.098988 0.098988 0.000000
0.255088 0.090147 0.000000
0.418276 0.083439 0.000000
0.573634 0.078402 0.000000
0.715917 0.076629 0.000000
0.843876 0.078585 0.000000
0.957128 0.084434 0.000000
1.000000 0.095067 0.000000
0.000000 0.271639 0.000000
0.047060 0.257562 0.000000
0.240179 0.240179 0.000000
0.388860 0.230046 0.000000
0.530356 0.227604 0.000000
0.671247 0.226137 0.000000
0.803704 0.226741 0.000000
0.924343 0.230297 0.000000
1.000000 0.238611 0.000000
0.000000 0.421132 0.000000
0.006580 0.410309 0.000000
0.194761 0.396625 0.000000
0.380073 0.380073 0.000000
0.526811 0.369081 0.000000
0.656494 0.367545 0.000000
0.783016 0.368752 0.000000
0.903985 0.371827 0.000000
1.000000 0.378270 0.000000
0.000000 0.565240 0.000000
0.000000 0.557733 0.000000
0.158676 0.546933 0.000000
0.341432 0.534223 0.000000
0.518670 0.518670 0.000000
0.662921 0.507840 0.000000
0.787164 0.506085 0.000000
0.903610 0.508526 0.000000
1.000000 0.513435 0.012826
0.000000 0.703964 0.000000
0.000000 0.699791 0.000000
0.135103 0.692112 0.000000
0.310532 0.681871 0.000000
0.486862 0.670417 0.000000
0.655970 0.655970 0.000000
0.796724 0.645967 0.000000
0.917473 0.644051 0.000000
1.000000 0.646556 0.005218
0.000000 0.837303 0.000000
0.000000 0.836474 0.000000
0.124599 0.832015 0.000000
0.291348 0.824613 0.000000
0.461574 0.815281 0.000000
0.631040 0.805129 0.000000
0.791973 0.791973 0.000000
0.928409 0.783200 0.000000
1.000000 0.781472 0.000000
0.000000 0.965258 0.000000
0.000000 0.967776 0.000000
0.127384 0.966586 0.000000
0.284719 0.962215 0.000000
0.447317 0.955438 0.000000
0.611554 0.947235 0.000000
0.773993 0.938114 0.000000
0.926679 0.926679 0.000000
1.000000 0.919746 0.000000
0.000000 1.000000 0.000000
0.005157 1.000000 0.000000
0.143557 1.000000 0.000000
0.291051 1.000000 0.000000
0.445076 1.000000 0.000000
0.602592 1.000000 0.000000
0.760352 1.000000 0.000000
0.915597 1.000000 0.000000
1.000000 1.000000 0.000000
0.000000 0.000000 0.168152
0.151160 0.000000 0.151160
0.341192 0.000000 0.130691
0.516163 0.000000 0.112636
0.670057 0.000000 0.098114
0.806383 0.000000 0.088319
0.928320 0.000000 0.083024
1.000000 0.000000 0.081819
1.000000 0.000000 0.084150
0.000000 0.110991 0.110991
0.094000 0.094000 0.094000
0.281352 0.080540 0.080540
0.454955 0.070792 0.070792
0.614808 0.064757 0.064757
0.760911 0.062434 0.062434
0.893265 0.063823 0.063823
1.000000 0.068925 0.068925
1.000000 0.077739 0.077739
0.000000 0.267811 0.057309
0.036840 0.254262 0.036840
0.236488 0.236488 0.029902
0.391263 0.227864 0.064464
0.543703 0.223526 0.063438
0.693537 0.219991 0.062142
0.833916 0.218839 0.065070
0.962032 0.220865 0.072632
1.000000 0.227574 0.086812
0.000000 0.419346 0.015617
0.000000 0.409139 0.000000
0.184560 0.395062 0.000000
0.377679 0.377679 0.000000
0.531291 0.367186 0.038975
0.666676 0.365296 0.063916
0.799765 0.365405 0.075831
0.928071 0.367056 0.086549
1.000000 0.372470 0.105026
0.000000 0.565496 0.000000
0.000000 0.558632 0.000000
0.144080 0.547809 0.000000
0.332261 0.534125 0.000000
0.517573 0.517573 0.000000
0.668662 0.506598 0.020407
0.798342 0.504539 0.063835
0.920236 0.506298 0.092361
1.000000 0.510449 0.116643
0.000000 0.706258 0.000000
0.000000 0.702740 0.000000
0.116859 0.695233 0.000000
0.296176 0.684433 0.000000
0.478932 0.671723 0.000000
0.656170 0.656170 0.000000
0.803676 0.645570 0.013146
0.929792 0.643210 0.070047
1.000000 0.644877 0.104928
0.000000 0.841632 0.000000
0.000000 0.841464 0.000000
0.103070 0.837291 0.000000
0.272603 0.829612 0.000000
0.448032 0.819371 0.000000
0.624390 0.807880 0.000000
0.793470 0.793470 0.000000
0.936622 0.783777 0.019551
1.000000 0.781236 0.073159
0.000000 0.971621 0.000000
0.000000 0.974803 0.000000
0.102763 0.973974 0.000000
0.262099 0.969514 0.000000
0.428848 0.962113 0.000000
0.599074 0.952781 0.000000
0.768702 0.942334 0.000000
0.929473 0.929473 0.000000
1.000000 0.921437 0.030163
0.000000 1.000000 0.007685
0.000000 1.000000 0.000000
0.115955 1.000000 0.000000
0.264884 1.000000 0.000000
0.422219 1.000000 0.000000
0.584817 1.000000 0.000000
0.749054 1.000000 0.000000
0.911777 1.000000 0.000000
1.000000 1.000000 0.000000
0.000000 0.000000 0.362262
0.140940 0.000000 0.351442
0.332298 0.000000 0.332298
0.511747 0.000000 0.309883
0.676680 0.000000 0.288423
0.826689 0.000000 0.269679
0.961727 0.000000 0.254324
1.000000 0.000000 0.242538
1.000000 0.000000 0.234723
0.000000 0.104249 0.314751
0.088230 0.088230 0.305652
0.288660 0.071238 0.288660
0.478692 0.057689 0.268191
0.653894 0.048301 0.250166
0.812524 0.043477 0.235739
0.952056 0.043903 0.225534
1.000000 0.048396 0.219732
1.000000 0.056083 0.217882
0.000000 0.261463 0.261463
0.031070 0.248491 0.248491
0.231500 0.231500 0.231500
0.418852 0.218040 0.218040
0.592455 0.208292 0.208292
0.752308 0.202257 0.202257
0.898411 0.199934 0.199934
1.000000 0.201323 0.201323
1.000000 0.206425 0.206425
0.000000 0.414699 0.212834
0.000000 0.405311 0.194809
0.174340 0.391762 0.174340
0.373988 0.373988 0.167402
0.528763 0.365364 0.201964
0.681203 0.361026 0.200938
0.831037 0.357491 0.199642
0.970851 0.356476 0.202882
1.000000 0.360195 0.213808
0.000000 0.562834 0.174577
0.000000 0.556846 0.153117
0.130701 0.546639 0.130701
0.322060 0.532562 0.111558
0.515179 0.515179 0.119971
0.668791 0.504686 0.176475
0.804176 0.502796 0.201416
0.937265 0.502905 0.213331
1.000000 0.505808 0.228846
0.000000 0.705638 0.148629
0.000000 0.702996 0.124622
0.100585 0.696132 0.100585
0.281580 0.685309 0.079716
0.469761 0.671625 0.066032
0.655073 0.655073 0.089207
0.806909 0.644101 0.155678
0.936458 0.641967 0.200232
1.000000 0.643286 0.225697
0.000000 0.843065 0.135650
0.000000 0.843758 0.109536
0.083990 0.840240 0.083990
0.254359 0.832733 0.061568
0.433676 0.821933 0.045419
0.616432 0.809223 0.038058
0.793670 0.793670 0.075110
0.942018 0.783130 0.147578
1.000000 0.780209 0.192364
0.000000 0.975105 0.135904
0.000000 0.979132 0.107921
0.080917 0.978964 0.080917
0.240570 0.974791 0.057015
0.410103 0.967112 0.038763
0.585532 0.956871 0.028522
0.761959 0.945287 0.028647
0.930970 0.930970 0.077680
1.000000 0.921753 0.141508
0.000000 1.000000 0.149512
0.000000 1.000000 0.119801
0.091366 1.000000 0.091366
0.240263 1.000000 0.066020
0.399599 1.000000 0.045892
0.566348 1.000000 0.033083
0.736574 1.000000 0.029159
0.906471 1.000000 0.042109
1.000000 1.000000 0.096917
0.000000 0.000000 0.538831
0.130739 0.000000 0.534468
0.318920 0.000000 0.520784
0.499915 0.000000 0.499915
0.668669 0.000000 0.475878
0.823211 0.000000 0.451871
0.962962 0.000000 0.429697
1.000000 0.000000 0.410283
1.000000 0.000000 0.394120
0.000000 0.098390 0.502118
0.083824 0.083824 0.499762
0.278440 0.067938 0.488942
0.469799 0.053861 0.469799
0.649247 0.043654 0.447383
0.814180 0.037666 0.425923
0.964189 0.035840 0.407179
1.000000 0.038118 0.391825
1.000000 0.044467 0.380147
0.000000 0.254221 0.456085
0.031248 0.241749 0.452251
0.225730 0.225730 0.443152
0.426160 0.208738 0.426160
0.616192 0.195189 0.405691
0.791394 0.185801 0.387666
0.950024 0.180977 0.373239
1.000000 0.181034 0.362990
1.000000 0.184477 0.356866
0.000000 0.407916 0.407916
0.000000 0.398963 0.398963
0.168570 0.385991 0.385991
0.369000 0.369000 0.369000
0.556352 0.355540 0.355540
0.729955 0.345792 0.345792
0.889808 0.339757 0.339757
1.000000 0.337434 0.337434
1.000000 0.338823 0.338823
0.000000 0.557512 0.364720
0.000000 0.552199 0.350334
0.121808 0.542811 0.332309
0.311840 0.529262 0.311840
0.511488 0.511488 0.304902
0.666263 0.502864 0.339464
0.818703 0.498526 0.338438
0.968536 0.494991 0.337142
1.000000 0.495958 0.344910
0.000000 0.702160 0.330821
0.000000 0.700334 0.312077
0.088753 0.694346 0.290617
0.268202 0.684139 0.268202
0.459560 0.670062 0.249058
0.652679 0.652679 0.257471
0.806291 0.642186 0.313975
0.941676 0.640296 0.338916
1.000000 0.640840 0.353032
0.000000 0.841569 0.308303
0.000000 0.843138 0.286129
0.069331 0.840496 0.262122
0.238085 0.833632 0.238085
0.419080 0.822809 0.217216
0.607261 0.809125 0.203532
0.792573 0.792573 0.226707
0.944409 0.781601 0.293178
1.000000 0.778764 0.326916
0.000000 0.975640 0.298144
0.000000 0.980565 0.273150
0.063481 0.981258 0.247036
0.221490 0.977740 0.221490
0.391859 0.970233 0.199068
0.571176 0.959433 0.182919
0.753932 0.946723 0.175558
0.931170 0.931170 0.212610
1.000000 0.920909 0.270687
0.000000 1.000000 0.300825
0.000000 1.000000 0.273404
0.071179 1.000000 0.245421
0.218417 1.000000 0.218417
0.378070 1.000000 0.194515
0.547603 1.000000 0.176263
0.723032 1.000000 0.166022
0.899640 1.000000 0.168026
1.000000 1.000000 0.215180
0.000000 0.000000 0.697859
0.121568 0.000000 0.699942
0.304324 0.000000 0.692581
0.483641 0.000000 0.676432
0.654010 0.000000 0.654010
0.812019 0.000000 0.628464
0.956058 0.000000 0.602350
1.000000 0.000000 0.577356
1.000000 0.000000 0.554512
0.000000 0.093779 0.672153
0.080784 0.080784 0.676331
0.268239 0.066375 0.671968
0.456420 0.052691 0.658284
0.637415 0.041868 0.637415
0.806169 0.035004 0.613378
0.960711 0.032362 0.589371
1.000000 0.033931 0.567197
1.000000 0.039661 0.547783
0.000000 0.247401 0.635658
0.034025 0.235890 0.639618
0.221324 0.221324 0.637262
0.415940 0.205438 0.626442
0.607298 0.191361 0.607298
0.786747 0.181154 0.584883
0.951680 0.175166 0.563423
1.000000 0.173340 0.544679
1.000000 0.175618 0.529325
0.000000 0.400273 0.593064
0.000000 0.391721 0.593585
0.168748 0.379249 0.589751
0.363230 0.363230 0.580652
0.563660 0.346238 0.563660
0.753692 0.332689 0.543191
0.928894 0.323301 0.525166
1.000000 0.318288 0.510754
1.000000 0.317333 0.500347
0.000000 0.550349 0.550349
0.000000 0.545416 0.545416
0.120526 0.536463 0.536463
0.306070 0.523491 0.523491
0.506500 0.506500 0.506500
0.693852 0.493040 0.493040
0.867455 0.483292 0.483292
1.000000 0.477257 0.477257
1.000000 0.474934 0.474934
0.000000 0.696282 0.512727
0.000000 0.695012 0.502220
0.084106 0.689699 0.487834
0.259308 0.680311 0.469809
0.449340 0.666762 0.449340
0.648988 0.648988 0.442402
0.803763 0.640364 0.476964
0.956203 0.636026 0.475938
1.000000 0.634380 0.479873
0.000000 0.837382 0.483675
0.000000 0.839660 0.468321
0.061320 0.837834 0.449577
0.226253 0.831846 0.428117
0.405701 0.821639 0.405701
0.597060 0.807562 0.386558
0.790179 0.790179 0.394971
0.943791 0.779686 0.451476
1.000000 0.777237 0.471870
0.000000 0.973339 0.465217
0.000000 0.979069 0.445803
0.052289 0.980638 0.423629
0.206831 0.977996 0.399622
0.375585 0.971132 0.375585
0.556580 0.960309 0.354716
0.744761 0.946625 0.341032
0.930073 0.930073 0.364207
1.000000 0.919120 0.416420
0.000000 1.000000 0.458488
0.000000 1.000000 0.435644
0.056942 1.000000 0.410650
0.200981 1.000000 0.384536
0.358990 1.000000 0.358990
0.529359 1.000000 0.336568
0.708676 1.000000 0.320419
0.891446 1.000000 0.313156
1.000000 1.000000 0.350110
0.000000 0.000000 0.839345
0.113638 0.000000 0.847859
0.289968 0.000000 0.846978
0.465397 0.000000 0.836737
0.634930 0.000000 0.818485
0.794583 0.000000 0.794583
0.941821 0.000000 0.767579
1.000000 0.000000 0.739596
1.000000 0.000000 0.712175
0.000000 0.090491 0.824712
0.079109 0.079109 0.835359
0.259068 0.066277 0.837442
0.441824 0.053567 0.830081
0.621141 0.042767 0.813932
0.791510 0.035260 0.791510
0.949519 0.031742 0.765964
1.000000 0.032435 0.739850
1.000000 0.037360 0.714856
0.000000 0.241548 0.798558
0.038488 0.231279 0.809653
0.218284 0.218284 0.813831
0.405739 0.203875 0.809468
0.593920 0.190191 0.795784
0.774915 0.179368 0.774915
0.943669 0.172504 0.750878
1.000000 0.169862 0.726871
1.000000 0.171431 0.704697
0.000000 0.392767 0.764107
0.000000 0.384901 0.773158
0.171525 0.373390 0.777118
0.358824 0.358824 0.774762
0.553440 0.342938 0.763942
0.744798 0.328861 0.744798
0.924247 0.318654 0.722383
1.000000 0.312666 0.700923
1.000000 0.310840 0.682179
0.000000 0.542340 0.725896
0.000000 0.537773 0.730564
0.125492 0.529221 0.731085
0.306248 0.516749 0.727251
0.500730 0.500730 0.718152
0.701160 0.483738 0.701160
0.891192 0.470189 0.680691
1.000000 0.460801 0.662666
1.000000 0.455488 0.648280
0.000000 0.688762 0.688762
0.000000 0.687849 0.687849
0.087369 0.682916 0.682916
0.258026 0.673963 0.673963
0.443570 0.660991 0.660991
0.644000 0.644000 0.644000
0.831352 0.630540 0.630540
1.000000 0.620792 0.620792
1.000000 0.614757 0.614757
0.000000 0.831021 0.656779
0.000000 0.833782 0.650227
0.061347 0.832512 0.639720
0.221606 0.827199 0.625334
0.396808 0.817811 0.607309
0.586840 0.804262 0.586840
0.786488 0.786488 0.579902
0.941263 0.777864 0.614464
1.000000 0.774509 0.617205
0.000000 0.968534 0.632853
0.000000 0.974882 0.621175
0.048811 0.977160 0.605821
0.198820 0.975334 0.587077
0.363753 0.969346 0.565617
0.543202 0.959139 0.543202
0.734560 0.945062 0.524058
0.927679 0.927679 0.532471
1.000000 0.916808 0.577521
0.000000 1.000000 0.618880
0.000000 1.000000 0.602717
0.050038 1.000000 0.583303
0.189789 1.000000 0.561129
0.344331 1.000000 0.537122
0.513085 1.000000 0.513085
0.694080 1.000000 0.492216
0.882261 1.000000 0.478532
1.000000 1.000000 0.501707
0.000000 0.000000 0.963291
0.107014 0.000000 0.978225
0.276426 0.000000 0.983841
0.446652 0.000000 0.979917
0.613401 0.000000 0.967108
0.772737 0.000000 0.946980
0.921634 0.000000 0.921634
1.000000 0.000000 0.893199
1.000000 0.000000 0.863488
0.000000 0.088547 0.959759
0.078799 0.078799 0.976845
0.251138 0.067583 0.985359
0.427468 0.056129 0.984478
0.602897 0.045888 0.974237
0.772430 0.038209 0.955985
0.932083 0.034036 0.932083
1.000000 0.033868 0.905079
1.000000 0.037895 0.877096
0.000000 0.236868 0.944283
0.044435 0.227991 0.962212
0.216609 0.216609 0.972859
0.396568 0.203777 0.974942
0.579324 0.191067 0.967581
0.758641 0.180267 0.951432
0.929010 0.172760 0.929010
1.000000 0.169242 0.903464
1.000000 0.169935 0.877350
0.000000 0.385955 0.919221
0.007709 0.379048 0.936058
0.175988 0.368779 0.947153
0.355784 0.355784 0.951331
0.543239 0.341375 0.946968
0.731420 0.327691 0.933284
0.912415 0.316868 0.912415
1.000000 0.310004 0.888378
1.000000 0.307362 0.864371
0.000000 0.534284 0.887991
0.000000 0.530267 0.901607
0.134144 0.522401 0.910658
0.309025 0.510890 0.914618
0.496324 0.496324 0.912262
0.690940 0.480438 0.901442
0.882299 0.466361 0.882299
1.000000 0.456154 0.859883
1.000000 0.450166 0.838423
0.000000 0.680404 0.854646
0.000000 0.679840 0.863396
0.096899 0.675273 0.868064
0.262992 0.666721 0.868585
0.443748 0.654249 0.864751
0.638230 0.638230 0.855651
0.838660 0.621238 0.838660
1.000000 0.607689 0.818191
1.000000 0.598301 0.800166
0.000000 0.823156 0.823156
0.000000 0.826262 0.826262
0.069099 0.825349 0.825349
0.224869 0.820416 0.820416
0.395526 0.811463 0.811463
0.581070 0.798491 0.798491
0.781500 0.781500 0.781500
0.968852 0.768040 0.768040
1.000000 0.758292 0.758292
0.000000 0.961734 0.796848
0.000000 0.968521 0.794279
0.053505 0.971282 0.787727
0.198847 0.970012 0.777220
0.359106 0.964699 0.762834
0.534308 0.955311 0.744809
0.724340 0.941762 0.724340
0.923988 0.923988 0.717402
1.000000 0.914956 0.748655
0.000000 1.000000 0.778217
0.000000 1.000000 0.770353
0.051260 1.000000 0.758675
0.186311 1.000000 0.743321
0.336320 1.000000 0.724577
0.501253 1.000000 0.703117
0.680701 1.000000 0.680701
0.872060 1.000000 0.661558
1.000000 1.000000 0.669971
0.000000 0.000000 1.000000
0.101723 0.000000 1.000000
0.263946 0.000000 1.000000
0.428183 0.000000 1.000000
0.590781 0.000000 1.000000
0.748116 0.000000 1.000000
0.897045 0.000000 1.000000
1.000000 0.000000 1.000000
1.000000 0.000000 1.000000
0.000000 0.087958 1.000000
0.079853 0.079853 1.000000
0.244514 0.070272 1.000000
0.413926 0.060219 1.000000
0.584152 0.050887 1.000000
0.750901 0.043486 1.000000
0.910237 0.039026 1.000000
1.000000 0.038197 1.000000
1.000000 0.041379 1.000000
0.000000 0.233448 1.000000
0.051805 0.226047 1.000000
0.216299 0.216299 1.000000
0.388638 0.205083 1.000000
0.564968 0.193629 1.000000
0.740397 0.183388 1.000000
0.909930 0.175709 1.000000
1.000000 0.171536 1.000000
1.000000 0.171368 1.000000
0.000000 0.380124 1.000000
0.020660 0.374368 1.000000
0.181935 0.365491 1.000000
0.354109 0.354109 1.000000
0.534068 0.341277 1.000000
0.716824 0.328567 1.000000
0.896141 0.317767 1.000000
1.000000 0.310260 1.000000
1.000000 0.306742 1.000000
0.000000 0.526702 1.000000
0.000000 0.523455 1.000000
0.145209 0.516548 1.000000
0.313488 0.506279 1.000000
0.493284 0.493284 1.000000
0.680739 0.478875 1.000000
0.868920 0.465191 1.000000
1.000000 0.454368 1.000000
1.000000 0.447504 1.000000
0.000000 0.671871 1.000000
0.000000 0.671784 1.000000
0.110758 0.667767 1.000000
0.271644 0.659901 1.000000
0.446525 0.648390 1.000000
0.633824 0.633824 1.000000
0.828440 0.617938 1.000000
1.000000 0.603861 1.000000
1.000000 0.593654 0.997383
0.000000 0.814457 0.979344
0.000000 0.817904 0.992146
0.083119 0.817340 1.000000
0.234399 0.812773 1.000000
0.400492 0.804221 1.000000
0.581248 0.791749 1.000000
0.775730 0.775730 0.993151
0.976160 0.758738 0.976160
1.000000 0.745189 0.955691
0.000000 0.953531 0.953531
0.000000 0.960656 0.960656
0.065715 0.963762 0.963762
0.206599 0.962849 0.962849
0.362369 0.957916 0.957916
0.533026 0.948963 0.948963
0.718570 0.935991 0.935991
0.919000 0.919000 0.919000
1.000000 0.905540 0.905540
0.000000 1.000000 0.932918
0.000000 1.000000 0.934348
0.060568 1.000000 0.931779
0.191005 1.000000 0.925227
0.336347 1.000000 0.914720
0.496606 1.000000 0.900334
0.671808 1.000000 0.882309
0.861840 1.000000 0.861840
1.000000 1.000000 0.854902
0.000000 0.000000 1.000000
0.097778 0.000000 1.000000
0.252648 0.000000 1.000000
0.410408 0.000000 1.000000
0.567924 0.000000 1.000000
0.721949 0.000000 1.000000
0.869443 0.000000 1.000000
1.000000 0.000000 1.000000
1.000000 0.000000 1.000000
0.000000 0.088728 1.000000
0.082273 0.082273 1.000000
0.239223 0.074336 1.000000
0.401446 0.065765 1.000000
0.565683 0.057562 1.000000
0.728281 0.050785 1.000000
0.885616 0.046414 1.000000
1.000000 0.045224 1.000000
1.000000 0.047742 1.000000
0.000000 0.231330 1.000000
0.060572 0.225458 1.000000
0.217353 0.217353 1.000000
0.382014 0.207772 1.000000
0.551426 0.197719 1.000000
0.721652 0.188387 1.000000
0.888401 0.180986 1.000000
1.000000 0.176526 1.000000
1.000000 0.175697 1.000000
0.000000 0.375423 1.000000
0.035267 0.370948 1.000000
0.189305 0.363547 1.000000
0.353799 0.353799 1.000000
0.526138 0.342583 1.000000
0.702468 0.331129 1.000000
0.877897 0.320888 1.000000
1.000000 0.313209 1.000000
1.000000 0.309036 1.000000
0.000000 0.519912 1.000000
0.009502 0.517624 1.000000
0.158160 0.511868 1.000000
0.319435 0.502991 1.000000
0.491609 0.491609 1.000000
0.671568 0.478777 1.000000
0.854324 0.466067 1.000000
1.000000 0.455267 1.000000
1.000000 0.447760 1.000000
0.000000 0.663639 1.000000
0.000000 0.664202 1.000000
0.127690 0.660955 1.000000
0.282709 0.654048 1.000000
0.450988 0.643779 1.000000
0.630784 0.630784 1.000000
0.818239 0.616375 1.000000
1.000000 0.602691 1.000000
1.000000 0.591868 1.000000
0.000000 0.805490 1.000000
0.000000 0.809371 1.000000
0.101869 0.809284 1.000000
0.248258 0.805267 1.000000
0.409144 0.797401 1.000000
0.584025 0.785890 1.000000
0.771324 0.771324 1.000000
0.965940 0.755438 1.000000
1.000000 0.741361 1.000000
0.000000 0.944496 1.000000
0.000000 0.951957 1.000000
0.084193 0.955404 1.000000
0.220619 0.954840 1.000000
0.371899 0.950273 1.000000
0.537992 0.941721 1.000000
0.718748 0.929249 1.000000
0.913230 0.913230 1.000000
1.000000 0.896238 1.000000
0.000000 1.000000 1.000000
0.000000 1.000000 1.000000
0.077219 1.000000 1.000000
0.203215 1.000000 1.000000
0.344099 1.000000 1.000000
0.499869 1.000000 1.000000
0.670526 1.000000 1.000000
0.856070 1.000000 1.000000
1.000000 1.000000 1.000000
