assets/presets/luts/vivid-pop/lut.cube
TITLE "Vivid Pop"
LUT_3D_SIZE 5
0.000000 0.000000 0.000000
0.317455 0.000000 0.000000
0.623411 0.000000 0.000000
0.874370 0.000000 0.000000
1.000000 0.000000 0.000000
0.000000 0.271639 0.000000
0.240179 0.240179 0.000000
0.530356 0.227604 0.000000
0.803704 0.226741 0.000000
1.000000 0.238611 0.000000
0.000000 0.565240 0.000000
0.158676 0.546933 0.000000
0.518670 0.518670 0.000000
0.787164 0.506085 0.000000
1.000000 0.513435 0.012826
0.000000 0.837303 0.000000
0.124599 0.832015 0.000000
0.461574 0.815281 0.000000
0.791973 0.791973 0.000000
1.000000 0.781472 0.000000
0.000000 1.000000 0.000000
0.143557 1.000000 0.000000
0.445076 1.000000 0.000000
0.760352 1.000000 0.000000
1.000000 1.000000 0.000000
0.000000 0.000000 0.362262
0.332298 0.000000 0.332298
0.676680 0.000000 0.288423
0.961727 0.000000 0.254324
1.000000 0.000000 0.234723
0.000000 0.261463 0.261463
0.231500 0.231500 0.231500
0.592455 0.208292 0.208292
0.898411 0.199934 0.199934
1.000000 0.206425 0.206425
0.000000 0.562834 0.174577
0.130701 0.546639 0.130701
0.515179 0.515179 0.119971
0.804176 0.502796 0.201416
1.000000 0.505808 0.228846
0.000000 0.843065 0.135650
0.083990 0.840240 0.083990
0.433676 0.821933 0.045419
0.793670 0.793670 0.075110
1.000000 0.780209 0.192364
0.000000 1.000000 0.149512
0.091366 1.000000 0.091366
0.399599 1.000000 0.045892
0.736574 1.000000 0.029159
1.000000 1.000000 0.096917
0.000000 0.000000 0.697859
0.304324 0.000000 0.692581
0.654010 0.000000 0.654010
0.956058 0.000000 0.602350
1.000000 0.000000 0.554512
0.000000 0.247401 0.635658
0.221324 0.221324 0.637262
0.607298 0.191361 0.607298
0.951680 0.175166 0.563423
1.000000 0.175618 0.529325
0.000000 0.550349 0.550349
0.120526 0.536463 0.536463
0.506500 0.506500 0.506500
0.867455 0.483292 0.483292
1.000000 0.474934 0.474934
0.000000 0.837382 0.483675
0.061320 0.837834 0.449577
0.405701 0.821639 0.405701
0.790179 0.790179 0.394971
1.000000 0.777237 0.471870
0.000000 1.000000 0.458488
0.056942 1.000000 0.410650
0.358990 1.000000 0.358990
0.708676 1.000000 0.320419
1.000000 1.000000 0.350110
0.000000 0.000000 0.963291
0.276426 0.000000 0.983841
0.613401 0.000000 0.967108
0.921634 0.000000 0.921634
1.000000 0.000000 0.863488
0.000000 0.236868 0.944283
0.216609 0.216609 0.972859
0.579324 0.191067 0.967581
0.929010 0.172760 0.929010
1.000000 0.169935 0.877350
0.000000 0.534284 0.887991
0.134144 0.522401 0.910658
0.496324 0.496324 0.912262
0.882299 0.466361 0.882299
1.000000 0.450166 0.838423
0.000000 0.823156 0.823156
0.069099 0.825349 0.825349
0.395526 0.811463 0.811463
0.781500 0.781500 0.781500
1.000000 0.758292 0.758292
0.000000 1.000000 0.778217
0.051260 1.000000 0.758675
0.336320 1.000000 0.724577
0.680701 1.000000 0.680701
1.000000 1.000000 0.669971
0.000000 0.000000 1.000000
0.252648 0.000000 1.000000
0.567924 0.000000 1.000000
0.869443 0.000000 1.000000
1.000000 0.000000 1.000000
0.000000 0.231330 1.000000
0.217353 0.217353 1.000000
0.551426 0.197719 1.000000
0.888401 0.180986 1.000000
1.000000 0.175697 1.000000
0.000000 0.519912 1.000000
0.158160 0.511868 1.000000
0.491609 0.491609 1.000000
0.854324 0.466067 1.000000
1.000000 0.447760 1.000000
0.000000 0.805490 1.000000
0.101869 0.809284 1.000000
0.409144 0.797401 1.000000
0.771324 0.771324 1.000000
1.000000 0.741361 1.000000
0.000000 1.000000 1.000000
0.077219 1.000000 1.000000
0.344099 1.000000 1.000000
0.670526 1.000000 1.000000
1.000000 1.000000 1.000000
