assets/presets/luts/rec709-legal/lut.cube
TITLE "Broadcast Safe"
LUT_3D_SIZE 17
0.062745 0.062745 0.062745
0.116422 0.062745 0.062745
0.170098 0.062745 0.062745
0.223775 0.062745 0.062745
0.277451 0.062745 0.062745
0.331127 0.062745 0.062745
0.384804 0.062745 0.062745
0.438480 0.062745 0.062745
0.492157 0.062745 0.062745
0.545833 0.062745 0.062745
0.599510 0.062745 0.062745
0.653186 0.062745 0.062745
0.706863 0.062745 0.062745
0.760539 0.062745 0.062745
0.814216 0.062745 0.062745
0.867892 0.062745 0.062745
0.921569 0.062745 0.062745
0.062745 0.116422 0.062745
0.116422 0.116422 0.062745
0.170098 0.116422 0.062745
0.223775 0.116422 0.062745
0.277451 0.116422 0.062745
0.331127 0.116422 0.062745
0.384804 0.116422 0.062745
0.438480 0.116422 0.062745
0.492157 0.116422 0.062745
0.545833 0.116422 0.062745
0.599510 0.116422 0.062745
0.653186 0.116422 0.062745
0.706863 0.116422 0.062745
0.760539 0.116422 0.062745
0.814216 0.116422 0.062745
0.867892 0.116422 0.062745
0.921569 0.116422 0.062745
0.062745 0.170098 0.062745
0.116422 0.170098 0.062745
0.170098 0.170098 0.062745
0.223775 0.170098 0.062745
0.277451 0.170098 0.062745
0.331127 0.170098 0.062745
0.384804 0.170098 0.062745
0.438480 0.170098 0.062745
0.492157 0.170098 0.062745
0.545833 0.170098 0.062745
0.599510 0.170098 0.062745
0.653186 0.170098 0.062745
0.706863 0.170098 0.062745
0.760539 0.170098 0.062745
0.814216 0.170098 0.062745
0.867892 0.170098 0.062745
0.921569 0.170098 0.062745
0.062745 0.223775 0.062745
0.116422 0.223775 0.062745
0.170098 0.223775 0.062745
0.223775 0.223775 0.062745
0.277451 0.223775 0.062745
0.331127 0.223775 0.062745
0.384804 0.223775 0.062745
0.438480 0.223775 0.062745
0.492157 0.223775 0.062745
0.545833 0.223775 0.062745
0.599510 0.223775 0.062745
0.653186 0.223775 0.062745
0.706863 0.223775 0.062745
0.760539 0.223775 0.062745
0.814216 0.223775 0.062745
0.867892 0.223775 0.062745
0.921569 0.223775 0.062745
0.062745 0.277451 0.062745
0.116422 0.277451 0.062745
0.170098 0.277451 0.062745
0.223775 0.277451 0.062745
0.277451 0.277451 0.062745
0.331127 0.277451 0.062745
0.384804 0.277451 0.062745
0.438480 0.277451 0.062745
0.492157 0.277451 0.062745
0.545833 0.277451 0.062745
0.599510 0.277451 0.062745
0.653186 0.277451 0.062745
0.706863 0.277451 0.062745
0.760539 0.277451 0.062745
0.814216 0.277451 0.062745
0.867892 0.277451 0.062745
0.921569 0.277451 0.062745
0.062745 0.331127 0.062745
0.116422 0.331127 0.062745
0.170098 0.331127 0.062745
0.223775 0.331127 0.062745
0.277451 0.331127 0.062745
0.331127 0.331127 0.062745
0.384804 0.331127 0.062745
0.438480 0.331127 0.062745
0.492157 0.331127 0.062745
0.545833 0.331127 0.062745
0.599510 0.331127 0.062745
0.653186 0.331127 0.062745
0.706863 0.331127 0.062745
0.760539 0.331127 0.062745
0.814216 0.331127 0.062745
0.867892 0.331127 0.062745
0.921569 0.331127 0.062745
0.062745 0.384804 0.062745
0.116422 0.384804 0.062745
0.170098 0.384804 0.062745
0.223775 0.384804 0.062745
0.277451 0.384804 0.062745
0.331127 0.384804 0.062745
0.384804 0.384804 0.062745
0.438480 0.384804 0.062745
0.492157 0.384804 0.062745
0.545833 0.384804 0.062745
0.599510 0.384804 0.062745
0.653186 0.384804 0.062745
0.706863 0.384804 0.062745
0.760539 0.384804 0.062745
0.814216 0.384804 0.062745
0.867892 0.384804 0.062745
0.921569 0.384804 0.062745
0.062745 0.438480 0.062745
0.116422 0.438480 0.062745
0.170098 0.438480 0.062745
0.223775 0.438480 0.062745
0.277451 0.438480 0.062745
0.331127 0.438480 0.062745
0.384804 0.438480 0.062745
0.438480 0.438480 0.062745
0.492157 0.438480 0.062745
0.545833 0.438480 0.062745
0.599510 0.438480 0.062745
0.653186 0.438480 0.062745
0.706863 0.438480 0.062745
0.760539 0.438480 0.062745
0.814216 0.438480 0.062745
0.867892 0.438480 0.062745
0.921569 0.438480 0.062745
0.062745 0.492157 0.062745
0.116422 0.492157 0.062745
0.170098 0.492157 0.062745
0.223775 0.492157 0.062745
0.277451 0.492157 0.062745
0.331127 0.492157 0.062745
0.384804 0.492157 0.062745
0.438480 0.492157 0.062745
0.492157 0.492157 0.062745
0.545833 0.492157 0.062745
0.599510 0.492157 0.062745
0.653186 0.492157 0.062745
0.706863 0.492157 0.062745
0.760539 0.492157 0.062745
0.814216 0.492157 0.062745
0.867892 0.492157 0.062745
0.921569 0.492157 0.062745
0.062745 0.545833 0.062745
0.116422 0.545833 0.062745
0.170098 0.545833 0.062745
0.223775 0.545833 0.062745
0.277451 0.545833 0.062745
0.331127 0.545833 0.062745
0.384804 0.545833 0.062745
0.438480 0.545833 0.062745
0.492157 0.545833 0.062745
0.545833 0.545833 0.062745
0.599510 0.545833 0.062745
0.653186 0.545833 0.062745
0.706863 0.545833 0.062745
0.760539 0.545833 0.062745
0.814216 0.545833 0.062745
0.867892 0.545833 0.062745
0.921569 0.545833 0.062745
0.062745 0.599510 0.062745
0.116422 0.599510 0.062745
0.170098 0.599510 0.062745
0.223775 0.599510 0.062745
0.277451 0.599510 0.062745
0.331127 0.599510 0.062745
0.384804 0.599510 0.062745
0.438480 0.599510 0.062745
0.492157 0.599510 0.062745
0.545833 0.599510 0.062745
0.599510 0.599510 0.062745
0.653186 0.599510 0.062745
0.706863 0.599510 0.062745
0.760539 0.599510 0.062745
0.814216 0.599510 0.062745
0.867892 0.599510 0.062745
0.921569 0.599510 0.062745
0.062745 0.653186 0.062745
0.116422 0.653186 0.062745
0.170098 0.653186 0.062745
0.223775 0.653186 0.062745
0.277451 0.653186 0.062745
0.331127 0.653186 0.062745
0.384804 0.653186 0.062745
0.438480 0.653186 0.062745
0.492157 0.653186 0.062745
0.545833 0.653186 0.062745
0.599510 0.653186 0.062745
0.653186 0.653186 0.062745
0.706863 0.653186 0.062745
0.760539 0.653186 0.062745
0.814216 0.653186 0.062745
0.867892 0.653186 0.062745
0.921569 0.653186 0.062745
0.062745 0.706863 0.062745
0.116422 0.706863 0.062745
0.170098 0.706863 0.062745
0.223775 0.706863 0.062745
0.277451 0.706863 0.062745
0.331127 0.706863 0.062745
0.384804 0.706863 0.062745
0.438480 0.706863 0.062745
0.492157 0.706863 0.062745
0.545833 0.706863 0.062745
0.599510 0.706863 0.062745
0.653186 0.706863 0.062745
0.706863 0.706863 0.062745
0.760539 0.706863 0.062745
0.814216 0.706863 0.062745
0.867892 0.706863 0.062745
0.921569 0.706863 0.062745
0.062745 0.760539 0.062745
0.116422 0.760539 0.062745
0.170098 0.760539 0.062745
0.223775 0.760539 0.062745
0.277451 0.760539 0.062745
0.331127 0.760539 0.062745
0.384804 0.760539 0.062745
0.438480 0.760539 0.062745
0.492157 0.760539 0.062745
0.545833 0.760539 0.062745
0.599510 0.760539 0.062745
0.653186 0.760539 0.062745
0.706863 0.760539 0.062745
0.760539 0.760539 0.062745
0.814216 0.760539 0.062745
0.867892 0.760539 0.062745
0.921569 0.760539 0.062745
0.062745 0.814216 0.062745
0.116422 0.814216 0.062745
0.170098 0.814216 0.062745
0.223775 0.814216 0.062745
0.277451 0.814216 0.062745
0.331127 0.814216 0.062745
0.384804 0.814216 0.062745
0.438480 0.814216 0.062745
0.492157 0.814216 0.062745
0.545833 0.814216 0.062745
0.599510 0.814216 0.062745
0.653186 0.814216 0.062745
0.706863 0.814216 0.062745
0.760539 0.814216 0.062745
0.814216 0.814216 0.062745
0.867892 0.814216 0.062745
0.921569 0.814216 0.062745
0.062745 0.867892 0.062745
0.116422 0.867892 0.062745
0.170098 0.867892 0.062745
0.223775 0.867892 0.062745
0.277451 0.867892 0.062745
0.331127 0.867892 0.062745
0.384804 0.867892 0.062745
0.438480 0.867892 0.062745
0.492157 0.867892 0.062745
0.545833 0.867892 0.062745
0.599510 0.867892 0.062745
0.653186 0.867892 0.062745
0.706863 0.867892 0.062745
0.760539 0.867892 0.062745
0.814216 0.867892 0.062745
0.867892 0.867892 0.062745
0.921569 0.867892 0.062745
0.062745 0.921569 0.062745
0.116422 0.921569 0.062745
0.170098 0.921569 0.062745
0.223775 0.921569 0.062745
0.277451 0.921569 0.062745
0.331127 0.921569 0.062745
0.384804 0.921569 0.062745
0.438480 0.921569 0.062745
0.492157 0.921569 0.062745
0.545833 0.921569 0.062745
0.599510 0.921569 0.062745
0.653186 0.921569 0.062745
0.706863 0.921569 0.062745
0.760539 0.921569 0.062745
0.814216 0.921569 0.062745
0.867892 0.921569 0.062745
0.921569 0.921569 0.062745
0.062745 0.062745 0.116422
0.116422 0.062745 0.116422
0.170098 0.062745 0.116422
0.223775 0.062745 0.116422
0.277451 0.062745 0.116422
0.331127 0.062745 0.116422
0.384804 0.062745 0.116422
0.438480 0.062745 0.116422
0.492157 0.062745 0.116422
0.545833 0.062745 0.116422
0.599510 0.062745 0.116422
0.653186 0.062745 0.116422
0.706863 0.062745 0.116422
0.760539 0.062745 0.116422
0.814216 0.062745 0.116422
0.867892 0.062745 0.116422
0.921569 0.062745 0.116422
0.062745 0.116422 0.116422
0.116422 0.116422 0.116422
0.170098 0.116422 0.116422
0.223775 0.116422 0.116422
0.277451 0.116422 0.116422
0.331127 0.116422 0.116422
0.384804 0.116422 0.116422
0.438480 0.116422 0.116422
0.492157 0.116422 0.116422
0.545833 0.116422 0.116422
0.599510 0.116422 0.116422
0.653186 0.116422 0.116422
0.706863 0.116422 0.116422
0.760539 0.116422 0.116422
0.814216 0.116422 0.116422
0.867892 0.116422 0.116422
0.921569 0.116422 0.116422
0.062745 0.170098 0.116422
0.116422 0.170098 0.116422
0.170098 0.170098 0.116422
0.223775 0.170098 0.116422
0.277451 0.170098 0.116422
0.331127 0.170098 0.116422
0.384804 0.170098 0.116422
0.438480 0.170098 0.116422
0.492157 0.170098 0.116422
0.545833 0.170098 0.116422
0.599510 0.170098 0.116422
0.653186 0.170098 0.116422
0.706863 0.170098 0.116422
0.760539 0.170098 0.116422
0.814216 0.170098 0.116422
0.867892 0.170098 0.116422
0.921569 0.170098 0.116422
0.062745 0.223775 0.116422
0.116422 0.223775 0.116422
0.170098 0.223775 0.116422
0.223775 0.223775 0.116422
0.277451 0.223775 0.116422
0.331127 0.223775 0.116422
0.384804 0.223775 0.116422
0.438480 0.223775 0.116422
0.492157 0.223775 0.116422
0.545833 0.223775 0.116422
0.599510 0.223775 0.116422
0.653186 0.223775 0.116422
0.706863 0.223775 0.116422
0.760539 0.223775 0.116422
0.814216 0.223775 0.116422
0.867892 0.223775 0.116422
0.921569 0.223775 0.116422
0.062745 0.277451 0.116422
0.116422 0.277451 0.116422
0.170098 0.277451 0.116422
0.223775 0.277451 0.116422
0.277451 0.277451 0.116422
0.331127 0.277451 0.116422
0.384804 0.277451 0.116422
0.438480 0.277451 0.116422
0.492157 0.277451 0.116422
0.545833 0.277451 0.116422
0.599510 0.277451 0.116422
0.653186 0.277451 0.116422
0.706863 0.277451 0.116422
0.760539 0.277451 0.116422
0.814216 0.277451 0.116422
0.867892 0.277451 0.116422
0.921569 0.277451 0.116422
0.062745 0.331127 0.116422
0.116422 0.331127 0.116422
0.170098 0.331127 0.116422
0.223775 0.331127 0.116422
0.277451 0.331127 0.116422
0.331127 0.331127 0.116422
0.384804 0.331127 0.116422
0.438480 0.331127 0.116422
0.492157 0.331127 0.116422
0.545833 0.331127 0.116422
0.599510 0.331127 0.116422
0.653186 0.331127 0.116422
0.706863 0.331127 0.116422
0.760539 0.331127 0.116422
0.814216 0.331127 0.116422
0.867892 0.331127 0.116422
0.921569 0.331127 0.116422
0.062745 0.384804 0.116422
0.116422 0.384804 0.116422
0.170098 0.384804 0.116422
0.223775 0.384804 0.116422
0.277451 0.384804 0.116422
0.331127 0.384804 0.116422
0.384804 0.384804 0.116422
0.438480 0.384804 0.116422
0.492157 0.384804 0.116422
0.545833 0.384804 0.116422
0.599510 0.384804 0.116422
0.653186 0.384804 0.116422
0.706863 0.384804 0.116422
0.760539 0.384804 0.116422
0.814216 0.384804 0.116422
0.867892 0.384804 0.116422
0.921569 0.384804 0.116422
0.062745 0.438480 0.116422
0.116422 0.438480 0.116422
0.170098 0.438480 0.116422
0.223775 0.438480 0.116422
0.277451 0.438480 0.116422
0.331127 0.438480 0.116422
0.384804 0.438480 0.116422
0.438480 0.438480 0.116422
0.492157 0.438480 0.116422
0.545833 0.438480 0.116422
0.599510 0.438480 0.116422
0.653186 0.438480 0.116422
0.706863 0.438480 0.116422
0.760539 0.438480 0.116422
0.814216 0.438480 0.116422
0.867892 0.438480 0.116422
0.921569 0.438480 0.116422
0.062745 0.492157 0.116422
0.116422 0.492157 0.116422
0.170098 0.492157 0.116422
0.223775 0.492157 0.116422
0.277451 0.492157 0.116422
0.331127 0.492157 0.116422
0.384804 0.492157 0.116422
0.438480 0.492157 0.116422
0.492157 0.492157 0.116422
0.545833 0.492157 0.116422
0.599510 0.492157 0.116422
0.653186 0.492157 0.116422
0.706863 0.492157 0.116422
0.760539 0.492157 0.116422
0.814216 0.492157 0.116422
0.867892 0.492157 0.116422
0.921569 0.492157 0.116422
0.062745 0.545833 0.116422
0.116422 0.545833 0.116422
0.170098 0.545833 0.116422
0.223775 0.545833 0.116422
0.277451 0.545833 0.116422
0.331127 0.545833 0.116422
0.384804 0.545833 0.116422
0.438480 0.545833 0.116422
0.492157 0.545833 0.116422
0.545833 0.545833 0.116422
0.599510 0.545833 0.116422
0.653186 0.545833 0.116422
0.706863 0.545833 0.116422
0.760539 0.545833 0.116422
0.814216 0.545833 0.116422
0.867892 0.545833 0.116422
0.921569 0.545833 0.116422
0.062745 0.599510 0.116422
0.116422 0.599510 0.116422
0.170098 0.599510 0.116422
0.223775 0.599510 0.116422
0.277451 0.599510 0.116422
0.331127 0.599510 0.116422
0.384804 0.599510 0.116422
0.438480 0.599510 0.116422
0.492157 0.599510 0.116422
0.545833 0.599510 0.116422
0.599510 0.599510 0.116422
0.653186 0.599510 0.116422
0.706863 0.599510 0.116422
0.760539 0.599510 0.116422
0.814216 0.599510 0.116422
0.867892 0.599510 0.116422
0.921569 0.599510 0.116422
0.062745 0.653186 0.116422
0.116422 0.653186 0.116422
0.170098 0.653186 0.116422
0.223775 0.653186 0.116422
0.277451 0.653186 0.116422
0.331127 0.653186 0.116422
0.384804 0.653186 0.116422
0.438480 0.653186 0.116422
0.492157 0.653186 0.116422
0.545833 0.653186 0.116422
0.599510 0.653186 0.116422
0.653186 0.653186 0.116422
0.706863 0.653186 0.116422
0.760539 0.653186 0.116422
0.814216 0.653186 0.116422
0.867892 0.653186 0.116422
0.921569 0.653186 0.116422
0.062745 0.706863 0.116422
0.116422 0.706863 0.116422
0.170098 0.706863 0.116422
0.223775 0.706863 0.116422
0.277451 0.706863 0.116422
0.331127 0.706863 0.116422
0.384804 0.706863 0.116422
0.438480 0.706863 0.116422
0.492157 0.706863 0.116422
0.545833 0.706863 0.116422
0.599510 0.706863 0.116422
0.653186 0.706863 0.116422
0.706863 0.706863 0.116422
0.760539 0.706863 0.116422
0.814216 0.706863 0.116422
0.867892 0.706863 0.116422
0.921569 0.706863 0.116422
0.062745 0.760539 0.116422
0.116422 0.760539 0.116422
0.170098 0.760539 0.116422
0.223775 0.760539 0.116422
0.277451 0.760539 0.116422
0.331127 0.760539 0.116422
0.384804 0.760539 0.116422
0.438480 0.760539 0.116422
0.492157 0.760539 0.116422
0.545833 0.760539 0.116422
0.599510 0.760539 0.116422
0.653186 0.760539 0.116422
0.706863 0.760539 0.116422
0.760539 0.760539 0.116422
0.814216 0.760539 0.116422
0.867892 0.760539 0.116422
0.921569 0.760539 0.116422
0.062745 0.814216 0.116422
0.116422 0.814216 0.116422
0.170098 0.814216 0.116422
0.223775 0.814216 0.116422
0.277451 0.814216 0.116422
0.331127 0.814216 0.116422
0.384804 0.814216 0.116422
0.438480 0.814216 0.116422
0.492157 0.814216 0.116422
0.545833 0.814216 0.116422
0.599510 0.814216 0.116422
0.653186 0.814216 0.116422
0.706863 0.814216 0.116422
0.760539 0.814216 0.116422
0.814216 0.814216 0.116422
0.867892 0.814216 0.116422
0.921569 0.814216 0.116422
0.062745 0.867892 0.116422
0.116422 0.867892 0.116422
0.170098 0.867892 0.116422
0.223775 0.867892 0.116422
0.277451 0.867892 0.116422
0.331127 0.867892 0.116422
0.384804 0.867892 0.116422
0.438480 0.867892 0.116422
0.492157 0.867892 0.116422
0.545833 0.867892 0.116422
0.599510 0.867892 0.116422
0.653186 0.867892 0.116422
0.706863 0.867892 0.116422
0.760539 0.867892 0.116422
0.814216 0.867892 0.116422
0.867892 0.867892 0.116422
0.921569 0.867892 0.116422
0.062745 0.921569 0.116422
0.116422 0.921569 0.116422
0.170098 0.921569 0.116422
0.223775 0.921569 0.116422
0.277451 0.921569 0.116422
0.331127 0.921569 0.116422
0.384804 0.921569 0.116422
0.438480 0.921569 0.116422
0.492157 0.921569 0.116422
0.545833 0.921569 0.116422
0.599510 0.921569 0.116422
0.653186 0.921569 0.116422
0.706863 0.921569 0.116422
0.760539 0.921569 0.116422
0.814216 0.921569 0.116422
0.867892 0.921569 0.116422
0.921569 0.921569 0.116422
0.062745 0.062745 0.170098
0.116422 0.062745 0.170098
0.170098 0.062745 0.170098
0.223775 0.062745 0.170098
0.277451 0.062745 0.170098
0.331127 0.062745 0.170098
0.384804 0.062745 0.170098
0.438480 0.062745 0.170098
0.492157 0.062745 0.170098
0.545833 0.062745 0.170098
0.599510 0.062745 0.170098
0.653186 0.062745 0.170098
0.706863 0.062745 0.170098
0.760539 0.062745 0.170098
0.814216 0.062745 0.170098
0.867892 0.062745 0.170098
0.921569 0.062745 0.170098
0.062745 0.116422 0.170098
0.116422 0.116422 0.170098
0.170098 0.116422 0.170098
0.223775 0.116422 0.170098
0.277451 0.116422 0.170098
0.331127 0.116422 0.170098
0.384804 0.116422 0.170098
0.438480 0.116422 0.170098
0.492157 0.116422 0.170098
0.545833 0.116422 0.170098
0.599510 0.116422 0.170098
0.653186 0.116422 0.170098
0.706863 0.116422 0.170098
0.760539 0.116422 0.170098
0.814216 0.116422 0.170098
0.867892 0.116422 0.170098
0.921569 0.116422 0.170098
0.062745 0.170098 0.170098
0.116422 0.170098 0.170098
0.170098 0.170098 0.170098
0.223775 0.170098 0.170098
0.277451 0.170098 0.170098
0.331127 0.170098 0.170098
0.384804 0.170098 0.170098
0.438480 0.170098 0.170098
0.492157 0.170098 0.170098
0.545833 0.170098 0.170098
0.599510 0.170098 0.170098
0.653186 0.170098 0.170098
0.706863 0.170098 0.170098
0.760539 0.170098 0.170098
0.814216 0.170098 0.170098
0.867892 0.170098 0.170098
0.921569 0.170098 0.170098
0.062745 0.223775 0.170098
0.116422 0.223775 0.170098
0.170098 0.223775 0.170098
0.223775 0.223775 0.170098
0.277451 0.223775 0.170098
0.331127 0.223775 0.170098
0.384804 0.223775 0.170098
0.438480 0.223775 0.170098
0.492157 0.223775 0.170098
0.545833 0.223775 0.170098
0.599510 0.223775 0.170098
0.653186 0.223775 0.170098
0.706863 0.223775 0.170098
0.760539 0.223775 0.170098
0.814216 0.223775 0.170098
0.867892 0.223775 0.170098
0.921569 0.223775 0.170098
0.062745 0.277451 0.170098
0.116422 0.277451 0.170098
0.170098 0.277451 0.170098
0.223775 0.277451 0.170098
0.277451 0.277451 0.170098
0.331127 0.277451 0.170098
0.384804 0.277451 0.170098
0.438480 0.277451 0.170098
0.492157 0.277451 0.170098
0.545833 0.277451 0.170098
0.599510 0.277451 0.170098
0.653186 0.277451 0.170098
0.706863 0.277451 0.170098
0.760539 0.277451 0.170098
0.814216 0.277451 0.170098
0.867892 0.277451 0.170098
0.921569 0.277451 0.170098
0.062745 0.331127 0.170098
0.116422 0.331127 0.170098
0.170098 0.331127 0.170098
0.223775 0.331127 0.170098
0.277451 0.331127 0.170098
0.331127 0.331127 0.170098
0.384804 0.331127 0.170098
0.438480 0.331127 0.170098
0.492157 0.331127 0.170098
0.545833 0.331127 0.170098
0.599510 0.331127 0.170098
0.653186 0.331127 0.170098
0.706863 0.331127 0.170098
0.760539 0.331127 0.170098
0.814216 0.331127 0.170098
0.867892 0.331127 0.170098
0.921569 0.331127 0.170098
0.062745 0.384804 0.170098
0.116422 0.384804 0.170098
0.170098 0.384804 0.170098
0.223775 0.384804 0.170098
0.277451 0.384804 0.170098
0.331127 0.384804 0.170098
0.384804 0.384804 0.170098
0.438480 0.384804 0.170098
0.492157 0.384804 0.170098
0.545833 0.384804 0.170098
0.599510 0.384804 0.170098
0.653186 0.384804 0.170098
0.706863 0.384804 0.170098
0.760539 0.384804 0.170098
0.814216 0.384804 0.170098
0.867892 0.384804 0.170098
0.921569 0.384804 0.170098
0.062745 0.438480 0.170098
0.116422 0.438480 0.170098
0.170098 0.438480 0.170098
0.223775 0.438480 0.170098
0.277451 0.438480 0.170098
0.331127 0.438480 0.170098
0.384804 0.438480 0.170098
0.438480 0.438480 0.170098
0.492157 0.438480 0.170098
0.545833 0.438480 0.170098
0.599510 0.438480 0.170098
0.653186 0.438480 0.170098
0.706863 0.438480 0.170098
0.760539 0.438480 0.170098
0.814216 0.438480 0.170098
0.867892 0.438480 0.170098
0.921569 0.438480 0.170098
0.062745 0.492157 0.170098
0.116422 0.492157 0.170098
0.170098 0.492157 0.170098
0.223775 0.492157 0.170098
0.277451 0.492157 0.170098
0.331127 0.492157 0.170098
0.384804 0.492157 0.170098
0.438480 0.492157 0.170098
0.492157 0.492157 0.170098
0.545833 0.492157 0.170098
0.599510 0.492157 0.170098
0.653186 0.492157 0.170098
0.706863 0.492157 0.170098
0.760539 0.492157 0.170098
0.814216 0.492157 0.170098
0.867892 0.492157 0.170098
0.921569 0.492157 0.170098
0.062745 0.545833 0.170098
0.116422 0.545833 0.170098
0.170098 0.545833 0.170098
0.223775 0.545833 0.170098
0.277451 0.545833 0.170098
0.331127 0.545833 0.170098
0.384804 0.545833 0.170098
0.438480 0.545833 0.170098
0.492157 0.545833 0.170098
0.545833 0.545833 0.170098
0.599510 0.545833 0.170098
0.653186 0.545833 0.170098
0.706863 0.545833 0.170098
0.760539 0.545833 0.170098
0.814216 0.545833 0.170098
0.867892 0.545833 0.170098
0.921569 0.545833 0.170098
0.062745 0.599510 0.170098
0.116422 0.599510 0.170098
0.170098 0.599510 0.170098
0.223775 0.599510 0.170098
0.277451 0.599510 0.170098
0.331127 0.599510 0.170098
0.384804 0.599510 0.170098
0.438480 0.599510 0.170098
0.492157 0.599510 0.170098
0.545833 0.599510 0.170098
0.599510 0.599510 0.170098
0.653186 0.599510 0.170098
0.706863 0.599510 0.170098
0.760539 0.599510 0.170098
0.814216 0.599510 0.170098
0.867892 0.599510 0.170098
0.921569 0.599510 0.170098
0.062745 0.653186 0.170098
0.116422 0.653186 0.170098
0.170098 0.653186 0.170098
0.223775 0.653186 0.170098
0.277451 0.653186 0.170098
0.331127 0.653186 0.170098
0.384804 0.653186 0.170098
0.438480 0.653186 0.170098
0.492157 0.653186 0.170098
0.545833 0.653186 0.170098
0.599510 0.653186 0.170098
0.653186 0.653186 0.170098
0.706863 0.653186 0.170098
0.760539 0.653186 0.170098
0.814216 0.653186 0.170098
0.867892 0.653186 0.170098
0.921569 0.653186 0.170098
0.062745 0.706863 0.170098
0.116422 0.706863 0.170098
0.170098 0.706863 0.170098
0.223775 0.706863 0.170098
0.277451 0.706863 0.170098
0.331127 0.706863 0.170098
0.384804 0.706863 0.170098
0.438480 0.706863 0.170098
0.492157 0.706863 0.170098
0.545833 0.706863 0.170098
0.599510 0.706863 0.170098
0.653186 0.706863 0.170098
0.706863 0.706863 0.170098
0.760539 0.706863 0.170098
0.814216 0.706863 0.170098
0.867892 0.706863 0.170098
0.921569 0.706863 0.170098
0.062745 0.760539 0.170098
0.116422 0.760539 0.170098
0.170098 0.760539 0.170098
0.223775 0.760539 0.170098
0.277451 0.760539 0.170098
0.331127 0.760539 0.170098
0.384804 0.760539 0.170098
0.438480 0.760539 0.170098
0.492157 0.760539 0.170098
0.545833 0.760539 0.170098
0.599510 0.760539 0.170098
0.653186 0.760539 0.170098
0.706863 0.760539 0.170098
0.760539 0.760539 0.170098
0.814216 0.760539 0.170098
0.867892 0.760539 0.170098
0.921569 0.760539 0.170098
0.062745 0.814216 0.170098
0.116422 0.814216 0.170098
0.170098 0.814216 0.170098
0.223775 0.814216 0.170098
0.277451 0.814216 0.170098
0.331127 0.814216 0.170098
0.384804 0.814216 0.170098
0.438480 0.814216 0.170098
0.492157 0.814216 0.170098
0.545833 0.814216 0.170098
0.599510 0.814216 0.170098
0.653186 0.814216 0.170098
0.706863 0.814216 0.170098
0.760539 0.814216 0.170098
0.814216 0.814216 0.170098
0.867892 0.814216 0.170098
0.921569 0.814216 0.170098
0.062745 0.867892 0.170098
0.116422 0.867892 0.170098
0.170098 0.867892 0.170098
0.223775 0.867892 0.170098
0.277451 0.867892 0.170098
0.331127 0.867892 0.170098
0.384804 0.867892 0.170098
0.438480 0.867892 0.170098
0.492157 0.867892 0.170098
0.545833 0.867892 0.170098
0.599510 0.867892 0.170098
0.653186 0.867892 0.170098
0.706863 0.867892 0.170098
0.760539 0.867892 0.170098
0.814216 0.867892 0.170098
0.867892 0.867892 0.170098
0.921569 0.867892 0.170098
0.062745 0.921569 0.170098
0.116422 0.921569 0.170098
0.170098 0.921569 0.170098
0.223775 0.921569 0.170098
0.277451 0.921569 0.170098
0.331127 0.921569 0.170098
0.384804 0.921569 0.170098
0.438480 0.921569 0.170098
0.492157 0.921569 0.170098
0.545833 0.921569 0.170098
0.599510 0.921569 0.170098
0.653186 0.921569 0.170098
0.706863 0.921569 0.170098
0.760539 0.921569 0.170098
0.814216 0.921569 0.170098
0.867892 0.921569 0.170098
0.921569 0.921569 0.170098
0.062745 0.062745 0.223775
0.116422 0.062745 0.223775
0.170098 0.062745 0.223775
0.223775 0.062745 0.223775
0.277451 0.062745 0.223775
0.331127 0.062745 0.223775
0.384804 0.062745 0.223775
0.438480 0.062745 0.223775
0.492157 0.062745 0.223775
0.545833 0.062745 0.223775
0.599510 0.062745 0.223775
0.653186 0.062745 0.223775
0.706863 0.062745 0.223775
0.760539 0.062745 0.223775
0.814216 0.062745 0.223775
0.867892 0.062745 0.223775
0.921569 0.062745 0.223775
0.062745 0.116422 0.223775
0.116422 0.116422 0.223775
0.170098 0.116422 0.223775
