assets/presets/luts/rec709-legal/lut.cube
TITLE "Broadcast Safe"
LUT_3D_SIZE 5
0.062745 0.062745 0.062745
0.277451 0.062745 0.062745
0.492157 0.062745 0.062745
0.706863 0.062745 0.062745
0.921569 0.062745 0.062745
0.062745 0.277451 0.062745
0.277451 0.277451 0.062745
0.492157 0.277451 0.062745
0.706863 0.277451 0.062745
0.921569 0.277451 0.062745
0.062745 0.492157 0.062745
0.277451 0.492157 0.062745
0.492157 0.492157 0.062745
0.706863 0.492157 0.062745
0.921569 0.492157 0.062745
0.062745 0.706863 0.062745
0.277451 0.706863 0.062745
0.492157 0.706863 0.062745
0.706863 0.706863 0.062745
0.921569 0.706863 0.062745
0.062745 0.921569 0.062745
0.277451 0.921569 0.062745
0.492157 0.921569 0.062745
0.706863 0.921569 0.062745
0.921569 0.921569 0.062745
0.062745 0.062745 0.277451
0.277451 0.062745 0.277451
0.492157 0.062745 0.277451
0.706863 0.062745 0.277451
0.921569 0.062745 0.277451
0.062745 0.277451 0.277451
0.277451 0.277451 0.277451
0.492157 0.277451 0.277451
0.706863 0.277451 0.277451
0.921569 0.277451 0.277451
0.062745 0.492157 0.277451
0.277451 0.492157 0.277451
0.492157 0.492157 0.277451
0.706863 0.492157 0.277451
0.921569 0.492157 0.277451
0.062745 0.706863 0.277451
0.277451 0.706863 0.277451
0.492157 0.706863 0.277451
0.706863 0.706863 0.277451
0.921569 0.706863 0.277451
0.062745 0.921569 0.277451
0.277451 0.921569 0.277451
0.492157 0.921569 0.277451
0.706863 0.921569 0.277451
0.921569 0.921569 0.277451
0.062745 0.062745 0.492157
0.277451 0.062745 0.492157
0.492157 0.062745 0.492157
0.706863 0.062745 0.492157
0.921569 0.062745 0.492157
0.062745 0.277451 0.492157
0.277451 0.277451 0.492157
0.492157 0.277451 0.492157
0.706863 0.277451 0.492157
0.921569 0.277451 0.492157
0.062745 0.492157 0.492157
0.277451 0.492157 0.492157
0.492157 0.492157 0.492157
0.706863 0.492157 0.492157
0.921569 0.492157 0.492157
0.062745 0.706863 0.492157
0.277451 0.706863 0.492157
0.492157 0.706863 0.492157
0.706863 0.706863 0.492157
0.921569 0.706863 0.492157
0.062745 0.921569 0.492157
0.277451 0.921569 0.492157
0.492157 0.921569 0.492157
0.706863 0.921569 0.492157
0.921569 0.921569 0.492157
0.062745 0.062745 0.706863
0.277451 0.062745 0.706863
0.492157 0.062745 0.706863
0.706863 0.062745 0.706863
0.921569 0.062745 0.706863
0.062745 0.277451 0.706863
0.277451 0.277451 0.706863
0.492157 0.277451 0.706863
0.706863 0.277451 0.706863
0.921569 0.277451 0.706863
0.062745 0.492157 0.706863
0.277451 0.492157 0.706863
0.492157 0.492157 0.706863
0.706863 0.492157 0.706863
0.921569 0.492157 0.706863
0.062745 0.706863 0.706863
0.277451 0.706863 0.706863
0.492157 0.706863 0.706863
0.706863 0.706863 0.706863
0.921569 0.706863 0.706863
0.062745 0.921569 0.706863
0.277451 0.921569 0.706863
0.492157 0.921569 0.706863
0.706863 0.921569 0.706863
0.921569 0.921569 0.706863
0.062745 0.062745 0.921569
0.277451 0.062745 0.921569
0.492157 0.062745 0.921569
0.706863 0.062745 0.921569
0.921569 0.062745 0.921569
0.062745 0.277451 0.921569
0.277451 0.277451 0.921569
0.492157 0.277451 0.921569
0.706863 0.277451 0.921569
0.921569 0.277451 0.921569
0.062745 0.492157 0.921569
0.277451 0.492157 0.921569
0.492157 0.492157 0.921569
0.706863 0.492157 0.921569
0.921569 0.492157 0.921569
0.062745 0.706863 0.921569
0.277451 0.706863 0.921569
0.492157 0.706863 0.921569
0.706863 0.706863 0.921569
0.921569 0.706863 0.921569
0.062745 0.921569 0.921569
0.277451 0.921569 0.921569
0.492157 0.921569 0.921569
0.706863 0.921569 0.921569
0.921569 0.921569 0.921569
