assets/presets/luts/rec709-legal/lut.cube
TITLE "Broadcast Safe"
LUT_3D_SIZE 9
0.062745 0.062745 0.062745
0.170098 0.062745 0.062745
0.277451 0.062745 0.062745
0.384804 0.062745 0.062745
0.492157 0.062745 0.062745
0.599510 0.062745 0.062745
0.706863 0.062745 0.062745
0.814216 0.062745 0.062745
0.921569 0.062745 0.062745
0.062745 0.170098 0.062745
0.170098 0.170098 0.062745
0.277451 0.170098 0.062745
0.384804 0.170098 0.062745
0.492157 0.170098 0.062745
0.599510 0.170098 0.062745
0.706863 0.170098 0.062745
0.814216 0.170098 0.062745
0.921569 0.170098 0.062745
0.062745 0.277451 0.062745
0.170098 0.277451 0.062745
0.277451 0.277451 0.062745
0.384804 0.277451 0.062745
0.492157 0.277451 0.062745
0.599510 0.277451 0.062745
0.706863 0.277451 0.062745
0.814216 0.277451 0.062745
0.921569 0.277451 0.062745
0.062745 0.384804 0.062745
0.170098 0.384804 0.062745
0.277451 0.384804 0.062745
0.384804 0.384804 0.062745
0.492157 0.384804 0.062745
0.599510 0.384804 0.062745
0.706863 0.384804 0.062745
0.814216 0.384804 0.062745
0.921569 0.384804 0.062745
0.062745 0.492157 0.062745
0.170098 0.492157 0.062745
0.277451 0.492157 0.062745
0.384804 0.492157 0.062745
0.492157 0.492157 0.062745
0.599510 0.492157 0.062745
0.706863 0.492157 0.062745
0.814216 0.492157 0.062745
0.921569 0.492157 0.062745
0.062745 0.599510 0.062745
0.170098 0.599510 0.062745
0.277451 0.599510 0.062745
0.384804 0.599510 0.062745
0.492157 0.599510 0.062745
0.599510 0.599510 0.062745
0.706863 0.599510 0.062745
0.814216 0.599510 0.062745
0.921569 0.599510 0.062745
0.062745 0.706863 0.062745
0.170098 0.706863 0.062745
0.277451 0.706863 0.062745
0.384804 0.706863 0.062745
0.492157 0.706863 0.062745
0.599510 0.706863 0.062745
0.706863 0.706863 0.062745
0.814216 0.706863 0.062745
0.921569 0.706863 0.062745
0.062745 0.814216 0.062745
0.170098 0.814216 0.062745
0.277451 0.814216 0.062745
0.384804 0.814216 0.062745
0.492157 0.814216 0.062745
0.599510 0.814216 0.062745
0.706863 0.814216 0.062745
0.814216 0.814216 0.062745
0.921569 0.814216 0.062745
0.062745 0.921569 0.062745
0.170098 0.921569 0.062745
0.277451 0.921569 0.062745
0.384804 0.921569 0.062745
0.492157 0.921569 0.062745
0.599510 0.921569 0.062745
0.706863 0.921569 0.062745
0.814216 0.921569 0.062745
0.921569 0.921569 0.062745
0.062745 0.062745 0.170098
0.170098 0.062745 0.170098
0.277451 0.062745 0.170098
0.384804 0.062745 0.170098
0.492157 0.062745 0.170098
0.599510 0.062745 0.170098
0.706863 0.062745 0.170098
0.814216 0.062745 0.170098
0.921569 0.062745 0.170098
0.062745 0.170098 0.170098
0.170098 0.170098 0.170098
0.277451 0.170098 0.170098
0.384804 0.170098 0.170098
0.492157 0.170098 0.170098
0.599510 0.170098 0.170098
0.706863 0.170098 0.170098
0.814216 0.170098 0.170098
0.921569 0.170098 0.170098
0.062745 0.277451 0.170098
0.170098 0.277451 0.170098
0.277451 0.277451 0.170098
0.384804 0.277451 0.170098
0.492157 0.277451 0.170098
0.599510 0.277451 0.170098
0.706863 0.277451 0.170098
0.814216 0.277451 0.170098
0.921569 0.277451 0.170098
0.062745 0.384804 0.170098
0.170098 0.384804 0.170098
0.277451 0.384804 0.170098
0.384804 0.384804 0.170098
0.492157 0.384804 0.170098
0.599510 0.384804 0.170098
0.706863 0.384804 0.170098
0.814216 0.384804 0.170098
0.921569 0.384804 0.170098
0.062745 0.492157 0.170098
0.170098 0.492157 0.170098
0.277451 0.492157 0.170098
0.384804 0.492157 0.170098
0.492157 0.492157 0.170098
0.599510 0.492157 0.170098
0.706863 0.492157 0.170098
0.814216 0.492157 0.170098
0.921569 0.492157 0.170098
0.062745 0.599510 0.170098
0.170098 0.599510 0.170098
0.277451 0.599510 0.170098
0.384804 0.599510 0.170098
0.492157 0.599510 0.170098
0.599510 0.599510 0.170098
0.706863 0.599510 0.170098
0.814216 0.599510 0.170098
0.921569 0.599510 0.170098
0.062745 0.706863 0.170098
0.170098 0.706863 0.170098
0.277451 0.706863 0.170098
0.384804 0.706863 0.170098
0.492157 0.706863 0.170098
0.599510 0.706863 0.170098
0.706863 0.706863 0.170098
0.814216 0.706863 0.170098
0.921569 0.706863 0.170098
0.062745 0.814216 0.170098
0.170098 0.814216 0.170098
0.277451 0.814216 0.170098
0.384804 0.814216 0.170098
0.492157 0.814216 0.170098
0.599510 0.814216 0.170098
0.706863 0.814216 0.170098
0.814216 0.814216 0.170098
0.921569 0.814216 0.170098
0.062745 0.921569 0.170098
0.170098 0.921569 0.170098
0.277451 0.921569 0.170098
0.384804 0.921569 0.170098
0.492157 0.921569 0.170098
0.599510 0.921569 0.170098
0.706863 0.921569 0.170098
0.814216 0.921569 0.170098
0.921569 0.921569 0.170098
0.062745 0.062745 0.277451
0.170098 0.062745 0.277451
0.277451 0.062745 0.277451
0.384804 0.062745 0.277451
0.492157 0.062745 0.277451
0.599510 0.062745 0.277451
0.706863 0.062745 0.277451
0.814216 0.062745 0.277451
0.921569 0.062745 0.277451
0.062745 0.170098 0.277451
0.170098 0.170098 0.277451
0.277451 0.170098 0.277451
0.384804 0.170098 0.277451
0.492157 0.170098 0.277451
0.599510 0.170098 0.277451
0.706863 0.170098 0.277451
0.814216 0.170098 0.277451
0.921569 0.170098 0.277451
0.062745 0.277451 0.277451
0.170098 0.277451 0.277451
0.277451 0.277451 0.277451
0.384804 0.277451 0.277451
0.492157 0.277451 0.277451
0.599510 0.277451 0.277451
0.706863 0.277451 0.277451
0.814216 0.277451 0.277451
0.921569 0.277451 0.277451
0.062745 0.384804 0.277451
0.170098 0.384804 0.277451
0.277451 0.384804 0.277451
0.384804 0.384804 0.277451
0.492157 0.384804 0.277451
0.599510 0.384804 0.277451
0.706863 0.384804 0.277451
0.814216 0.384804 0.277451
0.921569 0.384804 0.277451
0.062745 0.492157 0.277451
0.170098 0.492157 0.277451
0.277451 0.492157 0.277451
0.384804 0.492157 0.277451
0.492157 0.492157 0.277451
0.599510 0.492157 0.277451
0.706863 0.492157 0.277451
0.814216 0.492157 0.277451
0.921569 0.492157 0.277451
0.062745 0.599510 0.277451
0.170098 0.599510 0.277451
0.277451 0.599510 0.277451
0.384804 0.599510 0.277451
0.492157 0.599510 0.277451
0.599510 0.599510 0.277451
0.706863 0.599510 0.277451
0.814216 0.599510 0.277451
0.921569 0.599510 0.277451
0.062745 0.706863 0.277451
0.170098 0.706863 0.277451
0.277451 0.706863 0.277451
0.384804 0.706863 0.277451
0.492157 0.706863 0.277451
0.599510 0.706863 0.277451
0.706863 0.706863 0.277451
0.814216 0.706863 0.277451
0.921569 0.706863 0.277451
0.062745 0.814216 0.277451
0.170098 0.814216 0.277451
0.277451 0.814216 0.277451
0.384804 0.814216 0.277451
0.492157 0.814216 0.277451
0.599510 0.814216 0.277451
0.706863 0.814216 0.277451
0.814216 0.814216 0.277451
0.921569 0.814216 0.277451
0.062745 0.921569 0.277451
0.170098 0.921569 0.277451
0.277451 0.921569 0.277451
0.384804 0.921569 0.277451
0.492157 0.921569 0.277451
0.599510 0.921569 0.277451
0.706863 0.921569 0.277451
0.814216 0.921569 0.277451
0.921569 0.921569 0.277451
0.062745 0.062745 0.384804
0.170098 0.062745 0.384804
0.277451 0.062745 0.384804
0.384804 0.062745 0.384804
0.492157 0.062745 0.384804
0.599510 0.062745 0.384804
0.706863 0.062745 0.384804
0.814216 0.062745 0.384804
0.921569 0.062745 0.384804
0.062745 0.170098 0.384804
0.170098 0.170098 0.384804
0.277451 0.170098 0.384804
0.384804 0.170098 0.384804
0.492157 0.170098 0.384804
0.599510 0.170098 0.384804
0.706863 0.170098 0.384804
0.814216 0.170098 0.384804
0.921569 0.170098 0.384804
0.062745 0.277451 0.384804
0.170098 0.277451 0.384804
0.277451 0.277451 0.384804
0.384804 0.277451 0.384804
0.492157 0.277451 0.384804
0.599510 0.277451 0.384804
0.706863 0.277451 0.384804
0.814216 0.277451 0.384804
0.921569 0.277451 0.384804
0.062745 0.384804 0.384804
0.170098 0.384804 0.384804
0.277451 0.384804 0.384804
0.384804 0.384804 0.384804
0.492157 0.384804 0.384804
0.599510 0.384804 0.384804
0.706863 0.384804 0.384804
0.814216 0.384804 0.384804
0.921569 0.384804 0.384804
0.062745 0.492157 0.384804
0.170098 0.492157 0.384804
0.277451 0.492157 0.384804
0.384804 0.492157 0.384804
0.492157 0.492157 0.384804
0.599510 0.492157 0.384804
0.706863 0.492157 0.384804
0.814216 0.492157 0.384804
0.921569 0.492157 0.384804
0.062745 0.599510 0.384804
0.170098 0.599510 0.384804
0.277451 0.599510 0.384804
0.384804 0.599510 0.384804
0.492157 0.599510 0.384804
0.599510 0.599510 0.384804
0.706863 0.599510 0.384804
0.814216 0.599510 0.384804
0.921569 0.599510 0.384804
0.062745 0.706863 0.384804
0.170098 0.706863 0.384804
0.277451 0.706863 0.384804
0.384804 0.706863 0.384804
0.492157 0.706863 0.384804
0.599510 0.706863 0.384804
0.706863 0.706863 0.384804
0.814216 0.706863 0.384804
0.921569 0.706863 0.384804
0.062745 0.814216 0.384804
0.170098 0.814216 0.384804
0.277451 0.814216 0.384804
0.384804 0.814216 0.384804
0.492157 0.814216 0.384804
0.599510 0.814216 0.384804
0.706863 0.814216 0.384804
0.814216 0.814216 0.384804
0.921569 0.814216 0.384804
0.062745 0.921569 0.384804
0.170098 0.921569 0.384804
0.277451 0.921569 0.384804
0.384804 0.921569 0.384804
0.492157 0.921569 0.384804
0.599510 0.921569 0.384804
0.706863 0.921569 0.384804
0.814216 0.921569 0.384804
0.921569 0.921569 0.384804
0.062745 0.062745 0.492157
0.170098 0.062745 0.492157
0.277451 0.062745 0.492157
0.384804 0.062745 0.492157
0.492157 0.062745 0.492157
0.599510 0.062745 0.492157
0.706863 0.062745 0.492157
0.814216 0.062745 0.492157
0.921569 0.062745 0.492157
0.062745 0.170098 0.492157
0.170098 0.170098 0.492157
0.277451 0.170098 0.492157
0.384804 0.170098 0.492157
0.492157 0.170098 0.492157
0.599510 0.170098 0.492157
0.706863 0.170098 0.492157
0.814216 0.170098 0.492157
0.921569 0.170098 0.492157
0.062745 0.277451 0.492157
0.170098 0.277451 0.492157
0.277451 0.277451 0.492157
0.384804 0.277451 0.492157
0.492157 0.277451 0.492157
0.599510 0.277451 0.492157
0.706863 0.277451 0.492157
0.814216 0.277451 0.492157
0.921569 0.277451 0.492157
0.062745 0.384804 0.492157
0.170098 0.384804 0.492157
0.277451 0.384804 0.492157
0.384804 0.384804 0.492157
0.492157 0.384804 0.492157
0.599510 0.384804 0.492157
0.706863 0.384804 0.492157
0.814216 0.384804 0.492157
0.921569 0.384804 0.492157
0.062745 0.492157 0.492157
0.170098 0.492157 0.492157
0.277451 0.492157 0.492157
0.384804 0.492157 0.492157
0.492157 0.492157 0.492157
0.599510 0.492157 0.492157
0.706863 0.492157 0.492157
0.814216 0.492157 0.492157
0.921569 0.492157 0.492157
0.062745 0.599510 0.492157
0.170098 0.599510 0.492157
0.277451 0.599510 0.492157
0.384804 0.599510 0.492157
0.492157 0.599510 0.492157
0.599510 0.599510 0.492157
0.706863 0.599510 0.492157
0.814216 0.599510 0.492157
0.921569 0.599510 0.492157
0.062745 0.706863 0.492157
0.170098 0.706863 0.492157
0.277451 0.706863 0.492157
0.384804 0.706863 0.492157
0.492157 0.706863 0.492157
0.599510 0.706863 0.492157
0.706863 0.706863 0.492157
0.814216 0.706863 0.492157
0.921569 0.706863 0.492157
0.062745 0.814216 0.492157
0.170098 0.814216 0.492157
0.277451 0.814216 0.492157
0.384804 0.814216 0.492157
0.492157 0.814216 0.492157
0.599510 0.814216 0.492157
0.706863 0.814216 0.492157
0.814216 0.814216 0.492157
0.921569 0.814216 0.492157
0.062745 0.921569 0.492157
0.170098 0.921569 0.492157
0.277451 0.921569 0.492157
0.384804 0.921569 0.492157
0.492157 0.921569 0.492157
0.599510 0.921569 0.492157
0.706863 0.921569 0.492157
0.814216 0.921569 0.492157
0.921569 0.921569 0.492157
0.062745 0.062745 0.599510
0.170098 0.062745 0.599510
0.277451 0.062745 0.599510
0.384804 0.062745 0.599510
0.492157 0.062745 0.599510
0.599510 0.062745 0.599510
0.706863 0.062745 0.599510
0.814216 0.062745 0.599510
0.921569 0.062745 0.599510
0.062745 0.170098 0.599510
0.170098 0.170098 0.599510
0.277451 0.170098 0.599510
0.384804 0.170098 0.599510
0.492157 0.170098 0.599510
0.599510 0.170098 0.599510
0.706863 0.170098 0.599510
0.814216 0.170098 0.599510
0.921569 0.170098 0.599510
0.062745 0.277451 0.599510
0.170098 0.277451 0.599510
0.277451 0.277451 0.599510
0.384804 0.277451 0.599510
0.492157 0.277451 0.599510
0.599510 0.277451 0.599510
0.706863 0.277451 0.599510
0.814216 0.277451 0.599510
0.921569 0.277451 0.599510
0.062745 0.384804 0.599510
0.170098 0.384804 0.599510
0.277451 0.384804 0.599510
0.384804 0.384804 0.599510
0.492157 0.384804 0.599510
0.599510 0.384804 0.599510
0.706863 0.384804 0.599510
0.814216 0.384804 0.599510
0.921569 0.384804 0.599510
0.062745 0.492157 0.599510
0.170098 0.492157 0.599510
0.277451 0.492157 0.599510
0.384804 0.492157 0.599510
0.492157 0.492157 0.599510
0.599510 0.492157 0.599510
0.706863 0.492157 0.599510
0.814216 0.492157 0.599510
0.921569 0.492157 0.599510
0.062745 0.599510 0.599510
0.170098 0.599510 0.599510
0.277451 0.599510 0.599510
0.384804 0.599510 0.599510
0.492157 0.599510 0.599510
0.599510 0.599510 0.599510
0.706863 0.599510 0.599510
0.814216 0.599510 0.599510
0.921569 0.599510 0.599510
0.062745 0.706863 0.599510
0.170098 0.706863 0.599510
0.277451 0.706863 0.599510
0.384804 0.706863 0.599510
0.492157 0.706863 0.599510
0.599510 0.706863 0.599510
0.706863 0.706863 0.599510
0.814216 0.706863 0.599510
0.921569 0.706863 0.599510
0.062745 0.814216 0.599510
0.170098 0.814216 0.599510
0.277451 0.814216 0.599510
0.384804 0.814216 0.599510
0.492157 0.814216 0.599510
0.599510 0.814216 0.599510
0.706863 0.814216 0.599510
0.814216 0.814216 0.599510
0.921569 0.814216 0.599510
0.062745 0.921569 0.599510
0.170098 0.921569 0.599510
0.277451 0.921569 0.599510
0.384804 0.921569 0.599510
0.492157 0.921569 0.599510
0.599510 0.921569 0.599510
0.706863 0.921569 0.599510
0.814216 0.921569 0.599510
0.921569 0.921569 0.599510
0.062745 0.062745 0.706863
0.170098 0.062745 0.706863
0.277451 0.062745 0.706863
0.384804 0.062745 0.706863
0.492157 0.062745 0.706863
0.599510 0.062745 0.706863
0.706863 0.062745 0.706863
0.814216 0.062745 0.706863
0.921569 0.062745 0.706863
0.062745 0.170098 0.706863
0.170098 0.170098 0.706863
0.277451 0.170098 0.706863
0.384804 0.170098 0.706863
0.492157 0.170098 0.706863
0.599510 0.170098 0.706863
0.706863 0.170098 0.706863
0.814216 0.170098 0.706863
0.921569 0.170098 0.706863
0.062745 0.277451 0.706863
0.170098 0.277451 0.706863
0.277451 0.277451 0.706863
0.384804 0.277451 0.706863
0.492157 0.277451 0.706863
0.599510 0.277451 0.706863
0.706863 0.277451 0.706863
0.814216 0.277451 0.706863
0.921569 0.277451 0.706863
0.062745 0.384804 0.706863
0.170098 0.384804 0.706863
0.277451 0.384804 0.706863
0.384804 0.384804 0.706863
0.492157 0.384804 0.706863
0.599510 0.384804 0.706863
0.706863 0.384804 0.706863
0.814216 0.384804 0.706863
0.921569 0.384804 0.706863
0.062745 0.492157 0.706863
0.170098 0.492157 0.706863
0.277451 0.492157 0.706863
0.384804 0.492157 0.706863
0.492157 0.492157 0.706863
0.599510 0.492157 0.706863
0.706863 0.492157 0.706863
0.814216 0.492157 0.706863
0.921569 0.492157 0.706863
0.062745 0.599510 0.706863
0.170098 0.599510 0.706863
0.277451 0.599510 0.706863
0.384804 0.599510 0.706863
0.492157 0.599510 0.706863
0.599510 0.599510 0.706863
0.706863 0.599510 0.706863
0.814216 0.599510 0.706863
0.921569 0.599510 0.706863
0.062745 0.706863 0.706863
0.170098 0.706863 0.706863
0.277451 0.706863 0.706863
0.384804 0.706863 0.706863
0.492157 0.706863 0.706863
0.599510 0.706863 0.706863
0.706863 0.706863 0.706863
0.814216 0.706863 0.706863
0.921569 0.706863 0.706863
0.062745 0.814216 0.706863
0.170098 0.814216 0.706863
0.277451 0.814216 0.706863
0.384804 0.814216 0.706863
0.492157 0.814216 0.706863
0.599510 0.814216 0.706863
0.706863 0.814216 0.706863
0.814216 0.814216 0.706863
0.921569 0.814216 0.706863
0.062745 0.921569 0.706863
0.170098 0.921569 0.706863
0.277451 0.921569 0.706863
0.384804 0.921569 0.706863
0.492157 0.921569 0.706863
0.599510 0.921569 0.706863
0.706863 0.921569 0.706863
0.814216 0.921569 0.706863
0.921569 0.921569 0.706863
0.062745 0.062745 0.814216
0.170098 0.062745 0.814216
0.277451 0.062745 0.814216
0.384804 0.062745 0.814216
0.492157 0.062745 0.814216
0.599510 0.062745 0.814216
0.706863 0.062745 0.814216
0.814216 0.062745 0.814216
0.921569 0.062745 0.814216
0.062745 0.170098 0.814216
0.170098 0.170098 0.814216
0.277451 0.170098 0.814216
0.384804 0.170098 0.814216
0.492157 0.170098 0.814216
0.599510 0.170098 0.814216
0.706863 0.170098 0.814216
0.814216 0.170098 0.814216
0.921569 0.170098 0.814216
0.062745 0.277451 0.814216
0.170098 0.277451 0.814216
0.277451 0.277451 0.814216
0.384804 0.277451 0.814216
0.492157 0.277451 0.814216
0.599510 0.277451 0.814216
0.706863 0.277451 0.814216
0.814216 0.277451 0.814216
0.921569 0.277451 0.814216
0.062745 0.384804 0.814216
0.170098 0.384804 0.814216
0.277451 0.384804 0.814216
0.384804 0.384804 0.814216
0.492157 0.384804 0.814216
0.599510 0.384804 0.814216
0.706863 0.384804 0.814216
0.814216 0.384804 0.814216
0.921569 0.384804 0.814216
0.062745 0.492157 0.814216
0.170098 0.492157 0.814216
0.277451 0.492157 0.814216
0.384804 0.492157 0.814216
0.492157 0.492157 0.814216
0.599510 0.492157 0.814216
0.706863 0.492157 0.814216
0.814216 0.492157 0.814216
0.921569 0.492157 0.814216
0.062745 0.599510 0.814216
0.170098 0.599510 0.814216
0.277451 0.599510 0.814216
0.384804 0.599510 0.814216
0.492157 0.599510 0.814216
0.599510 0.599510 0.814216
0.706863 0.599510 0.814216
0.814216 0.599510 0.814216
0.921569 0.599510 0.814216
0.062745 0.706863 0.814216
0.170098 0.706863 0.814216
0.277451 0.706863 0.814216
0.384804 0.706863 0.814216
0.492157 0.706863 0.814216
0.599510 0.706863 0.814216
0.706863 0.706863 0.814216
0.814216 0.706863 0.814216
0.921569 0.706863 0.814216
0.062745 0.814216 0.814216
0.170098 0.814216 0.814216
0.277451 0.814216 0.814216
0.384804 0.814216 0.814216
0.492157 0.814216 0.814216
0.599510 0.814216 0.814216
0.706863 0.814216 0.814216
0.814216 0.814216 0.814216
0.921569 0.814216 0.814216
0.062745 0.921569 0.814216
0.170098 0.921569 0.814216
0.277451 0.921569 0.814216
0.384804 0.921569 0.814216
0.492157 0.921569 0.814216
0.599510 0.921569 0.814216
0.706863 0.921569 0.814216
0.814216 0.921569 0.814216
0.921569 0.921569 0.814216
0.062745 0.062745 0.921569
0.170098 0.062745 0.921569
0.277451 0.062745 0.921569
0.384804 0.062745 0.921569
0.492157 0.062745 0.921569
0.599510 0.062745 0.921569
0.706863 0.062745 0.921569
0.814216 0.062745 0.921569
0.921569 0.062745 0.921569
0.062745 0.170098 0.921569
0.170098 0.170098 0.921569
0.277451 0.170098 0.921569
0.384804 0.170098 0.921569
0.492157 0.170098 0.921569
0.599510 0.170098 0.921569
0.706863 0.170098 0.921569
0.814216 0.170098 0.921569
0.921569 0.170098 0.921569
0.062745 0.277451 0.921569
0.170098 0.277451 0.921569
0.277451 0.277451 0.921569
0.384804 0.277451 0.921569
0.492157 0.277451 0.921569
0.599510 0.277451 0.921569
0.706863 0.277451 0.921569
0.814216 0.277451 0.921569
0.921569 0.277451 0.921569
0.062745 0.384804 0.921569
0.170098 0.384804 0.921569
0.277451 0.384804 0.921569
0.384804 0.384804 0.921569
0.492157 0.384804 0.921569
0.599510 0.384804 0.921569
0.706863 0.384804 0.921569
0.814216 0.384804 0.921569
0.921569 0.384804 0.921569
0.062745 0.492157 0.921569
0.170098 0.492157 0.921569
0.277451 0.492157 0.921569
0.384804 0.492157 0.921569
0.492157 0.492157 0.921569
0.599510 0.492157 0.921569
0.706863 0.492157 0.921569
0.814216 0.492157 0.921569
0.921569 0.492157 0.921569
0.062745 0.599510 0.921569
0.170098 0.599510 0.921569
0.277451 0.599510 0.921569
0.384804 0.599510 0.921569
0.492157 0.599510 0.921569
0.599510 0.599510 0.921569
0.706863 0.599510 0.921569
0.814216 0.599510 0.921569
0.921569 0.599510 0.921569
0.062745 0.706863 0.921569
0.170098 0.706863 0.921569
0.277451 0.706863 0.921569
0.384804 0.706863 0.921569
0.492157 0.706863 0.921569
0.599510 0.706863 0.921569
0.706863 0.706863 0.921569
0.814216 0.706863 0.921569
0.921569 0.706863 0.921569
0.062745 0.814216 0.921569
0.170098 0.814216 0.921569
0.277451 0.814216 0.921569
0.384804 0.814216 0.921569
0.492157 0.814216 0.921569
0.599510 0.814216 0.921569
0.706863 0.814216 0.921569
0.814216 0.814216 0.921569
0.921569 0.814216 0.921569
0.062745 0.921569 0.921569
0.170098 0.921569 0.921569
0.277451 0.921569 0.921569
0.384804 0.921569 0.921569
0.492157 0.921569 0.921569
0.599510 0.921569 0.921569
0.706863 0.921569 0.921569
0.814216 0.921569 0.921569
0.921569 0.921569 0.921569
