assets/presets/luts/tungsten-neg/lut.cube
TITLE "Tungsten Neg"
LUT_3D_SIZE 5
0.000000 0.000000 0.001383
0.124832 0.000000 0.001289
0.457695 0.000000 0.001184
0.818142 0.000000 0.001031
0.994699 0.000000 0.000850
0.000000 0.145550 0.000934
0.128276 0.145480 0.000765
0.464524 0.145480 0.000577
0.823792 0.145480 0.000403
0.995873 0.145495 0.000248
0.000000 0.498675 0.000330
0.133796 0.498719 0.000182
0.474174 0.498857 0.000058
0.831468 0.499060 0.000000
0.997285 0.499312 0.000000
0.000028 0.853075 0.000000
0.141307 0.853254 0.000000
0.485385 0.853450 0.000000
0.838656 0.853655 0.000000
0.998237 0.853855 0.000000
0.000391 0.999993 0.000000
0.147131 0.999996 0.000000
0.493441 0.999998 0.000000
0.843760 0.999999 0.000000
0.998790 1.000000 0.000000
0.000000 0.000000 0.201726
0.125017 0.000000 0.170637
0.458197 0.000000 0.169539
0.818631 0.000000 0.168009
0.994814 0.000000 0.166164
0.000000 0.155986 0.182567
0.127973 0.145612 0.166590
0.465392 0.145480 0.163165
0.824428 0.145480 0.161025
0.996014 0.145513 0.158678
0.000000 0.512441 0.151491
0.134096 0.499018 0.157118
0.475406 0.498923 0.154853
0.832350 0.499145 0.152194
0.997414 0.499411 0.149739
0.000000 0.859748 0.140770
0.142005 0.853331 0.148733
0.486277 0.853523 0.146911
0.839264 0.853727 0.145280
0.998314 0.853924 0.143712
0.000000 1.000000 0.135656
0.147663 0.999997 0.143050
0.494130 0.999999 0.141716
0.844127 1.000000 0.140641
0.998817 1.000000 0.139904
0.000000 0.000000 0.622927
0.127520 0.000000 0.555325
0.458758 0.000000 0.542363
0.819150 0.000000 0.540040
0.994931 0.000000 0.537317
0.000000 0.152668 0.631124
0.125720 0.143525 0.581832
0.466264 0.145480 0.532981
0.825096 0.145485 0.529873
0.996159 0.145539 0.526314
0.000000 0.528339 0.562963
0.100055 0.514261 0.544583
0.475868 0.499126 0.521681
0.833211 0.499236 0.516833
0.997534 0.499513 0.513364
0.000000 0.871975 0.504658
0.117004 0.862215 0.499290
0.486869 0.853670 0.509182
0.839862 0.853799 0.507008
0.998388 0.853991 0.504697
0.000000 1.000000 0.480599
0.129986 1.000000 0.488419
0.494751 0.999999 0.501814
0.844448 1.000000 0.500355
0.998837 1.000000 0.499439
0.000000 0.000000 0.946459
0.130304 0.000000 0.910186
0.459960 0.000000 0.886499
0.819699 0.000000 0.884337
0.995051 0.000000 0.882640
0.000000 0.148469 0.955122
0.124537 0.141547 0.927279
0.470744 0.144027 0.886618
0.825821 0.145498 0.878014
0.996308 0.145571 0.875736
0.000000 0.526724 0.938153
0.095490 0.509718 0.926187
0.472611 0.496134 0.898683
0.834050 0.499331 0.869862
0.997645 0.499618 0.867794
0.000000 0.880939 0.897374
0.079517 0.872438 0.887226
0.430940 0.863621 0.876942
0.840126 0.853926 0.864219
0.998457 0.854055 0.862447
0.000000 1.000000 0.861607
0.092157 1.000000 0.854760
0.454919 1.000000 0.852300
0.844520 1.000000 0.859693
0.998851 1.000000 0.859420
0.000000 0.000000 1.000000
0.131233 0.000000 1.000000
0.465415 0.000000 1.000000
0.820273 0.000000 1.000000
0.995173 0.000000 1.000000
0.000000 0.145189 1.000000
0.123314 0.139591 1.000000
0.475197 0.141483 1.000000
0.826723 0.145458 1.000000
0.996460 0.145609 1.000000
0.000000 0.519878 1.000000
0.097503 0.503559 1.000000
0.471067 0.493212 1.000000
0.836879 0.497711 1.000000
0.997747 0.499726 1.000000
0.000000 0.881394 1.000000
0.068833 0.871669 1.000000
0.420978 0.860920 1.000000
0.837517 0.851978 1.000000
0.998522 0.854116 1.000000
0.000000 1.000000 1.000000
0.060340 1.000000 1.000000
0.389392 1.000000 1.000000
0.804960 1.000000 1.000000
0.998808 1.000000 1.000000
