assets/presets/luts/tungsten-neg/lut.cube
TITLE "Tungsten Neg"
LUT_3D_SIZE 9
0.000000 0.000000 0.001383
0.032233 0.000000 0.001317
0.124832 0.000000 0.001289
0.271982 0.000000 0.001243
0.457695 0.000000 0.001184
0.651187 0.000000 0.001112
0.818142 0.000000 0.001031
0.935358 0.000000 0.000943
0.994699 0.000000 0.000850
0.000000 0.041869 0.001174
0.032757 0.041766 0.001153
0.126138 0.041766 0.001077
0.274207 0.041766 0.000992
0.460635 0.041766 0.000902
0.654289 0.041766 0.000808
0.820765 0.041766 0.000713
0.937066 0.041766 0.000618
0.995274 0.041766 0.000527
0.000000 0.145550 0.000934
0.033783 0.145480 0.000860
0.128276 0.145480 0.000765
0.277431 0.145480 0.000670
0.464524 0.145480 0.000577
0.658101 0.145480 0.000487
0.823792 0.145480 0.000403
0.938932 0.145481 0.000325
0.995873 0.145495 0.000248
0.000000 0.304563 0.000621
0.035117 0.304526 0.000536
0.130861 0.304526 0.000449
0.281106 0.304526 0.000367
0.468789 0.304533 0.000290
0.662304 0.304560 0.000214
0.827267 0.304606 0.000143
0.941206 0.304670 0.000082
0.996586 0.304749 0.000033
0.000000 0.498675 0.000330
0.036604 0.498679 0.000256
0.133796 0.498719 0.000182
0.285510 0.498779 0.000114
0.474174 0.498857 0.000058
0.667611 0.498951 0.000017
0.831468 0.499060 0.000000
0.943750 0.499181 0.000000
0.997285 0.499312 0.000000
0.000000 0.693188 0.000087
0.038537 0.693263 0.000038
0.137517 0.693354 0.000006
0.290772 0.693458 0.000000
0.480132 0.693572 0.000000
0.673077 0.693694 0.000000
0.835502 0.693824 0.000000
0.946015 0.693958 0.000000
0.997824 0.694095 0.000000
0.000028 0.853075 0.000000
0.040663 0.853161 0.000000
0.141307 0.853254 0.000000
0.295766 0.853350 0.000000
0.485385 0.853450 0.000000
0.677549 0.853552 0.000000
0.838656 0.853655 0.000000
0.947776 0.853756 0.000000
0.998237 0.853855 0.000000
0.000193 0.957612 0.000000
0.042518 0.957667 0.000000
0.144387 0.957724 0.000000
0.299709 0.957781 0.000000
0.489612 0.957836 0.000000
0.681380 0.957890 0.000000
0.841477 0.957942 0.000000
0.949359 0.957992 0.000000
0.998572 0.958037 0.000000
0.000391 0.999993 0.000000
0.044083 0.999994 0.000000
0.147131 0.999996 0.000000
0.303320 0.999997 0.000000
0.493441 0.999998 0.000000
0.684679 0.999999 0.000000
0.843760 0.999999 0.000000
0.950549 1.000000 0.000000
0.998790 1.000000 0.000000
0.000000 0.000000 0.064043
0.032259 0.000000 0.054420
0.124919 0.000000 0.054246
0.272152 0.000000 0.053990
0.457939 0.000000 0.053661
0.651460 0.000000 0.053267
0.818383 0.000000 0.052817
0.935520 0.000000 0.052319
0.994756 0.000000 0.051782
0.000000 0.044885 0.059863
0.032408 0.041838 0.054315
0.126329 0.041766 0.053072
0.274506 0.041766 0.052600
0.461007 0.041766 0.052083
0.654664 0.041766 0.051532
0.821070 0.041766 0.050954
0.937258 0.041766 0.050357
0.995336 0.041766 0.049750
0.000000 0.150768 0.050100
0.033143 0.146048 0.051180
0.128531 0.145480 0.051275
0.277803 0.145480 0.050688
0.464959 0.145480 0.050085
0.658516 0.145480 0.049476
0.824112 0.145480 0.048868
0.939140 0.145484 0.048249
0.995943 0.145503 0.047578
0.000000 0.309938 0.047123
0.034974 0.304826 0.049514
0.131140 0.304526 0.049203
0.281495 0.304526 0.048597
0.469286 0.304540 0.047954
0.662815 0.304575 0.047263
0.827686 0.304627 0.046538
0.941469 0.304697 0.045792
0.996663 0.304781 0.045041
0.000000 0.503275 0.045234
0.036668 0.498822 0.047527
0.134157 0.498738 0.046941
0.286038 0.498805 0.046205
0.474791 0.498889 0.045455
0.668195 0.498989 0.044706
0.831912 0.499102 0.043969
0.944008 0.499227 0.043260
0.997350 0.499361 0.042589
0.000000 0.696503 0.043222
0.038726 0.693326 0.045085
0.137923 0.693390 0.044373
0.291326 0.693498 0.043647
0.480735 0.693615 0.042953
0.673608 0.693740 0.042304
0.835877 0.693871 0.041711
0.946215 0.694007 0.041186
0.997869 0.694145 0.040730
0.000000 0.855005 0.041163
0.040876 0.853195 0.042654
0.141672 0.853288 0.042030
0.296224 0.853386 0.041466
0.485840 0.853487 0.040975
0.677956 0.853589 0.040530
0.838962 0.853691 0.040088
0.947952 0.853792 0.039653
0.998276 0.853890 0.039232
0.000028 0.958459 0.039491
0.042681 0.957688 0.040776
0.144680 0.957744 0.040331
0.300103 0.957801 0.039892
0.490040 0.957856 0.039462
0.681759 0.957909 0.039048
0.841747 0.957960 0.038655
0.949506 0.958008 0.038288
0.998601 0.958052 0.037952
0.000190 1.000000 0.038259
0.044242 0.999995 0.039274
0.147401 0.999996 0.038869
0.303664 0.999997 0.038487
0.493793 0.999998 0.038133
0.684969 0.999999 0.037812
0.843950 0.999999 0.037531
0.950641 1.000000 0.037292
0.998804 1.000000 0.037103
0.000000 0.000000 0.201726
0.033027 0.000000 0.176716
0.125017 0.000000 0.170637
0.272336 0.000000 0.170149
0.458197 0.000000 0.169539
0.651743 0.000000 0.168821
0.818631 0.000000 0.168009
0.935686 0.000000 0.167119
0.994814 0.000000 0.166164
0.000000 0.043822 0.206948
0.031472 0.041251 0.189111
0.126526 0.041766 0.168469
0.274812 0.041766 0.167621
0.461385 0.041766 0.166700
0.655042 0.041766 0.165720
0.821376 0.041766 0.164697
0.937450 0.041766 0.163644
0.995397 0.041766 0.162575
0.000000 0.155986 0.182567
0.023847 0.151115 0.176330
0.127973 0.145612 0.166590
0.278176 0.145480 0.164228
0.465392 0.145480 0.163165
0.658926 0.145480 0.162093
0.824428 0.145480 0.161025
0.939354 0.145489 0.159898
0.996014 0.145513 0.158678
0.000000 0.318867 0.161372
0.027186 0.312012 0.158542
0.130123 0.305212 0.160585
0.281897 0.304529 0.160532
0.469797 0.304550 0.159360
0.663334 0.304592 0.158107
0.828108 0.304650 0.156798
0.941731 0.304725 0.155458
0.996738 0.304814 0.154110
0.000000 0.512441 0.151491
0.030970 0.504955 0.152771
0.134096 0.499018 0.157118
0.286569 0.498833 0.156199
0.475406 0.498923 0.154853
0.668773 0.499028 0.153510
0.832350 0.499145 0.152194
0.944261 0.499274 0.150930
0.997414 0.499411 0.149739
0.000000 0.703867 0.145310
0.034507 0.697552 0.148743
0.138205 0.693494 0.152794
0.291869 0.693539 0.151619
0.481323 0.693659 0.150385
0.674123 0.693786 0.149236
0.836236 0.693919 0.148193
0.946404 0.694056 0.147279
0.997913 0.694195 0.146460
0.000000 0.859748 0.140770
0.037665 0.855582 0.145270
0.142005 0.853331 0.148733
0.296662 0.853422 0.147766
0.486277 0.853523 0.146911
0.678360 0.853625 0.146093
0.839264 0.853727 0.145280
0.948125 0.853827 0.144483
0.998314 0.853924 0.143712
0.000000 0.960758 0.137712
0.040125 0.958731 0.142742
0.144970 0.957765 0.145727
0.300491 0.957821 0.144920
0.490460 0.957875 0.144133
0.682128 0.957928 0.143377
0.842009 0.957978 0.142661
0.949647 0.958024 0.141996
0.998628 0.958067 0.141391
0.000000 1.000000 0.135656
0.042180 1.000000 0.140619
0.147663 0.999997 0.143050
0.303996 0.999998 0.142356
0.494130 0.999999 0.141716
0.685244 0.999999 0.141142
0.844127 1.000000 0.140641
0.950724 1.000000 0.140226
0.998817 1.000000 0.139904
0.000000 0.000000 0.400898
0.033592 0.000000 0.365537
0.125539 0.000000 0.343672
0.272535 0.000000 0.341647
0.458470 0.000000 0.340791
0.652040 0.000000 0.339800
0.818887 0.000000 0.338690
0.935855 0.000000 0.337482
0.994872 0.000000 0.336193
0.000000 0.042666 0.413703
0.031156 0.040686 0.384569
0.128162 0.041214 0.347041
0.275128 0.041766 0.338162
0.461772 0.041766 0.336915
0.655427 0.041766 0.335596
0.821686 0.041766 0.334223
0.937642 0.041766 0.332815
0.995457 0.041766 0.331390
0.000000 0.155101 0.396347
0.023002 0.149323 0.384314
0.126240 0.144553 0.360533
0.278552 0.145480 0.333595
0.465827 0.145480 0.332177
0.659337 0.145480 0.330750
0.824755 0.145482 0.329315
0.939576 0.145496 0.327761
0.996086 0.145525 0.326093
0.000000 0.325225 0.359397
0.018028 0.318711 0.351071
0.111719 0.312124 0.342750
0.281331 0.304694 0.330072
0.470325 0.304563 0.327025
0.663865 0.304611 0.325316
0.828536 0.304675 0.323539
0.941995 0.304755 0.321729
0.996813 0.304849 0.319916
0.000000 0.521897 0.329034
0.021164 0.514544 0.322865
0.119392 0.506797 0.318926
0.285712 0.499452 0.321634
0.476025 0.498959 0.320914
0.669350 0.499068 0.319111
0.832783 0.499190 0.317352
0.944509 0.499322 0.315670
0.997475 0.499462 0.314097
0.000000 0.712580 0.310355
0.025617 0.705723 0.308518
0.127874 0.698822 0.310490
0.292047 0.693723 0.316249
0.481901 0.693703 0.314949
0.674623 0.693833 0.313435
0.836582 0.693968 0.312074
0.946584 0.694105 0.310894
0.997957 0.694244 0.309777
0.000000 0.865817 0.298572
0.029786 0.860913 0.300458
0.134432 0.856293 0.305700
0.296993 0.853484 0.311434
0.486714 0.853560 0.310393
0.678762 0.853662 0.309276
0.839565 0.853763 0.308169
0.948296 0.853862 0.307088
0.998352 0.853958 0.306045
0.000000 0.963838 0.291515
0.033131 0.961315 0.296012
0.139144 0.959045 0.302710
0.300861 0.957843 0.307665
0.490873 0.957894 0.306615
0.682490 0.957946 0.305594
0.842265 0.957995 0.304633
0.949783 0.958040 0.303745
0.998654 0.958081 0.302944
0.000000 1.000000 0.287122
0.035966 1.000000 0.292947
0.143059 1.000000 0.300042
0.304319 0.999998 0.304225
0.494455 0.999999 0.303374
0.685506 0.999999 0.302617
0.844293 1.000000 0.301966
0.950801 1.000000 0.301437
0.998828 1.000000 0.301043
0.000000 0.000000 0.622927
0.033750 0.000000 0.585942
0.127520 0.000000 0.555325
0.272748 0.000000 0.543325
0.458758 0.000000 0.542363
0.652348 0.000000 0.541261
0.819150 0.000000 0.540040
0.936029 0.000000 0.538719
0.994931 0.000000 0.537317
0.000000 0.041762 0.638345
0.030813 0.040141 0.606377
0.129344 0.040462 0.564787
0.276048 0.041638 0.540905
0.462168 0.041766 0.538102
0.655817 0.041766 0.536670
0.821998 0.041766 0.535185
0.937835 0.041766 0.533668
0.995518 0.041766 0.532136
0.000000 0.152668 0.631124
0.023555 0.147214 0.613326
0.125720 0.143525 0.581832
0.280916 0.144497 0.542518
0.466264 0.145480 0.532981
0.659746 0.145480 0.531450
0.825096 0.145485 0.529873
0.939805 0.145505 0.528151
0.996159 0.145539 0.526314
0.000000 0.325156 0.602477
0.015767 0.317635 0.592872
0.109869 0.309748 0.580382
0.278928 0.303281 0.555647
0.470869 0.304578 0.527339
0.664407 0.304632 0.525463
0.828969 0.304702 0.523523
0.942260 0.304787 0.521554
0.996887 0.304885 0.519592
0.000000 0.528339 0.562963
0.013189 0.521339 0.553881
0.100055 0.514261 0.544583
0.259746 0.507152 0.535230
0.475868 0.499126 0.521681
0.669925 0.499110 0.518723
0.833211 0.499236 0.516833
0.944752 0.499371 0.515035
0.997534 0.499513 0.513364
0.000000 0.720472 0.528254
0.016224 0.714084 0.520439
0.108014 0.707436 0.513687
0.272110 0.700537 0.509791
0.481413 0.694110 0.513425
0.675109 0.693881 0.512666
0.836914 0.694017 0.511242
0.946764 0.694155 0.509996
0.998001 0.694294 0.508767
0.000000 0.871975 0.504658
0.020295 0.867193 0.500663
0.117004 0.862215 0.499290
0.282972 0.857265 0.502299
0.486869 0.853670 0.509182
0.679164 0.853698 0.508218
0.839862 0.853799 0.507008
0.948464 0.853897 0.505829
0.998388 0.853991 0.504697
0.000000 0.967127 0.489990
0.024008 0.964574 0.489836
0.124096 0.961937 0.492536
0.290525 0.959443 0.498773
0.491204 0.957924 0.505240
0.682845 0.957964 0.504209
0.842513 0.958012 0.503174
0.949914 0.958055 0.502223
0.998679 0.958094 0.501374
0.000000 1.000000 0.480599
0.027375 1.000000 0.483163
0.129986 1.000000 0.488419
0.296335 1.000000 0.496089
0.494751 0.999999 0.501814
0.685754 0.999999 0.501030
0.844448 1.000000 0.500355
0.950870 1.000000 0.499820
0.998837 1.000000 0.499439
0.000000 0.000000 0.816746
0.033699 0.000000 0.787130
0.129178 0.000000 0.758656
0.274657 0.000000 0.740288
0.459061 0.000000 0.735590
0.652668 0.000000 0.734600
0.819421 0.000000 0.733512
0.936206 0.000000 0.732341
0.994991 0.000000 0.731104
0.000000 0.040993 0.829643
0.030467 0.039604 0.803691
0.129760 0.039787 0.769248
0.278993 0.040952 0.742694
0.462570 0.041766 0.731796
0.656212 0.041766 0.730535
0.822312 0.041766 0.729233
0.938029 0.041766 0.727906
0.995578 0.041766 0.726570
0.000000 0.150421 0.828825
0.023877 0.145534 0.811909
0.125137 0.142530 0.784106
0.282680 0.143127 0.749135
0.467338 0.145264 0.728478
0.660156 0.145481 0.725971
0.825452 0.145491 0.724547
0.940040 0.145516 0.723001
0.996233 0.145554 0.721362
0.000000 0.322268 0.814042
0.016009 0.314408 0.803842
0.111058 0.306887 0.788915
0.278276 0.301891 0.762702
0.473619 0.303307 0.728937
0.664958 0.304655 0.720605
0.829407 0.304731 0.718886
0.942525 0.304821 0.717150
0.996960 0.304923 0.715427
0.000000 0.529130 0.786803
0.010391 0.521376 0.779309
0.094850 0.513209 0.770962
0.256920 0.504660 0.760158
0.473267 0.497634 0.738691
0.670496 0.499154 0.714666
0.833634 0.499283 0.713018
0.944990 0.499421 0.711459
0.997591 0.499566 0.710023
0.000000 0.725881 0.752762
0.009334 0.719810 0.744906
0.089753 0.713628 0.736914
0.243534 0.707402 0.728923
0.451889 0.701117 0.720989
0.675094 0.694013 0.709981
0.837231 0.694066 0.708223
0.946944 0.694204 0.707128
0.998044 0.694343 0.706032
0.000000 0.877257 0.722371
0.011840 0.872855 0.715397
0.096643 0.868277 0.708956
0.254374 0.863535 0.703698
0.464625 0.858567 0.700999
0.678768 0.853953 0.704912
0.840157 0.853834 0.704470
0.948630 0.853931 0.703427
0.998423 0.854023 0.702431
0.000000 0.970185 0.700958
0.014995 0.967817 0.696515
0.104556 0.965296 0.693370
0.265906 0.962651 0.692518
0.475620 0.959974 0.695492
0.682966 0.958017 0.701798
0.842753 0.958028 0.701099
0.950040 0.958070 0.700275
0.998702 0.958107 0.699547
0.000000 1.000000 0.686093
0.018275 1.000000 0.684247
0.111862 1.000000 0.684297
0.275267 1.000000 0.687024
0.483111 1.000000 0.692991
0.685911 1.000000 0.699182
0.844590 1.000000 0.698690
0.950931 1.000000 0.698255
0.998845 1.000000 0.697965
0.000000 0.000000 0.946459
0.033536 0.000000 0.929061
0.130304 0.000000 0.910186
0.277576 0.000000 0.894977
0.459960 0.000000 0.886499
0.652999 0.000000 0.885110
0.819699 0.000000 0.884337
0.936386 0.000000 0.883510
0.995051 0.000000 0.882640
0.000000 0.040300 0.953936
0.030122 0.039072 0.938899
0.129786 0.039163 0.917886
0.281465 0.040175 0.898690
0.464889 0.041395 0.885763
0.656612 0.041766 0.882241
0.822628 0.041766 0.881329
0.938222 0.041766 0.880402
0.995637 0.041766 0.879472
0.000000 0.148469 0.955122
0.024010 0.144101 0.944520
0.124537 0.141547 0.927279
0.283356 0.141892 0.904779
0.470744 0.144027 0.886618
0.660583 0.145482 0.879042
0.825821 0.145498 0.878014
0.940282 0.145528 0.876905
0.996308 0.145571 0.875736
0.000000 0.318964 0.949998
0.016525 0.311365 0.942809
0.111773 0.304606 0.931946
0.277548 0.300545 0.914064
0.475818 0.301452 0.890394
0.666036 0.304425 0.875914
0.829847 0.304761 0.873981
0.942790 0.304856 0.872756
0.997032 0.304962 0.871545
0.000000 0.526724 0.938153
0.010060 0.518332 0.932915
0.095490 0.509718 0.926187
0.258809 0.501536 0.916372
0.472611 0.496134 0.898683
0.672988 0.497878 0.875343
0.834050 0.499331 0.869862
0.945223 0.499472 0.868781
0.997645 0.499618 0.867794
0.000000 0.727148 0.919435
0.006468 0.720627 0.914717
0.082547 0.713794 0.909742
0.235279 0.706602 0.904303
0.448072 0.698992 0.897264
0.672591 0.692706 0.882739
0.837536 0.694115 0.866570
0.947124 0.694254 0.865786
0.998087 0.694393 0.865002
0.000000 0.880939 0.897374
0.006000 0.876744 0.892323
0.079517 0.872438 0.887226
0.226665 0.868066 0.882133
0.430940 0.863621 0.876942
0.651183 0.859092 0.871665
0.840126 0.853926 0.864219
0.948793 0.853964 0.863150
0.998457 0.854055 0.862447
0.000000 0.972699 0.877404
0.007752 0.970544 0.872613
0.085041 0.968268 0.867891
0.235937 0.965882 0.863483
0.442700 0.963363 0.859809
0.662473 0.960678 0.858022
0.842428 0.958156 0.861080
0.950160 0.958083 0.860942
0.998723 0.958119 0.860443
0.000000 1.000000 0.861607
0.010246 1.000000 0.857889
0.092157 1.000000 0.854760
0.246954 1.000000 0.852668
0.454919 1.000000 0.852300
0.671324 1.000000 0.854761
0.844520 1.000000 0.859693
0.950984 1.000000 0.859590
0.998851 1.000000 0.859420
0.000000 0.000000 0.999858
0.033309 0.000000 0.996525
0.131011 0.000000 0.990300
0.280210 0.000000 0.983497
0.462921 0.000000 0.978036
0.653356 0.000000 0.975527
0.819983 0.000000 0.975135
0.936569 0.000000 0.974726
0.995112 0.000000 0.974297
0.000000 0.039655 1.000000
0.029780 0.038545 0.998768
0.129599 0.038571 0.993168
0.283182 0.039429 0.985647
0.468354 0.040690 0.978638
0.657544 0.041664 0.974424
0.822945 0.041766 0.973651
0.938415 0.041766 0.973194
0.995699 0.041767 0.972731
0.000000 0.146748 1.000000
0.024026 0.142811 0.999710
0.123932 0.140571 0.996039
0.283470 0.140748 0.988484
0.473618 0.142612 0.980042
0.662764 0.144835 0.973784
0.826201 0.145507 0.971984
0.940528 0.145542 0.971419
0.996384 0.145589 0.970825
0.000000 0.315850 1.000000
0.016964 0.308700 0.999731
0.112105 0.302660 0.997496
0.276809 0.299215 0.991934
0.476775 0.299778 0.982527
0.669349 0.302795 0.973778
0.830288 0.304794 0.969935
0.943054 0.304892 0.969314
0.997103 0.305002 0.968702
0.000000 0.523290 0.999691
0.010401 0.514780 0.998728
0.096780 0.506410 0.996858
0.259981 0.499049 0.993341
0.471863 0.494673 0.986245
0.675158 0.495835 0.975297
0.834777 0.499153 0.968153
0.945449 0.499523 0.967314
0.997697 0.499672 0.966823
0.000000 0.725679 0.996731
0.005716 0.718585 0.995372
0.081631 0.711135 0.993626
0.236159 0.703503 0.991230
0.450162 0.696187 0.987408
0.671805 0.691365 0.979657
0.839238 0.693025 0.968357
0.947303 0.694304 0.965802
0.998128 0.694441 0.965394
0.000000 0.882122 0.990414
0.003393 0.877709 0.988706
0.071265 0.873087 0.986894
0.215132 0.868249 0.984944
0.420642 0.863101 0.982704
0.647202 0.857587 0.979622
0.838175 0.852977 0.972691
0.948952 0.853997 0.964433
0.998490 0.854086 0.964071
0.000000 0.974457 0.981778
0.003090 0.972417 0.979606
0.069179 0.970280 0.977305
0.209519 0.968069 0.974908
0.409536 0.965782 0.972423
0.630207 0.963418 0.969861
0.821377 0.960972 0.967236
0.950082 0.958131 0.963476
0.998743 0.958130 0.963052
0.000000 1.000000 0.972489
0.004338 1.000000 0.970102
0.073866 1.000000 0.967688
0.217402 1.000000 0.965330
0.419489 1.000000 0.963135
0.640032 1.000000 0.961334
0.828679 1.000000 0.960546
0.950627 1.000000 0.962360
0.998855 1.000000 0.962575
0.000000 0.000000 1.000000
0.033039 0.000000 1.000000
0.131233 0.000000 1.000000
0.281744 0.000000 1.000000
0.465415 0.000000 1.000000
0.654622 0.000000 1.000000
0.820273 0.000000 1.000000
0.936754 0.000000 1.000000
0.995173 0.000000 1.000000
0.000000 0.039021 1.000000
0.029437 0.038017 1.000000
0.129265 0.038053 1.000000
0.283995 0.038851 1.000000
0.470744 0.040094 1.000000
0.659675 0.041292 1.000000
0.823262 0.041766 1.000000
0.938608 0.041766 1.000000
0.995762 0.041769 1.000000
0.000000 0.145189 1.000000
0.023876 0.141576 1.000000
0.123314 0.139591 1.000000
0.283224 0.139761 1.000000
0.475197 0.141483 1.000000
0.665390 0.143855 1.000000
0.826723 0.145458 1.000000
0.940779 0.145557 1.000000
0.996460 0.145609 1.000000
0.000000 0.313096 1.000000
0.017120 0.306360 1.000000
0.111999 0.300872 1.000000
0.276055 0.297881 1.000000
0.477000 0.298378 1.000000
0.671758 0.301210 1.000000
0.831583 0.304257 1.000000
0.943317 0.304930 1.000000
0.997172 0.305044 1.000000
0.000000 0.519878 1.000000
0.010694 0.511517 1.000000
0.097503 0.503559 1.000000
0.260266 0.496907 1.000000
0.471067 0.493212 1.000000
0.675993 0.494161 1.000000
0.836879 0.497711 1.000000
0.945667 0.499576 1.000000
0.997747 0.499726 1.000000
0.000000 0.723074 1.000000
0.005662 0.715691 1.000000
0.082144 0.708093 1.000000
0.237507 0.700616 1.000000
0.451006 0.693957 1.000000
0.670909 0.690040 1.000000
0.840642 0.691345 1.000000
0.947550 0.694277 1.000000
0.998170 0.694490 1.000000
0.000000 0.881394 1.000000
0.002536 0.876671 1.000000
0.068833 0.871669 1.000000
0.213205 0.866405 1.000000
0.420978 0.860920 1.000000
0.648670 0.855556 1.000000
0.837517 0.851978 1.000000
0.949771 0.853341 1.000000
0.998522 0.854116 1.000000
0.000000 0.975001 1.000000
0.001214 0.972912 1.000000
0.061148 0.970693 1.000000
0.196917 0.968351 1.000000
0.395681 0.965857 1.000000
0.619893 0.963155 1.000000
0.817787 0.960185 1.000000
0.948850 0.957596 1.000000
0.998762 0.958140 1.000000
0.000000 1.000000 1.000000
0.001179 1.000000 1.000000
0.060340 1.000000 1.000000
0.194061 1.000000 1.000000
0.389392 1.000000 1.000000
0.609661 1.000000 1.000000
0.804960 1.000000 1.000000
0.938817 1.000000 1.000000
0.998808 1.000000 1.000000
