assets/presets/luts/tungsten-neg/lut.cube
TITLE "Tungsten Neg"
LUT_3D_SIZE 17
0.000000 0.000000 0.001383
0.007757 0.000000 0.001325
0.032233 0.000000 0.001317
0.071327 0.000000 0.001305
0.124832 0.000000 0.001289
0.192195 0.000000 0.001268
0.271982 0.000000 0.001243
0.361673 0.000000 0.001215
0.457695 0.000000 0.001184
0.555726 0.000000 0.001149
0.651187 0.000000 0.001112
0.739816 0.000000 0.001073
0.818142 0.000000 0.001031
0.883764 0.000000 0.000988
0.935358 0.000000 0.000943
0.972429 0.000000 0.000897
0.994699 0.000000 0.000850
0.000000 0.012739 0.001236
0.007831 0.012625 0.001280
0.032420 0.012625 0.001258
0.071665 0.012625 0.001231
0.125357 0.012625 0.001202
0.192930 0.012625 0.001169
0.272935 0.012625 0.001133
0.362826 0.012625 0.001095
0.459006 0.012625 0.001054
0.557131 0.012625 0.001012
0.652610 0.012625 0.000968
0.741178 0.012625 0.000923
0.819373 0.012625 0.000876
0.884807 0.012625 0.000829
0.936174 0.012625 0.000782
0.972993 0.012625 0.000734
0.994980 0.012625 0.000687
0.000000 0.041869 0.001174
0.007989 0.041766 0.001187
0.032757 0.041766 0.001153
0.072211 0.041766 0.001116
0.126138 0.041766 0.001077
0.193960 0.041766 0.001036
0.274207 0.041766 0.000992
0.364305 0.041766 0.000948
0.460635 0.041766 0.000902
0.558829 0.041766 0.000855
0.654289 0.041766 0.000808
0.742750 0.041766 0.000760
0.820765 0.041766 0.000713
0.885966 0.041766 0.000665
0.937066 0.041766 0.000618
0.973599 0.041766 0.000572
0.995274 0.041766 0.000527
0.000000 0.086225 0.001070
0.008220 0.086139 0.001059
0.033219 0.086139 0.001016
0.072927 0.086139 0.000972
0.127127 0.086139 0.000927
0.195225 0.086139 0.000881
0.275728 0.086139 0.000834
0.366036 0.086139 0.000787
0.462501 0.086139 0.000739
0.560739 0.086139 0.000691
0.656144 0.086139 0.000644
0.744461 0.086139 0.000598
0.822258 0.086139 0.000552
0.887191 0.086139 0.000507
0.937996 0.086139 0.000464
0.974221 0.086139 0.000422
0.995568 0.086139 0.000381
0.000000 0.145550 0.000934
0.008510 0.145480 0.000907
0.033783 0.145480 0.000860
0.073778 0.145480 0.000813
0.128276 0.145480 0.000765
0.196667 0.145480 0.000718
0.277431 0.145480 0.000670
0.367941 0.145480 0.000623
0.464524 0.145480 0.000577
0.562781 0.145480 0.000532
0.658101 0.145480 0.000487
0.746242 0.145480 0.000445
0.823792 0.145480 0.000403
0.888434 0.145480 0.000363
0.938932 0.145481 0.000325
0.974855 0.145486 0.000286
0.995873 0.145495 0.000248
0.000000 0.218973 0.000780
0.008849 0.218920 0.000744
0.034424 0.218920 0.000696
0.074727 0.218920 0.000649
0.129537 0.218920 0.000602
0.198226 0.218920 0.000557
0.279247 0.218920 0.000512
0.369946 0.218920 0.000468
0.466626 0.218920 0.000426
0.564875 0.218920 0.000385
0.660085 0.218920 0.000346
0.748052 0.218923 0.000308
0.825390 0.218931 0.000269
0.889786 0.218943 0.000231
0.940000 0.218960 0.000194
0.975592 0.218981 0.000159
0.996221 0.219005 0.000125
0.000000 0.304563 0.000621
0.009223 0.304526 0.000582
0.035117 0.304526 0.000536
0.075737 0.304526 0.000492
0.130861 0.304526 0.000449
0.199841 0.304526 0.000407
0.281106 0.304526 0.000367
0.371982 0.304527 0.000329
0.468789 0.304533 0.000290
0.567103 0.304544 0.000252
0.662304 0.304560 0.000214
0.750154 0.304581 0.000178
0.827267 0.304606 0.000143
0.891354 0.304636 0.000111
0.941206 0.304670 0.000082
0.976403 0.304708 0.000056
0.996586 0.304749 0.000033
0.000000 0.399189 0.000468
0.009619 0.399165 0.000430
0.035835 0.399165 0.000389
0.076770 0.399165 0.000350
0.132215 0.399168 0.000312
0.201531 0.399177 0.000273
0.283132 0.399192 0.000235
0.374315 0.399211 0.000198
0.471330 0.399236 0.000162
0.569723 0.399266 0.000129
0.664863 0.399300 0.000098
0.752520 0.399338 0.000069
0.829331 0.399381 0.000045
0.893044 0.399427 0.000025
0.942479 0.399477 0.000009
0.977239 0.399530 0.000001
0.996948 0.399586 0.000000
0.000000 0.498675 0.000330
0.010033 0.498667 0.000294
0.036604 0.498679 0.000256
0.077929 0.498696 0.000218
0.133796 0.498719 0.000182
0.203531 0.498746 0.000147
0.285510 0.498779 0.000114
0.376986 0.498816 0.000085
0.474174 0.498857 0.000058
0.572594 0.498902 0.000035
0.667611 0.498951 0.000017
0.755013 0.499004 0.000005
0.831468 0.499060 0.000000
0.894762 0.499119 0.000000
0.943750 0.499181 0.000000
0.978056 0.499245 0.000000
0.997285 0.499312 0.000000
0.000000 0.598272 0.000200
0.010528 0.598289 0.000166
0.037519 0.598319 0.000132
0.079282 0.598352 0.000101
0.135597 0.598390 0.000072
0.205758 0.598432 0.000047
0.288103 0.598478 0.000027
0.379845 0.598528 0.000011
0.477161 0.598580 0.000001
0.575557 0.598636 0.000000
0.670399 0.598695 0.000000
0.757498 0.598757 0.000000
0.833562 0.598821 0.000000
0.896415 0.598887 0.000000
0.944950 0.598955 0.000000
0.978810 0.599024 0.000000
0.997581 0.599096 0.000000
0.000000 0.693188 0.000087
0.011095 0.693222 0.000061
0.038537 0.693263 0.000038
0.080754 0.693307 0.000019
0.137517 0.693354 0.000006
0.208090 0.693405 0.000000
0.290772 0.693458 0.000000
0.382736 0.693514 0.000000
0.480132 0.693572 0.000000
0.578453 0.693632 0.000000
0.673077 0.693694 0.000000
0.759844 0.693758 0.000000
0.835502 0.693824 0.000000
0.897917 0.693890 0.000000
0.946015 0.693958 0.000000
0.979462 0.694026 0.000000
0.997824 0.694095 0.000000
0.000000 0.779189 0.000012
0.011705 0.779231 0.000002
0.039604 0.779276 0.000000
0.082267 0.779324 0.000000
0.139455 0.779374 0.000000
0.210404 0.779427 0.000000
0.293374 0.779481 0.000000
0.385506 0.779536 0.000000
0.482927 0.779593 0.000000
0.581126 0.779651 0.000000
0.675499 0.779710 0.000000
0.761920 0.779770 0.000000
0.837178 0.779831 0.000000
0.899186 0.779892 0.000000
0.946913 0.779953 0.000000
0.980021 0.780015 0.000000
0.998037 0.780076 0.000000
0.000028 0.853075 0.000000
0.012326 0.853117 0.000000
0.040663 0.853161 0.000000
0.083740 0.853207 0.000000
0.141307 0.853254 0.000000
0.212572 0.853302 0.000000
0.295766 0.853350 0.000000
0.387998 0.853400 0.000000
0.485385 0.853450 0.000000
0.583419 0.853501 0.000000
0.677549 0.853552 0.000000
0.763691 0.853603 0.000000
0.838656 0.853655 0.000000
0.900363 0.853705 0.000000
0.947776 0.853756 0.000000
0.980566 0.853806 0.000000
0.998237 0.853855 0.000000
0.000101 0.912854 0.000000
0.012924 0.912890 0.000000
0.041655 0.912928 0.000000
0.085088 0.912966 0.000000
0.142965 0.913005 0.000000
0.214467 0.913045 0.000000
0.297808 0.913084 0.000000
0.390117 0.913124 0.000000
0.487515 0.913164 0.000000
0.585499 0.913204 0.000000
0.679495 0.913244 0.000000
0.765418 0.913283 0.000000
0.840106 0.913322 0.000000
0.901506 0.913360 0.000000
0.948602 0.913397 0.000000
0.981078 0.913434 0.000000
0.998417 0.913470 0.000000
0.000193 0.957612 0.000000
0.013462 0.957639 0.000000
0.042518 0.957667 0.000000
0.086240 0.957696 0.000000
0.144387 0.957724 0.000000
0.216144 0.957752 0.000000
0.299709 0.957781 0.000000
0.392166 0.957809 0.000000
0.489612 0.957836 0.000000
0.587539 0.957864 0.000000
0.681380 0.957890 0.000000
0.767072 0.957917 0.000000
0.841477 0.957942 0.000000
0.902570 0.957967 0.000000
0.949359 0.957992 0.000000
0.981540 0.958015 0.000000
0.998572 0.958037 0.000000
0.000287 0.987069 0.000000
0.013934 0.987086 0.000000
0.043304 0.987102 0.000000
0.087338 0.987118 0.000000
0.145783 0.987135 0.000000
0.217803 0.987151 0.000000
0.301570 0.987167 0.000000
0.394147 0.987182 0.000000
0.491614 0.987197 0.000000
0.589461 0.987212 0.000000
0.683132 0.987227 0.000000
0.768586 0.987240 0.000000
0.842712 0.987254 0.000000
0.903514 0.987266 0.000000
0.950019 0.987278 0.000000
0.981933 0.987290 0.000000
0.998698 0.987300 0.000000
0.000391 0.999993 0.000000
0.014405 0.999994 0.000000
0.044083 0.999994 0.000000
0.088412 0.999995 0.000000
0.147131 0.999996 0.000000
0.219382 0.999996 0.000000
0.303320 0.999997 0.000000
0.395982 0.999997 0.000000
0.493441 0.999998 0.000000
0.591188 0.999998 0.000000
0.684679 0.999999 0.000000
0.769897 0.999999 0.000000
0.843760 0.999999 0.000000
0.904295 0.999999 0.000000
0.950549 1.000000 0.000000
0.982238 1.000000 0.000000
0.998790 1.000000 0.000000
0.000000 0.000000 0.023156
0.007783 0.000000 0.019831
0.032245 0.000000 0.019733
0.071352 0.000000 0.019691
0.124874 0.000000 0.019634
0.192257 0.000000 0.019565
0.272066 0.000000 0.019483
0.361777 0.000000 0.019390
0.457816 0.000000 0.019286
0.555858 0.000000 0.019171
0.651323 0.000000 0.019047
0.739947 0.000000 0.018915
0.818263 0.000000 0.018774
0.883867 0.000000 0.018625
0.935439 0.000000 0.018470
0.972486 0.000000 0.018309
0.994728 0.000000 0.018143
0.000000 0.013625 0.022464
0.007633 0.012662 0.020086
0.032449 0.012625 0.019530
0.071714 0.012625 0.019443
0.125428 0.012625 0.019345
0.193026 0.012625 0.019236
0.273055 0.012625 0.019117
0.362967 0.012625 0.018989
0.459164 0.012625 0.018853
0.557298 0.012625 0.018709
0.652777 0.012625 0.018557
0.741335 0.012625 0.018399
0.819513 0.012625 0.018236
0.884925 0.012625 0.018067
0.936265 0.012625 0.017894
0.973056 0.012625 0.017718
0.995011 0.012625 0.017538
0.000000 0.043587 0.018921
0.007315 0.042274 0.018845
0.032800 0.041766 0.019184
0.072279 0.041766 0.019061
0.126233 0.041766 0.018929
0.194083 0.041766 0.018789
0.274356 0.041766 0.018642
0.364477 0.041766 0.018487
0.460821 0.041766 0.018327
0.559022 0.041766 0.018161
0.654477 0.041766 0.017990
0.742925 0.041766 0.017816
0.820919 0.041766 0.017638
0.886093 0.041766 0.017457
0.937163 0.041766 0.017274
0.973664 0.041766 0.017090
0.995305 0.041766 0.016905
0.000000 0.088133 0.017880
0.007832 0.086590 0.018448
0.033274 0.086139 0.018724
0.073011 0.086139 0.018573
0.127241 0.086139 0.018416
0.195370 0.086139 0.018253
0.275900 0.086139 0.018085
0.366230 0.086139 0.017912
0.462708 0.086139 0.017736
0.560949 0.086139 0.017557
0.656347 0.086139 0.017375
0.744646 0.086139 0.017191
0.822419 0.086139 0.017007
0.887322 0.086139 0.016821
0.938094 0.086139 0.016636
0.974286 0.086139 0.016452
0.995598 0.086139 0.016268
0.000000 0.147496 0.017343
0.008284 0.145846 0.018050
0.033847 0.145480 0.018178
0.073873 0.145480 0.018008
0.128404 0.145480 0.017834
0.196827 0.145480 0.017656
0.277618 0.145480 0.017476
0.368149 0.145480 0.017293
0.464743 0.145480 0.017109
0.563000 0.145480 0.016924
0.658310 0.145480 0.016738
0.746430 0.145480 0.016553
0.823954 0.145480 0.016369
0.888564 0.145480 0.016187
0.939036 0.145483 0.015999
0.974928 0.145489 0.015804
0.995908 0.145499 0.015601
0.000000 0.220873 0.016868
0.008717 0.219205 0.017555
0.034495 0.218920 0.017575
0.074831 0.218920 0.017394
0.129674 0.218920 0.017210
0.198394 0.218920 0.017026
0.279442 0.218920 0.016841
0.370160 0.218920 0.016655
0.466848 0.218920 0.016471
0.565095 0.218920 0.016287
0.660298 0.218921 0.016104
0.748257 0.218926 0.015913
0.825575 0.218935 0.015714
0.889942 0.218949 0.015508
0.940121 0.218967 0.015297
0.975675 0.218989 0.015082
0.996259 0.219015 0.014863
0.000000 0.306352 0.016375
0.009152 0.304737 0.016995
0.035191 0.304526 0.016943
0.075845 0.304526 0.016757
0.131002 0.304526 0.016572
0.200012 0.304526 0.016388
0.281301 0.304526 0.016205
0.372207 0.304528 0.016019
0.469037 0.304536 0.015824
0.567362 0.304549 0.015622
0.662560 0.304567 0.015414
0.750393 0.304590 0.015201
0.827477 0.304617 0.014984
0.891528 0.304648 0.014765
0.941338 0.304683 0.014543
0.976490 0.304722 0.014321
0.996625 0.304765 0.014100
0.000000 0.400815 0.015857
0.009588 0.399312 0.016404
0.035911 0.399165 0.016306
0.076880 0.399165 0.016123
0.132369 0.399171 0.015933
0.201727 0.399182 0.015735
0.283368 0.399198 0.015530
0.374583 0.399220 0.015319
0.471618 0.399246 0.015104
0.570016 0.399278 0.014886
0.665146 0.399313 0.014665
0.752778 0.399353 0.014444
0.829555 0.399397 0.014222
0.893225 0.399444 0.014001
0.942615 0.399495 0.013782
0.977327 0.399550 0.013565
0.996985 0.399607 0.013353
0.000000 0.500099 0.015328
0.010035 0.498765 0.015791
0.036694 0.498684 0.015643
0.078063 0.498704 0.015436
0.133977 0.498728 0.015223
0.203757 0.498758 0.015007
0.285775 0.498792 0.014787
0.377281 0.498830 0.014566
0.474485 0.498873 0.014344
0.572904 0.498920 0.014123
0.667906 0.498970 0.013902
0.755277 0.499024 0.013684
0.831693 0.499081 0.013470
0.894940 0.499141 0.013259
0.943881 0.499204 0.013053
0.978139 0.499269 0.012854
0.997318 0.499337 0.012661
0.000000 0.599472 0.014726
0.010559 0.598350 0.015097
0.037622 0.598330 0.014909
0.079433 0.598365 0.014688
0.135795 0.598405 0.014467
0.206001 0.598448 0.014245
0.288383 0.598496 0.014024
0.380151 0.598546 0.013804
0.477478 0.598600 0.013587
0.575867 0.598657 0.013374
0.670689 0.598717 0.013166
0.757754 0.598780 0.012963
0.833776 0.598844 0.012766
0.896582 0.598911 0.012577
0.945070 0.598980 0.012395
0.978884 0.599050 0.012222
0.997609 0.599122 0.012059
0.000000 0.694151 0.014060
0.011145 0.693258 0.014354
0.038648 0.693278 0.014145
0.080913 0.693324 0.013925
0.137722 0.693372 0.013707
0.208337 0.693424 0.013491
0.291052 0.693478 0.013280
0.383036 0.693535 0.013074
0.480438 0.693594 0.012874
0.578748 0.693654 0.012680
0.673347 0.693717 0.012494
0.760078 0.693782 0.012317
0.835693 0.693848 0.012148
0.898062 0.693915 0.011989
0.946117 0.693983 0.011841
0.979523 0.694051 0.011704
0.997847 0.694121 0.011577
0.000000 0.779926 0.013373
0.011766 0.779253 0.013606
0.039717 0.779293 0.013396
0.082426 0.779342 0.013187
0.139656 0.779393 0.012984
0.210641 0.779446 0.012786
0.293639 0.779501 0.012596
0.385784 0.779557 0.012413
0.483204 0.779614 0.012240
0.581388 0.779673 0.012075
0.675733 0.779732 0.011921
0.762118 0.779792 0.011778
0.837334 0.779853 0.011647
0.899310 0.779914 0.011521
0.947005 0.779976 0.011395
0.980079 0.780037 0.011270
0.998058 0.780098 0.011146
0.000005 0.853587 0.012723
0.012391 0.853133 0.012894
0.040772 0.853177 0.012700
0.083889 0.853224 0.012513
0.141493 0.853271 0.012334
0.212787 0.853319 0.012165
0.295999 0.853368 0.012005
0.388238 0.853418 0.011856
0.485618 0.853469 0.011718
0.583638 0.853520 0.011590
0.677755 0.853571 0.011464
0.763874 0.853622 0.011339
0.838811 0.853673 0.011214
0.900486 0.853724 0.011091
0.947865 0.853774 0.010969
0.980621 0.853824 0.010849
0.998257 0.853873 0.010732
0.000064 0.913187 0.012127
0.012984 0.912904 0.012257
0.041753 0.912942 0.012092
0.085219 0.912980 0.011937
0.143123 0.913020 0.011792
0.214645 0.913059 0.011660
0.298008 0.913099 0.011534
0.390334 0.913139 0.011408
0.487738 0.913179 0.011283
0.585717 0.913218 0.011159
0.679697 0.913258 0.011036
0.765597 0.913297 0.010915
0.840255 0.913336 0.010796
0.901622 0.913374 0.010680
0.948685 0.913411 0.010567
0.981130 0.913447 0.010456
0.998435 0.913482 0.010350
0.000152 0.957812 0.011619
0.013513 0.957650 0.011731
0.042600 0.957678 0.011603
0.086356 0.957706 0.011477
0.144535 0.957734 0.011352
0.216320 0.957763 0.011227
0.299908 0.957791 0.011104
0.392379 0.957819 0.010982
0.489828 0.957846 0.010862
0.587748 0.957873 0.010744
0.681572 0.957900 0.010629
0.767239 0.957926 0.010517
0.841614 0.957952 0.010408
0.902676 0.957976 0.010303
0.949434 0.958000 0.010202
0.981585 0.958023 0.010105
0.998587 0.958045 0.010014
0.000247 0.987169 0.011209
0.013983 0.987092 0.011296
0.043387 0.987108 0.011172
0.087453 0.987124 0.011049
0.145929 0.987141 0.010928
0.217974 0.987157 0.010808
0.301761 0.987172 0.010692
0.394349 0.987188 0.010578
0.491816 0.987203 0.010467
0.589653 0.987217 0.010360
0.683306 0.987232 0.010257
0.768735 0.987245 0.010158
0.842833 0.987258 0.010064
0.903604 0.987271 0.009974
0.950081 0.987283 0.009890
0.981969 0.987294 0.009811
0.998709 0.987304 0.009737
0.000354 0.999997 0.010815
0.014454 0.999994 0.010874
0.044163 0.999995 0.010756
0.088522 0.999995 0.010640
0.147268 0.999996 0.010528
0.219542 0.999997 0.010419
0.303494 0.999997 0.010314
0.396164 0.999998 0.010212
0.493620 0.999998 0.010115
0.591355 0.999998 0.010023
0.684827 0.999999 0.009935
0.770021 0.999999 0.009853
0.843857 0.999999 0.009777
0.904366 1.000000 0.009707
0.950596 1.000000 0.009642
0.982264 1.000000 0.009585
0.998797 1.000000 0.009534
0.000000 0.000000 0.064043
0.008009 0.000000 0.057266
0.032259 0.000000 0.054420
0.071379 0.000000 0.054344
0.124919 0.000000 0.054246
0.192321 0.000000 0.054128
0.272152 0.000000 0.053990
0.361883 0.000000 0.053834
0.457939 0.000000 0.053661
0.555991 0.000000 0.053472
0.651460 0.000000 0.053267
0.740080 0.000000 0.053048
0.818383 0.000000 0.052817
0.883970 0.000000 0.052573
0.935520 0.000000 0.052319
0.972542 0.000000 0.052055
0.994756 0.000000 0.051782
0.000000 0.013259 0.066160
0.007193 0.012501 0.061558
0.032537 0.012605 0.054231
0.071763 0.012625 0.053923
0.125501 0.012625 0.053760
0.193123 0.012625 0.053579
0.273176 0.012625 0.053383
0.363110 0.012625 0.053172
0.459322 0.012625 0.052947
0.557464 0.012625 0.052710
0.652942 0.012625 0.052461
0.741491 0.012625 0.052203
0.819652 0.012625 0.051934
0.885041 0.012625 0.051658
0.936355 0.012625 0.051375
0.973117 0.012625 0.051085
0.995041 0.012625 0.050791
0.000000 0.044885 0.059863
0.004939 0.043502 0.058152
0.032408 0.041838 0.054315
0.072347 0.041766 0.053290
0.126329 0.041766 0.053072
0.194207 0.041766 0.052842
0.274506 0.041766 0.052600
0.364648 0.041766 0.052346
0.461007 0.041766 0.052083
0.559213 0.041766 0.051811
0.654664 0.041766 0.051532
0.743098 0.041766 0.051246
0.821070 0.041766 0.050954
0.886218 0.041766 0.050657
0.937258 0.041766 0.050357
0.973729 0.041766 0.050054
0.995336 0.041766 0.049750
0.000000 0.090794 0.053287
0.005413 0.088958 0.052175
0.031989 0.086864 0.052008
0.073094 0.086139 0.052487
0.127355 0.086139 0.052230
0.195514 0.086139 0.051962
0.276071 0.086139 0.051687
0.366422 0.086139 0.051404
0.462912 0.086139 0.051115
0.561157 0.086139 0.050821
0.656547 0.086139 0.050523
0.744829 0.086139 0.050221
0.822577 0.086139 0.049918
0.887451 0.086139 0.049613
0.938191 0.086139 0.049308
0.974351 0.086139 0.049004
0.995628 0.086139 0.048702
0.000000 0.150768 0.050100
0.006338 0.148438 0.050056
0.033143 0.146048 0.051180
0.073969 0.145480 0.051561
0.128531 0.145480 0.051275
0.196985 0.145480 0.050984
0.277803 0.145480 0.050688
0.368354 0.145480 0.050388
0.464959 0.145480 0.050085
0.563216 0.145480 0.049781
0.658516 0.145480 0.049476
0.746616 0.145480 0.049172
0.824112 0.145480 0.048868
0.888694 0.145481 0.048565
0.939140 0.145484 0.048249
0.975000 0.145492 0.047920
0.995943 0.145503 0.047578
0.000000 0.224416 0.048340
0.007148 0.221766 0.048966
0.034103 0.219337 0.050402
0.074933 0.218920 0.050554
0.129810 0.218920 0.050252
0.198560 0.218920 0.049949
0.279634 0.218920 0.049644
0.370370 0.218920 0.049339
0.467067 0.218920 0.049035
0.565311 0.218920 0.048733
0.660513 0.218922 0.048425
0.748462 0.218928 0.048103
0.825760 0.218940 0.047768
0.890098 0.218955 0.047422
0.940242 0.218974 0.047066
0.975757 0.218998 0.046703
0.996296 0.219025 0.046333
0.000000 0.309938 0.047123
0.007865 0.307135 0.048111
0.034974 0.304826 0.049514
0.075951 0.304526 0.049508
0.131140 0.304526 0.049203
0.200180 0.304526 0.048899
0.281495 0.304526 0.048597
0.372433 0.304531 0.048283
0.469286 0.304540 0.047954
0.567621 0.304555 0.047614
0.662815 0.304575 0.047263
0.750630 0.304599 0.046904
0.827686 0.304627 0.046538
0.891700 0.304660 0.046167
0.941469 0.304697 0.045792
0.976577 0.304737 0.045416
0.996663 0.304781 0.045041
0.000000 0.404265 0.046129
0.008518 0.401464 0.047303
0.035799 0.399372 0.048569
0.076992 0.399167 0.048458
0.132522 0.399174 0.048137
0.201923 0.399187 0.047803
0.283604 0.399205 0.047458
0.374849 0.399229 0.047103
0.471904 0.399257 0.046740
0.570307 0.399290 0.046372
0.665426 0.399327 0.045999
0.753034 0.399368 0.045624
0.829775 0.399413 0.045248
0.893403 0.399462 0.044873
0.942747 0.399514 0.044501
0.977412 0.399570 0.044133
0.997021 0.399628 0.043771
0.000000 0.503275 0.045234
0.009141 0.500618 0.046467
0.036668 0.498822 0.047527
0.078198 0.498712 0.047300
0.134157 0.498738 0.046941
0.203981 0.498769 0.046575
0.286038 0.498805 0.046205
0.377573 0.498845 0.045831
0.474791 0.498889 0.045455
0.573210 0.498937 0.045079
0.668195 0.498989 0.044706
0.755536 0.499044 0.044335
0.831912 0.499102 0.043969
0.895115 0.499163 0.043610
0.944008 0.499227 0.043260
0.978219 0.499293 0.042919
0.997350 0.499361 0.042589
0.000000 0.602268 0.044266
0.009816 0.599869 0.045490
0.037660 0.598414 0.046341
0.079582 0.598379 0.046037
0.135991 0.598420 0.045662
0.206240 0.598465 0.045287
0.288659 0.598513 0.044911
0.380451 0.598565 0.044539
0.477788 0.598620 0.044170
0.576172 0.598678 0.043808
0.670972 0.598739 0.043452
0.758004 0.598803 0.043105
0.833983 0.598868 0.042769
0.896744 0.598935 0.042445
0.945185 0.599005 0.042134
0.978956 0.599076 0.041838
0.997637 0.599148 0.041558
0.000000 0.696503 0.043222
0.010531 0.694438 0.044418
0.038726 0.693326 0.045085
0.081069 0.693341 0.044744
0.137923 0.693390 0.044373
0.208578 0.693443 0.044007
0.291326 0.693498 0.043647
0.383330 0.693555 0.043295
0.480735 0.693615 0.042953
0.579034 0.693677 0.042622
0.673608 0.693740 0.042304
0.760304 0.693805 0.041999
0.835877 0.693871 0.041711
0.898203 0.693939 0.041439
0.946215 0.694007 0.041186
0.979581 0.694076 0.040952
0.997869 0.694145 0.040730
0.000000 0.781812 0.042152
0.011259 0.780121 0.043317
0.039816 0.779321 0.043833
0.082581 0.779360 0.043488
0.139852 0.779412 0.043141
0.210872 0.779465 0.042803
0.293896 0.779520 0.042478
0.386054 0.779577 0.042165
0.483473 0.779635 0.041868
0.581641 0.779694 0.041586
0.675959 0.779753 0.041323
0.762307 0.779814 0.041078
0.837487 0.779875 0.040853
0.899432 0.779936 0.040630
0.947095 0.779997 0.040408
0.980136 0.780059 0.040187
0.998080 0.780120 0.039967
0.000000 0.855005 0.041163
0.011972 0.853736 0.042251
0.040876 0.853195 0.042654
0.084034 0.853240 0.042336
0.141672 0.853288 0.042030
0.212994 0.853337 0.041739
0.296224 0.853386 0.041466
0.388469 0.853436 0.041211
0.485840 0.853487 0.040975
0.583853 0.853538 0.040753
0.677956 0.853589 0.040530
0.764054 0.853640 0.040309
0.838962 0.853691 0.040088
0.900606 0.853742 0.039869
0.947952 0.853792 0.039653
0.980676 0.853841 0.039440
0.998276 0.853890 0.039232
0.000000 0.914189 0.040258
0.012636 0.913297 0.041284
0.041848 0.912955 0.041615
0.085346 0.912994 0.041349
0.143276 0.913034 0.041103
0.214818 0.913073 0.040875
0.298204 0.913113 0.040653
0.390547 0.913153 0.040431
0.487956 0.913193 0.040209
0.585930 0.913233 0.039990
0.679895 0.913272 0.039772
0.765772 0.913311 0.039557
0.840401 0.913349 0.039346
0.901736 0.913387 0.039139
0.948766 0.913424 0.038937
0.981180 0.913460 0.038741
0.998452 0.913495 0.038551
0.000028 0.958459 0.039491
0.013215 0.957887 0.040481
0.042681 0.957688 0.040776
0.086469 0.957716 0.040553
0.144680 0.957744 0.040331
0.216493 0.957773 0.040111
0.300103 0.957801 0.039892
0.392588 0.957829 0.039675
0.490040 0.957856 0.039462
0.587952 0.957883 0.039253
0.681759 0.957909 0.039048
0.767401 0.957935 0.038848
0.841747 0.957960 0.038655
0.902778 0.957985 0.038468
0.949506 0.958008 0.038288
0.981628 0.958031 0.038115
0.998601 0.958052 0.037952
0.000098 0.987515 0.038870
0.013732 0.987210 0.039790
0.043468 0.987114 0.040012
0.087566 0.987130 0.039794
0.146070 0.987146 0.039579
0.218141 0.987162 0.039368
0.301947 0.987178 0.039160
0.394545 0.987193 0.038958
0.492012 0.987208 0.038761
0.589840 0.987223 0.038570
0.683474 0.987237 0.038386
0.768878 0.987250 0.038209
0.842948 0.987263 0.038041
0.903692 0.987275 0.037881
0.950141 0.987287 0.037731
0.982004 0.987297 0.037590
0.998720 0.987307 0.037460
0.000190 1.000000 0.038259
0.014242 0.999998 0.039106
0.044242 0.999995 0.039274
0.088629 0.999996 0.039069
0.147401 0.999996 0.038869
0.219696 0.999997 0.038674
0.303664 0.999997 0.038487
0.396340 0.999998 0.038306
0.493793 0.999998 0.038133
0.591516 0.999999 0.037968
0.684969 0.999999 0.037812
0.770139 0.999999 0.037666
0.843950 0.999999 0.037531
0.904433 1.000000 0.037406
0.950641 1.000000 0.037292
0.982289 1.000000 0.037191
0.998804 1.000000 0.037103
0.000000 0.000000 0.123834
0.008085 0.000000 0.113906
0.032533 0.000000 0.106091
0.071409 0.000000 0.104864
0.124966 0.000000 0.104720
0.192389 0.000000 0.104549
0.272242 0.000000 0.104351
0.361994 0.000000 0.104128
0.458066 0.000000 0.103882
0.556129 0.000000 0.103615
0.651600 0.000000 0.103326
0.740215 0.000000 0.103019
0.818506 0.000000 0.102695
0.884075 0.000000 0.102354
0.935602 0.000000 0.101999
0.972599 0.000000 0.101631
0.994785 0.000000 0.101250
0.000000 0.012925 0.128496
0.007123 0.012323 0.120532
0.032975 0.012385 0.108462
