assets/presets/luts/cool-soft/lut.cube
TITLE "Cool Soft"
LUT_3D_SIZE 17
0.026795 0.030034 0.033272
0.087741 0.029106 0.032333
0.149897 0.028270 0.031483
0.211613 0.027552 0.030751
0.272889 0.026953 0.030138
0.333727 0.026473 0.029644
0.394125 0.026112 0.029268
0.454083 0.025869 0.029011
0.513602 0.025744 0.028872
0.572682 0.025739 0.028853
0.631323 0.025852 0.028951
0.689524 0.026083 0.029169
0.747286 0.026433 0.029505
0.804608 0.026902 0.029959
0.861492 0.027490 0.030533
0.917935 0.028196 0.031225
0.973940 0.029021 0.032035
0.023558 0.091760 0.030009
0.084467 0.090844 0.029066
0.146887 0.089918 0.028328
0.208907 0.089094 0.027751
0.270496 0.088386 0.027303
0.331647 0.087795 0.026978
0.392360 0.087323 0.026772
0.452635 0.086969 0.026687
0.512470 0.086733 0.026721
0.571866 0.086616 0.026873
0.630822 0.086618 0.027145
0.689340 0.086738 0.027536
0.747418 0.086976 0.028045
0.805057 0.087334 0.028673
0.862256 0.087810 0.029419
0.919016 0.088404 0.030285
0.975337 0.089117 0.031269
0.020736 0.153411 0.027158
0.081361 0.152585 0.026156
0.143751 0.151673 0.025358
0.205957 0.150791 0.024817
0.267808 0.149995 0.024469
0.329248 0.149305 0.024274
0.390262 0.148729 0.024215
0.450842 0.148268 0.024285
0.510987 0.147924 0.024479
0.570695 0.147698 0.024795
0.629965 0.147590 0.025232
0.688796 0.147599 0.025790
0.747189 0.147728 0.026468
0.805142 0.147974 0.027265
0.862657 0.148339 0.028182
0.919733 0.148823 0.029218
0.976370 0.149425 0.030374
0.018333 0.214894 0.024726
0.078648 0.214165 0.023676
0.140820 0.213328 0.022794
0.203005 0.212458 0.022185
0.264988 0.211623 0.021834
0.326644 0.210864 0.021694
0.387915 0.210201 0.021729
0.448774 0.209646 0.021915
0.509210 0.209202 0.022241
0.569215 0.208873 0.022699
0.628788 0.208660 0.023286
0.687925 0.208563 0.023998
0.746626 0.208584 0.024833
0.804890 0.208722 0.025791
0.862716 0.208978 0.026871
0.920104 0.209352 0.028071
0.977053 0.209844 0.029392
0.016349 0.276211 0.022713
0.076349 0.275580 0.021619
0.138240 0.274833 0.020667
0.200261 0.274022 0.019967
0.262227 0.273198 0.019546
0.323985 0.272411 0.019384
0.385435 0.271693 0.019444
0.446519 0.271064 0.019693
0.507209 0.270536 0.020108
0.567486 0.270115 0.020675
0.627342 0.269805 0.021384
0.686770 0.269609 0.022229
0.745768 0.269527 0.023204
0.804332 0.269561 0.024307
0.862462 0.269712 0.025537
0.920155 0.269980 0.026891
0.977413 0.270365 0.028368
0.014784 0.337361 0.021119
0.074467 0.336829 0.019983
0.136056 0.336177 0.018971
0.197840 0.335445 0.018186
0.259676 0.334670 0.017674
0.321419 0.333894 0.017441
0.382950 0.333155 0.017468
0.444186 0.332481 0.017722
0.505073 0.331890 0.018177
0.565581 0.331394 0.018811
0.625689 0.331000 0.019607
0.685384 0.330714 0.020555
0.744659 0.330538 0.021646
0.803509 0.330474 0.022874
0.861930 0.330525 0.024236
0.919919 0.330691 0.025729
0.977476 0.330973 0.027349
0.013638 0.398344 0.019944
0.073004 0.397910 0.018766
0.134280 0.397357 0.017701
0.195792 0.396713 0.016842
0.257428 0.396007 0.016239
0.319063 0.395272 0.015916
0.380580 0.394544 0.015871
0.441883 0.393854 0.016085
0.502901 0.393225 0.016532
0.563584 0.392675 0.017188
0.623901 0.392214 0.018032
0.683829 0.391852 0.019049
0.743355 0.391593 0.020226
0.802469 0.391441 0.021554
0.861163 0.391399 0.023026
0.919433 0.391469 0.024638
0.977276 0.391653 0.026385
0.012912 0.459160 0.019189
0.071960 0.458825 0.017970
0.132919 0.458371 0.016853
0.194139 0.457821 0.015928
0.255532 0.457195 0.015241
0.316995 0.456521 0.014826
0.378420 0.455829 0.014692
0.439711 0.455150 0.014835
0.500785 0.454509 0.015237
0.561582 0.453926 0.015875
0.622055 0.453418 0.016728
0.682174 0.452996 0.017778
0.741916 0.452667 0.019008
0.801264 0.452439 0.020406
0.860208 0.452314 0.021963
0.918739 0.452297 0.023672
0.976852 0.452390 0.025525
0.012605 0.519809 0.018852
0.071334 0.519573 0.017592
0.131973 0.519219 0.016428
0.192891 0.518765 0.015442
0.254016 0.518226 0.014679
0.315263 0.517625 0.014174
0.376537 0.516988 0.013947
0.437748 0.516341 0.014003
0.498810 0.515711 0.014334
0.559656 0.515119 0.014923
0.620230 0.514584 0.015751
0.680490 0.514119 0.016799
0.740405 0.513737 0.018050
0.799954 0.513445 0.019489
0.859118 0.513249 0.021103
0.917885 0.513154 0.022883
0.976247 0.513165 0.024821
0.012717 0.580291 0.018935
0.071128 0.580154 0.017634
0.131444 0.579901 0.016423
0.192053 0.579544 0.015380
0.252894 0.579097 0.014547
0.313896 0.578577 0.013959
0.374977 0.578007 0.013640
0.436053 0.577409 0.013603
0.497045 0.576809 0.013848
0.557879 0.576227 0.014366
0.618496 0.575684 0.015143
0.678846 0.575196 0.016160
0.738889 0.574777 0.017402
0.798597 0.574436 0.018851
0.857947 0.574182 0.020495
0.916921 0.574022 0.022321
0.975506 0.573959 0.024318
0.013248 0.640606 0.019437
0.071340 0.640568 0.018096
0.131334 0.640415 0.016839
0.191629 0.640157 0.015742
0.252175 0.639804 0.014844
0.312912 0.639371 0.014179
0.373768 0.638876 0.013772
0.434670 0.638340 0.013642
0.495541 0.637785 0.013794
0.556312 0.637231 0.014228
0.616918 0.636698 0.014933
0.677305 0.636205 0.015897
0.737429 0.635765 0.017104
0.797255 0.635391 0.018537
0.856752 0.635093 0.020184
0.915899 0.634879 0.022029
0.974678 0.634755 0.024062
0.014198 0.700755 0.020359
0.071972 0.700815 0.018976
0.131641 0.700764 0.017674
0.191620 0.700604 0.016527
0.251865 0.700347 0.015568
0.312322 0.700005 0.014830
0.372932 0.699592 0.014340
0.433627 0.699126 0.014119
0.494339 0.698627 0.014177
0.555000 0.698115 0.014520
0.615548 0.697608 0.015142
0.675925 0.697125 0.016035
0.736083 0.696680 0.017186
0.795982 0.696289 0.018581
0.855587 0.695961 0.020206
0.914870 0.695707 0.022047
0.973811 0.695534 0.024092
0.015568 0.760736 0.021699
0.073023 0.760895 0.020276
0.132367 0.760945 0.018930
0.192027 0.760886 0.017732
0.251965 0.760726 0.016715
0.312134 0.760476 0.015909
0.372480 0.760149 0.015341
0.432946 0.759760 0.015033
0.493467 0.759327 0.014999
0.553983 0.758868 0.015248
0.614430 0.758400 0.015780
0.674754 0.757941 0.016590
0.734902 0.757506 0.017670
0.794831 0.757111 0.019009
0.854503 0.756768 0.020592
0.913886 0.756487 0.022408
0.972954 0.756277 0.024443
0.017356 0.820551 0.023459
0.074493 0.820808 0.021995
0.133512 0.820959 0.020605
0.192852 0.821000 0.019359
0.252479 0.820938 0.018287
0.312351 0.820783 0.017416
0.372423 0.820545 0.016774
0.432640 0.820239 0.016383
0.492947 0.819879 0.016260
0.553286 0.819481 0.016415
0.613599 0.819062 0.016853
0.673830 0.818640 0.017574
0.733929 0.818228 0.018573
0.793848 0.817843 0.019840
0.853547 0.817497 0.021366
0.912992 0.817202 0.023137
0.972153 0.816968 0.025143
0.019564 0.880198 0.025638
0.076383 0.880555 0.024133
0.135076 0.880807 0.022700
0.194094 0.880948 0.021406
0.253407 0.880985 0.020280
0.312978 0.880925 0.019349
0.372765 0.880779 0.018637
0.432721 0.880558 0.018167
0.492795 0.880276 0.017957
0.552933 0.879948 0.018021
0.613082 0.879587 0.018365
0.673188 0.879211 0.018993
0.733200 0.878834 0.019904
0.793073 0.878471 0.021090
0.852763 0.878135 0.022545
0.912233 0.877839 0.024257
0.971451 0.877592 0.026217
0.022191 0.939679 0.028236
0.078691 0.940134 0.026691
0.137058 0.940488 0.025214
0.195754 0.940729 0.023874
0.254751 0.940865 0.022696
0.314016 0.940902 0.021706
0.373512 0.940850 0.020927
0.433195 0.940718 0.020382
0.493021 0.940518 0.020090
0.552939 0.940264 0.020064
0.612899 0.939969 0.020316
0.672852 0.939648 0.020850
0.732748 0.939315 0.021668
0.792541 0.938984 0.022767
0.852187 0.938669 0.024141
0.911648 0.938383 0.025783
0.970888 0.938136 0.027683
0.025238 0.998993 0.031253
0.081418 0.999547 0.029667
0.139460 1.000000 0.028148
0.197833 1.000000 0.026762
0.256512 1.000000 0.025533
0.315468 1.000000 0.024486
0.374667 1.000000 0.023644
0.434069 1.000000 0.023027
0.493634 1.000000 0.022655
0.553316 1.000000 0.022544
0.613068 1.000000 0.022705
0.672844 0.999942 0.023146
0.732596 0.999661 0.023870
0.792279 0.999373 0.024877
0.851850 0.999089 0.026165
0.911270 0.998823 0.027727
0.970501 0.998585 0.029556
0.026467 0.029691 0.100860
0.087371 0.028771 0.099974
0.149662 0.027915 0.098919
0.211523 0.027182 0.097911
0.272942 0.026571 0.097004
0.333921 0.026079 0.096209
0.394460 0.025706 0.095529
0.454559 0.025452 0.094967
0.514218 0.025317 0.094522
0.573438 0.025301 0.094195
0.632218 0.025403 0.093987
0.690559 0.025625 0.093896
0.748460 0.025964 0.093924
0.805922 0.026423 0.094071
0.862945 0.027000 0.094336
0.919528 0.027696 0.094720
0.975671 0.028510 0.095222
0.023239 0.091411 0.097639
0.084104 0.090501 0.096755
0.146706 0.089545 0.095780
0.208878 0.088706 0.094914
0.270611 0.087985 0.094166
0.331904 0.087383 0.093536
0.392757 0.086900 0.093025
0.453172 0.086535 0.092633
0.513147 0.086289 0.092360
0.572682 0.086161 0.092205
0.631779 0.086152 0.092169
0.690436 0.086262 0.092251
0.748653 0.086490 0.092452
0.806432 0.086837 0.092772
0.863770 0.087303 0.093210
0.920670 0.087887 0.093767
0.977130 0.088590 0.094442
0.020314 0.153122 0.094486
0.080874 0.152316 0.093478
0.143418 0.151378 0.092496
0.205856 0.150448 0.091744
0.267894 0.149621 0.091153
0.329500 0.148909 0.090689
0.390669 0.148315 0.090348
0.451399 0.147839 0.090127
0.511690 0.147481 0.090026
0.571542 0.147242 0.090044
0.630955 0.147122 0.090180
0.689929 0.147120 0.090436
0.748463 0.147236 0.090810
0.806558 0.147472 0.091303
0.864214 0.147826 0.091915
0.921431 0.148298 0.092646
0.978208 0.148889 0.093495
0.017813 0.214672 0.091687
0.078065 0.213964 0.090612
0.140310 0.213121 0.089573
0.202710 0.212208 0.088760
0.264933 0.211322 0.088204
0.326802 0.210522 0.087842
0.388261 0.209828 0.087633
0.449292 0.209248 0.087559
0.509890 0.208784 0.087613
0.570053 0.208436 0.087792
0.629777 0.208206 0.088093
0.689064 0.208095 0.088515
0.747913 0.208101 0.089057
0.806322 0.208226 0.089719
0.864293 0.208469 0.090500
0.921825 0.208830 0.091401
0.978918 0.209310 0.092421
0.015736 0.276055 0.089293
0.075675 0.275446 0.088165
0.137600 0.274702 0.087079
0.199773 0.273865 0.086183
0.261971 0.272994 0.085558
0.323971 0.272155 0.085192
0.385646 0.271391 0.085039
0.446935 0.270725 0.085059
0.507812 0.270166 0.085231
0.568266 0.269718 0.085542
0.628289 0.269385 0.085986
0.687879 0.269168 0.086557
0.747034 0.269068 0.087254
0.805752 0.269085 0.088074
0.864033 0.269220 0.089017
0.921876 0.269472 0.090080
0.979282 0.269843 0.091265
0.014080 0.337271 0.087312
0.073704 0.336760 0.086138
0.135304 0.336118 0.085007
0.197194 0.335372 0.084043
0.259221 0.334560 0.083327
0.321201 0.333735 0.082890
0.382975 0.332944 0.082714
0.444443 0.332222 0.082759
0.505546 0.331589 0.082994
0.566254 0.331057 0.083396
0.626550 0.330632 0.083948
0.686424 0.330318 0.084643
0.745870 0.330118 0.085472
0.804885 0.330032 0.086433
0.863467 0.330063 0.087521
0.921614 0.330210 0.088736
0.979325 0.330474 0.090074
0.012845 0.398320 0.085748
0.072152 0.397908 0.084529
0.133426 0.397366 0.083355
0.195011 0.396717 0.082332
0.256797 0.395986 0.081533
0.318643 0.395209 0.081005
0.380400 0.394431 0.080757
0.441947 0.393688 0.080768
0.503201 0.393010 0.081009
0.564107 0.392415 0.081450
0.624634 0.391915 0.082069
0.684760 0.391517 0.082852
0.744474 0.391227 0.083785
0.803767 0.391047 0.084861
0.862635 0.390980 0.086075
0.921073 0.391027 0.087423
0.979080 0.391189 0.088900
0.012030 0.459202 0.084602
0.071019 0.458888 0.083340
0.131967 0.458448 0.082123
0.193238 0.457898 0.081047
0.254749 0.457256 0.080175
0.316390 0.456549 0.079557
0.378036 0.455813 0.079218
0.439568 0.455082 0.079158
0.500888 0.454388 0.079357
0.561923 0.453756 0.079790
0.622625 0.453201 0.080432
0.682960 0.452736 0.081262
0.742908 0.452370 0.082264
0.802452 0.452107 0.083427
0.861583 0.451951 0.084741
0.920296 0.451905 0.086199
0.978584 0.451972 0.087796
0.011634 0.519917 0.083874
0.070306 0.519702 0.082570
0.130927 0.519363 0.081311
0.191879 0.518913 0.080185
0.253097 0.518364 0.079247
0.314493 0.517739 0.078546
0.375964 0.517064 0.078115
0.437401 0.516371 0.077966
0.498706 0.515688 0.078093
0.559797 0.515044 0.078480
0.620611 0.514458 0.079104
0.681103 0.513946 0.079943
0.741241 0.513519 0.080978
0.801001 0.513186 0.082194
0.860368 0.512954 0.083579
0.919330 0.512825 0.085122
0.977880 0.512804 0.086816
0.011657 0.580465 0.083565
0.070012 0.580349 0.082219
0.130306 0.580111 0.080918
0.190937 0.579761 0.079744
0.251851 0.579309 0.078747
0.312977 0.578771 0.077970
0.374229 0.578171 0.077450
0.435513 0.577532 0.077207
0.496735 0.576883 0.077248
0.557813 0.576250 0.077563
0.618675 0.575655 0.078137
0.679267 0.575116 0.078951
0.739545 0.574647 0.079985
0.799479 0.574261 0.081222
0.859046 0.573964 0.082646
0.918228 0.573765 0.084247
0.977014 0.573666 0.086013
0.012100 0.640846 0.083675
0.070137 0.640828 0.082287
0.130104 0.640693 0.080944
0.190412 0.640443 0.079725
0.251016 0.640088 0.078671
0.311856 0.639643 0.077825
0.372861 0.639124 0.077222
0.433949 0.638553 0.076888
0.495035 0.637954 0.076835
0.556040 0.637351 0.077064
0.616889 0.636767 0.077567
0.677523 0.636221 0.078328
0.737890 0.635729 0.079331
0.797951 0.635306 0.080559
0.857678 0.634961 0.081994
0.917046 0.634703 0.083624
0.976039 0.634538 0.085436
0.012963 0.701060 0.084203
0.070681 0.701141 0.082774
0.130321 0.701107 0.081390
0.190306 0.700958 0.080125
0.250595 0.700702 0.079018
0.311139 0.700351 0.078108
0.371877 0.699920 0.077428
0.432738 0.699425 0.077006
0.493648 0.698888 0.076860
0.554530 0.698331 0.076997
0.615314 0.697774 0.077415
0.675935 0.697239 0.078105
0.736339 0.696742 0.079054
0.796481 0.696298 0.080246
0.856324 0.695920 0.081665
0.915839 0.695618 0.083297
0.975005 0.695400 0.085129
0.014244 0.761107 0.085151
0.071644 0.761287 0.083681
0.130957 0.761354 0.082254
0.190617 0.761306 0.080945
0.250590 0.761150 0.079788
0.310831 0.760895 0.078817
0.371288 0.760554 0.078065
0.431901 0.760142 0.077561
0.492602 0.759676 0.077324
0.553323 0.759176 0.077367
0.613996 0.758662 0.077694
0.674557 0.758153 0.078300
0.734950 0.757666 0.079178
0.795125 0.757218 0.080314
0.855040 0.756823 0.081694
0.914663 0.756491 0.083305
0.973965 0.756233 0.085132
0.015945 0.820988 0.086518
0.073027 0.821266 0.085007
0.132013 0.821435 0.083538
0.191348 0.821488 0.082185
0.251001 0.821432 0.080978
0.310934 0.821274 0.079950
0.371101 0.821026 0.079131
0.431449 0.820700 0.078549
0.491919 0.820312 0.078225
0.552448 0.819878 0.078176
0.612973 0.819418 0.078409
0.673433 0.818948 0.078925
0.733770 0.818486 0.079720
0.793934 0.818049 0.080785
0.853879 0.817650 0.082108
0.913568 0.817303 0.083677
0.972969 0.817018 0.085478
0.018065 0.880701 0.088304
0.074828 0.881079 0.086752
0.133487 0.881348 0.085242
0.192497 0.881503 0.083845
0.251829 0.881547 0.082590
0.311451 0.881487 0.081506
0.371321 0.881334 0.080624
0.431392 0.881097 0.079968
0.491613 0.880792 0.079562
0.551926 0.880431 0.079423
0.612273 0.880033 0.079563
0.672596 0.879613 0.079985
0.732840 0.879188 0.080691
0.792953 0.878774 0.081674
0.852887 0.878386 0.082926
0.912603 0.878037 0.084436
0.972065 0.877738 0.086193
0.020604 0.940247 0.090509
0.077049 0.940724 0.088916
0.135381 0.941095 0.087364
0.194064 0.941351 0.085924
0.253075 0.941495 0.084622
0.312383 0.941534 0.083485
0.371950 0.941477 0.082542
0.431736 0.941332 0.081817
0.491694 0.941113 0.081333
0.551772 0.940831 0.081108
0.611917 0.940502 0.081155
0.672075 0.940141 0.081484
0.732192 0.939763 0.082096
0.792217 0.939384 0.082991
0.852104 0.939018 0.084162
0.911810 0.938679 0.085601
0.971296 0.938379 0.087299
0.023563 0.999627 0.093133
0.079689 1.000000 0.091499
0.137693 1.000000 0.089906
0.196051 1.000000 0.088423
0.254739 1.000000 0.087074
0.313730 1.000000 0.085886
0.372991 1.000000 0.084884
0.432485 1.000000 0.084093
0.492169 1.000000 0.083534
0.551997 1.000000 0.083227
0.611921 1.000000 0.083186
0.671889 1.000000 0.083422
0.731852 1.000000 0.083940
0.791759 0.999867 0.084742
0.851565 0.999534 0.085826
0.911225 0.999217 0.087185
0.970702 0.998927 0.088811
0.026191 0.029400 0.166476
0.086900 0.028518 0.165781
0.149194 0.027653 0.164812
0.211175 0.026895 0.163708
0.272737 0.026260 0.162604
0.333861 0.025750 0.161567
0.394543 0.025361 0.160624
0.454784 0.025093 0.159785
0.514585 0.024945 0.159056
0.573945 0.024916 0.158441
0.632864 0.025006 0.157941
0.691344 0.025216 0.157557
0.749384 0.025544 0.157289
0.806984 0.025991 0.157140
0.864144 0.026558 0.157107
0.920865 0.027243 0.157193
0.977146 0.028046 0.157396
0.023111 0.091044 0.163564
0.083796 0.090165 0.162916
0.146334 0.089220 0.162021
0.208637 0.088361 0.160966
0.270511 0.087625 0.159951
0.331944 0.087010 0.159035
0.392937 0.086515 0.158230
0.453489 0.086139 0.157541
0.513602 0.085882 0.156969
0.573274 0.085744 0.156514
0.632508 0.085725 0.156178
0.691302 0.085824 0.155959
0.749656 0.086042 0.155859
0.807571 0.086379 0.155877
0.865046 0.086835 0.156014
0.922082 0.087409 0.156269
0.978679 0.088101 0.156643
0.020153 0.152761 0.160457
0.080576 0.151971 0.159700
0.143059 0.151042 0.158804
0.205671 0.150083 0.157825
0.267857 0.149241 0.156948
0.329604 0.148517 0.156191
0.390911 0.147912 0.155551
0.451778 0.147425 0.155031
0.512207 0.147057 0.154629
0.572196 0.146808 0.154346
0.631746 0.146677 0.154181
0.690856 0.146665 0.154135
0.749527 0.146771 0.154207
0.807758 0.146997 0.154399
0.865551 0.147340 0.154708
0.922904 0.147803 0.155137
0.979817 0.148384 0.155684
0.017547 0.214362 0.157467
0.077665 0.213678 0.156553
0.139836 0.212855 0.155523
0.202376 0.211919 0.154534
0.264827 0.210986 0.153772
0.326880 0.210155 0.153171
0.388500 0.209440 0.152699
0.449683 0.208843 0.152348
0.510427 0.208363 0.152117
0.570732 0.208003 0.152006
0.630599 0.207760 0.152014
0.690026 0.207637 0.152141
0.749013 0.207632 0.152387
0.807562 0.207745 0.152752
0.865671 0.207977 0.153235
0.923340 0.208328 0.153837
0.980571 0.208797 0.154558
0.015362 0.275806 0.154779
0.075178 0.275224 0.153752
0.137033 0.274502 0.152650
0.199270 0.273662 0.151605
0.261674 0.272749 0.150780
0.323911 0.271860 0.150214
0.385794 0.271057 0.149843
0.447267 0.270360 0.149625
0.508312 0.269776 0.149542
0.568925 0.269308 0.149587
0.629101 0.268957 0.149756
0.688840 0.268724 0.150047
0.748141 0.268609 0.150459
0.807004 0.268613 0.150992
0.865428 0.268734 0.151644
0.923412 0.268974 0.152416
0.980958 0.269332 0.153308
0.013603 0.337087 0.152463
0.073115 0.336603 0.151353
0.134649 0.335983 0.150195
0.196564 0.335242 0.149104
0.258737 0.334407 0.148198
0.320942 0.333534 0.147561
0.382955 0.332693 0.147185
0.444643 0.331926 0.147022
0.505947 0.331256 0.147033
0.566838 0.330693 0.147196
0.627306 0.330243 0.147498
0.687344 0.329906 0.147933
0.746948 0.329686 0.148495
0.806117 0.329583 0.149182
0.864850 0.329596 0.149993
0.923145 0.329728 0.150926
0.981002 0.329977 0.151980
0.012270 0.398201 0.150544
0.071473 0.397815 0.149367
0.132684 0.397296 0.148160
0.194275 0.396657 0.147025
0.256160 0.395913 0.146051
0.318190 0.395102 0.145324
0.380178 0.394275 0.144876
0.441965 0.393481 0.144689
0.503446 0.392756 0.144725
0.564564 0.392120 0.144951
0.625286 0.391585 0.145343
0.685596 0.391156 0.145887
0.745484 0.390839 0.146572
0.804945 0.390636 0.147392
0.863974 0.390547 0.148344
0.922571 0.390574 0.149423
0.980732 0.390718 0.150628
0.011359 0.459148 0.149033
0.070252 0.458860 0.147797
0.131138 0.458442 0.146544
0.192403 0.457904 0.145366
0.253982 0.457258 0.144335
0.315768 0.456527 0.143525
0.377618 0.455751 0.142985
0.439384 0.454971 0.142726
0.500943 0.454226 0.142727
0.562210 0.453545 0.142957
0.623131 0.452946 0.143389
0.683671 0.452443 0.143999
0.743812 0.452042 0.144772
0.803540 0.451748 0.145697
0.862848 0.451565 0.146764
0.921730 0.451495 0.147969
0.980183 0.451538 0.149307
0.010870 0.519928 0.147934
0.069451 0.519739 0.146645
0.130012 0.519422 0.145347
0.190950 0.518985 0.144126
0.252214 0.518438 0.143043
0.313722 0.517797 0.142161
0.375365 0.517091 0.141532
0.437018 0.516354 0.141181
0.498559 0.515622 0.141110
0.559890 0.514926 0.141299
0.620939 0.514290 0.141721
0.681654 0.513732 0.142353
0.742004 0.513265 0.143174
0.801965 0.512895 0.144168
0.861524 0.512628 0.145321
0.920670 0.512469 0.146626
0.979397 0.512420 0.148075
0.010802 0.580541 0.147251
0.069070 0.580450 0.145911
0.129305 0.580235 0.144569
0.189916 0.579899 0.143306
0.250861 0.579451 0.142174
0.312074 0.578905 0.141227
0.373470 0.578281 0.140515
0.434944 0.577606 0.140072
0.496389 0.576912 0.139912
0.557703 0.576228 0.140028
0.618806 0.575581 0.140404
0.679633 0.574992 0.141018
0.740139 0.574477 0.141847
0.800290 0.574047 0.142873
0.860064 0.573711 0.144080
0.919446 0.573475 0.145455
0.978422 0.573343 0.146989
0.011155 0.640987 0.146984
0.069108 0.640994 0.145596
0.129017 0.640880 0.144211
0.189301 0.640646 0.142906
0.249924 0.640299 0.141726
0.310833 0.639849 0.140720
0.371957 0.639313 0.139933
0.433210 0.638713 0.139402
0.494499 0.638074 0.139148
0.555729 0.637425 0.139177
0.616817 0.636789 0.139481
0.677691 0.636191 0.140044
0.738295 0.635650 0.140848
0.798586 0.635178 0.141872
0.858534 0.634789 0.143099
0.918115 0.634489 0.144514
0.977312 0.634286 0.146106
0.011928 0.701266 0.147134
0.069566 0.701372 0.145699
0.129148 0.701359 0.144271
0.189105 0.701226 0.142924
0.249405 0.700980 0.141699
0.310003 0.700628 0.140637
0.370840 0.700184 0.139782
0.431845 0.699666 0.139168
0.492935 0.699096 0.138823
0.554028 0.698497 0.138758
0.615040 0.697892 0.138976
0.675900 0.697306 0.139468
0.736545 0.696757 0.140218
0.796924 0.696263 0.141211
0.856999 0.695837 0.142428
0.916739 0.695489 0.143854
0.976122 0.695228 0.145474
0.013121 0.761378 0.147702
0.070443 0.761582 0.146221
0.129698 0.761671 0.144751
0.189328 0.761640 0.143362
0.249304 0.761494 0.142092
0.309588 0.761241 0.140978
0.370128 0.760892 0.140058
0.430864 0.760462 0.139368
0.491726 0.759968 0.138935
0.552640 0.759431 0.138778
0.613528 0.758873 0.138903
0.674321 0.758315 0.139310
0.734952 0.757778 0.139989
0.795367 0.757278 0.140927
0.855522 0.756832 0.142108
0.915378 0.756451 0.143518
0.974907 0.756146 0.145140
0.014733 0.821323 0.148687
0.071739 0.821626 0.147163
0.130668 0.821816 0.145650
0.189971 0.821886 0.144219
0.249622 0.821841 0.142905
0.309588 0.821688 0.141740
0.369824 0.821435 0.140761
0.430279 0.821096 0.139999
0.490891 0.820684 0.139484
0.551595 0.820219 0.139236
0.612321 0.819719 0.139268
0.673001 0.819204 0.139583
0.733571 0.818693 0.140178
0.793973 0.818205 0.141044
0.854160 0.817755 0.142169
0.914087 0.817356 0.143540
0.973723 0.817022 0.145140
0.016766 0.881101 0.150092
0.073455 0.881502 0.148523
0.132056 0.881794 0.146968
0.191032 0.881965 0.145496
0.250358 0.882022 0.144137
0.310004 0.881968 0.142923
0.369932 0.881813 0.141887
0.430096 0.881567 0.141059
0.490443 0.881242 0.140466
0.550914 0.880855 0.140132
0.611446 0.880422 0.140071
0.671977 0.879960 0.140292
0.732444 0.879489 0.140797
0.792790 0.879026 0.141580
0.852964 0.878587 0.142634
0.912921 0.878186 0.143946
0.972622 0.877836 0.145505
0.019217 0.940712 0.151915
0.075589 0.941212 0.150302
0.133864 0.941605 0.148705
0.192513 0.941878 0.147191
0.251513 0.942035 0.145789
0.310838 0.942082 0.144528
0.370454 0.942025 0.143437
0.430320 0.941874 0.142545
0.490390 0.941639 0.141880
0.550610 0.941335 0.141463
0.610925 0.940975 0.141313
0.671277 0.940576 0.141440
0.731606 0.940156 0.141851
0.791857 0.939730 0.142545
0.851979 0.939314 0.143517
0.911924 0.938924 0.144758
0.971651 0.938573 0.146258
0.022089 1.000000 0.154156
0.078144 1.000000 0.152501
0.136091 1.000000 0.150861
0.194413 1.000000 0.149306
0.253087 1.000000 0.147861
0.312090 1.000000 0.146552
0.371391 1.000000 0.145409
0.430954 1.000000 0.144456
0.490738 1.000000 0.143722
0.550694 1.000000 0.143227
0.610773 1.000000 0.142991
0.670921 1.000000 0.143028
0.731084 1.000000 0.143345
0.791207 1.000000 0.143945
0.851241 0.999925 0.144828
0.911137 0.999558 0.145988
0.970853 0.999217 0.147416
0.025960 0.029154 0.231522
0.086446 0.028318 0.231022
0.148613 0.027472 0.230235
0.210611 0.026700 0.229215
0.272277 0.026040 0.228068
0.333536 0.025503 0.226896
0.394362 0.025090 0.225760
0.454749 0.024802 0.224695
0.514695 0.024635 0.223719
0.574199 0.024590 0.222843
0.633262 0.024665 0.222072
0.691884 0.024860 0.221412
0.750066 0.025175 0.220863
0.807806 0.025609 0.220427
0.865107 0.026163 0.220107
0.921968 0.026835 0.219902
0.978388 0.027627 0.219814
0.023064 0.090709 0.228953
0.083533 0.089873 0.228508
0.145865 0.088969 0.227810
