assets/presets/luts/cool-soft/lut.cube
TITLE "Cool Soft"
LUT_3D_SIZE 9
0.026795 0.030034 0.033272
0.149897 0.028270 0.031483
0.272889 0.026953 0.030138
0.394125 0.026112 0.029268
0.513602 0.025744 0.028872
0.631323 0.025852 0.028951
0.747286 0.026433 0.029505
0.861492 0.027490 0.030533
0.973940 0.029021 0.032035
0.020736 0.153411 0.027158
0.143751 0.151673 0.025358
0.267808 0.149995 0.024469
0.390262 0.148729 0.024215
0.510987 0.147924 0.024479
0.629965 0.147590 0.025232
0.747189 0.147728 0.026468
0.862657 0.148339 0.028182
0.976370 0.149425 0.030374
0.016349 0.276211 0.022713
0.138240 0.274833 0.020667
0.262227 0.273198 0.019546
0.385435 0.271693 0.019444
0.507209 0.270536 0.020108
0.627342 0.269805 0.021384
0.745768 0.269527 0.023204
0.862462 0.269712 0.025537
0.977413 0.270365 0.028368
0.013638 0.398344 0.019944
0.134280 0.397357 0.017701
0.257428 0.396007 0.016239
0.380580 0.394544 0.015871
0.502901 0.393225 0.016532
0.623901 0.392214 0.018032
0.743355 0.391593 0.020226
0.861163 0.391399 0.023026
0.977276 0.391653 0.026385
0.012605 0.519809 0.018852
0.131973 0.519219 0.016428
0.254016 0.518226 0.014679
0.376537 0.516988 0.013947
0.498810 0.515711 0.014334
0.620230 0.514584 0.015751
0.740405 0.513737 0.018050
0.859118 0.513249 0.021103
0.976247 0.513165 0.024821
0.013248 0.640606 0.019437
0.131334 0.640415 0.016839
0.252175 0.639804 0.014844
0.373768 0.638876 0.013772
0.495541 0.637785 0.013794
0.616918 0.636698 0.014933
0.737429 0.635765 0.017104
0.856752 0.635093 0.020184
0.974678 0.634755 0.024062
0.015568 0.760736 0.021699
0.132367 0.760945 0.018930
0.251965 0.760726 0.016715
0.372480 0.760149 0.015341
0.493467 0.759327 0.014999
0.614430 0.758400 0.015780
0.734902 0.757506 0.017670
0.854503 0.756768 0.020592
0.972954 0.756277 0.024443
0.019564 0.880198 0.025638
0.135076 0.880807 0.022700
0.253407 0.880985 0.020280
0.372765 0.880779 0.018637
0.492795 0.880276 0.017957
0.613082 0.879587 0.018365
0.733200 0.878834 0.019904
0.852763 0.878135 0.022545
0.971451 0.877592 0.026217
0.025238 0.998993 0.031253
0.139460 1.000000 0.028148
0.256512 1.000000 0.025533
0.374667 1.000000 0.023644
0.493634 1.000000 0.022655
0.613068 1.000000 0.022705
0.732596 0.999661 0.023870
0.851850 0.999089 0.026165
0.970501 0.998585 0.029556
0.026191 0.029400 0.166476
0.149194 0.027653 0.164812
0.272737 0.026260 0.162604
0.394543 0.025361 0.160624
0.514585 0.024945 0.159056
0.632864 0.025006 0.157941
0.749384 0.025544 0.157289
0.864144 0.026558 0.157107
0.977146 0.028046 0.157396
0.020153 0.152761 0.160457
0.143059 0.151042 0.158804
0.267857 0.149241 0.156948
0.390911 0.147912 0.155551
0.512207 0.147057 0.154629
0.631746 0.146677 0.154181
0.749527 0.146771 0.154207
0.865551 0.147340 0.154708
0.979817 0.148384 0.155684
0.015362 0.275806 0.154779
0.137033 0.274502 0.152650
0.261674 0.272749 0.150780
0.385794 0.271057 0.149843
0.508312 0.269776 0.149542
0.629101 0.268957 0.149756
0.748141 0.268609 0.150459
0.865428 0.268734 0.151644
0.980958 0.269332 0.153308
0.012270 0.398201 0.150544
0.132684 0.397296 0.148160
0.256160 0.395913 0.146051
0.380178 0.394275 0.144876
0.503446 0.392756 0.144725
0.625286 0.391585 0.145343
0.745484 0.390839 0.146572
0.863974 0.390547 0.148344
0.980732 0.390718 0.150628
0.010870 0.519928 0.147934
0.130012 0.519422 0.145347
0.252214 0.518438 0.143043
0.375365 0.517091 0.141532
0.498559 0.515622 0.141110
0.620939 0.514290 0.141721
0.742004 0.513265 0.143174
0.861524 0.512628 0.145321
0.979397 0.512420 0.148075
0.011155 0.640987 0.146984
0.129017 0.640880 0.144211
0.249924 0.640299 0.141726
0.371957 0.639313 0.139933
0.494499 0.638074 0.139148
0.616817 0.636789 0.139481
0.738295 0.635650 0.140848
0.858534 0.634789 0.143099
0.977312 0.634286 0.146106
0.013121 0.761378 0.147702
0.129698 0.761671 0.144751
0.249304 0.761494 0.142092
0.370128 0.760892 0.140058
0.491726 0.759968 0.138935
0.613528 0.758873 0.138903
0.734952 0.757778 0.139989
0.855522 0.756832 0.142108
0.974907 0.756146 0.145140
0.016766 0.881101 0.150092
0.132056 0.881794 0.146968
0.250358 0.882022 0.144137
0.369932 0.881813 0.141887
0.490443 0.881242 0.140466
0.611446 0.880422 0.140071
0.732444 0.879489 0.140797
0.852964 0.878587 0.142634
0.972622 0.877836 0.145505
0.022089 1.000000 0.154156
0.136091 1.000000 0.150861
0.253087 1.000000 0.147861
0.371391 1.000000 0.145409
0.490738 1.000000 0.143722
0.610773 1.000000 0.142991
0.731084 1.000000 0.143345
0.851241 0.999925 0.144828
0.970853 0.999217 0.147416
0.025772 0.028952 0.295999
0.148013 0.027353 0.295105
0.271621 0.025913 0.293182
0.393922 0.024910 0.290767
0.514538 0.024405 0.288386
0.633397 0.024393 0.286287
0.750491 0.024868 0.284569
0.865819 0.025825 0.283275
0.979385 0.027262 0.282424
0.020326 0.152012 0.291219
0.142503 0.150413 0.290521
0.267126 0.148641 0.288884
0.390718 0.147234 0.286673
0.512580 0.146321 0.284663
0.632678 0.145892 0.283061
0.751013 0.145941 0.281908
0.867588 0.146466 0.281219
0.982404 0.147467 0.280998
0.015384 0.275088 0.285679
0.136501 0.273849 0.284533
0.260972 0.272122 0.282900
0.385813 0.270311 0.281020
0.508923 0.268969 0.279583
0.630275 0.268102 0.278622
0.749870 0.267709 0.278135
0.867707 0.267791 0.278122
0.983787 0.268347 0.278584
0.011870 0.397689 0.280637
0.131750 0.396881 0.278865
0.254969 0.395578 0.276726
0.379602 0.393830 0.274823
0.503775 0.392126 0.273847
0.626351 0.390832 0.273509
0.747197 0.390000 0.273685
0.866294 0.389639 0.274351
0.983636 0.389751 0.275497
0.010040 0.519665 0.276829
0.128695 0.519266 0.274616
0.250645 0.518367 0.272206
0.374093 0.516995 0.270071
0.498132 0.515355 0.268851
0.621451 0.513826 0.268659
0.743348 0.512641 0.269240
0.863604 0.511882 0.270432
0.982152 0.511576 0.272167
0.009916 0.640982 0.274523
0.127335 0.640984 0.271985
0.247998 0.640489 0.269362
0.370166 0.639517 0.267036
0.493315 0.638175 0.265483
0.616539 0.636701 0.265016
0.738968 0.635359 0.265586
0.860089 0.634321 0.267001
0.979667 0.633671 0.269111
0.011491 0.761634 0.273814
0.127660 0.762033 0.271009
0.247027 0.761943 0.268195
0.367899 0.761374 0.265691
0.489917 0.760396 0.263862
0.612471 0.759159 0.263031
0.734823 0.757868 0.263318
0.856349 0.756718 0.264643
0.976643 0.755845 0.266856
0.014757 0.881617 0.274738
0.129666 0.882415 0.271701
0.247734 0.882729 0.268705
0.367303 0.882565 0.266027
0.488104 0.881973 0.263961
0.609702 0.881053 0.262796
0.731524 0.879957 0.262717
0.852985 0.878856 0.263758
0.973602 0.877900 0.265835
0.019710 1.000000 0.277315
0.133352 1.000000 0.274064
0.250117 1.000000 0.270891
0.368381 1.000000 0.268042
0.487929 1.000000 0.265763
0.608430 1.000000 0.264303
0.729442 1.000000 0.263863
0.850464 1.000000 0.264542
0.971023 0.999664 0.266335
0.025531 0.028680 0.423245
0.146880 0.027267 0.423140
0.270011 0.025896 0.421933
0.392419 0.024832 0.419813
0.513465 0.024220 0.417222
0.632870 0.024104 0.414554
0.750542 0.024486 0.412049
0.866454 0.025362 0.409838
0.980600 0.026727 0.407989
0.020824 0.151382 0.419836
0.142124 0.149961 0.419962
0.265952 0.148346 0.419108
0.389575 0.146898 0.417221
0.511922 0.145881 0.414810
0.632592 0.145361 0.412413
0.751508 0.145336 0.410287
0.868657 0.145797 0.408537
0.984042 0.146741 0.407208
0.016186 0.274271 0.415253
0.136710 0.273097 0.415210
0.260443 0.271492 0.414545
0.385053 0.269721 0.412949
0.508693 0.268299 0.410738
0.630612 0.267372 0.408701
0.750767 0.266929 0.407064
0.869159 0.266965 0.405875
0.985790 0.267477 0.405148
0.012487 0.396914 0.410345
0.131815 0.396156 0.409707
0.254473 0.394916 0.408588
0.378887 0.393203 0.406992
0.503768 0.391381 0.405093
0.626933 0.390027 0.403618
0.748342 0.389147 0.402617
0.867992 0.388741 0.402091
0.985886 0.388810 0.402039
0.010258 0.519064 0.405983
0.128341 0.518743 0.404683
0.249743 0.517941 0.402923
0.372907 0.516653 0.400803
0.497529 0.514912 0.398869
0.621754 0.513196 0.397854
0.744388 0.511888 0.397479
0.865291 0.511043 0.397618
0.984444 0.510669 0.398245
0.009690 0.640611 0.402719
0.126548 0.640708 0.400874
0.246710 0.640322 0.398656
0.368608 0.639438 0.396253
0.492026 0.638077 0.394094
0.616085 0.636436 0.392828
0.739454 0.634895 0.392596
0.861408 0.633697 0.393140
0.981722 0.632925 0.394295
0.010826 0.761511 0.400834
0.126461 0.762016 0.398556
0.245372 0.762035 0.396000
0.365985 0.761555 0.393378
0.488119 0.760595 0.391032
0.611264 0.759259 0.389438
0.734518 0.757781 0.388925
0.856996 0.756429 0.389453
0.978172 0.755378 0.390830
0.013670 0.881751 0.400461
0.128074 0.882657 0.397829
0.245720 0.883080 0.394998
0.365039 0.883005 0.392181
0.485875 0.882449 0.389657
0.607877 0.881480 0.387793
0.730441 0.880243 0.386917
0.852828 0.878947 0.387159
0.974402 0.877787 0.388442
0.018215 1.000000 0.401669
0.131380 1.000000 0.398732
0.247750 1.000000 0.395661
0.365771 1.000000 0.392660
0.485302 1.000000 0.389964
0.606081 1.000000 0.387867
0.727677 1.000000 0.386659
0.849519 1.000000 0.386534
0.971016 0.999934 0.387530
0.025466 0.028586 0.548215
0.145892 0.027368 0.548896
0.268305 0.026130 0.548481
0.390420 0.025089 0.546999
0.511588 0.024411 0.544705
0.631374 0.024190 0.541950
0.749552 0.024462 0.539047
0.866023 0.025235 0.536216
0.980748 0.026505 0.533595
0.021538 0.150915 0.546201
0.141922 0.149686 0.547126
0.264841 0.148261 0.547071
0.387964 0.146888 0.545908
0.510395 0.145814 0.543818
0.631485 0.145188 0.541236
0.750942 0.145057 0.538559
0.868669 0.145425 0.536034
0.984637 0.146287 0.533797
0.017446 0.273519 0.542841
0.137244 0.272465 0.543742
0.260092 0.271039 0.543915
0.383889 0.269430 0.543106
0.507525 0.267973 0.541255
0.629917 0.266942 0.538850
0.750643 0.266408 0.536438
0.869615 0.266368 0.534286
0.986822 0.266816 0.532505
0.013889 0.396043 0.538688
0.132653 0.395337 0.539196
0.254708 0.394164 0.539193
0.378385 0.392572 0.538567
0.502979 0.390800 0.537013
0.626666 0.389365 0.534803
0.748643 0.388423 0.532740
0.868854 0.387967 0.531069
0.987303 0.387989 0.529844
0.011462 0.518239 0.534457
0.129000 0.517962 0.534325
0.249844 0.517210 0.533720
0.372446 0.515983 0.532640
0.496804 0.514282 0.531083
0.621719 0.512452 0.529168
0.744941 0.511085 0.527654
0.866406 0.510192 0.526615
0.986113 0.509774 0.526049
0.010521 0.639937 0.530789
0.126811 0.640099 0.529984
0.246394 0.639789 0.528706
0.367740 0.639001 0.526980
0.490848 0.637727 0.524880
0.615453 0.635993 0.522918
0.739732 0.634266 0.521863
0.862423 0.632945 0.521451
0.983383 0.632087 0.521552
0.011222 0.761045 0.528130
0.126281 0.761633 0.526727
0.244622 0.761749 0.524890
0.364727 0.761377 0.522696
0.486572 0.760508 0.520300
0.609959 0.759159 0.518119
0.734035 0.757517 0.516808
0.857455 0.755966 0.516535
0.979466 0.754754 0.517042
0.013618 0.881520 0.526747
0.127455 0.882522 0.524837
0.244556 0.883052 0.522556
0.363411 0.883086 0.520016
0.483974 0.882621 0.517396
0.606073 0.881674 0.515029
0.729212 0.880343 0.513395
0.852495 0.878861 0.512836
0.975021 0.877499 0.513323
0.017722 1.000000 0.526792
0.130335 1.000000 0.524454
0.246191 1.000000 0.521807
0.363783 1.000000 0.518986
0.483053 1.000000 0.516168
0.603851 1.000000 0.513626
0.725836 1.000000 0.511726
0.848411 1.000000 0.510805
0.970831 1.000000 0.511002
0.025579 0.028669 0.670908
0.145069 0.027650 0.672374
0.266660 0.026575 0.672762
0.388231 0.025619 0.672034
0.509214 0.024938 0.670317
0.629130 0.024649 0.667856
0.747652 0.024820 0.664943
0.864591 0.025482 0.661833
0.979849 0.026643 0.658725
0.022444 0.150621 0.670298
0.141897 0.149588 0.672013
0.263878 0.148362 0.672755
0.386271 0.147125 0.672385
0.508390 0.146078 0.670944
0.629587 0.145389 0.668676
0.749415 0.145155 0.665932
0.867643 0.145413 0.663025
0.984168 0.146170 0.660180
0.019008 0.272896 0.668255
0.137995 0.271996 0.670024
0.259918 0.270763 0.671008
0.382800 0.269345 0.670998
0.505914 0.267970 0.669879
0.628368 0.266886 0.667820
0.749502 0.266246 0.665247
0.869013 0.266100 0.662563
0.986796 0.266453 0.660019
0.015828 0.395201 0.665161
0.133946 0.394583 0.666699
0.255267 0.393532 0.667653
0.378062 0.392117 0.667865
0.501826 0.390513 0.667102
0.625474 0.389049 0.665287
0.747911 0.388004 0.662890
0.868692 0.387455 0.660463
0.987721 0.387401 0.658286
0.013452 0.517320 0.661552
0.130437 0.517089 0.662585
0.250710 0.516390 0.663140
0.372707 0.515230 0.663174
0.496329 0.513651 0.662585
0.620904 0.511881 0.661075
0.744637 0.510431 0.658869
0.866670 0.509475 0.656780
0.986939 0.509005 0.655076
0.012308 0.639065 0.658013
0.128057 0.639268 0.658388
0.247087 0.639003 0.658296
0.367876 0.638264 0.657730
0.490421 0.637049 0.656689
0.614723 0.635362 0.655171
0.739669 0.633523 0.653246
0.862947 0.632143 0.651693
0.984468 0.631238 0.650614
0.012657 0.760308 0.655048
0.127157 0.760951 0.654744
0.244923 0.761131 0.653969
0.364450 0.760835 0.652728
0.485738 0.760060 0.651035
0.608790 0.758800 0.648958
0.733377 0.757075 0.646969
0.857707 0.755336 0.645874
0.980456 0.754002 0.645426
0.014633 0.880972 0.653028
0.127896 0.882046 0.652096
0.244414 0.882659 0.650711
0.362698 0.882789 0.648906
0.482746 0.882431 0.646736
0.604538 0.881577 0.644349
0.727892 0.880240 0.642146
0.851984 0.878598 0.640791
0.975454 0.877036 0.640477
0.018292 1.000000 0.652201
0.130329 1.000000 0.650715
0.245609 1.000000 0.648812
0.362653 1.000000 0.646555
0.481453 1.000000 0.644032
0.601965 1.000000 0.641414
0.724027 1.000000 0.639029
0.847159 1.000000 0.637355
0.970470 0.999941 0.636751
0.025869 0.028929 0.791324
0.144418 0.028110 0.793574
0.265135 0.027214 0.794766
0.386018 0.026383 0.794829
0.506587 0.025754 0.793818
0.626385 0.025446 0.791889
0.745042 0.025547 0.789268
0.862299 0.026110 0.786199
0.977992 0.027161 0.782899
0.023535 0.150501 0.792121
0.142050 0.149667 0.794623
0.263081 0.148643 0.796160
0.384645 0.147572 0.796594
0.506208 0.146614 0.795911
0.627204 0.145925 0.794230
0.747150 0.145625 0.791794
0.865714 0.145782 0.788892
0.982702 0.146429 0.785783
0.020811 0.272427 0.791436
0.138940 0.271698 0.794039
0.259921 0.270664 0.795824
0.381862 0.269445 0.796610
0.504235 0.268210 0.796286
0.626360 0.267158 0.794886
0.747583 0.266457 0.792646
0.867455 0.266209 0.789913
0.985734 0.266452 0.787004
0.018150 0.394456 0.789547
0.135544 0.393958 0.792028
0.256045 0.393062 0.793863
0.377916 0.391840 0.794887
0.500760 0.390429 0.794922
0.623864 0.389052 0.793848
0.746340 0.387958 0.791820
0.867518 0.387304 0.789258
0.987081 0.387143 0.786566
0.016032 0.516405 0.786858
0.132411 0.516246 0.788971
0.252028 0.515636 0.790570
0.373291 0.514598 0.791561
0.496033 0.513195 0.791813
0.619764 0.511596 0.791094
0.743421 0.510126 0.789317
0.865903 0.509067 0.786930
0.986738 0.508503 0.784489
0.014883 0.638098 0.783853
0.130084 0.638346 0.785401
0.248554 0.638129 0.786489
0.368769 0.637442 0.787082
0.490709 0.636296 0.787152
0.614274 0.634729 0.786602
0.738829 0.632961 0.785134
0.862606 0.631498 0.782935
0.984696 0.630528 0.780822
0.015026 0.759390 0.781014
0.128985 0.760074 0.781896
0.246202 0.760296 0.782318
0.365177 0.760044 0.782265
0.485909 0.759317 0.781738
0.608399 0.758116 0.780737
0.732643 0.756441 0.779256
0.857617 0.754595 0.777325
0.980951 0.753202 0.775734
0.016667 0.880178 0.778755
0.129376 0.881302 0.778955
0.245328 0.881970 0.778689
0.363038 0.882163 0.777951
0.482507 0.881880 0.776748
0.603739 0.881119 0.775090
0.726734 0.879873 0.773036
0.851299 0.878157 0.771023
0.975680 0.876407 0.769889
0.019921 1.000000 0.777395
0.131390 1.000000 0.776950
0.246089 1.000000 0.776045
0.362550 1.000000 0.774694
0.480776 1.000000 0.772920
0.600768 1.000000 0.770775
0.722506 1.000000 0.768399
0.845825 1.000000 0.766176
0.969932 0.999679 0.764777
0.026336 0.029366 0.909463
0.143942 0.028749 0.912496
0.263757 0.028040 0.914490
0.383868 0.027358 0.915355
0.503868 0.026820 0.915109
0.623346 0.026540 0.913843
0.741931 0.026613 0.911720
0.859327 0.027105 0.908941
0.975317 0.028060 0.905717
0.024806 0.150557 0.911669
0.142380 0.149924 0.914957
0.262457 0.149103 0.917287
0.383143 0.148212 0.918525
0.504010 0.147380 0.918634
0.624580 0.146746 0.917665
0.744396 0.146430 0.915770
0.863085 0.146520 0.913173
0.980383 0.147069 0.910116
0.022826 0.272123 0.912362
0.140070 0.271575 0.915780
0.260102 0.270742 0.918363
0.381092 0.269726 0.919944
0.502630 0.268658 0.920424
0.624185 0.267697 0.919785
0.745194 0.267001 0.918142
0.865170 0.266689 0.915732
0.983777 0.266833 0.912842
0.020773 0.393842 0.911754
0.137383 0.393487 0.915125
0.257016 0.392763 0.917805
0.377947 0.391740 0.919632
0.499848 0.390528 0.920462
0.622200 0.389295 0.920185
0.744328 0.388237 0.918826
0.865579 0.387526 0.916614
0.985493 0.387264 0.913893
0.019058 0.515561 0.910157
0.134767 0.515500 0.913271
0.253651 0.515011 0.915826
0.374096 0.514127 0.917699
0.495915 0.512917 0.918763
0.618721 0.511512 0.918843
0.741814 0.510134 0.917814
0.864311 0.509031 0.915819
0.985532 0.508363 0.913268
0.018082 0.637120 0.907962
0.132697 0.637430 0.910621
0.250552 0.637285 0.912803
0.370112 0.636688 0.914438
0.491318 0.635664 0.915466
0.614007 0.634273 0.915758
0.737703 0.632680 0.915084
0.861368 0.631203 0.913345
0.983893 0.630130 0.910969
0.018183 0.758377 0.905593
0.131597 0.759105 0.907654
0.248258 0.759372 0.909265
0.366672 0.759168 0.910390
0.486830 0.758494 0.911020
0.608712 0.757362 0.911127
0.732222 0.755808 0.910615
0.856753 0.754042 0.909191
0.980573 0.752566 0.907001
0.019616 0.879214 0.903460
0.131785 0.880380 0.904848
0.247189 0.881089 0.905784
0.364350 0.881324 0.906246
0.483269 0.881084 0.906232
0.603945 0.880370 0.905744
0.726378 0.879181 0.904781
0.850566 0.877520 0.903338
0.975562 0.875667 0.901407
0.022549 0.999546 0.901910
0.133468 1.000000 0.902615
0.247605 1.000000 0.902860
0.363500 1.000000 0.902631
0.481154 1.000000 0.901932
0.600567 1.000000 0.900766
0.721742 1.000000 0.899143
0.844680 1.000000 0.897114
0.969219 0.999239 0.895080
0.026980 0.029980 1.000000
0.143640 0.029566 1.000000
0.262537 0.029049 1.000000
0.381823 0.028530 1.000000
0.501153 0.028112 1.000000
0.620160 0.027899 1.000000
0.738495 0.027983 1.000000
0.855851 0.028439 1.000000
0.971983 0.029323 1.000000
0.026257 0.150789 1.000000
0.142887 0.150357 1.000000
0.262007 0.149741 1.000000
0.381789 0.149038 1.000000
0.501878 0.148357 1.000000
0.621872 0.147817 1.000000
0.741357 0.147531 1.000000
0.859964 0.147594 1.000000
0.977392 0.148074 1.000000
0.025040 0.271988 1.000000
0.141381 0.271627 1.000000
0.260460 0.270997 1.000000
0.380495 0.270185 1.000000
0.501151 0.269298 1.000000
0.622003 0.268467 1.000000
0.742574 0.267828 1.000000
0.862408 0.267503 1.000000
0.981129 0.267580 1.000000
0.023649 0.393377 1.000000
0.139436 0.393180 1.000000
0.258173 0.392639 1.000000
0.378156 0.391817 1.000000
0.499105 0.390808 1.000000
0.620615 0.389744 1.000000
0.742163 0.388781 1.000000
0.863183 0.388078 1.000000
0.983189 0.387754 1.000000
0.022440 0.514825 1.000000
0.137425 0.514884 1.000000
0.255516 0.514540 1.000000
0.375094 0.513828 1.000000
0.495975 0.512815 1.000000
0.617836 0.511612 1.000000
0.740166 0.510380 1.000000
0.862297 0.509317 1.000000
0.983573 0.508595 1.000000
0.021776 0.636191 1.000000
0.135758 0.636584 1.000000
0.252934 0.636539 1.000000
0.371760 0.636064 1.000000
0.492149 0.635193 1.000000
0.613917 0.633993 1.000000
0.736684 0.632596 1.000000
0.859765 0.631217 1.000000
0.982282 0.630104 1.000000
0.021989 0.757342 1.000000
0.134830 0.758125 1.000000
0.250899 0.758455 1.000000
0.368696 0.758324 1.000000
0.488199 0.757741 1.000000
0.609347 0.756729 1.000000
0.731982 0.755350 1.000000
0.855643 0.753763 1.000000
0.979314 0.752281 1.000000
0.023353 0.878157 1.000000
0.134979 0.879364 1.000000
0.249830 0.880117 1.000000
0.366435 0.880397 1.000000
0.484792 0.880206 1.000000
0.604893 0.879546 1.000000
0.726717 0.878427 1.000000
0.850171 0.876886 1.000000
0.974677 0.875123 1.000000
0.026077 0.998539 1.000000
0.136456 1.000000 1.000000
0.250047 1.000000 1.000000
0.365395 1.000000 1.000000
0.482500 1.000000 1.000000
0.601363 1.000000 1.000000
0.721983 1.000000 1.000000
0.844360 1.000000 1.000000
0.968491 0.998598 1.000000
