assets/presets/luts/cool-soft/lut.cube
TITLE "Cool Soft"
LUT_3D_SIZE 5
0.026795 0.030034 0.033272
0.272889 0.026953 0.030138
0.513602 0.025744 0.028872
0.747286 0.026433 0.029505
0.973940 0.029021 0.032035
0.016349 0.276211 0.022713
0.262227 0.273198 0.019546
0.507209 0.270536 0.020108
0.745768 0.269527 0.023204
0.977413 0.270365 0.028368
0.012605 0.519809 0.018852
0.254016 0.518226 0.014679
0.498810 0.515711 0.014334
0.740405 0.513737 0.018050
0.976247 0.513165 0.024821
0.015568 0.760736 0.021699
0.251965 0.760726 0.016715
0.493467 0.759327 0.014999
0.734902 0.757506 0.017670
0.972954 0.756277 0.024443
0.025238 0.998993 0.031253
0.256512 1.000000 0.025533
0.493634 1.000000 0.022655
0.732596 0.999661 0.023870
0.970501 0.998585 0.029556
0.025772 0.028952 0.295999
0.271621 0.025913 0.293182
0.514538 0.024405 0.288386
0.750491 0.024868 0.284569
0.979385 0.027262 0.282424
0.015384 0.275088 0.285679
0.260972 0.272122 0.282900
0.508923 0.268969 0.279583
0.749870 0.267709 0.278135
0.983787 0.268347 0.278584
0.010040 0.519665 0.276829
0.250645 0.518367 0.272206
0.498132 0.515355 0.268851
0.743348 0.512641 0.269240
0.982152 0.511576 0.272167
0.011491 0.761634 0.273814
0.247027 0.761943 0.268195
0.489917 0.760396 0.263862
0.734823 0.757868 0.263318
0.976643 0.755845 0.266856
0.019710 1.000000 0.277315
0.250117 1.000000 0.270891
0.487929 1.000000 0.265763
0.729442 1.000000 0.263863
0.971023 0.999664 0.266335
0.025466 0.028586 0.548215
0.268305 0.026130 0.548481
0.511588 0.024411 0.544705
0.749552 0.024462 0.539047
0.980748 0.026505 0.533595
0.017446 0.273519 0.542841
0.260092 0.271039 0.543915
0.507525 0.267973 0.541255
0.750643 0.266408 0.536438
0.986822 0.266816 0.532505
0.011462 0.518239 0.534457
0.249844 0.517210 0.533720
0.496804 0.514282 0.531083
0.744941 0.511085 0.527654
0.986113 0.509774 0.526049
0.011222 0.761045 0.528130
0.244622 0.761749 0.524890
0.486572 0.760508 0.520300
0.734035 0.757517 0.516808
0.979466 0.754754 0.517042
0.017722 1.000000 0.526792
0.246191 1.000000 0.521807
0.483053 1.000000 0.516168
0.725836 1.000000 0.511726
0.970831 1.000000 0.511002
0.025869 0.028929 0.791324
0.265135 0.027214 0.794766
0.506587 0.025754 0.793818
0.745042 0.025547 0.789268
0.977992 0.027161 0.782899
0.020811 0.272427 0.791436
0.259921 0.270664 0.795824
0.504235 0.268210 0.796286
0.747583 0.266457 0.792646
0.985734 0.266452 0.787004
0.016032 0.516405 0.786858
0.252028 0.515636 0.790570
0.496033 0.513195 0.791813
0.743421 0.510126 0.789317
0.986738 0.508503 0.784489
0.015026 0.759390 0.781014
0.246202 0.760296 0.782318
0.485909 0.759317 0.781738
0.732643 0.756441 0.779256
0.980951 0.753202 0.775734
0.019921 1.000000 0.777395
0.246089 1.000000 0.776045
0.480776 1.000000 0.772920
0.722506 1.000000 0.768399
0.969932 0.999679 0.764777
0.026980 0.029980 1.000000
0.262537 0.029049 1.000000
0.501153 0.028112 1.000000
0.738495 0.027983 1.000000
0.971983 0.029323 1.000000
0.025040 0.271988 1.000000
0.260460 0.270997 1.000000
0.501151 0.269298 1.000000
0.742574 0.267828 1.000000
0.981129 0.267580 1.000000
0.022440 0.514825 1.000000
0.255516 0.514540 1.000000
0.495975 0.512815 1.000000
0.740166 0.510380 1.000000
0.983573 0.508595 1.000000
0.021989 0.757342 1.000000
0.250899 0.758455 1.000000
0.488199 0.757741 1.000000
0.731982 0.755350 1.000000
0.979314 0.752281 1.000000
0.026077 0.998539 1.000000
0.250047 1.000000 1.000000
0.482500 1.000000 1.000000
0.721983 1.000000 1.000000
0.968491 0.998598 1.000000
