assets/presets/luts/instant-pack/lut.cube
TITLE "Instant Pack"
LUT_3D_SIZE 5
0.046167 0.073243 0.090702
0.254711 0.077955 0.094799
0.463527 0.082635 0.098627
0.672552 0.087291 0.102248
0.881723 0.091929 0.105724
0.065322 0.288532 0.103339
0.274526 0.293166 0.106783
0.483794 0.297792 0.110164
0.693109 0.302443 0.113524
0.902714 0.307287 0.116800
0.085995 0.503723 0.114549
0.295684 0.508632 0.117808
0.505561 0.513733 0.121071
0.715495 0.518998 0.124428
0.925359 0.524400 0.127970
0.108507 0.720461 0.125504
0.318322 0.725901 0.129120
0.527898 0.731441 0.133039
0.737256 0.737037 0.137198
0.946588 0.742622 0.141373
0.130094 0.938573 0.138492
0.339406 0.944149 0.142674
0.548611 0.949668 0.146901
0.757642 0.955095 0.151200
0.966435 0.960396 0.155599
0.047957 0.074809 0.290274
0.256598 0.079510 0.294275
0.465491 0.084181 0.298027
0.674571 0.088830 0.301593
0.883777 0.093463 0.305035
0.067354 0.290069 0.302672
0.276586 0.294700 0.306088
0.485861 0.299325 0.309461
0.695252 0.304025 0.312798
0.904947 0.308938 0.316056
0.088170 0.505327 0.313814
0.297936 0.510303 0.317064
0.507846 0.515461 0.320349
0.717771 0.520775 0.323757
0.927583 0.526217 0.327380
0.110771 0.722252 0.324855
0.320522 0.727727 0.328561
0.529994 0.733294 0.332594
0.739347 0.738891 0.336760
0.948657 0.744466 0.340943
0.132181 0.940425 0.338055
0.341464 0.945986 0.342249
0.550619 0.951478 0.346497
0.759579 0.956868 0.350826
0.968277 0.962119 0.355263
0.049782 0.076371 0.489811
0.258514 0.081061 0.493723
0.467475 0.085724 0.497406
0.676604 0.090367 0.500925
0.885838 0.094997 0.504339
0.069398 0.291605 0.501993
0.278651 0.296233 0.505388
0.487930 0.300860 0.508760
0.697430 0.305630 0.512063
0.907200 0.310610 0.515313
0.090376 0.506955 0.513073
0.300203 0.511994 0.516325
0.510133 0.517207 0.519641
0.720035 0.522566 0.523110
0.929780 0.528044 0.526823
0.113019 0.724055 0.524232
0.322690 0.729564 0.528039
0.532088 0.735150 0.532155
0.741433 0.740743 0.536323
0.950715 0.746303 0.540518
0.134261 0.942274 0.537621
0.343509 0.947816 0.541830
0.552606 0.953278 0.546101
0.761487 0.958626 0.550463
0.970084 0.963824 0.554943
0.051639 0.077929 0.689317
0.260454 0.082609 0.693146
0.469478 0.087265 0.696768
0.678649 0.091903 0.700245
0.887903 0.096531 0.703639
0.071451 0.293140 0.701304
0.280719 0.297766 0.704685
0.490034 0.302417 0.708046
0.699637 0.307259 0.711322
0.909468 0.312302 0.714574
0.092606 0.508604 0.712329
0.302482 0.513704 0.715592
0.512417 0.518968 0.718949
0.722281 0.524370 0.722489
0.931947 0.529881 0.726303
0.115245 0.725870 0.723639
0.324822 0.731410 0.727556
0.534181 0.737006 0.731715
0.743513 0.742592 0.735889
0.952758 0.748132 0.740099
0.136331 0.944118 0.737191
0.345537 0.949637 0.741417
0.554570 0.955065 0.745716
0.763363 0.960367 0.750114
0.971852 0.965508 0.754639
0.053527 0.079484 0.888793
0.262417 0.084155 0.892546
0.471497 0.088804 0.896113
0.680702 0.093438 0.899556
0.889971 0.098064 0.902936
0.073512 0.294674 0.900609
0.282787 0.299299 0.903983
0.492176 0.303998 0.907320
0.701869 0.308910 0.910578
0.911747 0.314013 0.913842
0.094858 0.510275 0.911586
0.304767 0.515432 0.914870
0.514693 0.520745 0.918278
0.724506 0.526186 0.921899
0.934077 0.531728 0.925822
0.117445 0.727697 0.923080
0.326919 0.733263 0.927111
0.536272 0.738860 0.931276
0.745583 0.744435 0.935459
0.954785 0.749953 0.939687
0.138390 0.945955 0.936766
0.347546 0.951448 0.941013
0.556507 0.956838 0.945341
0.765207 0.962090 0.949778
0.973580 0.967170 0.954351
