assets/presets/luts/instant-pack/lut.cube
TITLE "Instant Pack"
LUT_3D_SIZE 9
0.046167 0.073243 0.090702
0.150401 0.075604 0.092788
0.254711 0.077955 0.094799
0.359089 0.080299 0.096743
0.463527 0.082635 0.098627
0.568017 0.084966 0.100459
0.672552 0.087291 0.102248
0.777123 0.089611 0.104000
0.881723 0.091929 0.105724
0.055428 0.180925 0.097333
0.159883 0.183259 0.099201
0.264388 0.185588 0.101019
0.368935 0.187911 0.102795
0.473516 0.190231 0.104538
0.578124 0.192547 0.106254
0.682749 0.194861 0.107953
0.787386 0.197174 0.109641
0.892025 0.199487 0.111326
0.065322 0.288532 0.103339
0.169912 0.290850 0.105073
0.274526 0.293166 0.106783
0.379156 0.295479 0.108478
0.483794 0.297792 0.110164
0.588432 0.300105 0.111850
0.693109 0.302443 0.113524
0.797875 0.304838 0.115171
0.902714 0.307287 0.116800
0.075563 0.396097 0.109002
0.180202 0.398410 0.110687
0.284842 0.400724 0.112373
0.389548 0.403080 0.114038
0.494338 0.405492 0.115678
0.599197 0.407957 0.117304
0.704107 0.410470 0.118928
0.809053 0.413030 0.120560
0.914018 0.415631 0.122213
0.085995 0.503723 0.114549
0.190808 0.506152 0.116183
0.295684 0.508632 0.117808
0.400607 0.511160 0.119433
0.505561 0.513733 0.121071
0.610529 0.516347 0.122732
0.715495 0.518998 0.124428
0.820444 0.521684 0.126170
0.925359 0.524400 0.127970
0.097110 0.611854 0.119939
0.202070 0.614440 0.121583
0.307039 0.617066 0.123254
0.412002 0.619728 0.124964
0.516942 0.622424 0.126722
0.621843 0.625149 0.128542
0.726689 0.627901 0.130433
0.831464 0.630676 0.132407
0.936159 0.633469 0.134470
0.108507 0.720461 0.125504
0.213436 0.723167 0.127280
0.318322 0.725901 0.129120
0.423148 0.728660 0.131036
0.527898 0.731441 0.133039
0.632578 0.734238 0.135116
0.737256 0.737037 0.137198
0.841928 0.739833 0.139283
0.946588 0.742622 0.141373
0.119599 0.829421 0.131648
0.224322 0.832208 0.133680
0.328998 0.835006 0.135762
0.433675 0.837805 0.137845
0.538345 0.840600 0.139931
0.642998 0.843386 0.142023
0.747627 0.846160 0.144125
0.852224 0.848916 0.146241
0.956780 0.851651 0.148374
0.130094 0.938573 0.138492
0.234759 0.941366 0.140579
0.339406 0.944149 0.142674
0.444026 0.946917 0.144780
0.548611 0.949668 0.146901
0.653152 0.952395 0.149040
0.757642 0.955095 0.151200
0.862073 0.957763 0.153385
0.966435 0.960396 0.155599
0.047058 0.074027 0.190493
0.151318 0.076384 0.192553
0.255651 0.078733 0.194540
0.360050 0.081074 0.196463
0.464506 0.083409 0.198329
0.569012 0.085737 0.200146
0.673560 0.088060 0.201922
0.778141 0.090380 0.203664
0.882749 0.092696 0.205380
0.056395 0.181699 0.197048
0.160868 0.184032 0.198898
0.265387 0.186359 0.200702
0.369947 0.188681 0.202466
0.474537 0.190999 0.204199
0.579151 0.193315 0.205909
0.683782 0.195628 0.207603
0.788420 0.197941 0.209290
0.893058 0.200254 0.210976
0.066337 0.289301 0.203007
0.170935 0.291618 0.204732
0.275555 0.293933 0.206436
0.380189 0.296246 0.208127
0.484828 0.298559 0.209813
0.589468 0.300873 0.211499
0.694176 0.303231 0.213163
0.798968 0.305644 0.214802
0.903828 0.308109 0.216428
0.076597 0.396864 0.208651
0.181236 0.399176 0.210336
0.285888 0.401499 0.212019
0.390624 0.403874 0.213674
0.495438 0.406304 0.215308
0.600315 0.408785 0.216932
0.705239 0.411314 0.218557
0.810193 0.413888 0.220195
0.915161 0.416502 0.221857
0.087078 0.504522 0.214182
0.191914 0.506968 0.215812
0.296808 0.509465 0.217436
0.401743 0.512008 0.219064
0.506703 0.514595 0.220708
0.611672 0.517222 0.222380
0.716634 0.519885 0.224090
0.821574 0.522581 0.225850
0.926474 0.525307 0.227671
0.098248 0.612706 0.219572
0.203213 0.615306 0.221224
0.308182 0.617944 0.222906
0.413139 0.620618 0.224630
0.518068 0.623324 0.226408
0.622953 0.626059 0.228250
0.727777 0.628818 0.230168
0.832525 0.631600 0.232172
0.937205 0.634397 0.234250
0.109641 0.721355 0.225176
0.214558 0.724070 0.226972
0.319425 0.726813 0.228837
0.424228 0.729580 0.230780
0.528949 0.732367 0.232813
0.633625 0.735165 0.234896
0.738302 0.737964 0.236979
0.842971 0.740759 0.239065
0.947624 0.743545 0.241157
0.120671 0.830343 0.231401
0.225368 0.833135 0.233460
0.330045 0.835934 0.235542
0.434720 0.838732 0.237626
0.539385 0.841525 0.239713
0.644032 0.844307 0.241808
0.748651 0.847076 0.243915
0.853235 0.849825 0.246036
0.957776 0.852552 0.248175
0.131138 0.939500 0.238273
0.235798 0.942290 0.240363
0.340437 0.945068 0.242461
0.445046 0.947831 0.244572
0.549617 0.950574 0.246698
0.654143 0.953293 0.248843
0.758614 0.955983 0.251011
0.863023 0.958640 0.253206
0.967360 0.961260 0.255429
0.047957 0.074809 0.290274
0.152243 0.077164 0.292309
0.256598 0.079510 0.294275
0.361017 0.081849 0.296178
0.465491 0.084181 0.298027
0.570011 0.086508 0.299829
0.674571 0.088830 0.301593
0.779162 0.091148 0.303326
0.883777 0.093463 0.305035
0.057368 0.182473 0.296757
0.161857 0.184804 0.298591
0.266391 0.187129 0.300380
0.370961 0.189449 0.302134
0.475561 0.191767 0.303858
0.580181 0.194082 0.305562
0.684815 0.196395 0.307253
0.789454 0.198707 0.308938
0.894094 0.201023 0.310624
0.067354 0.290069 0.302672
0.171961 0.292385 0.304389
0.276586 0.294700 0.306088
0.381222 0.297013 0.307776
0.485861 0.299325 0.309461
0.590514 0.301648 0.311144
0.695252 0.304025 0.312798
0.800068 0.306455 0.314432
0.904947 0.308938 0.316056
0.077631 0.397630 0.308299
0.182269 0.399943 0.309985
0.286944 0.402280 0.311660
0.391708 0.404673 0.313307
0.496545 0.407121 0.314936
0.601439 0.409618 0.316560
0.706375 0.412162 0.318188
0.811335 0.414750 0.319833
0.916305 0.417377 0.321506
0.088170 0.505327 0.313814
0.193027 0.507791 0.315440
0.297936 0.510303 0.317064
0.402881 0.512861 0.318697
0.507846 0.515461 0.320349
0.612815 0.518100 0.322032
0.717771 0.520775 0.323757
0.822699 0.523482 0.325536
0.927583 0.526217 0.327380
0.099389 0.613564 0.319207
0.204357 0.616176 0.320867
0.309323 0.618827 0.322562
0.414273 0.621512 0.324303
0.519189 0.624228 0.326101
0.624055 0.626971 0.327967
0.728856 0.629738 0.329912
0.833575 0.632526 0.331947
0.938252 0.635325 0.334030
0.110771 0.722252 0.324855
0.215674 0.724976 0.326672
0.320522 0.727727 0.328561
0.425299 0.730501 0.330533
0.529994 0.733294 0.332594
0.634672 0.736093 0.334676
0.739347 0.738891 0.336760
0.844011 0.741683 0.338847
0.948657 0.744466 0.340943
0.121733 0.831267 0.331164
0.226414 0.834063 0.333241
0.331092 0.836862 0.335323
0.435764 0.839659 0.337407
0.540424 0.842448 0.339497
0.645062 0.845227 0.341595
0.749671 0.847989 0.343706
0.854241 0.850732 0.345833
0.958766 0.853450 0.347979
0.132181 0.940425 0.338055
0.236835 0.943212 0.340147
0.341464 0.945986 0.342249
0.446062 0.948743 0.344364
0.550619 0.951478 0.346497
0.655128 0.954188 0.348649
0.759579 0.956868 0.350826
0.863965 0.959513 0.353029
0.968277 0.962119 0.355263
0.048866 0.075591 0.390047
0.153175 0.077942 0.392058
0.257553 0.080286 0.394002
0.361990 0.082622 0.395886
0.466480 0.084953 0.397719
0.571015 0.087278 0.399508
0.675586 0.089598 0.401260
0.780186 0.091916 0.402984
0.884807 0.094230 0.404688
0.058347 0.183246 0.396460
0.162852 0.185575 0.398279
0.267398 0.187898 0.400055
0.371979 0.190218 0.401798
0.476586 0.192534 0.403515
0.581212 0.194848 0.405214
0.685848 0.197161 0.406902
0.790487 0.199474 0.408587
0.895141 0.201798 0.410269
0.068375 0.290837 0.402333
0.172989 0.293153 0.404044
0.277618 0.295466 0.405738
0.382256 0.297779 0.407425
0.486895 0.300092 0.409111
0.591571 0.302430 0.410785
0.696337 0.304824 0.412432
0.801176 0.307273 0.414061
0.906071 0.309771 0.415684
0.078665 0.398397 0.407948
0.183304 0.400711 0.409634
0.288010 0.403067 0.411299
0.392800 0.405479 0.412939
0.497658 0.407943 0.414565
0.602568 0.410456 0.416189
0.707513 0.413015 0.417821
0.812479 0.415617 0.419474
0.917447 0.418256 0.421158
0.089269 0.506138 0.413444
0.194145 0.508618 0.415068
0.299068 0.511146 0.416694
0.404021 0.513718 0.418332
0.508989 0.516332 0.419993
0.613956 0.518983 0.421689
0.718905 0.521669 0.423431
0.823820 0.524385 0.425230
0.928685 0.527129 0.427097
0.100531 0.614425 0.418844
0.205500 0.617051 0.420515
0.310463 0.619713 0.422224
0.415403 0.622409 0.423982
0.520305 0.625134 0.425801
0.625151 0.627886 0.427692
0.729927 0.630660 0.429666
0.834621 0.633453 0.431728
0.939298 0.636252 0.433810
0.111898 0.723152 0.424540
0.216784 0.725885 0.426380
0.321610 0.728644 0.428295
0.426360 0.731425 0.430297
0.531041 0.734222 0.432374
0.635718 0.737021 0.434457
0.740391 0.739818 0.436541
0.845050 0.742607 0.438631
0.949688 0.745385 0.440730
0.122785 0.832192 0.430938
0.227461 0.834991 0.433021
0.332138 0.837790 0.435103
0.436807 0.840584 0.437189
0.541460 0.843371 0.439281
0.646090 0.846144 0.441383
0.750687 0.848901 0.443499
0.855243 0.851636 0.445632
0.959750 0.854345 0.447785
0.133222 0.941350 0.437837
0.237868 0.944133 0.439932
0.342489 0.946902 0.442039
0.447074 0.949652 0.444159
0.551616 0.952380 0.446298
0.656106 0.955080 0.448458
0.760537 0.957749 0.450643
0.864899 0.960381 0.452856
0.969185 0.962974 0.455101
0.049782 0.076371 0.489811
0.154115 0.078720 0.491799
0.258514 0.081061 0.493723
0.362969 0.083396 0.495589
0.467475 0.085724 0.497406
0.572023 0.088047 0.499182
0.676604 0.090367 0.500925
0.781212 0.092683 0.502641
0.885838 0.094997 0.504339
0.059331 0.184019 0.496158
0.163851 0.186346 0.497962
0.268410 0.188668 0.499726
0.373000 0.190986 0.501460
0.477614 0.193302 0.503170
0.582244 0.195615 0.504864
0.686882 0.197928 0.506550
0.791520 0.200241 0.508236
0.896199 0.202580 0.509910
0.069398 0.291605 0.501993
0.174018 0.293920 0.503697
0.278651 0.296233 0.505388
0.383290 0.298546 0.507073
0.487930 0.300860 0.508760
0.592638 0.303217 0.510424
0.697430 0.305630 0.512063
0.802289 0.308096 0.513689
0.907200 0.310610 0.515313
0.079698 0.399164 0.507596
0.184350 0.401486 0.509279
0.289085 0.403860 0.510934
0.393900 0.406290 0.512569
0.498777 0.408771 0.514193
0.603700 0.411300 0.515818
0.708654 0.413873 0.517456
0.813622 0.416487 0.519118
0.918589 0.419140 0.520815
0.090376 0.506955 0.513073
0.195269 0.509451 0.514697
0.300203 0.511994 0.516325
0.405163 0.514580 0.517969
0.510133 0.517207 0.519641
0.615095 0.519870 0.521350
0.720035 0.522566 0.523110
0.824935 0.525292 0.524930
0.929780 0.528044 0.526823
0.101674 0.615291 0.518484
0.206643 0.617930 0.520167
0.311600 0.620603 0.521891
0.416529 0.623309 0.523668
0.521414 0.626043 0.525510
0.626239 0.628803 0.527427
0.730987 0.631584 0.529431
0.835667 0.634381 0.531508
0.940345 0.637180 0.533591
0.113019 0.724055 0.524232
0.217887 0.726797 0.526096
0.322690 0.729564 0.528039
0.427411 0.732351 0.530072
0.532088 0.735150 0.532155
0.636764 0.737949 0.534237
0.741433 0.740743 0.536323
0.846086 0.743529 0.538415
0.950715 0.746303 0.540518
0.123830 0.833120 0.530719
0.228508 0.835919 0.532801
0.333183 0.838717 0.534884
0.437848 0.841509 0.536972
0.542494 0.844292 0.539067
0.647114 0.847060 0.541173
0.751698 0.849810 0.543294
0.856239 0.852537 0.545433
0.960728 0.855237 0.547594
0.134261 0.942274 0.537621
0.238899 0.945053 0.539719
0.343509 0.947816 0.541830
0.448081 0.950559 0.543956
0.552606 0.953278 0.546101
0.657078 0.955968 0.548269
0.761487 0.958626 0.550463
0.865825 0.961245 0.552687
0.970084 0.963824 0.554943
0.050707 0.077151 0.589568
0.155062 0.079497 0.591534
0.259481 0.081836 0.593437
0.363954 0.084168 0.595287
0.468474 0.086495 0.597089
0.573034 0.088817 0.598853
0.677625 0.091135 0.600586
0.782240 0.093450 0.602296
0.886870 0.095764 0.603990
0.060321 0.184791 0.595851
0.164854 0.187116 0.597641
0.269424 0.189437 0.599394
0.374023 0.191754 0.601119
0.478644 0.194069 0.602823
0.583277 0.196382 0.604513
0.687916 0.198695 0.606199
0.792557 0.201010 0.607885
0.897266 0.203368 0.609548
0.070424 0.292373 0.601649
0.175049 0.294687 0.603348
0.279685 0.297000 0.605037
0.384324 0.299312 0.606722
0.488977 0.301635 0.608405
0.593714 0.304011 0.610059
0.698530 0.306442 0.611693
0.803408 0.308924 0.613317
0.908332 0.311454 0.614943
0.080732 0.399930 0.607246
0.185406 0.402267 0.608921
0.290169 0.404660 0.610568
0.395006 0.407107 0.612197
0.499900 0.409604 0.613821
0.604836 0.412148 0.615449
0.709796 0.414735 0.617094
0.814766 0.417363 0.618766
0.919728 0.420026 0.620477
0.091488 0.507777 0.612701
0.196397 0.510289 0.614325
0.301342 0.512847 0.615957
0.406307 0.515447 0.617610
0.511275 0.518086 0.619292
0.616232 0.520760 0.621018
0.721161 0.523466 0.622796
0.826044 0.526201 0.624639
0.930868 0.528961 0.626558
0.102817 0.616162 0.618128
0.207784 0.618812 0.619823
0.312734 0.621497 0.621563
0.417650 0.624212 0.623361
0.522517 0.626956 0.625226
0.627318 0.629723 0.627171
0.732038 0.632510 0.629206
0.836714 0.635309 0.631289
0.941391 0.638108 0.633371
0.114135 0.724961 0.623932
0.218983 0.727712 0.625821
0.323761 0.730486 0.627792
0.428457 0.733279 0.629852
0.533134 0.736078 0.631935
0.637809 0.738876 0.634018
0.742474 0.741668 0.636106
0.847120 0.744450 0.638201
0.951739 0.747218 0.640308
0.124877 0.834047 0.630499
0.229554 0.836846 0.632581
0.334227 0.839643 0.634665
0.438887 0.842433 0.636755
0.543525 0.845211 0.638854
0.648134 0.847974 0.640964
0.752705 0.850717 0.643091
0.857229 0.853435 0.645237
0.961699 0.856125 0.647405
0.135297 0.943197 0.637405
0.239927 0.945971 0.639507
0.344525 0.948728 0.641623
0.449082 0.951463 0.643755
0.553591 0.954173 0.645907
0.658043 0.956853 0.648084
0.762429 0.959498 0.650287
0.866742 0.962105 0.652521
0.970973 0.964668 0.654789
0.051639 0.077929 0.689317
0.156017 0.080273 0.691261
0.260454 0.082609 0.693146
0.364944 0.084940 0.694979
0.469478 0.087265 0.696768
0.574049 0.089585 0.698521
0.678649 0.091903 0.700245
0.783269 0.094218 0.701948
0.887903 0.096531 0.703639
0.061315 0.185562 0.695539
0.165861 0.187886 0.697315
0.270442 0.190205 0.699058
0.375049 0.192521 0.700776
0.479675 0.194836 0.702474
0.584311 0.197149 0.704162
0.688950 0.199461 0.705848
0.793604 0.201785 0.707530
0.898343 0.204162 0.709184
0.071451 0.293140 0.701304
0.176081 0.295454 0.702999
0.280719 0.297766 0.704685
0.385357 0.300079 0.706371
0.490034 0.302417 0.708046
0.594799 0.304811 0.709692
0.699637 0.307259 0.711322
0.804532 0.309757 0.712945
0.909468 0.312302 0.714574
0.081767 0.400698 0.706895
0.186472 0.403054 0.708560
0.291262 0.405465 0.710199
0.396119 0.407929 0.711826
0.501029 0.410442 0.713449
0.605974 0.413001 0.715082
0.710939 0.415602 0.716735
0.815908 0.418242 0.718418
0.920864 0.420917 0.720145
0.092606 0.508604 0.712329
0.197529 0.511132 0.713955
0.302482 0.513704 0.715592
0.407450 0.516317 0.717253
0.512417 0.518968 0.718949
0.617366 0.521654 0.720691
0.722281 0.524370 0.722489
0.827147 0.527114 0.724356
0.931947 0.529881 0.726303
0.103961 0.617036 0.717775
0.208924 0.619698 0.719484
0.313864 0.622394 0.721242
0.418766 0.625119 0.723061
0.523613 0.627870 0.724951
0.628389 0.630645 0.726925
0.733083 0.633438 0.728986
0.837761 0.636237 0.731069
0.942436 0.639035 0.733152
0.115245 0.725870 0.723639
0.220072 0.728629 0.725554
0.324822 0.731410 0.727556
0.429503 0.734206 0.729633
0.534181 0.737006 0.731715
0.638853 0.739802 0.733799
0.743513 0.742592 0.735889
0.848150 0.745370 0.737988
0.952758 0.748132 0.740099
0.125923 0.834975 0.730279
0.230600 0.837774 0.732362
0.335270 0.840569 0.734447
0.439923 0.843355 0.736539
0.544552 0.846129 0.738642
0.649150 0.848886 0.740757
0.753706 0.851621 0.742890
0.858214 0.854330 0.745043
0.962664 0.857009 0.747220
0.136331 0.944118 0.737191
0.240951 0.946887 0.739297
0.345537 0.949637 0.741417
0.450079 0.952365 0.743556
0.554570 0.955065 0.745716
0.659001 0.957734 0.747901
0.763363 0.960367 0.750114
0.867650 0.962960 0.752359
0.971852 0.965508 0.754639
0.052579 0.078707 0.789059
0.156977 0.081048 0.790982
0.261433 0.083383 0.792849
0.365938 0.085711 0.794666
0.470486 0.088035 0.796443
0.575067 0.090354 0.798185
0.679674 0.092670 0.799901
0.784300 0.094984 0.801600
0.888937 0.097297 0.803288
0.062314 0.186333 0.795222
0.166872 0.188655 0.796987
0.271463 0.190973 0.798720
0.376077 0.193289 0.800430
0.480707 0.195602 0.802125
0.585345 0.197915 0.803811
0.689983 0.200228 0.805497
0.794661 0.202567 0.807171
0.899428 0.204962 0.808817
0.072481 0.293907 0.800957
0.177114 0.296220 0.802648
0.281753 0.298533 0.804334
0.386393 0.300847 0.806020
0.491100 0.303204 0.807684
0.595891 0.305617 0.809324
0.700750 0.308082 0.810950
0.805661 0.310596 0.812574
0.910607 0.313155 0.814207
0.082812 0.401473 0.806540
0.187547 0.403847 0.808195
0.292361 0.406276 0.809829
0.397238 0.408757 0.811454
0.502161 0.411285 0.813079
0.607115 0.413859 0.814717
0.712083 0.416473 0.816379
0.817049 0.419125 0.818075
0.921998 0.421811 0.819818
0.093730 0.509437 0.811958
0.198664 0.511980 0.813586
0.303624 0.514566 0.815230
0.408594 0.517192 0.816901
0.513556 0.519855 0.818611
0.618496 0.522551 0.820370
0.723397 0.525277 0.822190
0.828242 0.528029 0.824082
0.933016 0.530803 0.826057
0.105104 0.617915 0.817427
0.210061 0.620588 0.819151
0.314990 0.623294 0.820928
0.419875 0.626028 0.822769
0.524701 0.628788 0.824686
0.629449 0.631569 0.826689
0.734130 0.634365 0.828767
0.838807 0.637165 0.830849
0.943480 0.639961 0.832933
0.116349 0.726782 0.823355
0.221152 0.729549 0.825298
0.325874 0.732336 0.827330
0.430550 0.735134 0.829413
0.535227 0.737933 0.831496
0.639896 0.740728 0.833581
0.744549 0.743514 0.835674
0.849178 0.746287 0.837776
0.953774 0.749043 0.839892
0.126970 0.835903 0.830059
0.231645 0.838701 0.832142
0.336310 0.841494 0.834230
0.440957 0.844276 0.836325
0.545576 0.847045 0.838431
0.650161 0.849795 0.840552
0.754702 0.852522 0.842691
0.859192 0.855222 0.844852
0.963621 0.857890 0.847037
0.137362 0.945037 0.836977
0.241972 0.947801 0.839088
0.346544 0.950544 0.841214
0.451070 0.953263 0.843359
0.555542 0.955953 0.845527
0.659951 0.958611 0.847721
0.764289 0.961231 0.849944
0.868549 0.963809 0.852200
0.972721 0.966342 0.854493
0.053527 0.079484 0.888793
0.157944 0.081823 0.890697
0.262417 0.084155 0.892546
0.366938 0.086482 0.894349
0.471497 0.088804 0.896113
0.576088 0.091122 0.897846
0.680702 0.093438 0.899556
0.785333 0.095751 0.901250
0.889971 0.098064 0.902936
0.063317 0.187103 0.894901
0.167887 0.189424 0.896654
0.272486 0.191741 0.898379
0.377106 0.194056 0.900083
0.481740 0.196369 0.901774
0.586379 0.198682 0.903459
0.691019 0.200997 0.905146
0.795728 0.203354 0.906809
0.900521 0.205768 0.908448
0.073512 0.294674 0.900609
0.178148 0.296987 0.902297
0.282787 0.299299 0.903983
0.387439 0.301622 0.905665
0.492176 0.303998 0.907320
0.596991 0.306428 0.908954
0.701869 0.308910 0.910578
0.806793 0.311439 0.912203
0.911747 0.314013 0.913842
0.083868 0.402253 0.906182
0.188631 0.404646 0.907829
0.293468 0.407093 0.909458
0.398361 0.409590 0.911082
0.503297 0.412134 0.912710
0.608257 0.414721 0.914355
0.713226 0.417348 0.916027
0.818189 0.420011 0.917737
0.923128 0.422708 0.919498
0.094858 0.510275 0.911586
0.199803 0.512832 0.913218
0.304767 0.515432 0.914870
0.409736 0.518071 0.916553
0.514693 0.520745 0.918278
0.619622 0.523451 0.920056
0.724506 0.526186 0.921899
0.829330 0.528946 0.923817
0.934077 0.531728 0.925822
0.106245 0.618797 0.917083
0.211195 0.621482 0.918824
0.316111 0.624197 0.920621
0.420978 0.626940 0.922485
0.525780 0.629707 0.924430
0.630500 0.632495 0.926464
0.735177 0.635293 0.928547
0.839853 0.638092 0.930630
0.944522 0.640886 0.932715
0.117445 0.727697 0.923080
0.222223 0.730470 0.925051
0.326919 0.733263 0.927111
0.431597 0.736062 0.929193
0.536272 0.738860 0.931276
0.640936 0.741652 0.933364
0.745583 0.744435 0.935459
0.850201 0.747203 0.937566
0.954785 0.749953 0.939687
0.128017 0.836831 0.929840
0.232689 0.839628 0.931924
0.337349 0.842417 0.934013
0.441988 0.845196 0.936112
0.546597 0.847959 0.938223
0.651168 0.850701 0.940349
0.755693 0.853420 0.942495
0.860163 0.856110 0.944663
0.964571 0.858767 0.946858
0.138390 0.945955 0.936766
0.242988 0.948712 0.938881
0.347546 0.951448 0.941013
0.452055 0.954158 0.943165
0.556507 0.956838 0.945341
0.660893 0.959484 0.947545
0.765207 0.962090 0.949778
0.869438 0.964654 0.952046
0.973580 0.967170 0.954351
