assets/presets/luts/instant-pack/lut.cube
TITLE "Instant Pack"
LUT_3D_SIZE 17
0.046167 0.073243 0.090702
0.098274 0.074425 0.091755
0.150401 0.075604 0.092788
0.202547 0.076781 0.093802
0.254711 0.077955 0.094799
0.306892 0.079128 0.095779
0.359089 0.080299 0.096743
0.411301 0.081468 0.097692
0.463527 0.082635 0.098627
0.515766 0.083801 0.099549
0.568017 0.084966 0.100459
0.620279 0.086129 0.101358
0.672552 0.087291 0.102248
0.724833 0.088451 0.103128
0.777123 0.089611 0.104000
0.829420 0.090770 0.104865
0.881723 0.091929 0.105724
0.050701 0.127096 0.094114
0.102870 0.128270 0.095105
0.155056 0.129442 0.096080
0.207258 0.130612 0.097039
0.259474 0.131781 0.097983
0.311705 0.132948 0.098914
0.363947 0.134113 0.099833
0.416202 0.135277 0.100739
0.468468 0.136440 0.101635
0.520743 0.137601 0.102522
0.573027 0.138762 0.103399
0.625319 0.139921 0.104269
0.677618 0.141080 0.105132
0.729923 0.142238 0.105989
0.782233 0.143395 0.106842
0.834546 0.144552 0.107690
0.886863 0.145709 0.108536
0.055428 0.180925 0.097333
0.107649 0.182093 0.098274
0.159883 0.183259 0.099201
0.212130 0.184424 0.100115
0.264388 0.185588 0.101019
0.316657 0.186750 0.101912
0.368935 0.187911 0.102795
0.421222 0.189072 0.103670
0.473516 0.190231 0.104538
0.525817 0.191389 0.105399
0.578124 0.192547 0.106254
0.630435 0.193705 0.107106
0.682749 0.194861 0.107953
0.735067 0.196018 0.108798
0.787386 0.197174 0.109641
0.839705 0.198331 0.110484
0.892025 0.199487 0.111326
0.060314 0.234736 0.100397
0.112576 0.235899 0.101297
0.164847 0.237061 0.102187
0.217128 0.238222 0.103068
0.269417 0.239381 0.103940
0.321714 0.240541 0.104806
0.374017 0.241699 0.105665
0.426325 0.242856 0.106519
0.478637 0.244014 0.107369
0.530952 0.245170 0.108215
0.583270 0.246327 0.109060
0.635590 0.247483 0.109903
0.687909 0.248639 0.110745
0.740228 0.249796 0.111588
0.792550 0.250954 0.112431
0.844893 0.252126 0.113267
0.897259 0.253312 0.114095
0.065322 0.288532 0.103339
0.117614 0.289691 0.104210
0.169912 0.290850 0.105073
0.222217 0.292008 0.105931
0.274526 0.293166 0.106783
0.326839 0.294323 0.107632
0.379156 0.295479 0.108478
0.431474 0.296636 0.109321
0.483794 0.297792 0.110164
0.536113 0.298948 0.111007
0.588432 0.300105 0.111850
0.640759 0.301267 0.112692
0.693109 0.302443 0.113524
0.745482 0.303634 0.114350
0.797875 0.304838 0.115171
0.850287 0.306056 0.115987
0.902714 0.307287 0.116800
0.070417 0.342318 0.106196
0.122728 0.343475 0.107047
0.175042 0.344632 0.107895
0.227359 0.345788 0.108740
0.279678 0.346945 0.109583
0.331998 0.348101 0.110426
0.384317 0.349257 0.111268
0.436636 0.350414 0.112112
0.488970 0.351580 0.112951
0.541328 0.352761 0.113782
0.593707 0.353956 0.114606
0.646106 0.355165 0.115424
0.698523 0.356386 0.116239
0.750955 0.357621 0.117052
0.803401 0.358868 0.117863
0.855858 0.360127 0.118675
0.908325 0.361398 0.119489
0.075563 0.396097 0.109002
0.127882 0.397254 0.109845
0.180202 0.398410 0.110687
0.232521 0.399566 0.111530
0.284842 0.400724 0.112373
0.337183 0.401895 0.113209
0.389548 0.403080 0.114038
0.441934 0.404280 0.114860
0.494338 0.405492 0.115678
0.546760 0.406718 0.116492
0.599197 0.407957 0.117304
0.651646 0.409208 0.118115
0.704107 0.410470 0.118928
0.756576 0.411745 0.119742
0.809053 0.413030 0.120560
0.861534 0.414325 0.121384
0.914018 0.415631 0.122213
0.080725 0.449875 0.111792
0.133050 0.451036 0.112634
0.185399 0.452211 0.113467
0.237770 0.453401 0.114294
0.290162 0.454605 0.115114
0.342572 0.455822 0.115931
0.394999 0.457051 0.116744
0.447440 0.458294 0.117556
0.499893 0.459548 0.118367
0.552356 0.460815 0.119180
0.604828 0.462092 0.119996
0.657306 0.463381 0.120815
0.709789 0.464680 0.121640
0.762273 0.465988 0.122472
0.814758 0.467307 0.123312
0.867241 0.468634 0.124162
0.919720 0.469970 0.125023
0.085995 0.503723 0.114549
0.138393 0.504931 0.115368
0.190808 0.506152 0.116183
0.243239 0.507386 0.116996
0.295684 0.508632 0.117808
0.348141 0.509890 0.118619
0.400607 0.511160 0.119433
0.453081 0.512441 0.120250
0.505561 0.513733 0.121071
0.558044 0.515035 0.121898
0.610529 0.516347 0.122732
0.663013 0.517668 0.123575
0.715495 0.518998 0.124428
0.767973 0.520337 0.125293
0.820444 0.521684 0.126170
0.872907 0.523039 0.127062
0.925359 0.524400 0.127970
0.091481 0.557721 0.117248
0.143930 0.558971 0.118059
0.196389 0.560233 0.118872
0.248858 0.561507 0.119686
0.301334 0.562791 0.120504
0.353815 0.564086 0.121327
0.406299 0.565391 0.122156
0.458784 0.566706 0.122993
0.511268 0.568030 0.123839
0.563749 0.569363 0.124695
0.616225 0.570704 0.125564
0.668693 0.572053 0.126446
0.721153 0.573410 0.127342
0.773602 0.574775 0.128255
0.826037 0.576145 0.129185
0.878457 0.577522 0.130134
0.930861 0.578905 0.131104
0.097110 0.611854 0.119939
0.149588 0.613142 0.120759
0.202070 0.614440 0.121583
0.254554 0.615748 0.122415
0.307039 0.617066 0.123254
0.359523 0.618393 0.124103
0.412002 0.619728 0.124964
0.464476 0.621072 0.125836
0.516942 0.622424 0.126722
0.569399 0.623783 0.127624
0.621843 0.625149 0.128542
0.674274 0.626522 0.129478
0.726689 0.627901 0.130433
0.779087 0.629286 0.131409
0.831464 0.630676 0.132407
0.883820 0.632070 0.133429
0.936159 0.633469 0.134470
0.102810 0.666106 0.122674
0.155294 0.667427 0.123517
0.207777 0.668756 0.124369
0.260255 0.670094 0.125233
0.312726 0.671441 0.126110
0.365190 0.672795 0.127000
0.417643 0.674156 0.127907
0.470083 0.675525 0.128830
0.522510 0.676899 0.129772
0.574920 0.678280 0.130734
0.627311 0.679667 0.131716
0.679682 0.681058 0.132722
0.732031 0.682454 0.133751
0.784368 0.683853 0.134793
0.836707 0.685253 0.135834
0.889046 0.686652 0.136875
0.941384 0.688051 0.137917
0.108507 0.720461 0.125504
0.160976 0.721810 0.126384
0.213436 0.723167 0.127280
0.265886 0.724530 0.128191
0.318322 0.725901 0.129120
0.370744 0.727277 0.130068
0.423148 0.728660 0.131036
0.475533 0.730048 0.132026
0.527898 0.731441 0.133039
0.580240 0.732838 0.134075
0.632578 0.734238 0.135116
0.684917 0.735637 0.136157
0.737256 0.737037 0.137198
0.789593 0.738436 0.138240
0.841928 0.739833 0.139283
0.894260 0.741229 0.140327
0.946588 0.742622 0.141373
0.114128 0.774905 0.128478
0.166560 0.776277 0.129413
0.218976 0.777656 0.130366
0.271375 0.779040 0.131341
0.323754 0.780430 0.132338
0.376111 0.781824 0.133358
0.428450 0.783223 0.134398
0.480788 0.784622 0.135439
0.533127 0.786022 0.136480
0.585466 0.787421 0.137522
0.637802 0.788819 0.138563
0.690137 0.790217 0.139607
0.742467 0.791612 0.140651
0.794793 0.793005 0.141698
0.847113 0.794394 0.142746
0.899426 0.795780 0.143798
0.951732 0.797162 0.144853
0.119599 0.829421 0.131648
0.171972 0.830812 0.132652
0.224322 0.832208 0.133680
0.276660 0.833607 0.134721
0.328998 0.835006 0.135762
0.381337 0.836406 0.136803
0.433675 0.837805 0.137845
0.486011 0.839203 0.138887
0.538345 0.840600 0.139931
0.590674 0.841994 0.140976
0.642998 0.843386 0.142023
0.695316 0.844775 0.143073
0.747627 0.846160 0.144125
0.799930 0.847540 0.145181
0.852224 0.848916 0.146241
0.904507 0.850287 0.147305
0.956780 0.851651 0.148374
0.124870 0.883991 0.135044
0.177209 0.885391 0.136085
0.229547 0.886790 0.137127
0.281885 0.888189 0.138168
0.334220 0.889587 0.139211
0.386552 0.890983 0.140255
0.438880 0.892377 0.141300
0.491202 0.893768 0.142348
0.543518 0.895155 0.143399
0.595827 0.896539 0.144453
0.648127 0.897918 0.145510
0.700418 0.899292 0.146571
0.752698 0.900661 0.147636
0.804967 0.902023 0.148707
0.857223 0.903379 0.149782
0.909465 0.904728 0.150863
0.961693 0.906069 0.151951
0.130094 0.938573 0.138492
0.182428 0.939970 0.139535
0.234759 0.941366 0.140579
0.287085 0.942759 0.141625
0.339406 0.944149 0.142674
0.391720 0.945535 0.143726
0.444026 0.946917 0.144780
0.496323 0.948295 0.145839
0.548611 0.949668 0.146901
0.600887 0.951034 0.147968
0.653152 0.952395 0.149040
0.705404 0.953749 0.150117
0.757642 0.955095 0.151200
0.809865 0.956433 0.152289
0.862073 0.957763 0.153385
0.914263 0.959085 0.154488
0.966435 0.960396 0.155599
0.046611 0.073635 0.140599
0.098725 0.074816 0.141645
0.150858 0.075994 0.142671
0.203010 0.077170 0.143680
0.255180 0.078344 0.144671
0.307366 0.079517 0.145645
0.359569 0.080687 0.146604
0.411785 0.081855 0.147548
0.464016 0.083022 0.148479
0.516259 0.084187 0.149397
0.568514 0.085351 0.150303
0.620780 0.086514 0.151199
0.673055 0.087676 0.152085
0.725340 0.088836 0.152963
0.777632 0.089996 0.153832
0.829931 0.091154 0.154695
0.882236 0.092312 0.155552
0.051166 0.127485 0.143989
0.103341 0.128658 0.144975
0.155532 0.129830 0.145944
0.207739 0.131000 0.146898
0.259960 0.132168 0.147838
0.312195 0.133334 0.148765
0.364442 0.134499 0.149679
0.416700 0.135662 0.150583
0.468969 0.136825 0.151475
0.521247 0.137986 0.152359
0.573534 0.139146 0.153234
0.625829 0.140305 0.154101
0.678130 0.141464 0.154962
0.730436 0.142622 0.155817
0.782747 0.143779 0.156668
0.835062 0.144936 0.157516
0.887379 0.146092 0.158361
0.055911 0.181312 0.147192
0.108136 0.182480 0.148127
0.160375 0.183646 0.149050
0.212626 0.184810 0.149961
0.264887 0.185973 0.150861
0.317159 0.187135 0.151750
0.369440 0.188296 0.152631
0.421730 0.189456 0.153504
0.474026 0.190615 0.154369
0.526329 0.191773 0.155228
0.578637 0.192931 0.156082
0.630950 0.194088 0.156932
0.683265 0.195245 0.157778
0.735583 0.196401 0.158623
0.787903 0.197558 0.159465
0.840222 0.198714 0.160308
0.892541 0.199870 0.161151
0.060811 0.235121 0.150241
0.113076 0.236284 0.151138
0.165351 0.237446 0.152025
0.217634 0.238606 0.152903
0.269926 0.239766 0.153773
0.322225 0.240925 0.154636
0.374529 0.242083 0.155494
0.426839 0.243240 0.156346
0.479152 0.244397 0.157195
0.531469 0.245554 0.158041
0.583787 0.246710 0.158884
0.636107 0.247866 0.159727
0.688426 0.249023 0.160570
0.740745 0.250179 0.161413
0.793072 0.251341 0.162254
0.845423 0.252518 0.163087
0.897796 0.253709 0.163913
0.065829 0.288916 0.153174
0.118123 0.290076 0.154041
0.170423 0.291234 0.154903
0.222730 0.292392 0.155759
0.275040 0.293549 0.156610
0.327355 0.294706 0.157458
0.379672 0.295863 0.158303
0.431991 0.297019 0.159146
0.484311 0.298175 0.159988
0.536630 0.299332 0.160831
0.588949 0.300488 0.161675
0.641283 0.301655 0.162513
0.693642 0.302836 0.163344
0.746021 0.304031 0.164168
0.798421 0.305240 0.164987
0.850838 0.306462 0.165801
0.903270 0.307697 0.166614
0.070931 0.342701 0.156023
0.123243 0.343858 0.156873
0.175558 0.345015 0.157720
0.227876 0.346172 0.158564
0.280195 0.347328 0.159407
0.332515 0.348484 0.160250
0.384834 0.349641 0.161093
0.437155 0.350799 0.161936
0.489497 0.351970 0.162772
0.541862 0.353156 0.163600
0.594248 0.354355 0.164422
0.646653 0.355568 0.165240
0.699075 0.356794 0.166054
0.751512 0.358033 0.166866
0.803962 0.359284 0.167677
0.856423 0.360547 0.168490
0.908892 0.361822 0.169304
0.076080 0.396481 0.158826
0.128399 0.397637 0.159669
0.180719 0.398793 0.160511
0.233038 0.399950 0.161355
0.285363 0.401111 0.162197
0.337713 0.402286 0.163030
0.390085 0.403476 0.163856
0.442477 0.404680 0.164677
0.494887 0.405897 0.165493
0.547314 0.407127 0.166306
0.599755 0.408370 0.167118
0.652209 0.409625 0.167929
0.704673 0.410892 0.168742
0.757144 0.412169 0.169558
0.809623 0.413458 0.170378
0.862105 0.414757 0.171203
0.914590 0.416066 0.172035
0.081241 0.450259 0.161617
0.133574 0.451424 0.162456
0.185931 0.452604 0.163287
0.238309 0.453799 0.164111
0.290707 0.455007 0.164930
0.343123 0.456228 0.165745
0.395555 0.457462 0.166558
0.448000 0.458708 0.167370
0.500457 0.459967 0.168182
0.552923 0.461237 0.168995
0.605397 0.462518 0.169812
0.657877 0.463810 0.170633
0.710360 0.465112 0.171460
0.762845 0.466424 0.172295
0.815329 0.467746 0.173138
0.867811 0.469076 0.173991
0.920289 0.470415 0.174856
0.086536 0.504122 0.164366
0.138939 0.505334 0.165184
0.191360 0.506559 0.165998
0.243796 0.507797 0.166810
0.296245 0.509048 0.167622
0.348705 0.510310 0.168434
0.401174 0.511584 0.169248
0.453650 0.512868 0.170066
0.506131 0.514163 0.170889
0.558615 0.515469 0.171718
0.611100 0.516784 0.172555
0.663584 0.518108 0.173402
0.716065 0.519441 0.174258
0.768541 0.520782 0.175127
0.821009 0.522132 0.176009
0.873469 0.523489 0.176906
0.925917 0.524853 0.177819
0.092039 0.558134 0.167062
0.144492 0.559388 0.167873
0.196955 0.560654 0.168686
0.249426 0.561931 0.169502
0.301904 0.563219 0.170321
0.354386 0.564517 0.171146
0.406871 0.565826 0.171977
0.459356 0.567144 0.172817
0.511839 0.568471 0.173666
0.564318 0.569806 0.174527
0.616792 0.571151 0.175400
0.669258 0.572502 0.176286
0.721714 0.573862 0.177188
0.774159 0.575228 0.178106
0.826589 0.576601 0.179042
0.879004 0.577980 0.179998
0.931401 0.579365 0.180975
0.097679 0.612280 0.169755
0.150158 0.613571 0.170576
0.202641 0.614872 0.171403
0.255126 0.616184 0.172237
0.307611 0.617505 0.173080
0.360093 0.618834 0.173932
0.412571 0.620173 0.174796
0.465042 0.621519 0.175673
0.517506 0.622874 0.176564
0.569958 0.624235 0.177471
0.622399 0.625604 0.178395
0.674825 0.626979 0.179337
0.727234 0.628359 0.180299
0.779625 0.629746 0.181282
0.831996 0.631137 0.182288
0.884344 0.632534 0.183318
0.936682 0.633933 0.184360
0.103382 0.666543 0.172498
0.155866 0.667866 0.173343
0.208347 0.669199 0.174199
0.260823 0.670540 0.175067
0.313292 0.671889 0.175948
0.365752 0.673245 0.176844
0.418201 0.674609 0.177756
0.470637 0.675980 0.178685
0.523059 0.677356 0.179633
0.575463 0.678739 0.180602
0.627847 0.680127 0.181592
0.680211 0.681520 0.182605
0.732554 0.682918 0.183642
0.784892 0.684317 0.184683
0.837231 0.685717 0.185724
0.889569 0.687116 0.186765
0.941907 0.688515 0.187807
0.109074 0.720908 0.175339
0.161541 0.722259 0.176225
0.213998 0.723618 0.177125
0.266443 0.724984 0.178042
0.318875 0.726356 0.178977
0.371291 0.727735 0.179932
0.423689 0.729119 0.180907
0.476068 0.730509 0.181904
0.528425 0.731904 0.182925
0.580763 0.733302 0.183965
0.633102 0.734702 0.185006
0.685441 0.736101 0.186047
0.737779 0.737500 0.187089
0.790116 0.738899 0.188130
0.842450 0.740296 0.189174
0.894780 0.741691 0.190218
0.947106 0.743084 0.191265
0.114683 0.775359 0.178331
0.167110 0.776734 0.179272
0.219521 0.778114 0.180232
0.271914 0.779500 0.181214
0.324286 0.780892 0.182218
0.376636 0.782288 0.183247
0.428973 0.783686 0.184288
0.481312 0.785086 0.185329
0.533651 0.786486 0.186370
0.585989 0.787885 0.187412
0.638325 0.789283 0.188454
0.690658 0.790679 0.189498
0.742987 0.792074 0.190543
0.795311 0.793465 0.191590
0.847629 0.794854 0.192640
0.899940 0.796239 0.193692
0.952242 0.797619 0.194749
0.120136 0.829882 0.181523
0.172502 0.831274 0.182535
0.224845 0.832672 0.183570
0.277183 0.834071 0.184611
0.329522 0.835470 0.185652
0.381861 0.836870 0.186694
0.434198 0.838269 0.187735
0.486533 0.839666 0.188778
0.538865 0.841062 0.189822
0.591193 0.842456 0.190868
0.643515 0.843847 0.191916
0.695831 0.845234 0.192966
0.748139 0.846618 0.194020
0.800439 0.847997 0.195077
0.852730 0.849371 0.196138
0.905010 0.850740 0.197204
0.957278 0.852102 0.198274
0.125393 0.884455 0.184934
0.177732 0.885855 0.185976
0.230070 0.887254 0.187017
0.282407 0.888653 0.188059
0.334742 0.890050 0.189102
0.387072 0.891445 0.190146
0.439398 0.892838 0.191193
0.491719 0.894228 0.192241
0.544032 0.895614 0.193293
0.596338 0.896996 0.194348
0.648635 0.898374 0.195406
0.700923 0.899746 0.196469
0.753199 0.901113 0.197536
0.805464 0.902473 0.198608
0.857716 0.903827 0.199685
0.909953 0.905173 0.200768
0.962176 0.906512 0.201857
0.130616 0.939037 0.188382
0.182949 0.940433 0.189426
0.235279 0.941828 0.190471
0.287603 0.943220 0.191518
0.339922 0.944609 0.192567
0.392233 0.945994 0.193620
0.444536 0.947375 0.194676
0.496831 0.948751 0.195735
0.549115 0.950121 0.196799
0.601388 0.951486 0.197868
0.653648 0.952844 0.198941
0.705896 0.954196 0.200020
0.758129 0.955540 0.201105
0.810347 0.956875 0.202197
0.862549 0.958202 0.203295
0.914733 0.959520 0.204400
0.966899 0.960829 0.205513
0.047058 0.074027 0.190493
0.099178 0.075207 0.191532
0.151318 0.076384 0.192553
0.203476 0.077560 0.193555
0.255651 0.078733 0.194540
0.307843 0.079905 0.195509
0.360050 0.081074 0.196463
0.412271 0.082242 0.197403
0.464506 0.083409 0.198329
0.516753 0.084573 0.199244
0.569012 0.085737 0.200146
0.621281 0.086899 0.201039
0.673560 0.088060 0.201922
0.725847 0.089221 0.202797
0.778141 0.090380 0.203664
0.830442 0.091538 0.204525
0.882749 0.092696 0.205380
0.051633 0.127874 0.193863
0.103814 0.129047 0.194843
0.156010 0.130218 0.195807
0.208222 0.131387 0.196756
0.260448 0.132554 0.197692
0.312686 0.133720 0.198614
0.364937 0.134885 0.199525
0.417199 0.136048 0.200425
0.469471 0.137210 0.201314
0.521753 0.138371 0.202194
0.574042 0.139530 0.203067
0.626339 0.140689 0.203932
0.678642 0.141848 0.204791
0.730950 0.143005 0.205645
0.783262 0.144162 0.206495
0.835578 0.145319 0.207341
0.887896 0.146476 0.208185
0.056395 0.181699 0.197048
0.108625 0.182866 0.197980
0.160868 0.184032 0.198898
0.213122 0.185196 0.199805
0.265387 0.186359 0.200702
0.317663 0.187520 0.201588
0.369947 0.188681 0.202466
0.422238 0.189840 0.203336
0.474537 0.190999 0.204199
0.526842 0.192157 0.205057
0.579151 0.193315 0.205909
0.631465 0.194472 0.206758
0.683782 0.195628 0.207603
0.736100 0.196785 0.208447
0.788420 0.197941 0.209290
0.840739 0.199097 0.210132
0.893058 0.200254 0.210976
0.061308 0.235507 0.200085
0.113577 0.236669 0.200978
0.165855 0.237830 0.201862
0.218141 0.238991 0.202737
0.270435 0.240150 0.203605
0.322736 0.241308 0.204466
0.375042 0.242466 0.205322
0.427353 0.243624 0.206173
0.479668 0.244781 0.207020
0.531985 0.245937 0.207865
0.584304 0.247093 0.208709
0.636624 0.248250 0.209551
0.688943 0.249406 0.210394
0.741262 0.250563 0.211238
0.793597 0.251730 0.212076
0.845955 0.252911 0.212906
0.898336 0.254107 0.213730
0.066337 0.289301 0.203007
0.118633 0.290460 0.203873
0.170935 0.291618 0.204732
0.223243 0.292776 0.205586
0.275555 0.293933 0.206436
0.327871 0.295090 0.207283
0.380189 0.296246 0.208127
0.432508 0.297402 0.208970
0.484828 0.298559 0.209813
0.537147 0.299715 0.210656
0.589468 0.300873 0.211499
0.641811 0.302045 0.212335
0.694176 0.303231 0.213163
0.746563 0.304431 0.213985
0.798968 0.305644 0.214802
0.851390 0.306870 0.215616
0.903828 0.308109 0.216428
0.071445 0.343085 0.205851
0.123758 0.344242 0.206699
0.176074 0.345399 0.207545
0.228393 0.346555 0.208389
0.280712 0.347711 0.209232
0.333032 0.348868 0.210074
0.385350 0.350024 0.210918
0.437677 0.351185 0.211759
0.490027 0.352361 0.212592
0.542399 0.353552 0.213418
0.594791 0.354756 0.214239
0.647202 0.355973 0.215055
0.699630 0.357204 0.215868
0.752071 0.358447 0.216680
0.804525 0.359702 0.217492
0.856989 0.360968 0.218304
0.909461 0.362246 0.219120
0.076597 0.396864 0.208651
0.128916 0.398020 0.209493
0.181236 0.399176 0.210336
0.233554 0.400333 0.211180
0.285888 0.401499 0.212019
0.338245 0.402679 0.212849
0.390624 0.403874 0.213674
0.443022 0.405082 0.214493
0.495438 0.406304 0.215308
0.547870 0.407538 0.216120
0.600315 0.408785 0.216932
0.652772 0.410044 0.217744
0.705239 0.411314 0.218557
0.757713 0.412595 0.219374
0.810193 0.413888 0.220195
0.862677 0.415190 0.221023
0.915161 0.416502 0.221857
0.081760 0.450643 0.211441
0.134101 0.451814 0.212277
0.186465 0.452999 0.213106
0.238850 0.454197 0.213928
0.291254 0.455410 0.214746
0.343676 0.456635 0.215560
0.396112 0.457874 0.216372
0.448561 0.459124 0.217184
0.501021 0.460387 0.217996
0.553491 0.461661 0.218810
0.605967 0.462945 0.219628
0.658448 0.464241 0.220452
0.710932 0.465546 0.221281
0.763417 0.466861 0.222118
0.815901 0.468186 0.222965
0.868381 0.469519 0.223822
0.920857 0.470861 0.224691
0.087078 0.504522 0.214182
0.139488 0.505739 0.214999
0.191914 0.506968 0.215812
0.244355 0.508211 0.216624
0.296808 0.509465 0.217436
0.349271 0.510731 0.218248
0.401743 0.512008 0.219064
0.454220 0.513296 0.219883
0.506703 0.514595 0.220708
0.559187 0.515903 0.221540
0.611672 0.517222 0.222380
0.664155 0.518549 0.223229
0.716634 0.519885 0.224090
0.769108 0.521229 0.224963
0.821574 0.522581 0.225850
0.874030 0.523941 0.226752
0.926474 0.525307 0.227671
0.092599 0.558549 0.216876
0.145055 0.559807 0.217688
0.197521 0.561076 0.218501
0.249995 0.562357 0.219318
0.302475 0.563648 0.220139
0.354958 0.564950 0.220966
0.407443 0.566261 0.221800
0.459927 0.567582 0.222642
0.512409 0.568913 0.223495
0.564887 0.570251 0.224360
0.617358 0.571598 0.225237
0.669821 0.572952 0.226128
0.722274 0.574314 0.227035
0.774714 0.575683 0.227959
0.827140 0.577058 0.228902
0.879549 0.578439 0.229865
0.931940 0.579825 0.230848
0.098248 0.612706 0.219572
0.150729 0.614001 0.220395
0.203213 0.615306 0.221224
0.255698 0.616621 0.222060
0.308182 0.617944 0.222906
0.360663 0.619277 0.223762
0.413139 0.620618 0.224630
0.465608 0.621967 0.225512
0.518068 0.623324 0.226408
0.570517 0.624688 0.227320
0.622953 0.626059 0.228250
0.675373 0.627436 0.229199
0.727777 0.628818 0.230168
0.780162 0.630207 0.231158
0.832525 0.631600 0.232172
0.884867 0.632997 0.233209
0.937205 0.634397 0.234250
0.103953 0.666980 0.222322
0.156437 0.668307 0.223171
0.208916 0.669642 0.224030
0.261390 0.670986 0.224903
0.313857 0.672338 0.225788
0.366313 0.673697 0.226689
0.418758 0.675063 0.227607
0.471190 0.676435 0.228542
0.523605 0.677814 0.229497
0.576003 0.679199 0.230473
0.628382 0.680589 0.231470
0.680738 0.681983 0.232492
0.733077 0.683382 0.233532
0.785415 0.684781 0.234573
0.837754 0.686181 0.235614
0.890092 0.687580 0.236655
0.942429 0.688978 0.237697
0.109641 0.721355 0.225176
0.162104 0.722709 0.226066
0.214558 0.724070 0.226972
0.266999 0.725438 0.227895
0.319425 0.726813 0.228837
0.371836 0.728193 0.229798
0.424228 0.729580 0.230780
0.476600 0.730971 0.231785
0.528949 0.732367 0.232813
0.581286 0.733766 0.233855
0.633625 0.735165 0.234896
0.685964 0.736565 0.235937
0.738302 0.737964 0.236979
0.790638 0.739362 0.238021
0.842971 0.740759 0.239065
0.895300 0.742153 0.240110
0.947624 0.743545 0.241157
0.115238 0.775814 0.228185
0.167660 0.777191 0.229133
0.220064 0.778573 0.230100
0.272450 0.779961 0.231089
0.324815 0.781354 0.232101
0.377158 0.782751 0.233137
0.429496 0.784150 0.234178
0.481835 0.785550 0.235219
0.534174 0.786949 0.236261
0.586511 0.788348 0.237302
0.638846 0.789746 0.238345
0.691178 0.791142 0.239389
0.743506 0.792535 0.240435
0.795828 0.793926 0.241483
0.848144 0.795314 0.242533
0.900452 0.796697 0.243587
0.952752 0.798076 0.244644
0.120671 0.830343 0.231401
0.173029 0.831737 0.232420
0.225368 0.833135 0.233460
0.277706 0.834535 0.234501
0.330045 0.835934 0.235542
0.382384 0.837334 0.236584
0.434720 0.838732 0.237626
0.487055 0.840129 0.238669
0.539385 0.841525 0.239713
0.591711 0.842917 0.240760
0.644032 0.844307 0.241808
0.696345 0.845693 0.242860
0.748651 0.847076 0.243915
0.800948 0.848453 0.244973
0.853235 0.849825 0.246036
0.905511 0.851192 0.247103
0.957776 0.852552 0.248175
0.125916 0.884919 0.234825
0.178255 0.886319 0.235866
0.230593 0.887718 0.236907
0.282929 0.889116 0.237949
0.335263 0.890513 0.238993
0.387592 0.891907 0.240038
0.439916 0.893299 0.241085
0.492234 0.894688 0.242135
0.544546 0.896073 0.243187
0.596849 0.897454 0.244243
0.649143 0.898830 0.245303
0.701427 0.900200 0.246367
0.753699 0.901565 0.247435
0.805960 0.902923 0.248509
0.858207 0.904274 0.249588
0.910440 0.905618 0.250673
0.962658 0.906953 0.251765
0.131138 0.939500 0.238273
0.183470 0.940896 0.239317
0.235798 0.942290 0.240363
0.288121 0.943681 0.241410
0.340437 0.945068 0.242461
0.392746 0.946452 0.243514
0.445046 0.947831 0.244572
0.497337 0.949206 0.245633
0.549617 0.950574 0.246698
0.601886 0.951937 0.247768
0.654143 0.953293 0.248843
0.706386 0.954642 0.249924
0.758614 0.955983 0.251011
0.810827 0.957316 0.252105
0.863023 0.958640 0.253206
0.915201 0.959955 0.254314
0.967360 0.961260 0.255429
0.047507 0.074418 0.240384
0.099633 0.075597 0.241417
0.151779 0.076774 0.242432
0.203943 0.077949 0.243428
0.256124 0.079122 0.244408
0.308321 0.080293 0.245372
0.360533 0.081462 0.246321
0.412759 0.082629 0.247257
0.464998 0.083795 0.248179
0.517249 0.084959 0.249089
0.569511 0.086122 0.249988
0.621783 0.087284 0.250878
0.674065 0.088445 0.251758
0.726354 0.089605 0.252630
0.778651 0.090764 0.253495
0.830954 0.091922 0.254354
0.883263 0.093080 0.255208
0.052102 0.128263 0.243734
0.104288 0.129435 0.244709
0.156490 0.130606 0.245668
