assets/presets/luts/matte-cream/lut.cube
TITLE "Matte Cream"
LUT_3D_SIZE 17
0.119376 0.110510 0.094550
0.176563 0.109458 0.093571
0.233304 0.108527 0.092717
0.289598 0.107717 0.091984
0.345444 0.107027 0.091372
0.400843 0.106459 0.090881
0.455794 0.106011 0.090510
0.510297 0.105684 0.090261
0.564352 0.105478 0.090132
0.617960 0.105393 0.090125
0.671120 0.105429 0.090238
0.723832 0.105585 0.090472
0.776097 0.105863 0.090827
0.827914 0.106261 0.091303
0.879283 0.106781 0.091900
0.930205 0.107421 0.092617
0.980678 0.108182 0.093456
0.115729 0.165776 0.090994
0.172979 0.164707 0.090008
0.229983 0.163687 0.089258
0.286577 0.162773 0.088671
0.342733 0.161975 0.088218
0.398445 0.161297 0.087892
0.453711 0.160738 0.087690
0.508530 0.160300 0.087611
0.562902 0.159983 0.087654
0.616827 0.159786 0.087819
0.670304 0.159710 0.088104
0.723334 0.159755 0.088512
0.775916 0.159921 0.089040
0.828051 0.160207 0.089689
0.879738 0.160614 0.090460
0.930977 0.161142 0.091351
0.981769 0.161791 0.092364
0.112475 0.220883 0.087859
0.169504 0.219888 0.086793
0.226545 0.218862 0.085999
0.283335 0.217885 0.085453
0.339751 0.217000 0.085097
0.395748 0.216224 0.084897
0.451313 0.215563 0.084836
0.506437 0.215019 0.084908
0.561118 0.214594 0.085108
0.615353 0.214288 0.085434
0.669143 0.214103 0.085884
0.722487 0.214037 0.086457
0.775384 0.214093 0.087153
0.827834 0.214268 0.087971
0.879837 0.214565 0.088911
0.931392 0.214982 0.089973
0.982501 0.215519 0.091156
0.109635 0.275826 0.085139
0.166370 0.274924 0.084009
0.223257 0.273953 0.083126
0.280073 0.272974 0.082525
0.336639 0.272044 0.082176
0.392857 0.271196 0.082033
0.448678 0.270449 0.082065
0.504079 0.269811 0.082251
0.559049 0.269287 0.082581
0.613582 0.268879 0.083046
0.667675 0.268589 0.083643
0.721324 0.268418 0.084368
0.774529 0.268365 0.085220
0.827289 0.268433 0.086197
0.879603 0.268620 0.087298
0.931471 0.268928 0.088523
0.982892 0.269356 0.089871
0.107209 0.330603 0.082834
0.163631 0.329800 0.081650
0.220276 0.328909 0.080683
0.276978 0.327973 0.079993
0.333564 0.327043 0.079584
0.389902 0.326161 0.079430
0.445911 0.325355 0.079492
0.501541 0.324643 0.079744
0.556766 0.324034 0.080163
0.611570 0.323534 0.080736
0.665945 0.323148 0.081453
0.719885 0.322877 0.082310
0.773387 0.322722 0.083300
0.826447 0.322686 0.084421
0.879064 0.322768 0.085671
0.931238 0.322969 0.087049
0.982967 0.323290 0.088552
0.105197 0.385215 0.080943
0.161300 0.384512 0.079709
0.217664 0.383712 0.078671
0.274167 0.382844 0.077890
0.330662 0.381950 0.077394
0.387017 0.381069 0.077178
0.443126 0.380236 0.077216
0.498918 0.379474 0.077480
0.554347 0.378800 0.077943
0.609385 0.378224 0.078584
0.664013 0.377754 0.079390
0.718221 0.377393 0.080350
0.772000 0.377144 0.081455
0.825346 0.377010 0.082701
0.878255 0.376992 0.084083
0.930725 0.377092 0.085598
0.982753 0.377309 0.087244
0.103599 0.439663 0.079467
0.159379 0.439060 0.078186
0.215445 0.438355 0.077085
0.271701 0.437569 0.076220
0.328030 0.436734 0.075631
0.384311 0.435884 0.075329
0.440433 0.435053 0.075305
0.496311 0.434269 0.075536
0.551882 0.433553 0.075998
0.607103 0.432920 0.076667
0.661945 0.432380 0.077525
0.716389 0.431942 0.078555
0.770421 0.431609 0.079748
0.824032 0.431387 0.081094
0.877215 0.431276 0.082586
0.929966 0.431280 0.084221
0.982282 0.431399 0.085993
0.102416 0.493945 0.078405
0.157871 0.493444 0.077078
0.213628 0.492836 0.075919
0.269611 0.492139 0.074980
0.325725 0.491377 0.074301
0.381863 0.490579 0.073906
0.437922 0.489775 0.073798
0.493811 0.488994 0.073966
0.549457 0.488259 0.074390
0.604805 0.487590 0.075049
0.659813 0.486999 0.075921
0.714453 0.486499 0.076988
0.768705 0.486095 0.078237
0.822554 0.485795 0.079656
0.875989 0.485601 0.081235
0.929003 0.485516 0.082967
0.981590 0.485544 0.084847
0.101647 0.548063 0.077758
0.156776 0.547663 0.076386
0.212219 0.547154 0.075173
0.267913 0.546549 0.074166
0.323779 0.545869 0.073404
0.379726 0.545137 0.072916
0.435662 0.544379 0.072715
0.491496 0.543623 0.072801
0.547152 0.542892 0.073161
0.602566 0.542207 0.073778
0.657688 0.541585 0.074631
0.712479 0.541039 0.075704
0.766912 0.540579 0.076978
0.820966 0.540213 0.078441
0.874626 0.539946 0.080080
0.927879 0.539783 0.081886
0.980717 0.539727 0.083852
0.101292 0.602015 0.077525
0.156095 0.601717 0.076109
0.211220 0.601307 0.074845
0.266614 0.600798 0.073774
0.322211 0.600206 0.072935
0.377934 0.599549 0.072359
0.433700 0.598852 0.072065
0.489425 0.598137 0.072059
0.545034 0.597428 0.072338
0.600456 0.596747 0.072890
0.655637 0.596112 0.073699
0.710531 0.595538 0.074747
0.765103 0.595037 0.076018
0.819325 0.594619 0.077497
0.873176 0.594292 0.079170
0.926641 0.594061 0.081025
0.979706 0.593932 0.083053
0.101352 0.655802 0.077706
0.155828 0.655605 0.076247
0.210633 0.655296 0.074933
0.265720 0.654885 0.073803
0.321034 0.654383 0.072893
0.376509 0.653809 0.072234
0.432070 0.653181 0.071848
0.487643 0.652521 0.071748
0.543154 0.651851 0.071937
0.598533 0.651191 0.072409
0.653723 0.650559 0.073153
0.708671 0.649974 0.074154
0.763336 0.649448 0.075396
0.817686 0.648994 0.076865
0.871694 0.648619 0.078546
0.925338 0.648333 0.080425
0.978603 0.648140 0.082493
0.101826 0.709425 0.078302
0.155975 0.709329 0.076800
0.210458 0.709121 0.075438
0.265234 0.708807 0.074252
0.320255 0.708400 0.073275
0.375464 0.707913 0.072538
0.430796 0.707362 0.072064
0.486182 0.706767 0.071871
0.541554 0.706147 0.071966
0.596846 0.705522 0.072349
0.651996 0.704910 0.073014
0.706952 0.704329 0.073949
0.761667 0.703794 0.075142
0.816103 0.703317 0.076579
0.870229 0.702908 0.078244
0.924019 0.702578 0.080125
0.977454 0.702334 0.082210
0.102715 0.762882 0.079312
0.156536 0.762888 0.077767
0.210695 0.762781 0.076358
0.265157 0.762566 0.075118
0.319878 0.762254 0.074078
0.374809 0.761857 0.073268
0.429891 0.761389 0.072711
0.485065 0.760866 0.072428
0.540266 0.760307 0.072429
0.595431 0.759728 0.072718
0.650501 0.759150 0.073295
0.705421 0.758587 0.074153
0.760143 0.758056 0.075280
0.814625 0.757571 0.076665
0.868831 0.757142 0.078295
0.922732 0.756781 0.080156
0.976303 0.756496 0.082236
0.104017 0.816174 0.080736
0.157511 0.816282 0.079149
0.211346 0.816276 0.077694
0.265491 0.816161 0.076402
0.319907 0.815946 0.075302
0.374550 0.815641 0.074422
0.429369 0.815259 0.073787
0.484309 0.814814 0.073417
0.539312 0.814323 0.073325
0.594320 0.813801 0.073520
0.649274 0.813266 0.074005
0.704120 0.812734 0.074776
0.758809 0.812221 0.075825
0.813297 0.811740 0.077145
0.867546 0.811305 0.078722
0.921521 0.810925 0.080544
0.975196 0.810612 0.082600
0.105735 0.869302 0.082575
0.158901 0.869511 0.080945
0.212411 0.869606 0.079445
0.266237 0.869591 0.078102
0.320343 0.869474 0.076945
0.374692 0.869263 0.075999
0.429236 0.868970 0.075289
0.483927 0.868608 0.074836
0.538711 0.868191 0.074654
0.593534 0.867733 0.074756
0.648342 0.867252 0.075147
0.703081 0.866761 0.075826
0.757702 0.866276 0.076790
0.812160 0.865812 0.078032
0.866414 0.865382 0.079543
0.920429 0.864996 0.081312
0.974174 0.864666 0.083327
0.107866 0.922264 0.084829
0.160705 0.922576 0.083156
0.213889 0.922771 0.081611
0.267394 0.922857 0.080219
0.321189 0.922838 0.079006
0.375237 0.922723 0.077997
0.429498 0.922521 0.077216
0.483927 0.922245 0.076683
0.538475 0.921907 0.076415
0.593093 0.921520 0.076426
0.647728 0.921098 0.076722
0.702331 0.920658 0.077307
0.756852 0.920212 0.078181
0.811247 0.919775 0.079338
0.865473 0.919361 0.080773
0.919494 0.918980 0.082475
0.973275 0.918645 0.084436
0.110412 0.975061 0.087496
0.162923 0.975475 0.085782
0.215781 0.975772 0.084192
0.268965 0.975958 0.082751
0.322445 0.976038 0.081484
0.376189 0.976019 0.080415
0.430159 0.975911 0.079565
0.484316 0.975723 0.078957
0.538615 0.975467 0.078606
0.593009 0.975156 0.078528
0.647451 0.974801 0.078731
0.701892 0.974418 0.079222
0.756286 0.974020 0.080002
0.810588 0.973620 0.081070
0.864755 0.973231 0.082420
0.918749 0.972866 0.084047
0.972536 0.972536 0.085942
0.118983 0.110130 0.154199
0.176267 0.109066 0.153065
0.233148 0.108121 0.151932
0.289580 0.107299 0.150905
0.345563 0.106599 0.149995
0.401099 0.106020 0.149204
0.456186 0.105562 0.148533
0.510825 0.105225 0.147983
0.565017 0.105009 0.147554
0.618761 0.104914 0.147245
0.672057 0.104940 0.147057
0.724905 0.105086 0.146989
0.777306 0.105354 0.147043
0.829259 0.105742 0.147217
0.880764 0.106251 0.147512
0.931822 0.106882 0.147928
0.982432 0.107633 0.148465
0.115289 0.165426 0.150492
0.172650 0.164337 0.149373
0.229844 0.163285 0.148389
0.286592 0.162352 0.147529
0.342892 0.161540 0.146789
0.398745 0.160850 0.146171
0.454150 0.160280 0.145674
0.509107 0.159831 0.145297
0.563617 0.159502 0.145042
0.617679 0.159295 0.144907
0.671293 0.159209 0.144893
0.724459 0.159243 0.145000
0.777178 0.159398 0.145228
0.829449 0.159675 0.145577
0.881273 0.160072 0.146047
0.932649 0.160590 0.146637
0.983577 0.161228 0.147349
0.111944 0.220597 0.146995
0.169002 0.219604 0.145812
0.226257 0.218535 0.144820
0.283267 0.217513 0.144065
0.339868 0.216598 0.143472
0.396031 0.215799 0.143014
0.451749 0.215119 0.142682
0.507022 0.214559 0.142474
0.561848 0.214119 0.142389
0.616226 0.213801 0.142426
0.670157 0.213603 0.142584
0.723641 0.213525 0.142864
0.776678 0.213569 0.143265
0.829266 0.213733 0.143787
0.881408 0.214018 0.144431
0.933101 0.214424 0.145195
0.984347 0.214951 0.146081
0.109017 0.275602 0.143901
0.165750 0.274712 0.142671
0.222779 0.273717 0.141601
0.279825 0.272690 0.140801
0.336622 0.271711 0.140249
0.393045 0.270825 0.139888
0.449049 0.270048 0.139682
0.504620 0.269385 0.139616
0.559751 0.268839 0.139682
0.614439 0.268413 0.139876
0.668681 0.268106 0.140196
0.722478 0.267919 0.140640
0.775828 0.267852 0.141207
0.828732 0.267906 0.141897
0.881188 0.268081 0.142709
0.933198 0.268376 0.143643
0.984760 0.268791 0.144699
0.106505 0.330443 0.141219
0.162911 0.329654 0.139946
0.219645 0.328753 0.138812
0.276535 0.327782 0.137922
0.333356 0.326802 0.137316
0.389929 0.325870 0.136961
0.446154 0.325021 0.136813
0.501982 0.324273 0.136839
0.557390 0.323633 0.137020
0.612367 0.323108 0.137344
0.666907 0.322698 0.137804
0.721006 0.322407 0.138395
0.774662 0.322234 0.139114
0.827874 0.322180 0.139960
0.880640 0.322246 0.140931
0.932961 0.322432 0.142027
0.984835 0.322739 0.143246
0.104409 0.385119 0.138951
0.160487 0.384432 0.137635
0.216907 0.383630 0.136447
0.273553 0.382739 0.135475
0.330258 0.381802 0.134778
0.386849 0.380871 0.134364
0.443195 0.379988 0.134204
0.499210 0.379180 0.134261
0.554847 0.378466 0.134507
0.610079 0.377856 0.134921
0.664891 0.377355 0.135488
0.719273 0.376967 0.136201
0.773220 0.376694 0.137051
0.826728 0.376539 0.138036
0.879795 0.376501 0.139151
0.932419 0.376582 0.140396
0.984600 0.376782 0.141767
0.102726 0.439630 0.137097
0.158476 0.439044 0.135738
0.214577 0.438342 0.134501
0.270941 0.437542 0.133458
0.327445 0.436675 0.132671
0.383945 0.435780 0.132168
0.440306 0.434898 0.131947
0.496421 0.434063 0.131980
0.552220 0.433300 0.132238
0.607656 0.432624 0.132695
0.662701 0.432047 0.133332
0.717337 0.431575 0.134132
0.771551 0.431212 0.135086
0.825338 0.430962 0.136186
0.878691 0.430827 0.137426
0.931606 0.430808 0.138803
0.984083 0.430906 0.140312
0.101459 0.493975 0.135657
0.156881 0.493491 0.134256
0.212657 0.492890 0.132972
0.268722 0.492186 0.131866
0.324979 0.491400 0.130996
0.381311 0.490565 0.130400
0.437596 0.489714 0.130093
0.493724 0.488882 0.130063
0.549609 0.488096 0.130289
0.605187 0.487379 0.130745
0.660415 0.486744 0.131409
0.715265 0.486203 0.132261
0.769715 0.485763 0.133286
0.823754 0.485429 0.134473
0.877372 0.485205 0.135814
0.930562 0.485093 0.137301
0.983320 0.485095 0.138930
0.100605 0.548156 0.134631
0.155699 0.547774 0.133188
0.211151 0.547274 0.131859
0.266906 0.546667 0.130695
0.322889 0.545970 0.129751
0.379005 0.545208 0.129066
0.435146 0.544410 0.128665
0.491210 0.543605 0.128551
0.547106 0.542823 0.128713
0.602758 0.542087 0.129132
0.658113 0.541416 0.129785
0.713128 0.540824 0.130651
0.767775 0.540322 0.131714
0.822034 0.539917 0.132957
0.875890 0.539615 0.134371
0.929332 0.539419 0.135944
0.982353 0.539333 0.137671
0.100167 0.602171 0.134019
0.154932 0.601891 0.132535
0.210058 0.601493 0.131161
0.265499 0.600985 0.129944
0.321192 0.600381 0.128931
0.377058 0.599702 0.128164
0.433008 0.598969 0.127670
0.488948 0.598211 0.127463
0.544788 0.597453 0.127543
0.600450 0.596721 0.127897
0.655870 0.596035 0.128508
0.710998 0.595411 0.129357
0.765797 0.594864 0.130424
0.820237 0.594402 0.131693
0.874298 0.594034 0.133150
0.927964 0.593766 0.134784
0.981225 0.593602 0.136585
0.100142 0.656022 0.133822
0.154579 0.655844 0.132296
0.209378 0.655547 0.130878
0.264501 0.655139 0.129610
0.319894 0.654631 0.128535
0.375491 0.654039 0.127691
0.431215 0.653382 0.127109
0.486984 0.652684 0.126808
0.542714 0.651969 0.126796
0.598328 0.651259 0.127069
0.653756 0.650577 0.127615
0.708944 0.649940 0.128419
0.763845 0.649364 0.129462
0.818423 0.648862 0.130727
0.872652 0.648443 0.132201
0.926511 0.648114 0.133868
0.979982 0.647882 0.135718
0.100532 0.709708 0.134040
0.154640 0.709631 0.132472
0.209113 0.709436 0.131010
0.263915 0.709128 0.129693
0.319001 0.708717 0.128559
0.374314 0.708217 0.127643
0.429790 0.707643 0.126979
0.485354 0.707015 0.126587
0.540930 0.706354 0.126481
0.596445 0.705683 0.126663
0.651830 0.705022 0.127129
0.707026 0.704389 0.127867
0.761980 0.703803 0.128863
0.816652 0.703275 0.130100
0.871009 0.702819 0.131563
0.925024 0.702443 0.133238
0.978675 0.702155 0.135113
0.101336 0.763228 0.134671
0.155116 0.763254 0.133061
0.209261 0.763160 0.131557
0.263741 0.762953 0.130192
0.318515 0.762640 0.129001
0.373536 0.762233 0.128020
0.428745 0.761746 0.127277
0.484078 0.761196 0.126798
0.539468 0.760601 0.126599
0.594844 0.759980 0.126688
0.650140 0.759354 0.127065
0.705296 0.758741 0.127723
0.760257 0.758159 0.128653
0.814979 0.757622 0.129841
0.869422 0.757144 0.131271
0.923555 0.756734 0.132931
0.977352 0.756403 0.134807
0.102555 0.816584 0.135717
0.156006 0.816711 0.134066
0.209824 0.816719 0.132518
0.263980 0.816613 0.131107
0.318440 0.816399 0.129862
0.373160 0.816088 0.128818
0.428090 0.815691 0.128002
0.483174 0.815223 0.127440
0.538350 0.814701 0.127151
0.593554 0.814141 0.127145
0.648723 0.813562 0.127429
0.703798 0.812982 0.128000
0.758724 0.812419 0.128851
0.813452 0.811886 0.129973
0.867940 0.811400 0.131352
0.922153 0.810970 0.132976
0.976061 0.810607 0.134832
0.104188 0.869774 0.137178
0.157311 0.870004 0.135484
0.210801 0.870113 0.133894
0.264633 0.870108 0.132436
0.318775 0.869994 0.131140
0.373190 0.869780 0.130036
0.427832 0.869475 0.129151
0.482652 0.869094 0.128511
0.537593 0.868649 0.128134
0.592599 0.868158 0.128037
0.647610 0.867636 0.128226
0.702568 0.867100 0.128705
0.757420 0.866567 0.129469
0.812115 0.866053 0.130513
0.866609 0.865571 0.131827
0.920864 0.865134 0.133398
0.974846 0.864753 0.135215
0.106236 0.922800 0.139052
0.159030 0.923131 0.137317
0.212192 0.923342 0.135685
0.265699 0.923438 0.134182
0.319522 0.923424 0.132835
0.373627 0.923308 0.131673
0.427975 0.923098 0.130723
0.482519 0.922806 0.130007
0.537211 0.922444 0.129548
0.591997 0.922027 0.129361
0.646823 0.921569 0.129457
0.701635 0.921086 0.129842
0.756378 0.920595 0.130515
0.811005 0.920109 0.131473
0.865468 0.919644 0.132709
0.919729 0.919212 0.134214
0.973750 0.918826 0.135977
0.108698 0.975660 0.141342
0.161163 0.976093 0.139565
0.213998 0.976407 0.137890
0.267179 0.976604 0.136342
0.320681 0.976690 0.134946
0.374474 0.976672 0.133729
0.428521 0.976558 0.132715
0.482782 0.976357 0.131929
0.537211 0.976081 0.131391
0.591761 0.975743 0.131118
0.646381 0.975356 0.131122
0.701020 0.974934 0.131412
0.755626 0.974493 0.131991
0.810152 0.974046 0.132859
0.864552 0.973609 0.134010
0.918785 0.973193 0.135439
0.972811 0.972811 0.137136
0.118605 0.109796 0.213352
0.175772 0.108750 0.212380
0.232748 0.107783 0.211196
0.289321 0.106939 0.209975
0.345448 0.106221 0.208816
0.401126 0.105627 0.207755
0.456354 0.105155 0.206802
0.511133 0.104806 0.205964
0.565463 0.104578 0.205242
0.619345 0.104471 0.204639
0.672779 0.104486 0.204155
0.725765 0.104622 0.203791
0.778303 0.104878 0.203547
0.830393 0.105256 0.203423
0.882035 0.105755 0.203419
0.933230 0.106375 0.203536
0.983976 0.107115 0.203773
0.115044 0.165023 0.209930
0.172257 0.163958 0.209018
0.229543 0.162893 0.207887
0.286431 0.161947 0.206751
0.342869 0.161124 0.205718
0.398859 0.160422 0.204802
0.454401 0.159842 0.204005
0.509495 0.159382 0.203328
0.564141 0.159044 0.202772
0.618339 0.158827 0.202336
0.672089 0.158730 0.202021
0.725392 0.158754 0.201827
0.778247 0.158900 0.201754
0.830654 0.159166 0.201801
0.882613 0.159553 0.201969
0.934125 0.160061 0.202258
0.985189 0.160690 0.202668
0.111629 0.220223 0.206353
0.168566 0.219253 0.205315
0.225924 0.218165 0.204197
0.283125 0.217111 0.203207
0.339879 0.216177 0.202340
0.396186 0.215364 0.201595
0.452045 0.214672 0.200970
0.507457 0.214100 0.200467
0.562421 0.213650 0.200084
0.616937 0.213320 0.199823
0.671005 0.213112 0.199682
0.724626 0.213024 0.199662
0.777799 0.213057 0.199763
0.830524 0.213211 0.199984
0.882802 0.213486 0.200327
0.934632 0.213882 0.200791
0.986014 0.214399 0.201375
0.108597 0.275288 0.202979
0.165222 0.274423 0.201815
0.222276 0.273433 0.200631
0.279533 0.272362 0.199633
0.336551 0.271340 0.198873
0.393159 0.270422 0.198274
0.449328 0.269622 0.197810
0.505053 0.268941 0.197472
0.560333 0.268379 0.197258
0.615165 0.267939 0.197167
0.669550 0.267619 0.197198
0.723488 0.267419 0.197350
0.776978 0.267340 0.197624
0.830021 0.267383 0.198019
0.882617 0.267546 0.198535
0.934764 0.267829 0.199172
0.986464 0.268234 0.199931
0.105987 0.330193 0.199961
0.162297 0.329429 0.198715
0.219025 0.328540 0.197484
0.276053 0.327546 0.196409
0.333105 0.326518 0.195603
0.389909 0.325538 0.195046
0.446338 0.324650 0.194678
0.502350 0.323871 0.194467
0.557928 0.323207 0.194396
0.613065 0.322660 0.194456
0.667760 0.322232 0.194645
0.722009 0.321924 0.194959
0.775812 0.321735 0.195397
0.829169 0.321667 0.195958
0.882079 0.321720 0.196642
0.934542 0.321893 0.197448
0.986558 0.322186 0.198376
0.103796 0.384932 0.197336
0.159787 0.384270 0.196027
0.216188 0.383482 0.194753
0.272920 0.382583 0.193614
0.329812 0.381611 0.192719
0.386638 0.380630 0.192106
0.443219 0.379697 0.191746
0.499450 0.378846 0.191593
0.555285 0.378096 0.191614
0.610701 0.377455 0.191790
0.665685 0.376928 0.192108
0.720231 0.376518 0.192562
0.774337 0.376224 0.193147
0.828000 0.376050 0.193861
0.881218 0.375995 0.194701
0.933991 0.376060 0.195666
0.986319 0.376245 0.196756
0.102023 0.439507 0.195116
0.157691 0.438946 0.193753
0.213765 0.438260 0.192436
0.270183 0.437459 0.191244
0.326829 0.436569 0.190267
0.383538 0.435632 0.189564
0.440135 0.434700 0.189144
0.496487 0.433815 0.188978
0.552509 0.433006 0.189030
0.608154 0.432290 0.189271
0.663393 0.431678 0.189679
0.718211 0.431176 0.190241
0.772600 0.430786 0.190948
0.826554 0.430512 0.191793
0.880069 0.430355 0.192772
0.933143 0.430316 0.193882
0.985774 0.430395 0.195121
0.100667 0.493916 0.193306
0.156011 0.493457 0.191893
0.211756 0.492873 0.190533
0.267854 0.492172 0.189293
0.324217 0.491373 0.188245
0.380724 0.490505 0.187452
0.437228 0.489609 0.186943
0.493594 0.488727 0.186716
0.549716 0.487890 0.186743
0.605522 0.487126 0.186996
0.660965 0.486448 0.187448
0.716017 0.485869 0.188079
0.770660 0.485396 0.188874
0.824882 0.485032 0.189823
0.878675 0.484780 0.190917
0.932035 0.484643 0.192152
0.984957 0.484623 0.193523
0.099726 0.548160 0.191908
0.154745 0.547802 0.190447
0.210162 0.547320 0.189045
0.265936 0.546720 0.187758
0.321999 0.546017 0.186648
0.378257 0.545231 0.185772
0.434592 0.544395 0.185171
0.490882 0.543544 0.184857
0.547016 0.542711 0.184821
0.602907 0.541924 0.185042
0.658492 0.541205 0.185493
0.713727 0.540568 0.186151
0.768584 0.540026 0.186998
0.823042 0.539584 0.188018
0.877088 0.539249 0.189199
0.930712 0.539023 0.190534
0.983910 0.538910 0.192016
0.099200 0.602240 0.190923
0.153893 0.601983 0.189416
0.208982 0.601603 0.187972
0.264431 0.601104 0.186639
0.320184 0.600498 0.185472
0.376167 0.599802 0.184522
0.432284 0.599040 0.183831
0.488430 0.598241 0.183424
0.544499 0.597435 0.183304
0.600400 0.596652 0.183461
0.656059 0.595915 0.183874
0.711420 0.595242 0.184521
0.766442 0.594649 0.185382
0.821097 0.594145 0.186439
0.875363 0.593738 0.187678
0.929226 0.593435 0.189086
0.982675 0.593237 0.190654
0.099089 0.656154 0.190351
0.153456 0.655999 0.188799
0.208217 0.655720 0.187313
0.263339 0.655323 0.185936
0.318778 0.654816 0.184715
0.374470 0.654213 0.183697
0.430337 0.653534 0.182924
0.486290 0.652801 0.182424
0.542234 0.652043 0.182212
0.598079 0.651284 0.182285
0.653747 0.650551 0.182634
0.709174 0.649863 0.183239
0.764309 0.649238 0.184082
0.819114 0.648689 0.185144
0.873561 0.648226 0.186408
0.927630 0.647856 0.187860
0.981303 0.647586 0.189488
0.099393 0.709903 0.190192
0.153433 0.709850 0.188596
0.207865 0.709673 0.187068
0.262661 0.709377 0.185647
0.317781 0.708970 0.184376
0.373173 0.708463 0.183295
0.428770 0.707871 0.182446
0.484497 0.707215 0.181858
0.540269 0.706517 0.181552
0.596003 0.705800 0.181534
0.651622 0.705090 0.181801
0.707056 0.704406 0.182341
0.762250 0.703768 0.183139
0.817158 0.703191 0.184176
0.871744 0.702687 0.185437
0.925980 0.702267 0.186905
0.979845 0.701936 0.188567
0.100112 0.763487 0.190448
0.153825 0.763535 0.188807
0.207929 0.763460 0.187237
0.262397 0.763266 0.185773
0.317197 0.762960 0.184453
0.372281 0.762550 0.183314
0.427594 0.762050 0.182394
0.483071 0.761476 0.181723
0.538637 0.760848 0.181325
0.594217 0.760187 0.181213
0.649737 0.759515 0.181390
0.705127 0.758853 0.181850
0.760328 0.758219 0.182582
0.815289 0.757631 0.183572
0.869969 0.757102 0.184803
0.924332 0.756645 0.186261
0.978354 0.756267 0.187931
0.101246 0.816906 0.191117
0.154631 0.817056 0.189433
0.208406 0.817083 0.187821
0.262548 0.816990 0.186314
0.317024 0.816784 0.184946
0.371797 0.816473 0.183751
0.426816 0.816067 0.182765
0.482026 0.815580 0.182017
0.537361 0.815030 0.181532
0.592753 0.814434 0.181327
0.648133 0.813813 0.181409
0.703434 0.813186 0.181780
0.758596 0.812573 0.182433
0.813563 0.811989 0.183357
0.868291 0.811451 0.184539
0.922741 0.810971 0.185964
0.976881 0.810560 0.187618
0.102793 0.870160 0.192200
0.155851 0.870412 0.190473
0.209298 0.870540 0.188820
0.263112 0.870550 0.187270
0.317265 0.870444 0.185855
0.371722 0.870232 0.184607
0.426441 0.869922 0.183558
0.481372 0.869526 0.182737
0.536457 0.869058 0.182169
0.591634 0.868535 0.181874
0.646842 0.867975 0.181862
0.702015 0.867395 0.182140
0.757095 0.866815 0.182705
0.812027 0.866250 0.183550
0.866761 0.865717 0.184666
0.921255 0.865229 0.186040
0.975475 0.864797 0.187658
0.104756 0.923249 0.193698
0.157486 0.923602 0.191927
0.210604 0.923833 0.190233
0.264091 0.923944 0.188640
0.317919 0.923940 0.187179
0.372059 0.923827 0.185879
0.426472 0.923614 0.184770
0.481114 0.923310 0.183880
0.535934 0.922929 0.183234
0.590878 0.922485 0.182852
0.645886 0.921993 0.182749
0.700900 0.921470 0.182932
0.755863 0.920934 0.183405
0.810720 0.920400 0.184163
0.865420 0.919885 0.185201
0.919921 0.919401 0.186509
0.974182 0.918963 0.188075
0.107133 0.976172 0.195610
0.159535 0.976628 0.193796
0.212325 0.976960 0.192060
0.265483 0.977173 0.190425
0.318987 0.977270 0.188919
0.372807 0.977257 0.187568
0.426911 0.977142 0.186402
0.481257 0.976933 0.185447
0.535802 0.976641 0.184726
0.590495 0.976279 0.184262
0.645284 0.975862 0.184069
0.700113 0.975404 0.184159
0.754928 0.974921 0.184537
0.809676 0.974429 0.185204
0.864307 0.973943 0.186156
0.918777 0.973476 0.187386
0.973043 0.973043 0.188886
0.118270 0.109505 0.271950
0.175233 0.108500 0.271177
0.232161 0.107533 0.270130
0.288817 0.106665 0.268902
0.345075 0.105920 0.267620
0.400897 0.105303 0.266365
0.456270 0.104812 0.265182
0.511194 0.104445 0.264092
0.565667 0.104201 0.263104
0.619692 0.104080 0.262227
0.673267 0.104081 0.261463
0.726393 0.104204 0.260814
0.779071 0.104448 0.260281
0.831300 0.104814 0.259867
0.883081 0.105301 0.259571
0.934414 0.105909 0.259395
0.985299 0.106638 0.259338
0.114893 0.164644 0.268865
0.171882 0.163624 0.268161
0.229045 0.162579 0.267195
