assets/presets/luts/matte-cream/lut.cube
TITLE "Matte Cream"
LUT_3D_SIZE 9
0.119376 0.110510 0.094550
0.233304 0.108527 0.092717
0.345444 0.107027 0.091372
0.455794 0.106011 0.090510
0.564352 0.105478 0.090132
0.671120 0.105429 0.090238
0.776097 0.105863 0.090827
0.879283 0.106781 0.091900
0.980678 0.108182 0.093456
0.112475 0.220883 0.087859
0.226545 0.218862 0.085999
0.339751 0.217000 0.085097
0.451313 0.215563 0.084836
0.561118 0.214594 0.085108
0.669143 0.214103 0.085884
0.775384 0.214093 0.087153
0.879837 0.214565 0.088911
0.982501 0.215519 0.091156
0.107209 0.330603 0.082834
0.220276 0.328909 0.080683
0.333564 0.327043 0.079584
0.445911 0.325355 0.079492
0.556766 0.324034 0.080163
0.665945 0.323148 0.081453
0.773387 0.322722 0.083300
0.879064 0.322768 0.085671
0.982967 0.323290 0.088552
0.103599 0.439663 0.079467
0.215445 0.438355 0.077085
0.328030 0.436734 0.075631
0.440433 0.435053 0.075305
0.551882 0.433553 0.075998
0.661945 0.432380 0.077525
0.770421 0.431609 0.079748
0.877215 0.431276 0.082586
0.982282 0.431399 0.085993
0.101647 0.548063 0.077758
0.212219 0.547154 0.075173
0.323779 0.545869 0.073404
0.435662 0.544379 0.072715
0.547152 0.542892 0.073161
0.657688 0.541585 0.074631
0.766912 0.540579 0.076978
0.874626 0.539946 0.080080
0.980717 0.539727 0.083852
0.101352 0.655802 0.077706
0.210633 0.655296 0.074933
0.321034 0.654383 0.072893
0.432070 0.653181 0.071848
0.543154 0.651851 0.071937
0.653723 0.650559 0.073153
0.763336 0.649448 0.075396
0.871694 0.648619 0.078546
0.978603 0.648140 0.082493
0.102715 0.762882 0.079312
0.210695 0.762781 0.076358
0.319878 0.762254 0.074078
0.429891 0.761389 0.072711
0.540266 0.760307 0.072429
0.650501 0.759150 0.073295
0.760143 0.758056 0.075280
0.868831 0.757142 0.078295
0.976303 0.756496 0.082236
0.105735 0.869302 0.082575
0.212411 0.869606 0.079445
0.320343 0.869474 0.076945
0.429236 0.868970 0.075289
0.538711 0.868191 0.074654
0.648342 0.867252 0.075147
0.757702 0.866276 0.076790
0.866414 0.865382 0.079543
0.974174 0.864666 0.083327
0.110412 0.975061 0.087496
0.215781 0.975772 0.084192
0.322445 0.976038 0.081484
0.430159 0.975911 0.079565
0.538615 0.975467 0.078606
0.647451 0.974801 0.078731
0.756286 0.974020 0.080002
0.864755 0.973231 0.082420
0.972536 0.972536 0.085942
0.118605 0.109796 0.213352
0.232748 0.107783 0.211196
0.345448 0.106221 0.208816
0.456354 0.105155 0.206802
0.565463 0.104578 0.205242
0.672779 0.104486 0.204155
0.778303 0.104878 0.203547
0.882035 0.105755 0.203419
0.983976 0.107115 0.203773
0.111629 0.220223 0.206353
0.225924 0.218165 0.204197
0.339879 0.216177 0.202340
0.452045 0.214672 0.200970
0.562421 0.213650 0.200084
0.671005 0.213112 0.199682
0.777799 0.213057 0.199763
0.882802 0.213486 0.200327
0.986014 0.214399 0.201375
0.105987 0.330193 0.199961
0.219025 0.328540 0.197484
0.333105 0.326518 0.195603
0.446338 0.324650 0.194678
0.557928 0.323207 0.194396
0.667760 0.322232 0.194645
0.775812 0.321735 0.195397
0.882079 0.321720 0.196642
0.986558 0.322186 0.198376
0.102023 0.439507 0.195116
0.213765 0.438260 0.192436
0.326829 0.436569 0.190267
0.440135 0.434700 0.189144
0.552509 0.433006 0.189030
0.663393 0.431678 0.189679
0.772600 0.430786 0.190948
0.880069 0.430355 0.192772
0.985774 0.430395 0.195121
0.099726 0.548160 0.191908
0.210162 0.547320 0.189045
0.321999 0.546017 0.186648
0.434592 0.544395 0.185171
0.547016 0.542711 0.184821
0.658492 0.541205 0.185493
0.768584 0.540026 0.186998
0.877088 0.539249 0.189199
0.983910 0.538910 0.192016
0.099089 0.656154 0.190351
0.208217 0.655720 0.187313
0.318778 0.654816 0.184715
0.430337 0.653534 0.182924
0.542234 0.652043 0.182212
0.653747 0.650551 0.182634
0.764309 0.649238 0.184082
0.873561 0.648226 0.186408
0.981303 0.647586 0.189488
0.100112 0.763487 0.190448
0.207929 0.763460 0.187237
0.317197 0.762960 0.184453
0.427594 0.762050 0.182394
0.538637 0.760848 0.181325
0.649737 0.759515 0.181390
0.760328 0.758219 0.182582
0.869969 0.757102 0.184803
0.978354 0.756267 0.187931
0.102793 0.870160 0.192200
0.209298 0.870540 0.188820
0.317265 0.870444 0.185855
0.426441 0.869922 0.183558
0.536457 0.869058 0.182169
0.646842 0.867975 0.181862
0.757095 0.866815 0.182705
0.866761 0.865717 0.184666
0.975475 0.864797 0.187658
0.107133 0.976172 0.195610
0.212325 0.976960 0.192060
0.318987 0.977270 0.188919
0.426911 0.977142 0.186402
0.535802 0.976641 0.184726
0.645284 0.975862 0.184069
0.754928 0.974921 0.184537
0.864307 0.973943 0.186156
0.973043 0.973043 0.188886
0.117978 0.109258 0.329992
0.231503 0.107355 0.328560
0.344474 0.105712 0.326183
0.455926 0.104550 0.323518
0.565614 0.103895 0.321029
0.673503 0.103738 0.318894
0.779594 0.104074 0.317180
0.883888 0.104898 0.315914
0.986387 0.106210 0.315112
0.111563 0.219399 0.324174
0.225159 0.217452 0.322969
0.339302 0.215437 0.320829
0.452028 0.213869 0.318438
0.562961 0.212797 0.316403
0.672096 0.212215 0.314821
0.779439 0.212117 0.313710
0.884989 0.212504 0.313078
0.988747 0.213375 0.312926
0.105692 0.329447 0.317676
0.218196 0.327874 0.315987
0.332472 0.325819 0.313844
0.446454 0.323826 0.311964
0.558646 0.322316 0.310570
0.669047 0.321289 0.309659
0.777657 0.320746 0.309232
0.884477 0.320686 0.309288
0.989506 0.321109 0.309828
0.101306 0.438986 0.311848
0.212559 0.437843 0.309584
0.325575 0.436196 0.307110
0.439664 0.434174 0.305207
0.552926 0.432300 0.304261
0.664543 0.430850 0.303956
0.774401 0.429870 0.304182
0.882480 0.429368 0.304910
0.988774 0.429347 0.306131
0.098600 0.547891 0.307360
0.208601 0.547157 0.304720
0.320322 0.545917 0.302038
0.433381 0.544229 0.299851
0.546706 0.542357 0.298705
0.659108 0.540657 0.298569
0.770019 0.539323 0.299197
0.879255 0.538425 0.300444
0.986750 0.537988 0.302245
0.097577 0.656139 0.304412
0.206309 0.655811 0.301490
0.316725 0.654977 0.298624
0.428553 0.653678 0.296212
0.541153 0.652057 0.294712
0.653598 0.650369 0.294338
0.765101 0.648857 0.294988
0.875221 0.647672 0.296472
0.983754 0.646888 0.298652
0.098228 0.763728 0.303070
0.205679 0.763805 0.299910
0.314787 0.763378 0.296868
0.425336 0.762479 0.294257
0.536896 0.761198 0.292446
0.648805 0.759706 0.291709
0.760341 0.758209 0.292108
0.870929 0.756891 0.293534
0.980210 0.755872 0.295838
0.100547 0.870656 0.303358
0.206708 0.871139 0.299984
0.314506 0.871118 0.296769
0.423760 0.870623 0.293973
0.534154 0.869716 0.291895
0.645203 0.868515 0.290804
0.756319 0.867179 0.290844
0.866934 0.865879 0.292013
0.976600 0.864757 0.294211
0.104531 0.976924 0.305288
0.209396 0.977812 0.301714
0.315882 0.978199 0.298328
0.423835 0.978108 0.295352
0.533004 0.977589 0.293038
0.643021 0.976727 0.291627
0.753417 0.975643 0.291297
0.863689 0.974480 0.292115
0.973378 0.973378 0.294053
0.117525 0.108893 0.444408
0.230193 0.107164 0.443773
0.342852 0.105551 0.442025
0.454556 0.104303 0.439465
0.564739 0.103540 0.436586
0.673195 0.103285 0.433753
0.779867 0.103536 0.431165
0.884741 0.104287 0.428923
0.987816 0.105532 0.427081
0.111841 0.218680 0.439940
0.224544 0.216915 0.439564
0.338054 0.215015 0.438156
0.451035 0.213367 0.435793
0.562511 0.212199 0.433124
0.672224 0.211537 0.430620
0.780141 0.211374 0.428467
0.886258 0.211704 0.426732
0.990579 0.212523 0.425444
0.106225 0.328564 0.434318
0.218145 0.327049 0.433768
0.331713 0.325109 0.432584
0.445856 0.323092 0.430462
0.558608 0.321517 0.428060
0.669567 0.320440 0.426005
0.778729 0.319851 0.424399
0.886098 0.319748 0.423265
0.991674 0.320130 0.422609
0.101599 0.438177 0.428466
0.212286 0.437092 0.427285
0.324764 0.435524 0.425620
0.439020 0.433474 0.423493
0.553028 0.431476 0.421589
0.665246 0.429960 0.420170
0.775673 0.428928 0.419235
0.884309 0.428379 0.418783
0.991155 0.428314 0.418815
0.098478 0.547275 0.423282
0.207906 0.546630 0.421455
0.319131 0.545493 0.419208
0.432125 0.543853 0.416737
0.546223 0.541830 0.414812
0.659512 0.539950 0.413845
0.771157 0.538494 0.413518
0.881043 0.537508 0.413720
0.989148 0.537001 0.414425
0.097020 0.655759 0.419285
0.205204 0.655534 0.416953
0.315179 0.654808 0.414325
0.426878 0.653574 0.411642
0.539934 0.651889 0.409437
0.653276 0.650014 0.408267
0.765706 0.648308 0.408109
0.876646 0.646968 0.408715
0.985909 0.646064 0.409940
0.097250 0.763597 0.416714
0.204185 0.763783 0.413988
0.312893 0.763462 0.411073
0.423289 0.762635 0.408204
0.535107 0.761340 0.405777
0.647714 0.759719 0.404254
0.760180 0.758026 0.403857
0.871710 0.756509 0.404484
0.981859 0.755317 0.405946
0.099164 0.870779 0.415677
0.204842 0.871373 0.412626
0.312269 0.871456 0.409470
0.421357 0.871035 0.406424
0.531895 0.870141 0.403801
0.643454 0.868863 0.401968
0.755377 0.867369 0.401208
0.866934 0.865868 0.401583
0.977549 0.864544 0.402986
0.102757 0.977303 0.416225
0.207167 0.978301 0.412893
0.313305 0.978790 0.409521
0.421083 0.978776 0.406302
0.530324 0.978286 0.403494
0.640714 0.977382 0.401397
0.751769 0.976181 0.400283
0.862901 0.974843 0.400299
0.973539 0.973539 0.401444
0.117244 0.108701 0.556601
0.228997 0.107164 0.556763
0.341027 0.105659 0.555787
0.452574 0.104403 0.553773
0.562993 0.103555 0.551043
0.671896 0.103191 0.547974
0.779106 0.103335 0.544865
0.884551 0.103988 0.541909
0.988208 0.105145 0.539224
0.112330 0.218121 0.553508
0.224103 0.216551 0.553936
0.336751 0.214826 0.553325
0.449407 0.213211 0.551599
0.561123 0.211959 0.549051
0.671328 0.211189 0.546171
0.779810 0.210928 0.543329
0.886508 0.211172 0.540726
0.991409 0.211916 0.538467
0.107239 0.327728 0.549076
0.218434 0.326332 0.549490
0.331110 0.324572 0.549135
0.444604 0.322674 0.547751
0.557595 0.321023 0.545402
0.669094 0.319847 0.542729
0.778834 0.319179 0.540212
0.886778 0.319010 0.538040
0.992922 0.319334 0.536284
0.102708 0.437245 0.543895
0.212835 0.436208 0.543889
0.324727 0.434700 0.543361
0.438267 0.432765 0.542199
0.552410 0.430746 0.540095
0.665187 0.429165 0.537682
0.776172 0.428082 0.535607
0.885361 0.427488 0.533979
0.992756 0.427380 0.532821
0.099349 0.546413 0.538723
0.208219 0.545817 0.538050
0.318880 0.544738 0.536893
0.431332 0.543175 0.535253
0.545567 0.541129 0.533142
0.659601 0.539125 0.531214
0.771845 0.537605 0.529771
0.882298 0.536567 0.528811
0.990961 0.536013 0.528335
0.097500 0.655065 0.534210
0.205105 0.654913 0.532866
0.314506 0.654274 0.531061
0.425705 0.653143 0.528832
0.538675 0.651509 0.526364
0.652781 0.649486 0.524418
0.766099 0.647600 0.523429
0.877771 0.646138 0.523080
0.987683 0.645147 0.523259
0.097294 0.763119 0.530781
0.203651 0.763396 0.528861
0.311808 0.763178 0.526546
0.421757 0.762458 0.523929
0.533435 0.761230 0.521245
0.646486 0.759548 0.519023
0.759846 0.757671 0.517829
0.872303 0.755959 0.517650
0.983271 0.754612 0.518235
0.098770 0.870540 0.528674
0.203885 0.871234 0.526277
0.310795 0.871427 0.523564
0.419478 0.871113 0.520656
0.529853 0.870292 0.517785
0.641661 0.869001 0.515343
0.754275 0.867381 0.513797
0.866761 0.865684 0.513376
0.978318 0.864161 0.513981
0.101936 0.977311 0.528023
0.205804 0.978417 0.525223
0.311457 0.979017 0.522182
0.418860 0.979107 0.519031
0.527928 0.978693 0.515981
0.638453 0.977803 0.513345
0.750013 0.976527 0.511492
0.861948 0.975032 0.510707
0.973527 0.973527 0.511058
0.117137 0.108682 0.666570
0.227955 0.107342 0.667527
0.339211 0.105987 0.667350
0.450310 0.104792 0.666053
0.560658 0.103915 0.663812
0.669786 0.103467 0.660915
0.777404 0.103504 0.657668
0.883355 0.104046 0.654321
0.987563 0.105098 0.651053
0.113006 0.217729 0.664859
0.223834 0.216360 0.666084
0.335566 0.214827 0.666270
0.447584 0.213323 0.665318
0.559134 0.212064 0.663324
0.669567 0.211211 0.660604
0.778491 0.210841 0.657537
0.885725 0.210978 0.654422
0.991197 0.211624 0.651455
0.108559 0.327015 0.661721
0.218935 0.325773 0.663012
0.330681 0.324209 0.663463
0.443309 0.322488 0.662875
0.555961 0.320872 0.661172
0.667690 0.319614 0.658636
0.777917 0.318838 0.655756
0.886424 0.318570 0.652905
0.993149 0.318808 0.650288
0.104376 0.436326 0.657554
0.213861 0.435373 0.658603
0.325028 0.433983 0.659038
0.437677 0.432230 0.658706
0.551155 0.430333 0.657345
0.664155 0.428678 0.655010
0.775678 0.427496 0.652335
0.885444 0.426821 0.649804
0.993414 0.426646 0.647614
0.101028 0.545435 0.652927
0.209345 0.544884 0.653442
0.319445 0.543853 0.653459
0.431310 0.542350 0.652953
0.544822 0.540421 0.651813
0.658963 0.538401 0.649727
0.771765 0.536813 0.647305
0.882777 0.535725 0.645209
0.991992 0.535125 0.643559
0.098942 0.654154 0.648446
0.205996 0.654047 0.648281
0.314840 0.653457 0.647632
0.425475 0.652383 0.646500
0.537901 0.650825 0.644884
0.652113 0.648785 0.642793
0.766174 0.646775 0.640841
0.878444 0.645249 0.639373
0.988923 0.644206 0.638388
0.098367 0.762358 0.644618
0.204153 0.762697 0.643771
0.311732 0.762551 0.642450
0.421106 0.761917 0.640666
0.532279 0.760792 0.638456
0.645226 0.759165 0.635992
0.759339 0.757142 0.634025
0.872685 0.755250 0.633015
0.984385 0.753782 0.632643
0.099419 0.869977 0.641799
0.203952 0.870750 0.640337
0.310283 0.871033 0.638437
0.418413 0.870822 0.636140
0.528336 0.870108 0.633534
0.639993 0.868887 0.630850
0.753037 0.867208 0.628611
0.866416 0.865328 0.627393
0.978900 0.863610 0.627192
0.102145 0.976973 0.640218
0.205433 0.978171 0.638220
0.310521 0.978872 0.635840
0.417404 0.979071 0.633139
0.526062 0.978763 0.630239
0.636417 0.977948 0.627366
0.748215 0.976662 0.624909
0.860835 0.975042 0.623341
0.973342 0.973342 0.622896
0.117203 0.108835 0.774316
0.227075 0.107697 0.776067
0.337489 0.106512 0.776692
0.447965 0.105423 0.776171
0.557991 0.104575 0.774590
0.667099 0.104088 0.772142
0.774935 0.104041 0.769082
0.881264 0.104478 0.765663
0.985948 0.105418 0.762100
0.113861 0.217509 0.773990
0.223739 0.216342 0.776009
0.334534 0.215007 0.776990
0.445775 0.213654 0.776837
0.556870 0.212457 0.775562
0.667223 0.211577 0.773339
0.776366 0.211124 0.770452
0.884004 0.211154 0.767208
0.989979 0.211689 0.763857
0.110116 0.326451 0.772187
0.219623 0.325383 0.774319
0.330424 0.324019 0.775567
0.442134 0.322490 0.775776
0.554141 0.320987 0.774848
0.665693 0.319726 0.772874
0.776140 0.318867 0.770165
0.885085 0.318490 0.767100
0.992344 0.318621 0.763979
0.106435 0.435494 0.769195
0.215193 0.434661 0.771203
0.325540 0.433425 0.772516
0.437259 0.431867 0.772989
0.549868 0.430149 0.772425
0.662515 0.428532 0.770744
0.774256 0.427270 0.768221
0.884505 0.426487 0.765341
0.993037 0.426213 0.762481
0.103313 0.544448 0.765437
0.211027 0.543965 0.767058
0.320484 0.543018 0.768129
0.431622 0.541634 0.768585
0.544244 0.539887 0.768275
0.657706 0.537993 0.766938
0.770715 0.536333 0.764618
0.882260 0.535145 0.761940
0.992053 0.534464 0.759397
0.101188 0.653132 0.761419
0.207692 0.653068 0.762448
0.315983 0.652522 0.762987
0.426055 0.651497 0.763027
0.537893 0.650000 0.762544
0.651377 0.648078 0.761426
0.765516 0.646057 0.759359
0.878343 0.644462 0.756928
0.989382 0.643367 0.754812
0.100379 0.761402 0.757636
0.205616 0.761783 0.757979
0.312643 0.761682 0.757838
0.421462 0.761096 0.757214
0.532071 0.760028 0.756106
0.644471 0.758475 0.754515
0.758659 0.756440 0.752444
0.872746 0.754425 0.750468
0.985042 0.752894 0.748975
0.101080 0.869157 0.754499
0.205047 0.869985 0.754154
0.310807 0.870329 0.753331
0.418360 0.870188 0.752033
0.527707 0.869560 0.750271
0.638853 0.868442 0.748079
0.751777 0.866821 0.745621
0.865897 0.864798 0.743633
0.979270 0.862900 0.742601
0.103395 0.976336 0.752317
0.206105 0.977603 0.751333
0.310611 0.978382 0.749892
0.416915 0.978670 0.748013
0.525019 0.978465 0.745733
0.634916 0.977758 0.743139
0.746551 0.976543 0.740455
0.859589 0.974868 0.738199
0.972985 0.972985 0.736957
0.117441 0.109162 0.879839
0.226364 0.108226 0.882382
0.335897 0.107222 0.883808
0.445646 0.106269 0.884083
0.555173 0.105495 0.883242
0.664048 0.105015 0.881406
0.771898 0.104921 0.878766
0.878440 0.105275 0.875544
0.983478 0.106113 0.871956
0.114893 0.217460 0.880898
0.223816 0.216496 0.883711
0.333666 0.215362 0.885485
0.444062 0.214180 0.886134
0.554529 0.213092 0.885637
0.664554 0.212242 0.884077
0.773671 0.211750 0.881645
0.881522 0.211698 0.878595
0.987871 0.212128 0.875180
0.111881 0.326047 0.880450
0.220490 0.325163 0.883405
0.330340 0.324002 0.885448
0.441113 0.322671 0.886452
0.552339 0.321320 0.886322
0.663429 0.320123 0.885071
0.773788 0.319239 0.882865
0.882946 0.318780 0.879989
0.990604 0.318804 0.876748
0.108792 0.434788 0.878714
0.216761 0.434098 0.881624
0.326240 0.433036 0.883778
0.437014 0.431678 0.885048
0.548703 0.430153 0.885282
0.660698 0.428652 0.884377
0.772252 0.427387 0.882423
0.882713 0.426523 0.879726
0.991679 0.426140 0.876662
0.106052 0.543522 0.876013
0.213097 0.543134 0.878655
0.321827 0.542307 0.880685
0.432146 0.541078 0.882019
0.543838 0.539525 0.882514
0.656426 0.537811 0.881974
0.769069 0.536193 0.880315
0.880822 0.534926 0.877804
0.991092 0.534137 0.874925
0.104071 0.652086 0.872754
0.209991 0.652081 0.874918
0.317677 0.651604 0.876561
0.427107 0.650663 0.877654
0.538217 0.649286 0.878132
0.650811 0.647544 0.877843
0.764257 0.645653 0.876530
0.877274 0.643989 0.874226
0.988842 0.642794 0.871546
0.103190 0.760336 0.869375
0.207879 0.760760 0.870916
0.314356 0.760701 0.871969
0.422620 0.760161 0.872532
0.532667 0.759141 0.872595
0.644476 0.757650 0.872134
0.757933 0.755734 0.871037
0.872068 0.753712 0.868990
0.984920 0.752111 0.866551
0.103659 0.868155 0.866292
0.207079 0.869026 0.867143
0.312290 0.869413 0.867510
0.419291 0.869316 0.867395
0.528084 0.868736 0.866795
0.638667 0.867672 0.865712
0.751041 0.866125 0.864146
0.865205 0.864095 0.862097
0.979318 0.862075 0.860096
0.105637 0.975460 0.863851
0.207787 0.976778 0.864011
0.311728 0.977612 0.863690
0.417462 0.977961 0.862890
0.524988 0.977826 0.861616
0.634309 0.977204 0.859876
0.745428 0.976091 0.857703
0.858328 0.974477 0.855250
0.972454 0.972454 0.853242
0.117853 0.109662 0.983138
0.225822 0.108930 0.986473
0.334452 0.108113 0.988699
0.443409 0.107315 0.989776
0.552319 0.106646 0.989711
0.660793 0.106214 0.988577
0.768473 0.106113 0.986508
0.875054 0.106415 0.983684
0.980300 0.107170 0.980300
0.116099 0.217584 0.985585
0.224067 0.216824 0.989189
0.332966 0.215893 0.991755
0.442480 0.214891 0.993206
0.552216 0.213940 0.993505
0.661739 0.213165 0.992687
0.770616 0.212683 0.990871
0.878476 0.212584 0.988246
0.985033 0.212932 0.985033
0.113839 0.325810 0.986503
0.221533 0.325115 0.990270
0.330430 0.324157 0.993105
0.440257 0.323028 0.994902
0.550635 0.321848 0.995575
0.661093 0.320760 0.995102
0.771117 0.319909 0.993563
0.880242 0.319413 0.991148
0.988108 0.319355 0.988108
0.111400 0.434225 0.986066
0.218537 0.433696 0.989843
0.327118 0.432817 0.992820
0.436943 0.431662 0.994885
0.547693 0.430335 0.995912
0.658904 0.428986 0.995807
0.769988 0.427789 0.994579
0.880353 0.426902 0.992390
0.989525 0.426437 0.989525
0.109149 0.542697 0.984530
0.215466 0.542428 0.988130
0.323407 0.541745 0.991061
0.432857 0.540689 0.993236
0.543605 0.539337 0.994529
0.655272 0.537816 0.994786
0.767256 0.536316 0.993905
0.878812 0.535049 0.991971
0.989285 0.534180 0.989285
0.107456 0.651080 0.982222
0.212743 0.651155 0.985450
0.319760 0.650774 0.988114
0.428462 0.649953 0.990165
0.538752 0.648730 0.991521
0.650417 0.647184 0.992038
0.762986 0.645473 0.991522
0.875623 0.643854 0.989885
0.987388 0.642582 0.987388
0.106660 0.759237 0.979516
0.210776 0.759714 0.982210
0.316669 0.759714 0.984397
0.424329 0.759242 0.986063
0.533730 0.758308 0.987178
0.644812 0.756937 0.987677
0.757379 0.755201 0.987411
0.870808 0.753312 0.986121
0.983833 0.751645 0.983833
0.107034 0.867047 0.976796
0.209907 0.867959 0.978847
0.314570 0.868388 0.980412
0.421021 0.868334 0.981489
0.529259 0.867800 0.982075
0.639278 0.866785 0.982162
0.751060 0.865300 0.981724
0.864490 0.863390 0.980648
0.978620 0.861367 0.978620
0.108782 0.974414 0.974414
0.210385 0.975774 0.975774
0.313779 0.976649 0.976649
0.418964 0.977042 0.977042
0.525940 0.976950 0.976950
0.634706 0.976376 0.976376
0.745263 0.975317 0.975317
0.857611 0.973775 0.973775
0.971750 0.971750 0.971750
