assets/presets/luts/matte-cream/lut.cube
TITLE "Matte Cream"
LUT_3D_SIZE 5
0.119376 0.110510 0.094550
0.345444 0.107027 0.091372
0.564352 0.105478 0.090132
0.776097 0.105863 0.090827
0.980678 0.108182 0.093456
0.107209 0.330603 0.082834
0.333564 0.327043 0.079584
0.556766 0.324034 0.080163
0.773387 0.322722 0.083300
0.982967 0.323290 0.088552
0.101647 0.548063 0.077758
0.323779 0.545869 0.073404
0.547152 0.542892 0.073161
0.766912 0.540579 0.076978
0.980717 0.539727 0.083852
0.102715 0.762882 0.079312
0.319878 0.762254 0.074078
0.540266 0.760307 0.072429
0.760143 0.758056 0.075280
0.976303 0.756496 0.082236
0.110412 0.975061 0.087496
0.322445 0.976038 0.081484
0.538615 0.975467 0.078606
0.756286 0.974020 0.080002
0.972536 0.972536 0.085942
0.117978 0.109258 0.329992
0.344474 0.105712 0.326183
0.565614 0.103895 0.321029
0.779594 0.104074 0.317180
0.986387 0.106210 0.315112
0.105692 0.329447 0.317676
0.332472 0.325819 0.313844
0.558646 0.322316 0.310570
0.777657 0.320746 0.309232
0.989506 0.321109 0.309828
0.098600 0.547891 0.307360
0.320322 0.545917 0.302038
0.546706 0.542357 0.298705
0.770019 0.539323 0.299197
0.986750 0.537988 0.302245
0.098228 0.763728 0.303070
0.314787 0.763378 0.296868
0.536896 0.761198 0.292446
0.760341 0.758209 0.292108
0.980210 0.755872 0.295838
0.104531 0.976924 0.305288
0.315882 0.978199 0.298328
0.533004 0.977589 0.293038
0.753417 0.975643 0.291297
0.973378 0.973378 0.294053
0.117244 0.108701 0.556601
0.341027 0.105659 0.555787
0.562993 0.103555 0.551043
0.779106 0.103335 0.544865
0.988208 0.105145 0.539224
0.107239 0.327728 0.549076
0.331110 0.324572 0.549135
0.557595 0.321023 0.545402
0.778834 0.319179 0.540212
0.992922 0.319334 0.536284
0.099349 0.546413 0.538723
0.318880 0.544738 0.536893
0.545567 0.541129 0.533142
0.771845 0.537605 0.529771
0.990961 0.536013 0.528335
0.097294 0.763119 0.530781
0.311808 0.763178 0.526546
0.533435 0.761230 0.521245
0.759846 0.757671 0.517829
0.983271 0.754612 0.518235
0.101936 0.977311 0.528023
0.311457 0.979017 0.522182
0.527928 0.978693 0.515981
0.750013 0.976527 0.511492
0.973527 0.973527 0.511058
0.117203 0.108835 0.774316
0.337489 0.106512 0.776692
0.557991 0.104575 0.774590
0.774935 0.104041 0.769082
0.985948 0.105418 0.762100
0.110116 0.326451 0.772187
0.330424 0.324019 0.775567
0.554141 0.320987 0.774848
0.776140 0.318867 0.770165
0.992344 0.318621 0.763979
0.103313 0.544448 0.765437
0.320484 0.543018 0.768129
0.544244 0.539887 0.768275
0.770715 0.536333 0.764618
0.992053 0.534464 0.759397
0.100379 0.761402 0.757636
0.312643 0.761682 0.757838
0.532071 0.760028 0.756106
0.758659 0.756440 0.752444
0.985042 0.752894 0.748975
0.103395 0.976336 0.752317
0.310611 0.978382 0.749892
0.525019 0.978465 0.745733
0.746551 0.976543 0.740455
0.972985 0.972985 0.736957
0.117853 0.109662 0.983138
0.334452 0.108113 0.988699
0.552319 0.106646 0.989711
0.768473 0.106113 0.986508
0.980300 0.107170 0.980300
0.113839 0.325810 0.986503
0.330430 0.324157 0.993105
0.550635 0.321848 0.995575
0.771117 0.319909 0.993563
0.988108 0.319355 0.988108
0.109149 0.542697 0.984530
0.323407 0.541745 0.991061
0.543605 0.539337 0.994529
0.767256 0.536316 0.993905
0.989285 0.534180 0.989285
0.106660 0.759237 0.979516
0.316669 0.759714 0.984397
0.533730 0.758308 0.987178
0.757379 0.755201 0.987411
0.983833 0.751645 0.983833
0.108782 0.974414 0.974414
0.313779 0.976649 0.976649
0.525940 0.976950 0.976950
0.745263 0.975317 0.975317
0.971750 0.971750 0.971750
